; generated by SuperSlicer 2.3.57 on 2022-01-02 at 08:24:20 UTC


;
;

;
;
; 

; external perimeters extrusion width = 0.40mm
; perimeters extrusion width = 0.40mm
; infill extrusion width = 0.40mm
; solid infill extrusion width = 0.40mm
; top infill extrusion width = 0.40mm
; support material extrusion width = 0.40mm
; first layer extrusion width = 0.48mm


;TYPE:Custom
START_PRINT T_BED=70 T_EXTRUDER=235
M107
G21 ; set units to millimeters
G90 ; use absolute coordinates
M83 ; use relative distances for extrusion
M104 S235 ; set temperature
M109 S235 ; set temperature and wait for it to be reached
M190 S70 ; set bed temperature and wait for it to be reached
M107
;LAYER_CHANGE
;Z:0.24
;HEIGHT:0.24
G1 Z0.24 F12000
G1 E-1.5 F3000
G1 X129.011 Y111.624 F12000
G1 E1.5 F1800
;TYPE:Skirt
;WIDTH:0.48
G1 F600
G1 X128.548 Y112.508 E0.04269
G1 X128.387 Y113.48 E0.04211
G1 X128.387 Y197.519 E3.59311
G1 X128.489 Y198.29 E0.03326
G1 X128.743 Y198.943 E0.02997
G1 X129.097 Y199.484 E0.02763
G1 X129.623 Y199.989 E0.03119
G1 X130.508 Y200.452 E0.0427
G1 X131.476 Y200.613 E0.04194
G1 X197.524 Y200.613 E2.82391
G1 X198.212 Y200.532 E0.02962
G1 X198.836 Y200.304 E0.02838
G1 X199.479 Y199.904 E0.03238
G1 X200.014 Y199.33 E0.03357
G1 X200.469 Y198.42 E0.04348
G1 X200.614 Y197.541 E0.03808
G1 X200.613 Y113.398 E3.59756
G1 X200.531 Y112.796 E0.02598
G1 X200.316 Y112.178 E0.028
G1 X200.049 Y111.716 E0.0228
G1 X199.635 Y111.236 E0.02712
G1 X199.196 Y110.892 E0.02382
G1 X198.604 Y110.59 E0.02843
G1 X198.084 Y110.441 E0.02309
G1 X197.504 Y110.387 E0.02493
G1 X131.453 Y110.388 E2.82403
G1 X130.695 Y110.493 E0.03275
G1 X130.046 Y110.748 E0.0298
G1 X129.513 Y111.099 E0.02728
G1 X129.053 Y111.58 E0.02847
G1 X129.359 Y111.875 F12000
G1 F600
G1 X128.954 Y112.645 E0.0372
G1 X128.816 Y113.485 E0.03641
G1 X128.816 Y197.514 E3.59269
G1 X128.905 Y198.185 E0.02895
G1 X129.123 Y198.746 E0.02573
G1 X129.423 Y199.206 E0.02345
G1 X129.877 Y199.644 E0.02699
G1 X130.642 Y200.044 E0.0369
G1 X131.482 Y200.184 E0.0364
G1 X197.516 Y200.184 E2.82335
G1 X198.106 Y200.117 E0.02537
G1 X198.639 Y199.924 E0.02424
G1 X199.202 Y199.576 E0.0283
G1 X199.67 Y199.075 E0.02929
G1 X200.063 Y198.284 E0.03777
G1 X200.185 Y197.54 E0.03225
G1 X200.185 Y113.419 E3.5966
G1 X200.116 Y112.9 E0.02239
G1 X199.927 Y112.356 E0.02461
G1 X199.337 Y111.544 E0.04293
G1 X198.964 Y111.253 E0.02024
G1 X198.442 Y110.987 E0.02504
G1 X197.504 Y110.816 E0.04078
G1 X131.464 Y110.816 E2.82357
G1 X130.8 Y110.908 E0.02864
G1 X130.244 Y111.128 E0.02557
G1 X129.792 Y111.425 E0.02313
G1 X129.4 Y111.832 E0.02412
G1 E-1.5 F3000
G1 X131.698 Y113.698 F12000
G1 E1.5 F1800
;TYPE:Internal perimeter
G1 F600
G1 X197.302 Y113.698 E2.80489
G1 X197.302 Y197.302 E3.57449
G1 X131.698 Y197.302 E2.80489
G1 X131.698 Y113.758 E3.57192
G1 X131.363 Y113.313 F12000
;TYPE:External perimeter
G1 F600
G1 X131.423 Y113.285 E0.00284
G1 X131.511 Y113.27 E0.00379
G1 X197.488 Y113.27 E2.8209
G1 X197.549 Y113.276 E0.00264
G1 X197.651 Y113.329 E0.0049
G1 X197.663 Y113.34 E0.0007
G1 X197.695 Y113.383 E0.00229
G1 X197.73 Y113.487 E0.00468
G1 X197.73 Y197.513 E3.59261
G1 X197.695 Y197.617 E0.00468
G1 X197.651 Y197.671 E0.00298
G1 X197.549 Y197.724 E0.0049
G1 X197.488 Y197.73 E0.00264
G1 X131.511 Y197.73 E2.8209
G1 X131.423 Y197.715 E0.00379
G1 X131.363 Y197.687 E0.00284
G1 X131.313 Y197.637 E0.00304
G1 X131.285 Y197.577 E0.00284
G1 X131.27 Y197.489 E0.00379
G1 X131.27 Y113.511 E3.59054
G1 X131.285 Y113.423 E0.00379
G1 X131.321 Y113.356 E0.00328
G1 X131.422 Y113.344 F12000
G1 E-1.5 F3000
G1 X197.152 Y114.715 F12000
G1 E1.5 F1800
;TYPE:Solid infill
;WIDTH:0.480355
G1 X196.47 Y114.033 E0.04126
G1 X195.864 Y114.033 E0.02593
G1 X196.967 Y115.136 E0.06678
G1 X196.967 Y115.742 E0.02593
G1 X195.258 Y114.033 E0.10345
G1 X194.652 Y114.033 E0.02593
G1 X196.967 Y116.348 E0.14012
G1 X196.967 Y116.954 E0.02593
G1 X194.046 Y114.033 E0.17679
G1 X193.44 Y114.033 E0.02593
G1 X196.967 Y117.56 E0.21346
G1 X196.967 Y118.166 E0.02593
G1 X192.834 Y114.033 E0.25012
G1 X192.228 Y114.033 E0.02593
G1 X196.967 Y118.772 E0.28679
G1 X196.967 Y119.378 E0.02593
G1 X191.622 Y114.033 E0.32346
G1 X191.016 Y114.033 E0.02593
G1 X196.967 Y119.984 E0.36013
G1 X196.967 Y120.59 E0.02593
G1 X190.41 Y114.033 E0.3968
G1 X189.804 Y114.033 E0.02593
G1 X196.967 Y121.196 E0.43346
G1 X196.967 Y121.802 E0.02593
G1 X189.198 Y114.033 E0.47013
G1 X188.592 Y114.033 E0.02593
G1 X196.967 Y122.408 E0.5068
G1 X196.967 Y123.014 E0.02593
G1 X187.986 Y114.033 E0.54347
G1 X187.38 Y114.033 E0.02593
G1 X196.967 Y123.62 E0.58014
G1 X196.967 Y124.226 E0.02593
G1 X186.774 Y114.033 E0.61681
G1 X186.168 Y114.033 E0.02593
G1 X196.967 Y124.832 E0.65347
G1 X196.967 Y125.438 E0.02593
G1 X185.562 Y114.033 E0.69014
G1 X184.956 Y114.033 E0.02593
G1 X196.967 Y126.044 E0.72681
G1 X196.967 Y126.65 E0.02593
G1 X184.35 Y114.033 E0.76348
G1 X183.744 Y114.033 E0.02593
G1 X196.967 Y127.256 E0.80015
G1 X196.967 Y127.862 E0.02593
G1 X183.138 Y114.033 E0.83681
G1 X182.532 Y114.033 E0.02593
G1 X196.967 Y128.468 E0.87348
G1 X196.967 Y129.074 E0.02593
G1 X181.926 Y114.033 E0.91015
G1 X181.32 Y114.033 E0.02593
G1 X196.967 Y129.68 E0.94682
G1 X196.967 Y130.286 E0.02593
G1 X180.714 Y114.033 E0.98349
G1 X180.108 Y114.033 E0.02593
G1 X196.967 Y130.892 E1.02015
G1 X196.967 Y131.498 E0.02593
G1 X179.502 Y114.033 E1.05682
G1 X178.896 Y114.033 E0.02593
G1 X196.967 Y132.104 E1.09349
G1 X196.967 Y132.71 E0.02593
G1 X178.29 Y114.033 E1.13016
G1 X177.684 Y114.033 E0.02593
G1 X196.967 Y133.316 E1.16683
G1 X196.967 Y133.922 E0.02593
G1 X177.078 Y114.033 E1.2035
G1 X176.472 Y114.033 E0.02593
G1 X196.967 Y134.528 E1.24016
G1 X196.967 Y135.134 E0.02593
G1 X175.866 Y114.033 E1.27683
G1 X175.26 Y114.033 E0.02593
G1 X196.967 Y135.74 E1.3135
G1 X196.967 Y136.346 E0.02593
G1 X174.654 Y114.033 E1.35017
G1 X174.048 Y114.033 E0.02593
G1 X196.967 Y136.952 E1.38684
G1 X196.967 Y137.558 E0.02593
G1 X173.442 Y114.033 E1.4235
G1 X172.836 Y114.033 E0.02593
G1 X196.967 Y138.164 E1.46017
G1 X196.967 Y138.77 E0.02593
G1 X172.23 Y114.033 E1.49684
G1 X171.624 Y114.033 E0.02593
G1 X196.967 Y139.376 E1.53351
G1 X196.967 Y139.982 E0.02593
G1 X171.018 Y114.033 E1.57018
G1 X170.412 Y114.033 E0.02593
G1 X196.967 Y140.588 E1.60684
G1 X196.967 Y141.194 E0.02593
G1 X169.806 Y114.033 E1.64351
G1 X169.2 Y114.033 E0.02593
G1 X196.967 Y141.8 E1.68018
G1 X196.967 Y142.406 E0.02593
G1 X168.594 Y114.033 E1.71685
G1 X167.988 Y114.033 E0.02593
G1 X196.967 Y143.012 E1.75352
G1 X196.967 Y143.618 E0.02593
G1 X167.382 Y114.033 E1.79019
G1 X166.776 Y114.033 E0.02593
G1 X196.967 Y144.224 E1.82685
G1 X196.967 Y144.83 E0.02593
G1 X166.17 Y114.033 E1.86352
G1 X165.564 Y114.033 E0.02593
G1 X196.967 Y145.436 E1.90019
G1 X196.967 Y146.041 E0.02593
G1 X164.959 Y114.033 E1.93686
G1 X164.353 Y114.033 E0.02593
G1 X196.967 Y146.647 E1.97353
G1 X196.967 Y147.253 E0.02593
G1 X163.747 Y114.033 E2.01019
G1 X163.141 Y114.033 E0.02593
G1 X196.967 Y147.859 E2.04686
G1 X196.967 Y148.465 E0.02593
G1 X162.535 Y114.033 E2.08353
G1 X161.929 Y114.033 E0.02593
G1 X196.967 Y149.071 E2.1202
G1 X196.967 Y149.677 E0.02593
G1 X161.323 Y114.033 E2.15687
G1 X160.717 Y114.033 E0.02593
G1 X196.967 Y150.283 E2.19353
G1 X196.967 Y150.889 E0.02593
G1 X160.111 Y114.033 E2.2302
G1 X159.505 Y114.033 E0.02593
G1 X196.967 Y151.495 E2.26687
G1 X196.967 Y152.101 E0.02593
G1 X158.899 Y114.033 E2.30354
G1 X158.293 Y114.033 E0.02593
G1 X196.967 Y152.707 E2.34021
G1 X196.967 Y153.313 E0.02593
G1 X157.687 Y114.033 E2.37688
G1 X157.081 Y114.033 E0.02593
G1 X196.967 Y153.919 E2.41354
G1 X196.967 Y154.525 E0.02593
G1 X156.475 Y114.033 E2.45021
G1 X155.869 Y114.033 E0.02593
G1 X196.967 Y155.131 E2.48688
G1 X196.967 Y155.737 E0.02593
G1 X155.263 Y114.033 E2.52355
G1 X154.657 Y114.033 E0.02593
G1 X196.967 Y156.343 E2.56022
G1 X196.967 Y156.949 E0.02593
G1 X154.051 Y114.033 E2.59688
G1 X153.445 Y114.033 E0.02593
G1 X196.967 Y157.555 E2.63355
G1 X196.967 Y158.161 E0.02593
G1 X152.839 Y114.033 E2.67022
G1 X152.233 Y114.033 E0.02593
G1 X196.967 Y158.767 E2.70689
G1 X196.967 Y159.373 E0.02593
G1 X151.627 Y114.033 E2.74356
G1 X151.021 Y114.033 E0.02593
G1 X196.967 Y159.979 E2.78023
G1 X196.967 Y160.585 E0.02593
G1 X150.415 Y114.033 E2.81689
G1 X149.809 Y114.033 E0.02593
G1 X196.967 Y161.191 E2.85356
G1 X196.967 Y161.797 E0.02593
G1 X149.203 Y114.033 E2.89023
G1 X148.597 Y114.033 E0.02593
G1 X196.967 Y162.403 E2.9269
G1 X196.967 Y163.009 E0.02593
G1 X147.991 Y114.033 E2.96357
G1 X147.385 Y114.033 E0.02593
G1 X196.967 Y163.615 E3.00023
G1 X196.967 Y164.221 E0.02593
G1 X146.779 Y114.033 E3.0369
G1 X146.173 Y114.033 E0.02593
G1 X196.967 Y164.827 E3.07357
G1 X196.967 Y165.433 E0.02593
G1 X145.567 Y114.033 E3.11024
G1 X144.961 Y114.033 E0.02593
G1 X196.967 Y166.039 E3.14691
G1 X196.967 Y166.645 E0.02593
G1 X144.355 Y114.033 E3.18357
G1 X143.749 Y114.033 E0.02593
G1 X196.967 Y167.251 E3.22024
G1 X196.967 Y167.857 E0.02593
G1 X143.143 Y114.033 E3.25691
G1 X142.537 Y114.033 E0.02593
G1 X196.967 Y168.463 E3.29358
G1 X196.967 Y169.069 E0.02593
G1 X141.931 Y114.033 E3.33025
G1 X141.325 Y114.033 E0.02593
G1 X196.967 Y169.675 E3.36692
G1 X196.967 Y170.281 E0.02593
G1 X140.719 Y114.033 E3.40358
G1 X140.113 Y114.033 E0.02593
G1 X196.967 Y170.887 E3.44025
G1 X196.967 Y171.493 E0.02593
G1 X139.507 Y114.033 E3.47692
G1 X138.901 Y114.033 E0.02593
G1 X196.967 Y172.099 E3.51359
G1 X196.967 Y172.705 E0.02593
G1 X138.295 Y114.033 E3.55026
G1 X137.689 Y114.033 E0.02593
G1 X196.967 Y173.311 E3.58692
G1 X196.967 Y173.917 E0.02593
G1 X137.083 Y114.033 E3.62359
G1 X136.477 Y114.033 E0.02593
G1 X196.967 Y174.523 E3.66026
G1 X196.967 Y175.129 E0.02593
G1 X135.871 Y114.033 E3.69693
G1 X135.265 Y114.033 E0.02593
G1 X196.967 Y175.735 E3.7336
G1 X196.967 Y176.341 E0.02593
G1 X134.659 Y114.033 E3.77026
G1 X134.053 Y114.033 E0.02593
G1 X196.967 Y176.947 E3.80693
G1 X196.967 Y177.553 E0.02593
G1 X133.447 Y114.033 E3.8436
G1 X132.841 Y114.033 E0.02593
G1 X196.967 Y178.159 E3.88027
G1 X196.967 Y178.765 E0.02593
G1 X132.235 Y114.033 E3.91694
G1 X132.033 Y114.033 E0.00867
G1 X132.033 Y114.436 E0.01725
G1 X196.967 Y179.371 E3.9292
G1 X196.967 Y179.977 E0.02593
G1 X132.033 Y115.042 E3.9292
G1 X132.033 Y115.648 E0.02593
G1 X196.967 Y180.583 E3.9292
G1 X196.967 Y181.189 E0.02593
G1 X132.033 Y116.254 E3.9292
G1 X132.033 Y116.86 E0.02593
G1 X196.967 Y181.795 E3.9292
G1 X196.967 Y182.401 E0.02593
G1 X132.033 Y117.466 E3.9292
G1 X132.033 Y118.072 E0.02593
G1 X196.967 Y183.006 E3.9292
G1 X196.967 Y183.612 E0.02593
G1 X132.033 Y118.678 E3.9292
G1 X132.033 Y119.284 E0.02593
G1 X196.967 Y184.218 E3.9292
G1 X196.967 Y184.824 E0.02593
G1 X132.033 Y119.89 E3.9292
G1 X132.033 Y120.496 E0.02593
G1 X196.967 Y185.43 E3.9292
G1 X196.967 Y186.036 E0.02593
G1 X132.033 Y121.102 E3.9292
G1 X132.033 Y121.708 E0.02593
G1 X196.967 Y186.642 E3.9292
G1 X196.967 Y187.248 E0.02593
G1 X132.033 Y122.314 E3.9292
G1 X132.033 Y122.92 E0.02593
G1 X196.967 Y187.854 E3.9292
G1 X196.967 Y188.46 E0.02593
G1 X132.033 Y123.526 E3.9292
G1 X132.033 Y124.132 E0.02593
G1 X196.967 Y189.066 E3.9292
G1 X196.967 Y189.672 E0.02593
G1 X132.033 Y124.738 E3.9292
G1 X132.033 Y125.344 E0.02593
G1 X196.967 Y190.278 E3.9292
G1 X196.967 Y190.884 E0.02593
G1 X132.033 Y125.95 E3.9292
G1 X132.033 Y126.556 E0.02593
G1 X196.967 Y191.49 E3.9292
G1 X196.967 Y192.096 E0.02593
G1 X132.033 Y127.162 E3.9292
G1 X132.033 Y127.768 E0.02593
G1 X196.967 Y192.702 E3.9292
G1 X196.967 Y193.308 E0.02593
G1 X132.033 Y128.374 E3.9292
G1 X132.033 Y128.98 E0.02593
G1 X196.967 Y193.914 E3.9292
G1 X196.967 Y194.52 E0.02593
G1 X132.033 Y129.586 E3.9292
G1 X132.033 Y130.191 E0.02593
G1 X196.967 Y195.126 E3.9292
G1 X196.967 Y195.732 E0.02593
G1 X132.033 Y130.797 E3.9292
G1 X132.033 Y131.403 E0.02593
G1 X196.967 Y196.338 E3.9292
G1 X196.967 Y196.944 E0.02593
G1 X132.033 Y132.009 E3.9292
G1 X132.033 Y132.615 E0.02593
G1 X196.385 Y196.967 E3.89394
G1 X195.779 Y196.967 E0.02593
G1 X132.033 Y133.221 E3.85727
G1 X132.033 Y133.827 E0.02593
G1 X195.173 Y196.967 E3.82061
G1 X194.567 Y196.967 E0.02593
G1 X132.033 Y134.433 E3.78394
G1 X132.033 Y135.039 E0.02593
G1 X193.961 Y196.967 E3.74727
G1 X193.355 Y196.967 E0.02593
G1 X132.033 Y135.645 E3.7106
G1 X132.033 Y136.251 E0.02593
G1 X192.749 Y196.967 E3.67393
G1 X192.143 Y196.967 E0.02593
G1 X132.033 Y136.857 E3.63726
G1 X132.033 Y137.463 E0.02593
G1 X191.537 Y196.967 E3.6006
G1 X190.931 Y196.967 E0.02593
G1 X132.033 Y138.069 E3.56393
G1 X132.033 Y138.675 E0.02593
G1 X190.325 Y196.967 E3.52726
G1 X189.719 Y196.967 E0.02593
G1 X132.033 Y139.281 E3.49059
G1 X132.033 Y139.887 E0.02593
G1 X189.113 Y196.967 E3.45392
G1 X188.507 Y196.967 E0.02593
G1 X132.033 Y140.493 E3.41726
G1 X132.033 Y141.099 E0.02593
G1 X187.901 Y196.967 E3.38059
G1 X187.295 Y196.967 E0.02593
G1 X132.033 Y141.705 E3.34392
G1 X132.033 Y142.311 E0.02593
G1 X186.689 Y196.967 E3.30725
G1 X186.083 Y196.967 E0.02593
G1 X132.033 Y142.917 E3.27058
G1 X132.033 Y143.523 E0.02593
G1 X185.477 Y196.967 E3.23391
G1 X184.871 Y196.967 E0.02593
G1 X132.033 Y144.129 E3.19725
G1 X132.033 Y144.735 E0.02593
G1 X184.265 Y196.967 E3.16058
G1 X183.659 Y196.967 E0.02593
G1 X132.033 Y145.341 E3.12391
G1 X132.033 Y145.947 E0.02593
G1 X183.053 Y196.967 E3.08724
G1 X182.447 Y196.967 E0.02593
G1 X132.033 Y146.553 E3.05057
G1 X132.033 Y147.159 E0.02593
G1 X181.841 Y196.967 E3.01391
G1 X181.235 Y196.967 E0.02593
G1 X132.033 Y147.765 E2.97724
G1 X132.033 Y148.371 E0.02593
G1 X180.629 Y196.967 E2.94057
G1 X180.023 Y196.967 E0.02593
G1 X132.033 Y148.977 E2.9039
G1 X132.033 Y149.583 E0.02593
G1 X179.417 Y196.967 E2.86723
G1 X178.811 Y196.967 E0.02593
G1 X132.033 Y150.189 E2.83057
G1 X132.033 Y150.795 E0.02593
G1 X178.205 Y196.967 E2.7939
G1 X177.599 Y196.967 E0.02593
G1 X132.033 Y151.401 E2.75723
G1 X132.033 Y152.007 E0.02593
G1 X176.993 Y196.967 E2.72056
G1 X176.387 Y196.967 E0.02593
G1 X132.033 Y152.613 E2.68389
G1 X132.033 Y153.219 E0.02593
G1 X175.781 Y196.967 E2.64722
G1 X175.175 Y196.967 E0.02593
G1 X132.033 Y153.825 E2.61056
G1 X132.033 Y154.431 E0.02593
G1 X174.569 Y196.967 E2.57389
G1 X173.963 Y196.967 E0.02593
G1 X132.033 Y155.037 E2.53722
G1 X132.033 Y155.643 E0.02593
G1 X173.357 Y196.967 E2.50055
G1 X172.751 Y196.967 E0.02593
G1 X132.033 Y156.249 E2.46388
G1 X132.033 Y156.855 E0.02593
G1 X172.145 Y196.967 E2.42722
G1 X171.539 Y196.967 E0.02593
G1 X132.033 Y157.461 E2.39055
G1 X132.033 Y158.067 E0.02593
G1 X170.933 Y196.967 E2.35388
G1 X170.327 Y196.967 E0.02593
G1 X132.033 Y158.673 E2.31721
G1 X132.033 Y159.279 E0.02593
G1 X169.721 Y196.967 E2.28054
G1 X169.115 Y196.967 E0.02593
G1 X132.033 Y159.885 E2.24388
G1 X132.033 Y160.491 E0.02593
G1 X168.509 Y196.967 E2.20721
G1 X167.903 Y196.967 E0.02593
G1 X132.033 Y161.097 E2.17054
G1 X132.033 Y161.703 E0.02593
G1 X167.297 Y196.967 E2.13387
G1 X166.691 Y196.967 E0.02593
G1 X132.033 Y162.309 E2.0972
G1 X132.033 Y162.915 E0.02593
G1 X166.085 Y196.967 E2.06053
G1 X165.479 Y196.967 E0.02593
G1 X132.033 Y163.521 E2.02387
G1 X132.033 Y164.127 E0.02593
G1 X164.873 Y196.967 E1.9872
G1 X164.267 Y196.967 E0.02593
G1 X132.033 Y164.733 E1.95053
G1 X132.033 Y165.339 E0.02593
G1 X163.661 Y196.967 E1.91386
G1 X163.055 Y196.967 E0.02593
G1 X132.033 Y165.945 E1.87719
G1 X132.033 Y166.55 E0.02593
G1 X162.45 Y196.967 E1.84053
G1 X161.844 Y196.967 E0.02593
G1 X132.033 Y167.156 E1.80386
G1 X132.033 Y167.762 E0.02593
G1 X161.238 Y196.967 E1.76719
G1 X160.632 Y196.967 E0.02593
G1 X132.033 Y168.368 E1.73052
G1 X132.033 Y168.974 E0.02593
G1 X160.026 Y196.967 E1.69385
G1 X159.42 Y196.967 E0.02593
G1 X132.033 Y169.58 E1.65719
G1 X132.033 Y170.186 E0.02593
G1 X158.814 Y196.967 E1.62052
G1 X158.208 Y196.967 E0.02593
G1 X132.033 Y170.792 E1.58385
G1 X132.033 Y171.398 E0.02593
G1 X157.602 Y196.967 E1.54718
G1 X156.996 Y196.967 E0.02593
G1 X132.033 Y172.004 E1.51051
G1 X132.033 Y172.61 E0.02593
G1 X156.39 Y196.967 E1.47384
G1 X155.784 Y196.967 E0.02593
G1 X132.033 Y173.216 E1.43718
G1 X132.033 Y173.822 E0.02593
G1 X155.178 Y196.967 E1.40051
G1 X154.572 Y196.967 E0.02593
G1 X132.033 Y174.428 E1.36384
G1 X132.033 Y175.034 E0.02593
G1 X153.966 Y196.967 E1.32717
