; generated by SuperSlicer 2.3.57 on 2022-01-02 at 07:34:26 UTC


;
;

;
;
; 

; external perimeters extrusion width = 0.40mm
; perimeters extrusion width = 0.40mm
; infill extrusion width = 0.40mm
; solid infill extrusion width = 0.40mm
; top infill extrusion width = 0.40mm
; support material extrusion width = 0.40mm
; first layer extrusion width = 0.48mm


;TYPE:Custom
START_PRINT T_BED=70 T_EXTRUDER=235
M107
G21 ; set units to millimeters
G90 ; use absolute coordinates
M83 ; use relative distances for extrusion
M104 S235 ; set temperature
M109 S235 ; set temperature and wait for it to be reached
M190 S70 ; set bed temperature and wait for it to be reached
;LAYER_CHANGE
;Z:0.24
;HEIGHT:0.24
G1 Z0.24 F12000
G1 E-1.5 F3000
G1 X141.289 Y61.993 F12000
G1 E1.5 F1800
;TYPE:Skirt
;WIDTH:0.48
G1 F600
G1 X141.131 Y62.676 E0.02996
G1 X141.114 Y75.07 E0.52991
G1 X141.187 Y75.693 E0.02683
G1 X141.389 Y76.299 E0.02731
G1 X141.89 Y77.077 E0.03955
G1 X142.53 Y77.626 E0.03607
G1 X143.198 Y77.955 E0.03183
G1 X144.071 Y78.13 E0.03804
G1 X177.249 Y78.133 E1.41855
G1 X177.866 Y78.067 E0.02653
G1 X178.531 Y77.847 E0.02994
G1 X179.238 Y77.395 E0.0359
G1 X179.747 Y76.846 E0.03201
G1 X180.127 Y76.148 E0.03396
G1 X180.319 Y75.359 E0.03472
G1 X180.331 Y62.783 E0.53771
G1 X180.245 Y62.268 E0.02232
G1 X180.032 Y61.673 E0.02703
G1 X179.691 Y61.126 E0.02753
G1 X179.355 Y60.749 E0.0216
G1 X178.925 Y60.415 E0.02331
G1 X178.376 Y60.129 E0.02645
G1 X177.822 Y59.966 E0.02469
G1 X177.23 Y59.908 E0.02542
G1 X144.203 Y59.909 E1.41208
G1 X143.535 Y59.981 E0.02874
G1 X142.9 Y60.205 E0.02879
G1 X142.183 Y60.675 E0.03667
G1 X141.665 Y61.256 E0.03328
G1 X141.316 Y61.94 E0.03281
G1 X141.696 Y62.132 F12000
G1 F600
G1 X141.688 Y62.148 E0.00075
G1 X141.556 Y62.734 E0.0257
G1 X141.543 Y75.056 E0.52682
G1 X141.602 Y75.584 E0.02271
G1 X141.768 Y76.098 E0.0231
G1 X142.208 Y76.79 E0.03506
G1 X142.764 Y77.267 E0.03133
G1 X143.332 Y77.548 E0.0271
G1 X144.098 Y77.702 E0.03341
G1 X177.243 Y77.705 E1.41713
G1 X177.763 Y77.651 E0.02235
G1 X178.331 Y77.467 E0.02554
G1 X178.962 Y77.067 E0.03191
G1 X179.401 Y76.593 E0.02766
G1 X179.732 Y75.98 E0.02979
G1 X179.896 Y75.283 E0.03061
G1 X179.905 Y62.833 E0.53228
G1 X179.651 Y61.869 E0.04264
G1 X179.069 Y61.068 E0.04231
G1 X178.223 Y60.529 E0.0429
G1 X177.744 Y60.387 E0.02137
G1 X177.23 Y60.337 E0.02208
G1 X144.211 Y60.337 E1.41173
G1 X143.638 Y60.397 E0.02463
G1 X143.1 Y60.585 E0.0244
G1 X142.466 Y60.997 E0.03231
G1 X142.016 Y61.501 E0.02888
G1 X141.723 Y62.079 E0.0277
G1 E-1.5 F3000
G1 X145.711 Y64.505 F12000
G1 E1.5 F1800
;TYPE:Internal perimeter
G1 F600
G1 X175.742 Y64.505 E1.28401
G1 X175.742 Y73.537 E0.38614
G1 X145.711 Y73.537 E1.28401
G1 X145.711 Y64.565 E0.38358
G1 X145.282 Y64.077 F12000
G1 F600
G1 X176.17 Y64.077 E1.32065
G1 X176.17 Y73.965 E0.42278
G1 X145.282 Y73.965 E1.32065
G1 X145.282 Y64.137 E0.42022
G1 X144.854 Y63.648 F12000
G1 F600
G1 X176.599 Y63.648 E1.35729
G1 X176.599 Y74.394 E0.45942
G1 X144.854 Y74.394 E1.35729
G1 X144.854 Y63.708 E0.45686
G1 X144.425 Y63.22 F12000
G1 F600
G1 X177.027 Y63.22 E1.39393
G1 X177.027 Y74.822 E0.49606
G1 X144.425 Y74.822 E1.39393
G1 X144.425 Y63.28 E0.4935
G1 X144.065 Y62.86 F12000
;TYPE:External perimeter
G1 F600
G1 X144.119 Y62.819 E0.00289
G1 X144.179 Y62.794 E0.00276
G1 X144.233 Y62.791 E0.00233
G1 X177.221 Y62.791 E1.41039
G1 X177.271 Y62.797 E0.00216
G1 X177.308 Y62.808 E0.00167
G1 X177.381 Y62.852 E0.00363
G1 X177.431 Y62.922 E0.00371
G1 X177.456 Y63.001 E0.00352
G1 X177.456 Y63.023 E0.00094
G1 X177.456 Y75.015 E0.51273
G1 X177.451 Y75.065 E0.00216
G1 X177.439 Y75.103 E0.00167
G1 X177.396 Y75.176 E0.00363
G1 X177.325 Y75.226 E0.00371
G1 X177.246 Y75.25 E0.00352
G1 X177.224 Y75.251 E0.00094
G1 X144.228 Y75.251 E1.41075
G1 X144.206 Y75.25 E0.00094
G1 X144.128 Y75.226 E0.00352
G1 X144.05 Y75.168 E0.00413
G1 X144.013 Y75.103 E0.0032
G1 X144.002 Y75.065 E0.00167
G1 X143.997 Y75.015 E0.00216
G1 X143.997 Y63.028 E0.51253
G1 X144. Y62.973 E0.00233
G1 X144.029 Y62.908 E0.00308
G1 X144.13 Y62.88 F12000
G1 E-1.5 F3000
G1 X175.592 Y65.521 F12000
G1 E1.5 F1800
;TYPE:Solid infill
;WIDTH:0.482236
G1 X174.91 Y64.839 E0.04143
G1 X174.304 Y64.839 E0.02603
G1 X175.408 Y65.943 E0.06705
G1 X175.408 Y66.549 E0.02603
G1 X173.698 Y64.839 E0.10386
G1 X173.092 Y64.839 E0.02603
G1 X175.408 Y67.155 E0.14067
G1 X175.408 Y67.761 E0.02603
G1 X172.486 Y64.839 E0.17748
G1 X171.88 Y64.839 E0.02603
G1 X175.408 Y68.367 E0.21429
G1 X175.408 Y68.973 E0.02603
G1 X171.274 Y64.839 E0.2511
G1 X170.668 Y64.839 E0.02603
G1 X175.408 Y69.579 E0.28792
G1 X175.408 Y70.185 E0.02603
G1 X170.062 Y64.839 E0.32473
G1 X169.456 Y64.839 E0.02603
G1 X175.408 Y70.791 E0.36154
G1 X175.408 Y71.397 E0.02603
G1 X168.85 Y64.839 E0.39835
G1 X168.244 Y64.839 E0.02603
G1 X175.408 Y72.003 E0.43516
G1 X175.408 Y72.609 E0.02603
G1 X167.638 Y64.839 E0.47197
G1 X167.032 Y64.839 E0.02603
G1 X175.395 Y73.202 E0.50803
G1 X174.789 Y73.202 E0.02603
G1 X166.426 Y64.839 E0.50803
G1 X165.82 Y64.839 E0.02603
G1 X174.183 Y73.202 E0.50803
G1 X173.577 Y73.202 E0.02603
G1 X165.214 Y64.839 E0.50803
G1 X164.608 Y64.839 E0.02603
G1 X172.971 Y73.202 E0.50803
G1 X172.365 Y73.202 E0.02603
G1 X164.002 Y64.839 E0.50803
G1 X163.396 Y64.839 E0.02603
G1 X171.759 Y73.202 E0.50803
G1 X171.153 Y73.202 E0.02603
G1 X162.79 Y64.839 E0.50803
G1 X162.184 Y64.839 E0.02603
G1 X170.547 Y73.202 E0.50803
G1 X169.941 Y73.202 E0.02603
G1 X161.578 Y64.839 E0.50803
G1 X160.972 Y64.839 E0.02603
G1 X169.335 Y73.202 E0.50803
G1 X168.729 Y73.202 E0.02603
G1 X160.366 Y64.839 E0.50803
G1 X159.76 Y64.839 E0.02603
G1 X168.123 Y73.202 E0.50803
G1 X167.517 Y73.202 E0.02603
G1 X159.154 Y64.839 E0.50803
G1 X158.549 Y64.839 E0.02603
G1 X166.911 Y73.202 E0.50803
G1 X166.306 Y73.202 E0.02603
G1 X157.943 Y64.839 E0.50803
G1 X157.337 Y64.839 E0.02603
G1 X165.7 Y73.202 E0.50803
G1 X165.094 Y73.202 E0.02603
G1 X156.731 Y64.839 E0.50803
G1 X156.125 Y64.839 E0.02603
G1 X164.488 Y73.202 E0.50803
G1 X163.882 Y73.202 E0.02603
G1 X155.519 Y64.839 E0.50803
G1 X154.913 Y64.839 E0.02603
G1 X163.276 Y73.202 E0.50803
G1 X162.67 Y73.202 E0.02603
G1 X154.307 Y64.839 E0.50803
G1 X153.701 Y64.839 E0.02603
G1 X162.064 Y73.202 E0.50803
G1 X161.458 Y73.202 E0.02603
G1 X153.095 Y64.839 E0.50803
G1 X152.489 Y64.839 E0.02603
G1 X160.852 Y73.202 E0.50803
G1 X160.246 Y73.202 E0.02603
G1 X151.883 Y64.839 E0.50803
G1 X151.277 Y64.839 E0.02603
G1 X159.64 Y73.202 E0.50803
G1 X159.034 Y73.202 E0.02603
G1 X150.671 Y64.839 E0.50803
G1 X150.065 Y64.839 E0.02603
G1 X158.428 Y73.202 E0.50803
G1 X157.822 Y73.202 E0.02603
G1 X149.459 Y64.839 E0.50803
G1 X148.853 Y64.839 E0.02603
G1 X157.216 Y73.202 E0.50803
G1 X156.61 Y73.202 E0.02603
G1 X148.247 Y64.839 E0.50803
G1 X147.641 Y64.839 E0.02603
G1 X156.004 Y73.202 E0.50803
G1 X155.398 Y73.202 E0.02603
G1 X147.035 Y64.839 E0.50803
G1 X146.429 Y64.839 E0.02603
G1 X154.792 Y73.202 E0.50803
G1 X154.186 Y73.202 E0.02603
G1 X146.045 Y65.061 E0.49455
G1 X146.045 Y65.667 E0.02603
G1 X153.58 Y73.202 E0.45774
G1 X152.974 Y73.202 E0.02603
G1 X146.045 Y66.273 E0.42092
G1 X146.045 Y66.879 E0.02603
G1 X152.368 Y73.202 E0.38411
G1 X151.762 Y73.202 E0.02603
G1 X146.045 Y67.485 E0.3473
G1 X146.045 Y68.091 E0.02603
G1 X151.156 Y73.202 E0.31049
G1 X150.55 Y73.202 E0.02603
G1 X146.045 Y68.697 E0.27368
G1 X146.045 Y69.303 E0.02603
G1 X149.944 Y73.202 E0.23687
G1 X149.338 Y73.202 E0.02603
G1 X146.045 Y69.909 E0.20005
G1 X146.045 Y70.515 E0.02603
G1 X148.732 Y73.202 E0.16324
G1 X148.126 Y73.202 E0.02603
G1 X146.045 Y71.121 E0.12643
G1 X146.045 Y71.727 E0.02603
G1 X147.52 Y73.202 E0.08962
G1 X146.914 Y73.202 E0.02603
G1 X146.045 Y72.333 E0.05281
G1 X146.045 Y72.939 E0.02603
G1 X146.492 Y73.387 E0.02719
;LAYER_CHANGE
;Z:0.44
;HEIGHT:0.2
G1 Z0.44 F12000
G1 E-1.5 F3000
G1 X145.104 Y63.899 F12000
G1 E1.5 F1800
;TYPE:Internal perimeter
;WIDTH:0.4
G1 F5400
G1 X176.349 Y63.899 E0.92769
G1 X176.349 Y74.143 E0.30417
G1 X145.104 Y74.143 E0.92769
G1 X145.104 Y63.959 E0.30239
G1 X144.747 Y63.542 F12000
G1 F5400
G1 X176.706 Y63.542 E0.9489
G1 X176.706 Y74.5 E0.32538
G1 X144.747 Y74.5 E0.94889
G1 X144.747 Y63.602 E0.3236
G1 X144.39 Y63.184 F12000
G1 F5400
G1 X177.063 Y63.184 E0.9701
G1 X177.063 Y74.857 E0.34658
G1 X144.39 Y74.857 E0.9701
G1 X144.39 Y63.244 E0.3448
G1 X144.093 Y62.887 F12000
G1 F5400
G1 X144.155 Y62.847 E0.0022
G1 X144.249 Y62.827 E0.00285
G1 X177.204 Y62.827 E0.97849
G1 X177.287 Y62.842 E0.00249
G1 X177.349 Y62.874 E0.00208
G1 X177.401 Y62.94 E0.00248
G1 X177.42 Y63.039 E0.003
G1 X177.42 Y74.998 E0.35508
G1 X177.405 Y75.082 E0.00252
G1 X177.373 Y75.144 E0.00208
G1 X177.307 Y75.195 E0.00248
G1 X177.208 Y75.214 E0.003
G1 X144.245 Y75.214 E0.9787
G1 X144.145 Y75.195 E0.00303
G1 X144.079 Y75.144 E0.00248
G1 X144.047 Y75.082 E0.00208
G1 X144.033 Y74.999 E0.00249
G1 X144.033 Y63.044 E0.35497
G1 X144.038 Y62.995 E0.00145
G1 X144.059 Y62.937 E0.00184
G1 X143.819 Y62.659 F12000
;TYPE:Overhang perimeter
G1 F1200
G1 X143.839 Y62.634 E0.00095
G1 X143.922 Y62.566 E0.00316
G1 X144.018 Y62.515 E0.00324
G1 X144.127 Y62.482 E0.00338
G1 X144.233 Y62.47 E0.00315
G1 X177.22 Y62.47 E0.97944
G1 X177.281 Y62.476 E0.00181
G1 X177.407 Y62.502 E0.00382
G1 X177.536 Y62.568 E0.00432
G1 X177.552 Y62.58 E0.00058
G1 X177.626 Y62.647 E0.00298
G1 X177.703 Y62.747 E0.00374
G1 X177.745 Y62.844 E0.00312
G1 X177.771 Y62.959 E0.00351
G1 X177.777 Y63.024 E0.00193
G1 X177.777 Y75.015 E0.35602
G1 X177.771 Y75.075 E0.00181
G1 X177.745 Y75.201 E0.00382
G1 X177.679 Y75.331 E0.00432
G1 X177.668 Y75.346 E0.00058
G1 X177.6 Y75.42 E0.00298
G1 X177.5 Y75.498 E0.00374
G1 X177.403 Y75.539 E0.00312
G1 X177.288 Y75.566 E0.00351
G1 X177.223 Y75.571 E0.00193
G1 X144.229 Y75.571 E0.97963
G1 X144.164 Y75.566 E0.00193
G1 X144.049 Y75.539 E0.00351
G1 X143.953 Y75.498 E0.00312
G1 X143.853 Y75.42 E0.00374
G1 X143.785 Y75.346 E0.00298
G1 X143.773 Y75.331 E0.00058
G1 X143.707 Y75.201 E0.00432
G1 X143.681 Y75.075 E0.00382
G1 X143.676 Y75.015 E0.00181
G1 X143.676 Y63.027 E0.35592
G1 X143.687 Y62.922 E0.00315
G1 X143.721 Y62.813 E0.00338
G1 X143.781 Y62.705 E0.00366
G1 E-1.5 F3000
G1 X175.502 Y74.018 F12000
G1 E1.5 F1800
;TYPE:Solid infill
;WIDTH:0.403162
G1 F4800
G1 X176.07 Y73.45 E0.02405
G1 X176.07 Y72.945 E0.01511
G1 X175.15 Y73.865 E0.03892
G1 X174.645 Y73.865 E0.01511
G1 X176.07 Y72.44 E0.0603
G1 X176.07 Y71.935 E0.01511
G1 X174.14 Y73.865 E0.08167
G1 X173.635 Y73.865 E0.01511
G1 X176.07 Y71.43 E0.10304
G1 X176.07 Y70.925 E0.01511
G1 X173.13 Y73.865 E0.12441
G1 X172.625 Y73.865 E0.01511
G1 X176.07 Y70.42 E0.14578
G1 X176.07 Y69.915 E0.01511
G1 X172.12 Y73.865 E0.16716
G1 X171.615 Y73.865 E0.01511
G1 X176.07 Y69.41 E0.18853
G1 X176.07 Y68.905 E0.01511
G1 X171.11 Y73.865 E0.2099
G1 X170.605 Y73.865 E0.01511
G1 X176.07 Y68.4 E0.23127
G1 X176.07 Y67.895 E0.01511
G1 X170.1 Y73.865 E0.25264
G1 X169.595 Y73.865 E0.01511
G1 X176.07 Y67.39 E0.27402
G1 X176.07 Y66.885 E0.01511
G1 X169.09 Y73.865 E0.29539
G1 X168.585 Y73.865 E0.01511
G1 X176.07 Y66.38 E0.31676
G1 X176.07 Y65.875 E0.01511
G1 X168.08 Y73.865 E0.33813
G1 X167.576 Y73.865 E0.01511
G1 X176.07 Y65.37 E0.3595
G1 X176.07 Y64.865 E0.01511
G1 X167.071 Y73.865 E0.38087
G1 X166.566 Y73.865 E0.01511
G1 X176.07 Y64.36 E0.40225
G1 X176.07 Y64.177 E0.00548
G1 X175.748 Y64.177 E0.00964
G1 X166.061 Y73.865 E0.40999
G1 X165.556 Y73.865 E0.01511
G1 X175.243 Y64.177 E0.40999
G1 X174.738 Y64.177 E0.01511
G1 X165.051 Y73.865 E0.40999
G1 X164.546 Y73.865 E0.01511
G1 X174.233 Y64.177 E0.40999
G1 X173.728 Y64.177 E0.01511
G1 X164.041 Y73.865 E0.40999
G1 X163.536 Y73.865 E0.01511
G1 X173.223 Y64.177 E0.40999
G1 X172.718 Y64.177 E0.01511
G1 X163.031 Y73.865 E0.40999
G1 X162.526 Y73.865 E0.01511
G1 X172.213 Y64.177 E0.40999
G1 X171.708 Y64.177 E0.01511
G1 X162.021 Y73.865 E0.40999
G1 X161.516 Y73.865 E0.01511
G1 X171.203 Y64.177 E0.40999
G1 X170.698 Y64.177 E0.01511
G1 X161.011 Y73.865 E0.40999
G1 X160.506 Y73.865 E0.01511
G1 X170.193 Y64.177 E0.40999
G1 X169.688 Y64.177 E0.01511
G1 X160.001 Y73.865 E0.40999
G1 X159.496 Y73.865 E0.01511
G1 X169.183 Y64.177 E0.40999
G1 X168.678 Y64.177 E0.01511
G1 X158.991 Y73.865 E0.40999
G1 X158.486 Y73.865 E0.01511
G1 X168.173 Y64.177 E0.40999
G1 X167.668 Y64.177 E0.01511
G1 X157.981 Y73.865 E0.40999
G1 X157.476 Y73.865 E0.01511
G1 X167.163 Y64.177 E0.40999
G1 X166.658 Y64.177 E0.01511
G1 X156.971 Y73.865 E0.40999
G1 X156.466 Y73.865 E0.01511
G1 X166.153 Y64.177 E0.40999
G1 X165.648 Y64.177 E0.01511
G1 X155.961 Y73.865 E0.40999
G1 X155.456 Y73.865 E0.01511
G1 X165.143 Y64.177 E0.40999
G1 X164.638 Y64.177 E0.01511
G1 X154.951 Y73.865 E0.40999
G1 X154.446 Y73.865 E0.01511
G1 X164.133 Y64.177 E0.40999
G1 X163.628 Y64.177 E0.01511
G1 X153.941 Y73.865 E0.40999
G1 X153.436 Y73.865 E0.01511
G1 X163.123 Y64.177 E0.40999
G1 X162.618 Y64.177 E0.01511
G1 X152.931 Y73.865 E0.40999
G1 X152.426 Y73.865 E0.01511
G1 X162.113 Y64.177 E0.40999
G1 X161.608 Y64.177 E0.01511
G1 X151.921 Y73.865 E0.40999
G1 X151.416 Y73.865 E0.01511
G1 X161.103 Y64.177 E0.40999
G1 X160.598 Y64.177 E0.01511
G1 X150.911 Y73.865 E0.40999
G1 X150.406 Y73.865 E0.01511
G1 X160.094 Y64.177 E0.40999
G1 X159.589 Y64.177 E0.01511
G1 X149.901 Y73.865 E0.40999
G1 X149.396 Y73.865 E0.01511
G1 X159.084 Y64.177 E0.40999
G1 X158.579 Y64.177 E0.01511
G1 X148.891 Y73.865 E0.40999
G1 X148.386 Y73.865 E0.01511
G1 X158.074 Y64.177 E0.40999
G1 X157.569 Y64.177 E0.01511
G1 X147.881 Y73.865 E0.40999
G1 X147.376 Y73.865 E0.01511
G1 X157.064 Y64.177 E0.40999
G1 X156.559 Y64.177 E0.01511
G1 X146.871 Y73.865 E0.40999
G1 X146.366 Y73.865 E0.01511
G1 X156.054 Y64.177 E0.40999
G1 X155.549 Y64.177 E0.01511
G1 X145.861 Y73.865 E0.40999
G1 X145.383 Y73.865 E0.01432
G1 X145.383 Y73.838 E0.00079
G1 X155.044 Y64.177 E0.40888
G1 X154.539 Y64.177 E0.01511
G1 X145.383 Y73.333 E0.3875
G1 X145.383 Y72.828 E0.01511
G1 X154.034 Y64.177 E0.36613
G1 X153.529 Y64.177 E0.01511
G1 X145.383 Y72.323 E0.34476
G1 X145.383 Y71.818 E0.01511
G1 X153.024 Y64.177 E0.32339
G1 X152.519 Y64.177 E0.01511
G1 X145.383 Y71.313 E0.30202
G1 X145.383 Y70.808 E0.01511
G1 X152.014 Y64.177 E0.28065
G1 X151.509 Y64.177 E0.01511
G1 X145.382 Y70.303 E0.25927
G1 X145.382 Y69.798 E0.01511
G1 X151.004 Y64.177 E0.2379
G1 X150.499 Y64.177 E0.01511
G1 X145.382 Y69.293 E0.21653
G1 X145.382 Y68.788 E0.01511
G1 X149.994 Y64.177 E0.19516
G1 X149.489 Y64.177 E0.01511
G1 X145.382 Y68.283 E0.17379
G1 X145.382 Y67.778 E0.01511
G1 X148.984 Y64.177 E0.15242
G1 X148.479 Y64.177 E0.01511
G1 X145.382 Y67.273 E0.13104
G1 X145.382 Y66.768 E0.01511
G1 X147.974 Y64.177 E0.10967
G1 X147.469 Y64.177 E0.01511
G1 X145.382 Y66.264 E0.0883
G1 X145.382 Y65.759 E0.01511
G1 X146.964 Y64.177 E0.06693
G1 X146.459 Y64.177 E0.01511
G1 X145.382 Y65.254 E0.04556
G1 X145.382 Y64.749 E0.01511
G1 X145.954 Y64.177 E0.02419
G1 X145.449 Y64.177 E0.01511
G1 X145.229 Y64.397 E0.00931
;LAYER_CHANGE
;Z:0.64
;HEIGHT:0.2
G1 Z0.64 F12000
G1 X144.969 Y63.764
;TYPE:Internal perimeter
;WIDTH:0.4
G1 F5400
G1 X176.483 Y63.764 E0.93569
G1 X176.483 Y74.278 E0.31217
G1 X144.969 Y74.278 E0.93569
G1 X144.969 Y63.824 E0.31039
G1 X144.612 Y63.407 F12000
G1 F5400
G1 X176.84 Y63.407 E0.95689
G1 X176.84 Y74.635 E0.33338
G1 X144.612 Y74.635 E0.95689
G1 X144.612 Y63.467 E0.3316
G1 X144.255 Y63.05 F12000
G1 F5400
G1 X177.197 Y63.05 E0.9781
G1 X177.197 Y74.992 E0.35458
G1 X144.255 Y74.992 E0.9781
G1 X144.255 Y63.11 E0.3528
G1 E-1.5 F3000
G1 X144.035 Y75.286 F12000
G1 E1.5 F1800
G1 F5400
G1 X144.003 Y75.261 E0.00119
G1 X143.95 Y75.196 E0.00252
G1 X143.917 Y75.13 E0.00218
G1 X143.898 Y75.012 E0.00354
G1 X143.898 Y63.026 E0.35588
G1 X143.912 Y62.926 E0.00302
G1 X143.96 Y62.832 E0.00311
G1 X144.038 Y62.755 E0.00327
G1 X144.131 Y62.707 E0.00311
G1 X144.232 Y62.693 E0.00302
G1 X177.217 Y62.693 E0.97939
G1 X177.335 Y62.712 E0.00355
G1 X177.401 Y62.744 E0.00218
G1 X177.467 Y62.798 E0.00252
G1 X177.528 Y62.894 E0.00339
G1 X177.543 Y62.936 E0.0013
G1 X177.554 Y63.011 E0.00228
G1 X177.554 Y75.012 E0.35631
G1 X177.535 Y75.13 E0.00355
G1 X177.503 Y75.196 E0.00218
G1 X177.449 Y75.261 E0.00252
G1 X177.353 Y75.322 E0.00339
G1 X177.312 Y75.338 E0.0013
