; generated by SuperSlicer 2.3.57 on 2022-04-13 at 20:11:50 UTC


;
;

;
;
; 

; external perimeters extrusion width = 0.40mm
; perimeters extrusion width = 0.45mm
; infill extrusion width = 0.72mm
; solid infill extrusion width = 0.56mm
; top infill extrusion width = 0.40mm
; support material extrusion width = 0.42mm
; first layer extrusion width = 0.48mm

; external perimeters extrusion width = 0.40mm
; perimeters extrusion width = 0.45mm
; infill extrusion width = 0.72mm
; solid infill extrusion width = 0.56mm
; top infill extrusion width = 0.40mm
; support material extrusion width = 0.42mm
; first layer extrusion width = 0.48mm

; external perimeters extrusion width = 0.40mm
; perimeters extrusion width = 0.45mm
; infill extrusion width = 0.72mm
; solid infill extrusion width = 0.56mm
; top infill extrusion width = 0.40mm
; support material extrusion width = 0.42mm
; first layer extrusion width = 0.48mm

; object:{"name":"LidHolder4","id":"LidHolder4.stl id:0 copy 0","object_center":[165.000000,165.000000,0.000000],"boundingbox_center":[165.000000,165.000000,1.500000],"boundingbox_size":[51.000000,81.000008,3.000000]}
; plater:{"center":[165.000000,165.000000,0.000000],"boundingbox_center":[165.000000,165.000000,1.500000],"boundingbox_size":[51.000000,81.000008,3.000000]}

;TYPE:Custom
START_PRINT T_BED=70 T_EXTRUDER=230
M107
G21 ; set units to millimeters
G90 ; use absolute coordinates
M83 ; use relative distances for extrusion
; Filament gcode
M104 S230 ; set temperature
M109 S230 ; set temperature and wait for it to be reached
M190 S70 ; set bed temperature and wait for it to be reached
M107
;LAYER_CHANGE
;Z:0.24
;HEIGHT:0.24
G1 E-1 F3000
G1 Z0.24 F9000
G1 X136.959 Y122.091
G1 E1 F1800
; External perimeter
;Skirt
SET_VELOCITY_LIMIT ACCEL=300 ACCEL_TO_DECEL=3000 SQUARE_CORNER_VELOCITY=5

; Support material

;TYPE:Skirt
;WIDTH:0.48
G1 X136.407 Y122.846 E0.04001
G1 X136.074 Y123.686 E0.03861
G1 X135.957 Y124.581 E0.03861
G1 X136.001 Y196.737 E3.08506
G1 X136.239 Y198.614 E0.08089
G1 X136.795 Y200.789 E0.09601
G1 X137.477 Y202.504 E0.07888
G1 X138.067 Y203.624 E0.05414
G1 X139.076 Y205.101 E0.07648
G1 X140.21 Y206.343 E0.07188
G1 X141.239 Y207.203 E0.05735
G1 X142.555 Y208.019 E0.06622
G1 X143.716 Y208.526 E0.05412
G1 X144.757 Y208.825 E0.04631
G1 X146.596 Y209.042 E0.0792
G1 X183.992 Y209.016 E1.59888
G1 X185.52 Y208.759 E0.06623
G1 X186.575 Y208.412 E0.04748
G1 X187.384 Y208.052 E0.03786
G1 X188.393 Y207.461 E0.04999
G1 X189.347 Y206.739 E0.05117
G1 X190.485 Y205.624 E0.06812
G1 X191.275 Y204.636 E0.05406
G1 X191.976 Y203.547 E0.05538
G1 X192.912 Y201.601 E0.09234
G1 X193.37 Y200.264 E0.06041
G1 X193.784 Y198.483 E0.07818
G1 X194.033 Y196.084 E0.10312
G1 X194.042 Y124.532 E3.05927
G1 X193.96 Y123.83 E0.03019
G1 X193.745 Y123.158 E0.03019
G1 X193.407 Y122.543 E0.02999
G1 X192.953 Y122.002 E0.03019
G1 X192.404 Y121.558 E0.03019
G1 X191.779 Y121.228 E0.03019
G1 X191.103 Y121.026 E0.03019
G1 X190.4 Y120.957 E0.03019
G1 X139.475 Y120.959 E2.17732
G1 X138.547 Y121.113 E0.04021
G1 X137.69 Y121.498 E0.04021
G1 X137.006 Y122.053 E0.03764
G1 X137.275 Y122.381 F9000
G1 F1800
G1 X136.786 Y123.047 E0.03532
G1 X136.49 Y123.789 E0.03419
G1 X136.386 Y124.582 E0.03419
G1 X136.428 Y196.699 E3.08338
G1 X136.66 Y198.531 E0.07897
G1 X137.205 Y200.664 E0.09411
G1 X137.868 Y202.327 E0.07657
G1 X138.435 Y203.403 E0.052
G1 X139.379 Y204.793 E0.07182
G1 X140.226 Y205.758 E0.05488
G1 X141.437 Y206.817 E0.06879
G1 X142.755 Y207.64 E0.06644
G1 X143.868 Y208.125 E0.05194
G1 X144.861 Y208.41 E0.04414
G1 X146.611 Y208.613 E0.07532
G1 X183.942 Y208.59 E1.59614
G1 X185.423 Y208.341 E0.06417
G1 X186.431 Y208.009 E0.04541
G1 X187.185 Y207.672 E0.03531
G1 X188.151 Y207.107 E0.04784
G1 X189.068 Y206.415 E0.04912
G1 X190.168 Y205.336 E0.06588
G1 X190.926 Y204.387 E0.05192
G1 X191.597 Y203.347 E0.05291
G1 X192.516 Y201.436 E0.09069
G1 X192.956 Y200.154 E0.05793
G1 X193.361 Y198.415 E0.07635
G1 X193.605 Y196.07 E0.10078
G1 X193.614 Y124.552 E3.05781
G1 X193.544 Y123.932 E0.02666
G1 X193.356 Y123.338 E0.02666
G1 X193.057 Y122.791 E0.02666
G1 X192.657 Y122.312 E0.02666
G1 X192.173 Y121.919 E0.02666
G1 X191.622 Y121.627 E0.02666
G1 X191.025 Y121.447 E0.02666
G1 X190.4 Y121.386 E0.02685
G1 X139.499 Y121.387 E2.17631
G1 X138.679 Y121.521 E0.0355
G1 X137.921 Y121.859 E0.0355
G1 X137.321 Y122.343 E0.03294
; INIT printing object LidHolder4.stl id:0 copy 0
G1 E-1 F3000
; printing object LidHolder4.stl id:0 copy 0
G1 X188.036 Y138.268 F9000
G1 E1 F1800
; External perimeter
;Perimeter
SET_VELOCITY_LIMIT ACCEL=2000 ACCEL_TO_DECEL=2000 SQUARE_CORNER_VELOCITY=5

; Overhang perimeter

;TYPE:Internal perimeter
G1 X188.036 Y125.269 E0.55582
G1 X189.732 Y125.269 E0.07249
G1 X189.732 Y195.493 E3.00249
G1 X189.723 Y195.958 E0.01986
G1 X189.658 Y196.886 E0.03978
G1 X189.527 Y197.8 E0.03947
G1 X189.441 Y198.233 E0.0189
G1 X189.215 Y199.114 E0.03887
G1 X189.083 Y199.528 E0.01861
G1 X188.937 Y199.932 E0.01836
G1 X188.596 Y200.723 E0.0368
G1 X188.207 Y201.453 E0.03538
G1 X187.772 Y202.122 E0.03413
G1 X187.295 Y202.723 E0.03279
G1 X186.778 Y203.257 E0.03181
G1 X186.524 Y203.481 E0.01444
G1 X185.965 Y203.897 E0.0298
G1 X185.385 Y204.231 E0.02864
G1 X185.113 Y204.357 E0.0128
G1 X184.513 Y204.566 E0.02716
G1 X183.905 Y204.691 E0.02653
G1 X183.628 Y204.72 E0.01191
G1 X146.696 Y204.732 E1.57905
G1 X146.394 Y204.721 E0.01291
G1 X145.785 Y204.638 E0.02632
G1 X145.191 Y204.473 E0.02634
G1 X144.606 Y204.226 E0.02715
G1 X144.026 Y203.892 E0.0286
G1 X143.763 Y203.708 E0.01373
G1 X143.209 Y203.245 E0.03085
G1 X142.962 Y203.003 E0.0148
G1 X142.457 Y202.425 E0.03282
G1 X142.233 Y202.129 E0.0159
G1 X141.789 Y201.447 E0.03477
G1 X141.592 Y201.095 E0.01723
G1 X141.407 Y200.729 E0.01756
G1 X141.063 Y199.932 E0.0371
G1 X140.92 Y199.534 E0.01809
G1 X140.665 Y198.677 E0.03823
G1 X140.471 Y197.788 E0.03893
G1 X140.4 Y197.348 E0.01904
G1 X140.302 Y196.426 E0.03965
G1 X140.268 Y195.487 E0.04015
G1 X140.268 Y125.268 E3.00224
G1 X141.964 Y125.268 E0.07249
G1 X141.964 Y138.268 E0.55582
G1 X145.656 Y138.268 E0.15785
G1 X145.656 Y125.268 E0.55582
G1 X147.351 Y125.268 E0.07249
G1 X147.36 Y184.012 E2.5116
G1 X147.388 Y184.54 E0.02262
G1 X147.497 Y185.56 E0.04383
G1 X147.677 Y186.561 E0.04348
G1 X147.795 Y187.06 E0.02196
G1 X147.932 Y187.552 E0.02183
G1 X148.25 Y188.49 E0.04234
G1 X148.634 Y189.382 E0.04154
G1 X148.858 Y189.825 E0.02121
G1 X149.332 Y190.629 E0.0399
G1 X149.604 Y191.026 E0.02057
G1 X150.167 Y191.737 E0.03879
G1 X150.788 Y192.379 E0.03817
G1 X151.458 Y192.937 E0.03727
G1 X152.17 Y193.406 E0.03646
G1 X152.919 Y193.779 E0.03576
G1 X153.696 Y194.05 E0.03521
G1 X154.494 Y194.215 E0.03484
G1 X155.278 Y194.268 E0.0336
G1 X174.722 Y194.268 E0.83132
G1 X175.506 Y194.215 E0.0336
G1 X176.293 Y194.052 E0.03437
G1 X176.706 Y193.923 E0.01849
G1 X177.45 Y193.609 E0.03456
G1 X177.839 Y193.4 E0.01884
G1 X178.542 Y192.937 E0.03602
G1 X179.212 Y192.379 E0.03727
G1 X179.827 Y191.743 E0.03782
G1 X180.128 Y191.381 E0.02014
G1 X180.664 Y190.636 E0.03924
G1 X181.145 Y189.819 E0.04053
G1 X181.565 Y188.945 E0.04143
G1 X181.919 Y188.023 E0.04224
G1 X182.205 Y187.061 E0.04294
G1 X182.422 Y186.066 E0.04351
G1 X182.567 Y185.049 E0.04394
G1 X182.64 Y184.024 E0.04394
G1 X182.649 Y183.507 E0.02211
G1 X182.649 Y125.268 E2.49
G1 X184.344 Y125.268 E0.07249
G1 X184.344 Y138.268 E0.55582
G1 X186.837 Y138.268 E0.10657
G1 X187.976 Y138.268 E0.04872
G1 X187.608 Y137.84 F9000
; External perimeter
;ExternalPerimeter
SET_VELOCITY_LIMIT ACCEL=1000 ACCEL_TO_DECEL=1000 SQUARE_CORNER_VELOCITY=5

; Perimeter

;TYPE:External perimeter
G1 F1800
G1 X187.608 Y124.84 E0.55582
G1 X187.728 Y124.84 E0.0046
G1 X187.968 Y124.84 E0.00973
G1 X190.16 Y124.84 E0.09374
G1 X190.16 Y124.96 E0.00458
G1 X190.16 Y125.2 E0.00971
G1 X190.16 Y195.497 E3.00558
G1 X190.152 Y195.977 E0.02051
G1 X190.084 Y196.931 E0.04092
G1 X189.95 Y197.872 E0.04062
G1 X189.859 Y198.328 E0.0199
G1 X189.627 Y199.232 E0.0399
G1 X189.488 Y199.666 E0.01948
G1 X189.335 Y200.09 E0.01926
G1 X188.983 Y200.908 E0.0381
G1 X188.576 Y201.671 E0.03695
G1 X188.12 Y202.372 E0.03578
G1 X187.618 Y203.006 E0.03456
G1 X187.074 Y203.568 E0.03344
G1 X186.794 Y203.814 E0.01592
G1 X186.201 Y204.255 E0.03162
G1 X185.582 Y204.612 E0.03056
G1 X185.273 Y204.754 E0.01452
G1 X184.627 Y204.98 E0.02924
G1 X183.971 Y205.115 E0.02867
G1 X183.65 Y205.148 E0.01378
G1 X146.689 Y205.16 E1.5803
G1 X146.358 Y205.149 E0.01416
G1 X145.698 Y205.058 E0.02848
G1 X145.05 Y204.879 E0.02876
G1 X144.415 Y204.611 E0.02947
G1 X143.796 Y204.254 E0.03054
G1 X143.503 Y204.048 E0.01531
G1 X142.922 Y203.563 E0.03236
G1 X142.651 Y203.298 E0.01623
G1 X142.124 Y202.696 E0.03419
G1 X141.882 Y202.375 E0.0172
G1 X141.422 Y201.669 E0.03602
G1 X141.214 Y201.297 E0.01822
G1 X141.018 Y200.911 E0.01851
G1 X140.665 Y200.09 E0.03821
G1 X140.512 Y199.668 E0.01916
G1 X140.249 Y198.784 E0.03944
G1 X140.05 Y197.867 E0.04012
G1 X139.975 Y197.405 E0.02003
G1 X139.874 Y196.456 E0.04079
G1 X139.84 Y195.495 E0.04112
G1 X139.84 Y124.84 E3.02088
G1 X139.96 Y124.84 E0.00458
G1 X140.2 Y124.84 E0.00971
G1 X142.392 Y124.84 E0.09374
G1 X142.392 Y124.96 E0.00458
G1 X142.392 Y125.2 E0.00971
G1 X142.392 Y137.84 E0.54043
G1 X142.512 Y137.84 E0.00458
G1 X142.752 Y137.84 E0.00971
G1 X145.227 Y137.84 E0.10582
G1 X145.227 Y137.72 E0.00458
G1 X145.227 Y137.48 E0.00971
G1 X145.227 Y124.84 E0.54043
G1 X145.347 Y124.84 E0.00458
G1 X145.587 Y124.84 E0.00971
G1 X147.78 Y124.84 E0.09374
G1 X147.78 Y124.96 E0.0046
G1 X147.78 Y125.2 E0.00973
G1 X147.788 Y184.001 E2.51405
G1 X147.815 Y184.506 E0.02165
G1 X147.921 Y185.499 E0.04269
G1 X148.096 Y186.473 E0.04232
G1 X148.21 Y186.954 E0.02111
G1 X148.341 Y187.426 E0.02096
G1 X148.65 Y188.336 E0.04109
G1 X149.023 Y189.201 E0.04025
G1 X149.234 Y189.619 E0.02006
G1 X149.694 Y190.399 E0.0387
G1 X149.949 Y190.772 E0.01931
G1 X150.49 Y191.454 E0.03724
G1 X151.08 Y192.064 E0.03629
G1 X151.714 Y192.592 E0.03526
G1 X152.384 Y193.034 E0.03432
G1 X153.085 Y193.383 E0.0335
G1 X153.811 Y193.636 E0.03284
G1 X154.553 Y193.789 E0.03239
G1 X155.293 Y193.84 E0.03173
G1 X174.707 Y193.84 E0.83006
G1 X175.447 Y193.789 E0.03173
G1 X176.185 Y193.637 E0.03222
G1 X176.558 Y193.52 E0.0167
G1 X177.265 Y193.222 E0.03282
G1 X177.619 Y193.032 E0.01716
G1 X178.286 Y192.592 E0.03416
G1 X178.92 Y192.064 E0.03526
G1 X179.508 Y191.457 E0.03616
G1 X179.789 Y191.119 E0.0188
G1 X180.305 Y190.401 E0.03776
G1 X180.767 Y189.617 E0.03893
G1 X181.171 Y188.776 E0.0399
G1 X181.513 Y187.885 E0.04079
G1 X181.79 Y186.954 E0.04155
G1 X182 Y185.99 E0.04216
G1 X182.141 Y185.003 E0.04262
G1 X182.211 Y184.005 E0.0428
G1 X182.22 Y183.503 E0.02146
G1 X182.22 Y124.84 E2.50816
G1 X182.34 Y124.84 E0.00458
G1 X182.342 Y124.84 E-0.00047
G1 X184.773 Y124.84 E0.10392
G1 X184.773 Y124.96 E0.0046
G1 X184.773 Y125.2 E0.00973
G1 X184.773 Y137.84 E0.54043
G1 X184.893 Y137.84 E0.0046
G1 X185.133 Y137.84 E0.00973
G1 X186.837 Y137.84 E0.07285
G1 X187.548 Y137.84 E0.0304
;WIPE_START
G1 X188.008 Y137.84 F9000
;WIPE_END
G1 X189.667 Y126.199
G1 E0.00047 F1800
; External perimeter
;SolidInfill
SET_VELOCITY_LIMIT ACCEL=2000 ACCEL_TO_DECEL=2000 SQUARE_CORNER_VELOCITY=5

; Bridge infill

;TYPE:Solid infill
;WIDTH:0.469023
G1 F2400
G1 X188.985 Y125.517 E0.04029
G1 X188.379 Y125.517 E0.02532
G1 X189.483 Y126.621 E0.06521
G1 X189.483 Y127.227 E0.02532
G1 X188.285 Y126.028 E0.0708
G1 X188.285 Y126.634 E0.02532
G1 X189.483 Y127.833 E0.0708
G1 X189.483 Y128.439 E0.02532
G1 X188.285 Y127.24 E0.0708
G1 X188.285 Y127.846 E0.02532
G1 X189.483 Y129.045 E0.0708
G1 X189.483 Y129.651 E0.02532
G1 X188.285 Y128.452 E0.0708
G1 X188.285 Y129.058 E0.02532
G1 X189.483 Y130.257 E0.0708
G1 X189.483 Y130.863 E0.02532
G1 X188.285 Y129.664 E0.0708
G1 X188.285 Y130.27 E0.02532
G1 X189.483 Y131.469 E0.0708
G1 X189.483 Y132.075 E0.02532
G1 X188.285 Y130.876 E0.0708
G1 X188.285 Y131.482 E0.02532
G1 X189.483 Y132.681 E0.0708
G1 X189.483 Y133.286 E0.02532
G1 X188.285 Y132.088 E0.0708
G1 X188.285 Y132.694 E0.02532
G1 X189.483 Y133.892 E0.0708
G1 X189.483 Y134.498 E0.02532
G1 X188.285 Y133.3 E0.0708
G1 X188.285 Y133.906 E0.02532
G1 X189.483 Y135.104 E0.0708
G1 X189.483 Y135.71 E0.02532
G1 X188.285 Y134.512 E0.0708
G1 X188.285 Y135.118 E0.02532
G1 X189.483 Y136.316 E0.0708
G1 X189.483 Y136.922 E0.02532
G1 X188.285 Y135.724 E0.0708
G1 X188.285 Y136.33 E0.02532
G1 X189.483 Y137.528 E0.0708
G1 X189.483 Y138.134 E0.02532
G1 X188.285 Y136.936 E0.0708
G1 X188.285 Y137.542 E0.02532
G1 X189.483 Y138.74 E0.0708
G1 X189.483 Y139.346 E0.02532
G1 X188.285 Y138.148 E0.0708
G1 X188.285 Y138.517 E0.01542
G1 X188.048 Y138.517 E0.0099
G1 X189.483 Y139.952 E0.0848
G1 X189.483 Y140.558 E0.02532
G1 X187.442 Y138.517 E0.1206
G1 X186.836 Y138.517 E0.02532
G1 X189.483 Y141.164 E0.15641
G1 X189.483 Y141.77 E0.02532
G1 X186.23 Y138.517 E0.19221
G1 X185.624 Y138.517 E0.02532
G1 X189.483 Y142.376 E0.22801
G1 X189.483 Y142.982 E0.02532
G1 X184.834 Y138.333 E0.2747
G1 X183.347 Y125.333 F9000
G1 F2400
G1 X184.096 Y126.081 E0.04422
G1 X184.096 Y126.687 E0.02532
G1 X182.925 Y125.517 E0.06914
G1 X182.897 Y125.517 E0.00118
G1 X182.897 Y126.095 E0.02414
G1 X184.096 Y127.293 E0.0708
G1 X184.096 Y127.899 E0.02532
G1 X182.897 Y126.701 E0.0708
G1 X182.897 Y127.307 E0.02532
G1 X184.096 Y128.505 E0.0708
G1 X184.096 Y129.111 E0.02532
G1 X182.897 Y127.913 E0.0708
G1 X182.897 Y128.519 E0.02532
G1 X184.096 Y129.717 E0.0708
G1 X184.096 Y130.323 E0.02532
G1 X182.897 Y129.125 E0.0708
G1 X182.897 Y129.731 E0.02532
G1 X184.096 Y130.929 E0.0708
G1 X184.096 Y131.535 E0.02532
G1 X182.897 Y130.337 E0.0708
G1 X182.897 Y130.943 E0.02532
G1 X184.096 Y132.141 E0.0708
G1 X184.096 Y132.747 E0.02532
G1 X182.897 Y131.549 E0.0708
G1 X182.897 Y132.155 E0.02532
G1 X184.096 Y133.353 E0.0708
G1 X184.096 Y133.959 E0.02532
G1 X182.897 Y132.761 E0.0708
G1 X182.897 Y133.367 E0.02532
G1 X184.096 Y134.565 E0.0708
G1 X184.096 Y135.171 E0.02532
G1 X182.897 Y133.973 E0.0708
G1 X182.897 Y134.579 E0.02532
G1 X184.096 Y135.777 E0.0708
G1 X184.096 Y136.383 E0.02532
G1 X182.897 Y135.185 E0.0708
G1 X182.897 Y135.791 E0.02532
G1 X184.096 Y136.989 E0.0708
G1 X184.096 Y137.595 E0.02532
G1 X182.897 Y136.397 E0.0708
G1 X182.897 Y137.003 E0.02532
G1 X189.483 Y143.588 E0.3891
G1 X189.483 Y144.194 E0.02532
G1 X182.897 Y137.608 E0.3891
G1 X182.897 Y138.214 E0.02532
G1 X189.483 Y144.8 E0.3891
G1 X189.483 Y145.406 E0.02532
G1 X182.897 Y138.82 E0.3891
G1 X182.897 Y139.426 E0.02532
G1 X189.483 Y146.012 E0.3891
G1 X189.483 Y146.618 E0.02532
G1 X182.897 Y140.032 E0.3891
G1 X182.897 Y140.638 E0.02532
G1 X189.483 Y147.224 E0.3891
G1 X189.483 Y147.83 E0.02532
G1 X182.897 Y141.244 E0.3891
G1 X182.897 Y141.85 E0.02532
G1 X189.483 Y148.436 E0.3891
G1 X189.483 Y149.042 E0.02532
G1 X182.897 Y142.456 E0.3891
G1 X182.897 Y143.062 E0.02532
G1 X189.483 Y149.648 E0.3891
G1 X189.483 Y150.254 E0.02532
G1 X182.897 Y143.668 E0.3891
G1 X182.897 Y144.274 E0.02532
G1 X189.483 Y150.86 E0.3891
G1 X189.483 Y151.466 E0.02532
G1 X182.897 Y144.88 E0.3891
G1 X182.897 Y145.486 E0.02532
G1 X189.483 Y152.072 E0.3891
G1 X189.483 Y152.678 E0.02532
G1 X182.897 Y146.092 E0.3891
G1 X182.897 Y146.698 E0.02532
G1 X189.483 Y153.284 E0.3891
G1 X189.483 Y153.89 E0.02532
G1 X182.897 Y147.304 E0.3891
G1 X182.897 Y147.91 E0.02532
G1 X189.483 Y154.496 E0.3891
G1 X189.483 Y155.102 E0.02532
G1 X182.897 Y148.516 E0.3891
G1 X182.897 Y149.122 E0.02532
G1 X189.483 Y155.708 E0.3891
G1 X189.483 Y156.314 E0.02532
G1 X182.897 Y149.728 E0.3891
G1 X182.897 Y150.334 E0.02532
G1 X189.483 Y156.92 E0.3891
G1 X189.483 Y157.526 E0.02532
G1 X182.897 Y150.94 E0.3891
G1 X182.897 Y151.546 E0.02532
G1 X189.483 Y158.132 E0.3891
G1 X189.483 Y158.738 E0.02532
G1 X182.897 Y152.152 E0.3891
G1 X182.897 Y152.758 E0.02532
G1 X189.483 Y159.344 E0.3891
G1 X189.483 Y159.95 E0.02532
G1 X182.897 Y153.364 E0.3891
G1 X182.897 Y153.97 E0.02532
G1 X189.483 Y160.556 E0.3891
G1 X189.483 Y161.162 E0.02532
G1 X182.897 Y154.576 E0.3891
G1 X182.897 Y155.182 E0.02532
G1 X189.483 Y161.768 E0.3891
G1 X189.483 Y162.374 E0.02532
G1 X182.897 Y155.788 E0.3891
G1 X182.897 Y156.394 E0.02532
