; generated by SuperSlicer 2.4 on 2022-05-11 at 16:36:40 UTC


;
;

;
;
; 

; external perimeters extrusion width = 0.40mm
; perimeters extrusion width = 0.40mm
; infill extrusion width = 0.72mm
; solid infill extrusion width = 0.56mm
; top infill extrusion width = 0.40mm
; support material extrusion width = 0.40mm
; first layer extrusion width = 0.48mm

; object:{"name":"60x120","id":"60x120.stl id:0 copy 0","object_center":[165.000000,165.000000,0.000000],"boundingbox_center":[165.000000,165.000000,35.000000],"boundingbox_size":[119.000000,59.000000,70.000000]}
; plater:{"center":[165.000000,165.000000,0.000000],"boundingbox_center":[165.000000,165.000000,35.000000],"boundingbox_size":[119.000000,59.000000,70.000000]}

M73 P0 R212
;TYPE:Custom
START_PRINT T_BED=60 T_EXTRUDER=200
M107
G21 ; set units to millimeters
G90 ; use absolute coordinates
M83 ; use relative distances for extrusion
; Filament gcode
M109 S200 ; set temperature and wait for it to be reached
M190 S60 ; set bed temperature and wait for it to be reached
M107
;LAYER_CHANGE
;Z:0.24
;HEIGHT:0.24
G1 Z0.24 F9000
G92 E0
G1 E-0.8 F3000
M204 S1000
G1 X106.103 Y135.082 F9000
G1 E0.8 F1800
;TYPE:Skirt
;WIDTH:0.52
G1 X105.082 Y136.103 E0.06748
G1 X104.67 Y136.718 E0.03462
G1 X104.118 Y138.052 E0.06748
G1 X103.9 Y139.51 E0.06891
G1 X103.9 Y190.49 E2.38316
G1 X104.118 Y191.948 E0.06891
G1 X104.67 Y193.282 E0.06748
G1 X105.082 Y193.897 E0.03462
G1 X106.103 Y194.918 E0.06748
G1 X106.718 Y195.33 E0.03462
G1 X108.052 Y195.882 E0.06748
G1 X109.51 Y196.1 E0.06891
G1 X220.49 Y196.1 E5.18796
G1 X221.948 Y195.882 E0.06891
G1 X223.282 Y195.33 E0.06748
G1 X223.897 Y194.918 E0.03462
G1 X224.918 Y193.897 E0.06748
G1 X225.33 Y193.282 E0.03462
G1 X225.882 Y191.948 E0.06748
G1 X226.1 Y190.49 E0.06891
G1 X226.1 Y139.51 E2.38316
G1 X225.882 Y138.052 E0.06891
G1 X225.33 Y136.718 E0.06748
G1 X224.918 Y136.103 E0.03462
G1 X223.897 Y135.082 E0.06748
M73 P0 R211
G1 X223.282 Y134.67 E0.03462
G1 X221.948 Y134.118 E0.06748
G1 X221.212 Y133.972 E0.03509
G1 X220.49 Y133.9 E0.0339
G1 X109.51 Y133.9 E5.18796
G1 X108.052 Y134.118 E0.06891
G1 X106.718 Y134.67 E0.06748
G1 X106.103 Y135.082 E0.03462
G1 X106.362 Y135.47 F9000
G1 F1800
G1 X105.47 Y136.362 E0.05897
G1 X105.058 Y136.977 E0.03462
G1 X104.575 Y138.143 E0.05897
G1 X104.367 Y139.51 E0.06464
G1 X104.367 Y190.49 E2.38316
G1 X104.575 Y191.857 E0.06464
G1 X105.058 Y193.023 E0.05897
G1 X105.47 Y193.638 E0.03462
G1 X106.362 Y194.53 E0.05897
G1 X106.977 Y194.942 E0.03462
G1 X108.143 Y195.425 E0.05897
G1 X109.51 Y195.633 E0.06464
G1 X220.49 Y195.633 E5.18796
G1 X221.857 Y195.425 E0.06464
G1 X223.023 Y194.942 E0.05897
G1 X223.638 Y194.53 E0.03462
G1 X224.53 Y193.638 E0.05897
G1 X224.942 Y193.023 E0.03462
G1 X225.425 Y191.857 E0.05897
G1 X225.633 Y190.49 E0.06464
G1 X225.633 Y139.51 E2.38316
G1 X225.425 Y138.143 E0.06464
G1 X224.942 Y136.977 E0.05897
G1 X224.53 Y136.362 E0.03462
G1 X223.638 Y135.47 E0.05897
G1 X223.023 Y135.058 E0.03462
G1 X221.857 Y134.575 E0.05897
G1 X221.121 Y134.429 E0.03509
G1 X220.49 Y134.367 E0.02963
G1 X109.51 Y134.367 E5.18796
G1 X108.143 Y134.575 E0.06464
G1 X106.977 Y135.058 E0.05897
G1 X106.362 Y135.47 E0.03462
; INIT printing object 60x120.stl id:0 copy 0
G1 E-0.8 F3000
; printing object 60x120.stl id:0 copy 0
; acceleration to travel
M204 S3000
G1 X153.568 Y138.987 F9000
; decel to extrusion
M204 S1000
G1 X169.303 Y140.16
; end travel
G1 E0.8 F1800
;TYPE:Internal perimeter
;WIDTH:0.48
G1 X169.303 Y190.697 E2.16073
G1 X220.697 Y190.697 E2.19737
G1 X220.697 Y139.303 E2.19737
G1 X169.303 Y139.303 E2.19737
G1 X169.303 Y140.16 E0.03664
G1 X169.732 Y140.16 F9000
G1 F1800
G1 X169.732 Y190.268 E2.14241
G1 X220.268 Y190.268 E2.16073
G1 X220.268 Y139.732 E2.16073
G1 X169.732 Y139.732 E2.16073
G1 X169.732 Y140.16 E0.01832
G1 X170.16 Y140.16 F9000
;TYPE:External perimeter
G1 F1800
G1 X170.16 Y189.84 E2.12409
G1 X219.84 Y189.84 E2.12409
G1 X219.84 Y140.16 E2.12409
G1 X170.16 Y140.16 E2.12409
;WIPE_START
M204 S4000
G1 X169.76 Y140.16 F9000
;WIPE_END
; acceleration to travel
M204 S3000
G1 X163.284 Y140.16
; decel to extrusion
M204 S1000
G1 X161.125 Y140.16
; end travel
;TYPE:Internal perimeter
G1 F1800
G1 X161.125 Y139.125 E0.04423
G1 X168.875 Y139.125 E0.33131
G1 X168.875 Y190.875 E2.21255
G1 X161.125 Y190.875 E0.33131
G1 X161.125 Y140.16 E2.16832
G1 X160.697 Y140.16 F9000
G1 F1800
G1 X160.697 Y139.303 E0.03664
G1 X109.303 Y139.303 E2.19737
G1 X109.303 Y190.697 E2.19737
G1 X160.697 Y190.697 E2.19737
G1 X160.697 Y140.16 E2.16073
G1 X160.268 Y140.16 F9000
G1 F1800
G1 X160.268 Y139.732 E0.01832
G1 X109.732 Y139.732 E2.16073
G1 X109.732 Y190.268 E2.16073
G1 X160.268 Y190.268 E2.16073
G1 X160.268 Y140.16 E2.14241
G1 X159.84 Y140.16 F9000
;TYPE:External perimeter
G1 F1800
G1 X110.16 Y140.16 E2.12409
G1 X110.16 Y189.84 E2.12409
G1 X159.84 Y189.84 E2.12409
G1 X159.84 Y140.16 E2.12409
;WIPE_START
M204 S4000
M73 P0 R210
G1 X159.84 Y139.76 F9000
;WIPE_END
M204 S1000
G1 X159.84 Y138.697
;TYPE:Internal perimeter
G1 F1800
G1 X220.382 Y138.697 E2.58851
G1 X220.649 Y138.75 E0.01164
G1 X220.798 Y138.78 E0.0065
G1 X221.051 Y138.949 E0.013
G1 X221.22 Y139.202 E0.01301
G1 X221.303 Y139.618 E0.01814
G1 X221.303 Y190.382 E2.17045
G1 X221.22 Y190.798 E0.01814
G1 X221.051 Y191.051 E0.01301
G1 X220.798 Y191.22 E0.013
G1 X220.382 Y191.303 E0.01814
G1 X109.618 Y191.303 E4.73577
G1 X109.202 Y191.22 E0.01814
G1 X108.949 Y191.051 E0.013
G1 X108.78 Y190.798 E0.013
G1 X108.697 Y190.382 E0.01814
G1 X108.697 Y139.618 E2.17045
G1 X108.78 Y139.202 E0.01814
G1 X108.949 Y138.949 E0.01301
G1 X109.202 Y138.78 E0.013
G1 X109.618 Y138.697 E0.01814
G1 X159.84 Y138.697 E2.14727
G1 X159.84 Y138.268 F9000
G1 F1800
G1 X220.424 Y138.268 E2.59031
G1 X220.733 Y138.33 E0.01345
G1 X220.966 Y138.376 E0.01015
G1 X221.36 Y138.64 E0.02029
G1 X221.624 Y139.034 E0.02029
G1 X221.732 Y139.576 E0.02359
G1 X221.732 Y190.424 E2.17406
G1 X221.624 Y190.966 E0.02359
G1 X221.36 Y191.36 E0.02029
G1 X220.966 Y191.624 E0.02029
G1 X220.424 Y191.732 E0.02359
G1 X109.576 Y191.732 E4.73938
G1 X109.034 Y191.624 E0.02359
G1 X108.64 Y191.36 E0.02029
G1 X108.376 Y190.966 E0.02029
G1 X108.268 Y190.424 E0.02359
G1 X108.268 Y139.576 E2.17406
G1 X108.376 Y139.034 E0.02359
G1 X108.64 Y138.64 E0.02029
G1 X109.034 Y138.376 E0.02029
G1 X109.576 Y138.268 E0.02359
G1 X159.84 Y138.268 E2.14907
G1 X159.84 Y137.84 F9000
;TYPE:External perimeter
G1 F1800
G1 X220.467 Y137.84 E2.59211
G1 X220.816 Y137.91 E0.01525
G1 X221.133 Y137.973 E0.01379
G1 X221.669 Y138.331 E0.02758
G1 X222.027 Y138.867 E0.02758
G1 X222.16 Y139.533 E0.02904
G1 X222.16 Y190.467 E2.17766
G1 X222.027 Y191.133 E0.02904
G1 X221.669 Y191.669 E0.02758
G1 X221.133 Y192.027 E0.02758
G1 X220.467 Y192.16 E0.02904
G1 X109.533 Y192.16 E4.74299
G1 X108.867 Y192.027 E0.02904
G1 X108.76 Y191.956 E0.0055
G1 X108.331 Y191.669 E0.02208
G1 X108.259 Y191.561 E0.00556
G1 X107.973 Y191.133 E0.02202
G1 X107.84 Y190.467 E0.02904
G1 X107.84 Y139.533 E2.17766
G1 X107.973 Y138.867 E0.02904
G1 X108.092 Y138.688 E0.00919
G1 X108.331 Y138.331 E0.01839
G1 X108.867 Y137.973 E0.02758
G1 X109.533 Y137.84 E0.02904
G1 X159.84 Y137.84 E2.15088
;WIPE_START
M204 S4000
G1 X160.04 Y138.186 F9000
;WIPE_END
; acceleration to travel
M204 S3000
G1 X160.706 Y138.797
; decel to extrusion
M204 S1000
G1 X160.929 Y139
; end travel
;TYPE:Gap fill
;WIDTH:0.263592
G1 F1800
G1 X160.822 Y139 E0.00224
G1 X109.648 Y139 E1.08297
G1 X109.477 Y139.017 E0.00363
;WIDTH:0.196426
G1 X109.307 Y139.034 E0.00248
;WIDTH:0.142243
G1 X109.188 Y139.061 E0.0011
G1 X109.061 Y139.188 F9000
;WIDTH:0.142245
G1 F1800
G1 X109.034 Y139.307 E0.0011
;WIDTH:0.19643
G1 X109.017 Y139.477 E0.00248
;WIDTH:0.263591
G1 X109 Y139.648 E0.00363
G1 X109 Y190.352 E1.07302
G1 X109.017 Y190.523 E0.00363
;WIDTH:0.196428
G1 X109.034 Y190.693 E0.00248
;WIDTH:0.142244
G1 X109.061 Y190.812 E0.0011
G1 X109.188 Y190.939 F9000
;WIDTH:0.142245
G1 F1800
G1 X109.307 Y190.966 E0.0011
;WIDTH:0.19643
G1 X109.477 Y190.983 E0.00248
;WIDTH:0.263592
G1 X109.648 Y191 E0.00363
G1 X135.235 Y191 E0.54148
G1 X160.822 Y191 E0.54148
G1 X160.929 Y191 E0.00224
; acceleration to travel
M204 S3000
G1 X167.036 Y191 F9000
; decel to extrusion
M204 S1000
G1 X169.071 Y191
; end travel
;WIDTH:0.263593
G1 F1800
G1 X169.178 Y191 E0.00224
G1 X220.352 Y191 E1.08297
G1 X220.523 Y190.983 E0.00363
;WIDTH:0.196426
G1 X220.693 Y190.966 E0.00248
;WIDTH:0.142242
G1 X220.812 Y190.939 E0.0011
G1 X220.939 Y190.812 F9000
;WIDTH:0.142244
G1 F1800
G1 X220.966 Y190.693 E0.0011
;WIDTH:0.19643
G1 X220.983 Y190.523 E0.00248
;WIDTH:0.263592
G1 X221 Y190.352 E0.00363
G1 X221 Y139.648 E1.07302
G1 X220.983 Y139.477 E0.00362
;WIDTH:0.196431
G1 X220.966 Y139.307 E0.00248
;WIDTH:0.142246
G1 X220.939 Y139.188 E0.00111
G1 X220.812 Y139.061 F9000
;WIDTH:0.142244
G1 F1800
G1 X220.693 Y139.034 E0.0011
;WIDTH:0.196428
G1 X220.523 Y139.017 E0.00248
;WIDTH:0.263591
G1 X220.352 Y139 E0.00363
G1 X169.178 Y139 E1.08296
G1 X169.071 Y139 E0.00224
; acceleration to travel
M204 S3000
G1 X168.255 Y139.137 F9000
; decel to extrusion
M204 S1000
G1 X167.944 Y139.19
; end travel
;TYPE:Solid infill
;WIDTH:0.469952
G1 F3600
G1 X168.626 Y139.872 E0.04037
G1 X168.626 Y140.478 E0.02537
G1 X167.522 Y139.374 E0.06534
G1 X166.916 Y139.374 E0.02537
G1 X168.626 Y141.084 E0.10121
G1 X168.626 Y141.69 E0.02537
G1 X166.31 Y139.374 E0.13708
G1 X165.704 Y139.374 E0.02537
G1 X168.626 Y142.296 E0.17296
G1 X168.626 Y142.902 E0.02537
G1 X165.098 Y139.374 E0.20883
G1 X164.492 Y139.374 E0.02537
G1 X168.626 Y143.508 E0.24471
G1 X168.626 Y144.114 E0.02537
G1 X163.886 Y139.374 E0.28058
G1 X163.28 Y139.374 E0.02537
G1 X168.626 Y144.72 E0.31645
G1 X168.626 Y145.326 E0.02537
G1 X162.674 Y139.374 E0.35233
G1 X162.068 Y139.374 E0.02537
G1 X168.626 Y145.932 E0.3882
G1 X168.626 Y146.537 E0.02537
G1 X161.463 Y139.374 E0.42408
G1 X161.374 Y139.374 E0.00371
G1 X161.374 Y139.891 E0.02166
G1 X168.626 Y147.143 E0.42932
G1 X168.626 Y147.749 E0.02537
G1 X161.374 Y140.497 E0.42932
G1 X161.374 Y141.103 E0.02537
G1 X168.626 Y148.355 E0.42932
G1 X168.626 Y148.961 E0.02537
G1 X161.374 Y141.709 E0.42932
G1 X161.374 Y142.315 E0.02537
G1 X168.626 Y149.567 E0.42932
G1 X168.626 Y150.173 E0.02537
G1 X161.374 Y142.921 E0.42932
G1 X161.374 Y143.527 E0.02537
G1 X168.626 Y150.779 E0.42932
G1 X168.626 Y151.385 E0.02537
G1 X161.374 Y144.133 E0.42932
G1 X161.374 Y144.739 E0.02537
G1 X168.626 Y151.991 E0.42932
G1 X168.626 Y152.597 E0.02537
G1 X161.374 Y145.345 E0.42932
G1 X161.374 Y145.951 E0.02537
G1 X168.626 Y153.203 E0.42932
G1 X168.626 Y153.809 E0.02537
G1 X161.374 Y146.557 E0.42932
G1 X161.374 Y147.163 E0.02537
G1 X168.626 Y154.415 E0.42932
G1 X168.626 Y155.021 E0.02537
G1 X161.374 Y147.769 E0.42932
G1 X161.374 Y148.375 E0.02537
G1 X168.626 Y155.627 E0.42932
G1 X168.626 Y156.233 E0.02537
G1 X161.374 Y148.981 E0.42932
G1 X161.374 Y149.587 E0.02537
G1 X168.626 Y156.839 E0.42932
G1 X168.626 Y157.445 E0.02537
G1 X161.374 Y150.193 E0.42932
G1 X161.374 Y150.799 E0.02537
G1 X168.626 Y158.051 E0.42932
G1 X168.626 Y158.657 E0.02537
G1 X161.374 Y151.405 E0.42932
G1 X161.374 Y152.011 E0.02537
G1 X168.626 Y159.263 E0.42932
G1 X168.626 Y159.869 E0.02537
G1 X161.374 Y152.617 E0.42932
G1 X161.374 Y153.223 E0.02537
G1 X168.626 Y160.475 E0.42932
G1 X168.626 Y161.081 E0.02537
G1 X161.374 Y153.829 E0.42932
G1 X161.374 Y154.435 E0.02537
G1 X168.626 Y161.687 E0.42932
G1 X168.626 Y162.293 E0.02537
G1 X161.374 Y155.041 E0.42932
G1 X161.374 Y155.647 E0.02537
G1 X168.626 Y162.899 E0.42932
G1 X168.626 Y163.505 E0.02537
G1 X161.374 Y156.253 E0.42932
G1 X161.374 Y156.859 E0.02537
G1 X168.626 Y164.111 E0.42932
G1 X168.626 Y164.717 E0.02537
G1 X161.374 Y157.465 E0.42932
G1 X161.374 Y158.071 E0.02537
G1 X168.626 Y165.323 E0.42932
G1 X168.626 Y165.929 E0.02537
G1 X161.374 Y158.677 E0.42932
G1 X161.374 Y159.283 E0.02537
G1 X168.626 Y166.535 E0.42932
G1 X168.626 Y167.141 E0.02537
G1 X161.374 Y159.889 E0.42932
G1 X161.374 Y160.495 E0.02537
G1 X168.626 Y167.747 E0.42932
G1 X168.626 Y168.353 E0.02537
G1 X161.374 Y161.101 E0.42932
G1 X161.374 Y161.707 E0.02537
G1 X168.626 Y168.959 E0.42932
G1 X168.626 Y169.565 E0.02537
G1 X161.374 Y162.313 E0.42932
G1 X161.374 Y162.919 E0.02537
G1 X168.626 Y170.171 E0.42932
G1 X168.626 Y170.777 E0.02537
G1 X161.374 Y163.525 E0.42932
G1 X161.374 Y164.131 E0.02537
G1 X168.626 Y171.383 E0.42932
G1 X168.626 Y171.989 E0.02537
G1 X161.374 Y164.737 E0.42932
G1 X161.374 Y165.343 E0.02537
G1 X168.626 Y172.595 E0.42932
G1 X168.626 Y173.201 E0.02537
G1 X161.374 Y165.949 E0.42932
M73 P1 R210
G1 X161.374 Y166.555 E0.02537
G1 X168.626 Y173.807 E0.42932
G1 X168.626 Y174.413 E0.02537
G1 X161.374 Y167.161 E0.42932
G1 X161.374 Y167.767 E0.02537
G1 X168.626 Y175.019 E0.42932
G1 X168.626 Y175.625 E0.02537
G1 X161.374 Y168.373 E0.42932
G1 X161.374 Y168.979 E0.02537
G1 X168.626 Y176.231 E0.42932
G1 X168.626 Y176.837 E0.02537
G1 X161.374 Y169.585 E0.42932
G1 X161.374 Y170.191 E0.02537
G1 X168.626 Y177.443 E0.42932
G1 X168.626 Y178.049 E0.02537
G1 X161.374 Y170.797 E0.42932
G1 X161.374 Y171.403 E0.02537
G1 X168.626 Y178.655 E0.42932
M73 P1 R209
G1 X168.626 Y179.261 E0.02537
G1 X161.374 Y172.009 E0.42932
G1 X161.374 Y172.615 E0.02537
G1 X168.626 Y179.867 E0.42932
G1 X168.626 Y180.473 E0.02537
G1 X161.374 Y173.221 E0.42932
G1 X161.374 Y173.827 E0.02537
G1 X168.626 Y181.079 E0.42932
G1 X168.626 Y181.685 E0.02537
G1 X161.374 Y174.432 E0.42932
G1 X161.374 Y175.038 E0.02537
G1 X168.626 Y182.291 E0.42932
G1 X168.626 Y182.896 E0.02537
G1 X161.374 Y175.644 E0.42932
G1 X161.374 Y176.25 E0.02537
G1 X168.626 Y183.502 E0.42932
G1 X168.626 Y184.108 E0.02537
G1 X161.374 Y176.856 E0.42932
G1 X161.374 Y177.462 E0.02537
G1 X168.626 Y184.714 E0.42932
G1 X168.626 Y185.32 E0.02537
G1 X161.374 Y178.068 E0.42932
G1 X161.374 Y178.674 E0.02537
G1 X168.626 Y185.926 E0.42932
G1 X168.626 Y186.532 E0.02537
G1 X161.374 Y179.28 E0.42932
G1 X161.374 Y179.886 E0.02537
G1 X168.626 Y187.138 E0.42932
G1 X168.626 Y187.744 E0.02537
G1 X161.374 Y180.492 E0.42932
G1 X161.374 Y181.098 E0.02537
G1 X168.626 Y188.35 E0.42932
G1 X168.626 Y188.956 E0.02537
G1 X161.374 Y181.704 E0.42932
G1 X161.374 Y182.31 E0.02537
G1 X168.626 Y189.562 E0.42932
G1 X168.626 Y190.168 E0.02537
G1 X161.374 Y182.916 E0.42932
G1 X161.374 Y183.522 E0.02537
G1 X168.478 Y190.626 E0.42054
G1 X167.872 Y190.626 E0.02537
G1 X161.374 Y184.128 E0.38467
G1 X161.374 Y184.734 E0.02537
G1 X167.266 Y190.626 E0.34879
G1 X166.66 Y190.626 E0.02537
G1 X161.374 Y185.34 E0.31292
G1 X161.374 Y185.946 E0.02537
G1 X166.054 Y190.626 E0.27704
G1 X165.448 Y190.626 E0.02537
G1 X161.374 Y186.552 E0.24117
G1 X161.374 Y187.158 E0.02537
G1 X164.842 Y190.626 E0.2053
G1 X164.236 Y190.626 E0.02537
G1 X161.374 Y187.764 E0.16942
G1 X161.374 Y188.37 E0.02537
G1 X163.63 Y190.626 E0.13355
G1 X163.024 Y190.626 E0.02537
G1 X161.374 Y188.976 E0.09767
G1 X161.374 Y189.582 E0.02537
G1 X162.418 Y190.626 E0.0618
G1 X161.812 Y190.626 E0.02537
G1 X161.19 Y190.004 E0.03683
G1 E-0.8 F3000
; acceleration to travel
M204 S3000
G1 X179.747 Y179.259 F9000
; decel to extrusion
M204 S1000
G1 X185.16 Y176.125
; end travel
G1 E0.8 F1800
;TYPE:Internal perimeter
;WIDTH:0.48
G1 X206.125 Y176.125 E0.89639
G1 X206.125 Y153.875 E0.95135
G1 X183.875 Y153.875 E0.95135
G1 X183.875 Y176.125 E0.95135
G1 X185.16 Y176.125 E0.05496
G1 X185.16 Y175.697 F9000
G1 F1800
G1 X205.697 Y175.697 E0.87807
G1 X205.697 Y154.303 E0.91471
G1 X184.303 Y154.303 E0.91471
G1 X184.303 Y175.697 E0.91471
G1 X185.16 Y175.697 E0.03664
G1 X185.16 Y175.268 F9000
G1 F1800
G1 X205.268 Y175.268 E0.85975
G1 X205.268 Y154.732 E0.87807
G1 X184.732 Y154.732 E0.87807
G1 X184.732 Y175.268 E0.87807
G1 X185.16 Y175.268 E0.01832
G1 X185.16 Y174.84 F9000
;TYPE:External perimeter
G1 F1800
G1 X204.84 Y174.84 E0.84143
G1 X204.84 Y155.16 E0.84143
G1 X185.16 Y155.16 E0.84143
G1 X185.16 Y174.84 E0.84143
;WIPE_START
M204 S4000
G1 X185.16 Y175.24 F9000
;WIPE_END
; acceleration to travel
M204 S3000
G1 X182.884 Y177.216
; decel to extrusion
M204 S1000
G1 X182.125 Y177.875
; end travel
;TYPE:Internal perimeter
G1 F1800
G1 X182.125 Y152.125 E1.10091
