; generated by SuperSlicer 2.3.57 on 2022-01-02 at 07:15:50 UTC


;
;

;
;
; 

; external perimeters extrusion width = 0.40mm
; perimeters extrusion width = 0.40mm
; infill extrusion width = 0.40mm
; solid infill extrusion width = 0.40mm
; top infill extrusion width = 0.40mm
; first layer extrusion width = 0.48mm


;TYPE:Custom
START_PRINT T_BED=60 T_EXTRUDER=200
M107
G21 ; set units to millimeters
G90 ; use absolute coordinates
M83 ; use relative distances for extrusion
; Filament gcode
M109 S200 ; set temperature and wait for it to be reached
M190 S60 ; set bed temperature and wait for it to be reached
;LAYER_CHANGE
;Z:0.24
;HEIGHT:0.24
G1 Z0.24 F12000
G1 E-0.8 F3000
G1 X145.956 Y147.154 F12000
G1 E0.8 F1500
;TYPE:Skirt
;WIDTH:0.48
G1 F600
G1 X145.438 Y147.735 E0.03328
G1 X145.063 Y148.472 E0.03538
G1 X144.905 Y149.155 E0.02996
G1 X144.888 Y161.549 E0.52991
G1 X144.961 Y162.172 E0.02683
G1 X145.163 Y162.778 E0.02731
G1 X145.663 Y163.556 E0.03955
G1 X146.304 Y164.105 E0.03607
G1 X146.972 Y164.434 E0.03183
G1 X147.844 Y164.609 E0.03804
G1 X181.022 Y164.612 E1.41855
G1 X181.639 Y164.546 E0.02653
G1 X182.304 Y164.326 E0.02994
G1 X183.012 Y163.874 E0.0359
G1 X183.521 Y163.325 E0.03201
G1 X183.901 Y162.627 E0.03396
G1 X184.093 Y161.839 E0.03472
G1 X184.105 Y149.262 E0.53771
G1 X184.018 Y148.747 E0.02232
G1 X183.806 Y148.152 E0.02703
G1 X183.465 Y147.606 E0.02753
G1 X183.129 Y147.228 E0.0216
G1 X182.699 Y146.894 E0.02331
G1 X182.15 Y146.608 E0.02645
G1 X181.596 Y146.445 E0.02469
G1 X181.004 Y146.388 E0.02542
G1 X147.977 Y146.388 E1.41208
G1 X147.309 Y146.46 E0.02874
G1 X146.674 Y146.684 E0.02879
G1 X146.006 Y147.121 E0.03411
G1 X146.239 Y147.476 F12000
G1 F600
G1 X145.79 Y147.98 E0.02888
G1 X145.462 Y148.627 E0.03102
G1 X145.33 Y149.213 E0.0257
G1 X145.316 Y161.535 E0.52682
G1 X145.376 Y162.063 E0.02271
G1 X145.542 Y162.577 E0.0231
G1 X145.982 Y163.269 E0.03506
G1 X146.538 Y163.746 E0.03133
G1 X147.106 Y164.027 E0.0271
G1 X147.872 Y164.182 E0.03341
G1 X181.017 Y164.184 E1.41713
G1 X181.537 Y164.13 E0.02235
G1 X182.105 Y163.946 E0.02554
G1 X182.735 Y163.547 E0.03191
G1 X183.175 Y163.072 E0.02766
G1 X183.506 Y162.459 E0.02979
G1 X183.67 Y161.762 E0.03061
G1 X183.679 Y149.313 E0.53228
G1 X183.425 Y148.348 E0.04264
G1 X182.843 Y147.547 E0.04231
G1 X181.997 Y147.008 E0.0429
G1 X181.518 Y146.867 E0.02137
G1 X181.004 Y146.816 E0.02208
G1 X147.985 Y146.816 E1.41173
G1 X147.412 Y146.876 E0.02463
G1 X146.873 Y147.064 E0.0244
G1 X146.29 Y147.443 E0.02974
G1 E-0.8 F3000
G1 X148.199 Y149.699 F12000
G1 E0.8 F1500
;TYPE:Internal perimeter
G1 F600
G1 X180.801 Y149.699 E1.39393
G1 X180.801 Y161.301 E0.49606
G1 X148.199 Y161.301 E1.39393
G1 X148.199 Y149.759 E0.4935
G1 X147.839 Y149.339 F12000
;TYPE:External perimeter
G1 F600
G1 X147.893 Y149.298 E0.00289
G1 X147.953 Y149.273 E0.00276
G1 X148.007 Y149.27 E0.00233
G1 X180.994 Y149.27 E1.41039
G1 X181.045 Y149.276 E0.00216
G1 X181.082 Y149.287 E0.00167
G1 X181.155 Y149.331 E0.00363
G1 X181.205 Y149.402 E0.00371
G1 X181.229 Y149.48 E0.00352
G1 X181.23 Y149.502 E0.00094
G1 X181.23 Y161.494 E0.51273
G1 X181.224 Y161.545 E0.00216
G1 X181.213 Y161.582 E0.00167
G1 X181.169 Y161.655 E0.00363
G1 X181.098 Y161.705 E0.00371
G1 X181.02 Y161.729 E0.00352
G1 X180.998 Y161.73 E0.00094
G1 X148.002 Y161.73 E1.41075
G1 X147.98 Y161.729 E0.00094
G1 X147.902 Y161.705 E0.00352
G1 X147.824 Y161.647 E0.00413
G1 X147.787 Y161.582 E0.0032
G1 X147.776 Y161.545 E0.00167
G1 X147.77 Y161.494 E0.00216
G1 X147.77 Y149.507 E0.51253
G1 X147.773 Y149.453 E0.00233
G1 X147.803 Y149.387 E0.00308
G1 X147.903 Y149.359 F12000
G1 E-0.8 F3000
G1 X180.651 Y150.715 F12000
G1 E0.8 F1500
;TYPE:Solid infill
;WIDTH:0.481981
G1 F1800
G1 X179.969 Y150.033 E0.0414
G1 X179.363 Y150.033 E0.02602
G1 X180.467 Y151.137 E0.06701
G1 X180.467 Y151.743 E0.02602
G1 X178.757 Y150.033 E0.1038
G1 X178.151 Y150.033 E0.02602
G1 X180.467 Y152.349 E0.14059
G1 X180.467 Y152.955 E0.02602
G1 X177.545 Y150.033 E0.17739
G1 X176.939 Y150.033 E0.02602
G1 X180.467 Y153.561 E0.21418
G1 X180.467 Y154.167 E0.02602
G1 X176.333 Y150.033 E0.25097
G1 X175.727 Y150.033 E0.02602
G1 X180.467 Y154.773 E0.28776
G1 X180.467 Y155.379 E0.02602
G1 X175.121 Y150.033 E0.32455
G1 X174.515 Y150.033 E0.02602
G1 X180.467 Y155.985 E0.36135
G1 X180.467 Y156.591 E0.02602
G1 X173.909 Y150.033 E0.39814
G1 X173.303 Y150.033 E0.02602
G1 X180.467 Y157.197 E0.43493
G1 X180.467 Y157.803 E0.02602
G1 X172.697 Y150.033 E0.47172
G1 X172.092 Y150.033 E0.02602
G1 X180.467 Y158.408 E0.50852
G1 X180.467 Y159.014 E0.02602
G1 X171.486 Y150.033 E0.54531
G1 X170.88 Y150.033 E0.02602
G1 X180.467 Y159.62 E0.5821
G1 X180.467 Y160.226 E0.02602
G1 X170.274 Y150.033 E0.61889
G1 X169.668 Y150.033 E0.02602
G1 X180.467 Y160.832 E0.65568
G1 X180.467 Y160.967 E0.00578
G1 X179.996 Y160.967 E0.02024
G1 X169.062 Y150.033 E0.66385
G1 X168.456 Y150.033 E0.02602
G1 X179.39 Y160.967 E0.66385
G1 X178.784 Y160.967 E0.02602
G1 X167.85 Y150.033 E0.66385
G1 X167.244 Y150.033 E0.02602
G1 X178.178 Y160.967 E0.66385
G1 X177.572 Y160.967 E0.02602
G1 X166.638 Y150.033 E0.66385
G1 X166.032 Y150.033 E0.02602
G1 X176.966 Y160.967 E0.66385
G1 X176.36 Y160.967 E0.02602
G1 X165.426 Y150.033 E0.66385
G1 X164.82 Y150.033 E0.02602
G1 X175.754 Y160.967 E0.66385
G1 X175.148 Y160.967 E0.02602
G1 X164.214 Y150.033 E0.66385
G1 X163.608 Y150.033 E0.02602
G1 X174.542 Y160.967 E0.66385
G1 X173.936 Y160.967 E0.02602
G1 X163.002 Y150.033 E0.66385
G1 X162.396 Y150.033 E0.02602
G1 X173.33 Y160.967 E0.66385
G1 X172.724 Y160.967 E0.02602
G1 X161.79 Y150.033 E0.66385
G1 X161.184 Y150.033 E0.02602
G1 X172.118 Y160.967 E0.66385
G1 X171.512 Y160.967 E0.02602
G1 X160.578 Y150.033 E0.66385
G1 X159.972 Y150.033 E0.02602
G1 X170.906 Y160.967 E0.66385
G1 X170.3 Y160.967 E0.02602
G1 X159.366 Y150.033 E0.66385
G1 X158.76 Y150.033 E0.02602
G1 X169.694 Y160.967 E0.66385
G1 X169.088 Y160.967 E0.02602
G1 X158.154 Y150.033 E0.66385
G1 X157.548 Y150.033 E0.02602
G1 X168.482 Y160.967 E0.66385
G1 X167.876 Y160.967 E0.02602
G1 X156.942 Y150.033 E0.66385
G1 X156.336 Y150.033 E0.02602
G1 X167.27 Y160.967 E0.66385
G1 X166.664 Y160.967 E0.02602
G1 X155.73 Y150.033 E0.66385
G1 X155.124 Y150.033 E0.02602
G1 X166.058 Y160.967 E0.66385
G1 X165.452 Y160.967 E0.02602
G1 X154.518 Y150.033 E0.66385
G1 X153.912 Y150.033 E0.02602
G1 X164.846 Y160.967 E0.66385
G1 X164.24 Y160.967 E0.02602
G1 X153.306 Y150.033 E0.66385
G1 X152.7 Y150.033 E0.02602
G1 X163.634 Y160.967 E0.66385
G1 X163.028 Y160.967 E0.02602
G1 X152.094 Y150.033 E0.66385
G1 X151.488 Y150.033 E0.02602
G1 X162.422 Y160.967 E0.66385
G1 X161.816 Y160.967 E0.02602
G1 X150.882 Y150.033 E0.66385
G1 X150.276 Y150.033 E0.02602
G1 X161.21 Y160.967 E0.66385
G1 X160.604 Y160.967 E0.02602
G1 X149.67 Y150.033 E0.66385
G1 X149.064 Y150.033 E0.02602
G1 X159.998 Y160.967 E0.66385
G1 X159.392 Y160.967 E0.02602
G1 X148.533 Y150.108 E0.65931
G1 X148.533 Y150.714 E0.02602
G1 X158.786 Y160.967 E0.62252
G1 X158.18 Y160.967 E0.02602
G1 X148.533 Y151.32 E0.58572
G1 X148.533 Y151.926 E0.02602
G1 X157.574 Y160.967 E0.54893
G1 X156.968 Y160.967 E0.02602
G1 X148.533 Y152.532 E0.51214
G1 X148.533 Y153.138 E0.02602
G1 X156.362 Y160.967 E0.47535
G1 X155.756 Y160.967 E0.02602
G1 X148.533 Y153.744 E0.43856
G1 X148.533 Y154.35 E0.02602
G1 X155.15 Y160.967 E0.40176
G1 X154.544 Y160.967 E0.02602
G1 X148.533 Y154.956 E0.36497
G1 X148.533 Y155.562 E0.02602
G1 X153.938 Y160.967 E0.32818
G1 X153.332 Y160.967 E0.02602
G1 X148.533 Y156.168 E0.29139
G1 X148.533 Y156.774 E0.02602
G1 X152.726 Y160.967 E0.25459
G1 X152.12 Y160.967 E0.02602
G1 X148.533 Y157.38 E0.2178
G1 X148.533 Y157.986 E0.02602
G1 X151.514 Y160.967 E0.18101
G1 X150.908 Y160.967 E0.02602
G1 X148.533 Y158.592 E0.14422
G1 X148.533 Y159.198 E0.02602
G1 X150.302 Y160.967 E0.10743
G1 X149.696 Y160.967 E0.02602
G1 X148.533 Y159.804 E0.07063
G1 X148.533 Y160.41 E0.02602
G1 X149.275 Y161.151 E0.04503
;LAYER_CHANGE
;Z:0.44
;HEIGHT:0.2
G1 Z0.44 F12000
G1 E-0.8 F3000
G1 X147.867 Y149.367 F12000
G1 E0.8 F1500
;TYPE:Internal perimeter
;WIDTH:0.4
G1 F5400
G1 X147.929 Y149.326 E0.0022
G1 X148.023 Y149.306 E0.00285
G1 X180.978 Y149.307 E0.97849
G1 X181.061 Y149.321 E0.00249
G1 X181.123 Y149.353 E0.00208
G1 X181.174 Y149.419 E0.00248
G1 X181.194 Y149.518 E0.003
G1 X181.194 Y161.477 E0.35508
G1 X181.179 Y161.561 E0.00252
G1 X181.147 Y161.623 E0.00208
G1 X181.081 Y161.674 E0.00248
G1 X180.982 Y161.694 E0.003
G1 X148.019 Y161.694 E0.9787
G1 X147.919 Y161.674 E0.00303
G1 X147.853 Y161.623 E0.00248
G1 X147.821 Y161.561 E0.00208
G1 X147.807 Y161.478 E0.00249
G1 X147.806 Y149.523 E0.35497
G1 X147.812 Y149.474 E0.00145
G1 X147.833 Y149.416 E0.00184
G1 X147.593 Y149.138 F12000
;TYPE:Overhang perimeter
G1 F1200
G1 X147.613 Y149.113 E0.00095
G1 X147.695 Y149.045 E0.00316
G1 X147.792 Y148.994 E0.00324
G1 X147.901 Y148.961 E0.00338
G1 X148.006 Y148.949 E0.00315
G1 X180.994 Y148.949 E0.97944
G1 X181.054 Y148.955 E0.00181
G1 X181.18 Y148.981 E0.00382
G1 X181.31 Y149.047 E0.00432
G1 X181.326 Y149.059 E0.00058
G1 X181.4 Y149.127 E0.00298
G1 X181.477 Y149.226 E0.00374
G1 X181.519 Y149.323 E0.00312
G1 X181.545 Y149.438 E0.00351
G1 X181.551 Y149.503 E0.00193
G1 X181.551 Y161.494 E0.35602
G1 X181.545 Y161.554 E0.00181
G1 X181.519 Y161.68 E0.00382
G1 X181.453 Y161.81 E0.00432
G1 X181.441 Y161.826 E0.00058
G1 X181.373 Y161.9 E0.00298
G1 X181.274 Y161.977 E0.00374
G1 X181.177 Y162.019 E0.00312
G1 X181.062 Y162.045 E0.00351
G1 X180.997 Y162.051 E0.00193
G1 X148.003 Y162.051 E0.97963
G1 X147.938 Y162.045 E0.00193
G1 X147.823 Y162.019 E0.00351
G1 X147.726 Y161.977 E0.00312
G1 X147.627 Y161.9 E0.00374
G1 X147.559 Y161.826 E0.00298
G1 X147.547 Y161.81 E0.00058
G1 X147.481 Y161.68 E0.00432
G1 X147.455 Y161.554 E0.00382
G1 X147.449 Y161.494 E0.00181
G1 X147.449 Y149.506 E0.35592
G1 X147.461 Y149.401 E0.00315
G1 X147.494 Y149.292 E0.00338
G1 X147.555 Y149.184 E0.00366
G1 E-0.8 F3000
G1 X180.296 Y161.569 F12000
G1 E0.8 F1500
;TYPE:Solid infill
;WIDTH:0.402756
G1 F4800
G1 X180.915 Y160.95 E0.02616
G1 X180.915 Y160.445 E0.0151
G1 X179.945 Y161.415 E0.04102
G1 X179.44 Y161.415 E0.0151
G1 X180.915 Y159.94 E0.06237
G1 X180.915 Y159.435 E0.0151
G1 X178.935 Y161.415 E0.08372
G1 X178.43 Y161.415 E0.0151
G1 X180.915 Y158.93 E0.10507
G1 X180.915 Y158.425 E0.0151
G1 X177.925 Y161.415 E0.12642
G1 X177.42 Y161.415 E0.0151
G1 X180.915 Y157.92 E0.14777
G1 X180.915 Y157.415 E0.0151
G1 X176.915 Y161.415 E0.16912
G1 X176.41 Y161.415 E0.0151
G1 X180.915 Y156.91 E0.19047
G1 X180.915 Y156.405 E0.0151
G1 X175.905 Y161.415 E0.21182
G1 X175.4 Y161.415 E0.0151
G1 X180.915 Y155.9 E0.23317
G1 X180.915 Y155.395 E0.0151
G1 X174.895 Y161.415 E0.25452
G1 X174.39 Y161.415 E0.0151
G1 X180.915 Y154.89 E0.27587
G1 X180.915 Y154.385 E0.0151
G1 X173.885 Y161.415 E0.29723
G1 X173.38 Y161.415 E0.0151
G1 X180.915 Y153.88 E0.31858
G1 X180.915 Y153.375 E0.0151
G1 X172.875 Y161.415 E0.33993
G1 X172.37 Y161.415 E0.0151
G1 X180.915 Y152.87 E0.36128
G1 X180.915 Y152.365 E0.0151
G1 X171.865 Y161.415 E0.38263
G1 X171.36 Y161.415 E0.0151
G1 X180.915 Y151.86 E0.40398
G1 X180.915 Y151.355 E0.0151
G1 X170.855 Y161.415 E0.42533
G1 X170.35 Y161.415 E0.0151
G1 X180.915 Y150.85 E0.44668
G1 X180.915 Y150.345 E0.0151
G1 X169.845 Y161.415 E0.46803
G1 X169.34 Y161.415 E0.0151
G1 X180.915 Y149.84 E0.48938
G1 X180.915 Y149.585 E0.00762
G1 X180.665 Y149.585 E0.00747
G1 X168.835 Y161.415 E0.50016
G1 X168.33 Y161.415 E0.0151
G1 X180.16 Y149.585 E0.50016
G1 X179.655 Y149.585 E0.0151
G1 X167.825 Y161.415 E0.50016
G1 X167.32 Y161.415 E0.0151
G1 X179.15 Y149.585 E0.50016
G1 X178.645 Y149.585 E0.0151
G1 X166.815 Y161.415 E0.50016
G1 X166.31 Y161.415 E0.0151
G1 X178.14 Y149.585 E0.50016
G1 X177.635 Y149.585 E0.0151
G1 X165.805 Y161.415 E0.50016
G1 X165.3 Y161.415 E0.0151
G1 X177.13 Y149.585 E0.50016
G1 X176.625 Y149.585 E0.0151
G1 X164.795 Y161.415 E0.50016
G1 X164.29 Y161.415 E0.0151
G1 X176.12 Y149.585 E0.50016
G1 X175.615 Y149.585 E0.0151
G1 X163.785 Y161.415 E0.50016
G1 X163.28 Y161.415 E0.0151
G1 X175.11 Y149.585 E0.50016
G1 X174.605 Y149.585 E0.0151
G1 X162.775 Y161.415 E0.50016
G1 X162.27 Y161.415 E0.0151
G1 X174.1 Y149.585 E0.50016
G1 X173.595 Y149.585 E0.0151
G1 X161.765 Y161.415 E0.50016
G1 X161.26 Y161.415 E0.0151
G1 X173.09 Y149.585 E0.50016
G1 X172.585 Y149.585 E0.0151
G1 X160.755 Y161.415 E0.50016
G1 X160.25 Y161.415 E0.0151
G1 X172.08 Y149.585 E0.50016
G1 X171.575 Y149.585 E0.0151
G1 X159.745 Y161.415 E0.50016
G1 X159.24 Y161.415 E0.0151
G1 X171.07 Y149.585 E0.50016
G1 X170.565 Y149.585 E0.0151
G1 X158.735 Y161.415 E0.50016
G1 X158.23 Y161.415 E0.0151
G1 X170.06 Y149.585 E0.50016
G1 X169.555 Y149.585 E0.0151
G1 X157.725 Y161.415 E0.50016
G1 X157.22 Y161.415 E0.0151
G1 X169.05 Y149.585 E0.50016
G1 X168.545 Y149.585 E0.0151
G1 X156.715 Y161.415 E0.50016
G1 X156.21 Y161.415 E0.0151
G1 X168.04 Y149.585 E0.50016
G1 X167.535 Y149.585 E0.0151
G1 X155.705 Y161.415 E0.50016
G1 X155.2 Y161.415 E0.0151
G1 X167.03 Y149.585 E0.50016
G1 X166.525 Y149.585 E0.0151
G1 X154.695 Y161.415 E0.50016
G1 X154.19 Y161.415 E0.0151
G1 X166.02 Y149.585 E0.50016
G1 X165.516 Y149.585 E0.0151
G1 X153.685 Y161.415 E0.50016
G1 X153.181 Y161.415 E0.0151
G1 X165.011 Y149.585 E0.50016
G1 X164.506 Y149.585 E0.0151
G1 X152.676 Y161.415 E0.50016
G1 X152.171 Y161.415 E0.0151
G1 X164.001 Y149.585 E0.50016
G1 X163.496 Y149.585 E0.0151
G1 X151.666 Y161.415 E0.50016
G1 X151.161 Y161.415 E0.0151
G1 X162.991 Y149.585 E0.50016
G1 X162.486 Y149.585 E0.0151
G1 X150.656 Y161.415 E0.50016
G1 X150.151 Y161.415 E0.0151
G1 X161.981 Y149.585 E0.50016
G1 X161.476 Y149.585 E0.0151
G1 X149.646 Y161.415 E0.50016
G1 X149.141 Y161.415 E0.0151
G1 X160.971 Y149.585 E0.50016
G1 X160.466 Y149.585 E0.0151
G1 X148.636 Y161.415 E0.50016
G1 X148.131 Y161.415 E0.0151
G1 X159.961 Y149.585 E0.50016
G1 X159.456 Y149.585 E0.0151
G1 X148.085 Y160.956 E0.48074
G1 X148.085 Y160.451 E0.0151
G1 X158.951 Y149.585 E0.45939
G1 X158.446 Y149.585 E0.0151
G1 X148.085 Y159.946 E0.43804
G1 X148.085 Y159.441 E0.0151
G1 X157.941 Y149.585 E0.41669
G1 X157.436 Y149.585 E0.0151
G1 X148.085 Y158.936 E0.39534
G1 X148.085 Y158.431 E0.0151
G1 X156.931 Y149.585 E0.37399
G1 X156.426 Y149.585 E0.0151
G1 X148.085 Y157.926 E0.35264
G1 X148.085 Y157.421 E0.0151
G1 X155.921 Y149.585 E0.33129
G1 X155.416 Y149.585 E0.0151
G1 X148.085 Y156.916 E0.30994
G1 X148.085 Y156.411 E0.0151
G1 X154.911 Y149.585 E0.28859
G1 X154.406 Y149.585 E0.0151
G1 X148.085 Y155.906 E0.26724
G1 X148.085 Y155.401 E0.0151
G1 X153.901 Y149.585 E0.24589
G1 X153.396 Y149.585 E0.0151
G1 X148.085 Y154.896 E0.22454
G1 X148.085 Y154.391 E0.0151
G1 X152.891 Y149.585 E0.20319
G1 X152.386 Y149.585 E0.0151
G1 X148.085 Y153.886 E0.18184
G1 X148.085 Y153.381 E0.0151
G1 X151.881 Y149.585 E0.16049
G1 X151.376 Y149.585 E0.0151
G1 X148.085 Y152.876 E0.13914
G1 X148.085 Y152.371 E0.0151
G1 X150.871 Y149.585 E0.11779
G1 X150.366 Y149.585 E0.0151
G1 X148.085 Y151.866 E0.09644
G1 X148.085 Y151.361 E0.0151
G1 X149.861 Y149.585 E0.07509
G1 X149.356 Y149.585 E0.0151
G1 X148.085 Y150.856 E0.05374
G1 X148.085 Y150.351 E0.0151
G1 X148.851 Y149.585 E0.03239
G1 X148.346 Y149.585 E0.0151
G1 X147.931 Y150. E0.01753
;LAYER_CHANGE
;Z:0.64
;HEIGHT:0.2
G1 Z0.64 F12000
G1 E-0.8 F3000
G1 X147.809 Y161.765 F12000
G1 E0.8 F1500
;TYPE:Internal perimeter
;WIDTH:0.4
G1 F5400
G1 X147.777 Y161.74 E0.00119
G1 X147.723 Y161.675 E0.00252
G1 X147.691 Y161.609 E0.00218
G1 X147.672 Y161.491 E0.00354
G1 X147.672 Y149.505 E0.35588
G1 X147.686 Y149.405 E0.00302
G1 X147.734 Y149.312 E0.00311
G1 X147.812 Y149.234 E0.00327
G1 X147.905 Y149.186 E0.00311
G1 X148.005 Y149.172 E0.00302
G1 X180.991 Y149.172 E0.97939
G1 X181.109 Y149.191 E0.00355
G1 X181.175 Y149.223 E0.00218
G1 X181.24 Y149.277 E0.00252
G1 X181.301 Y149.373 E0.00339
G1 X181.317 Y149.415 E0.0013
G1 X181.328 Y149.491 E0.00228
G1 X181.328 Y161.491 E0.35631
G1 X181.309 Y161.609 E0.00355
G1 X181.277 Y161.675 E0.00218
G1 X181.223 Y161.74 E0.00252
G1 X181.127 Y161.801 E0.00339
G1 X181.085 Y161.817 E0.0013
G1 X181.009 Y161.828 E0.00228
G1 X147.991 Y161.828 E0.98037
G1 X147.915 Y161.817 E0.00229
