; Postprocessed by [ArcWelder](https://github.com/FormerLurker/ArcWelderLib)
; Copyright(C) 2021 - Brad Hochgesang
; Version: 1.2.0, Branch: HEAD, BuildDate: 2021-11-21T20:25:43Z
; resolution=0.05mm
; path_tolerance=5.0%
; max_radius=9999.00mm
; g90_influences_extruder=True
; default_xyz_precision=3
; default_e_precision=5
; extrusion_rate_variance_percent=5.0%

; generated by SuperSlicer 2.4 on 2022-05-03 at 06:42:52 UTC







; 

; external perimeters extrusion width = 0.40mm
; perimeters extrusion width = 0.40mm
; infill extrusion width = 0.72mm
; solid infill extrusion width = 0.56mm
; top infill extrusion width = 0.40mm
; first layer extrusion width = 0.48mm

; external perimeters extrusion width = 0.40mm
; perimeters extrusion width = 0.40mm
; infill extrusion width = 0.72mm
; solid infill extrusion width = 0.56mm
; top infill extrusion width = 0.40mm
; first layer extrusion width = 0.48mm

; object:{"name":"test1","id":"test1.stl id:0 copy 0","object_center":[147.000085,165.000003,0.000000],"boundingbox_center":[147.000085,165.000003,2.500000],"boundingbox_size":[29.999999,22.000002,5.000000]}
; object:{"name":"anchor","id":"anchor.stl id:1 copy 0","object_center":[183.000085,165.000005,0.000000],"boundingbox_center":[183.000085,165.000005,2.874870],"boundingbox_size":[30.000002,41.500008,5.749741]}
; plater:{"center":[165.000086,165.000005,0.000000],"boundingbox_center":[165.000086,165.000005,2.874870],"boundingbox_size":[66.000000,41.500008,5.749741]}

M73 P0 R17
;TYPE:Custom
START_PRINT T_BED=110 T_EXTRUDER=245
M107
G21 ; set units to millimeters
G90 ; use absolute coordinates
M83 ; use relative distances for extrusion
; Filament gcode
M104 S245 ; set temperature
M109 S245 ; set temperature and wait for it to be reached
M190 S110 ; set bed temperature and wait for it to be reached
M107
;LAYER_CHANGE
;Z:0.24
;HEIGHT:0.24
G1 Z0.24 F9000
G92 E0
G1 E-0.8 F1800
M204 S1000
G1 X129.894 Y151.13 F9000
G1 E0.8 F1800
;TYPE:Skirt
;WIDTH:0.52
G1 X128.795 Y152.438 E0.07988
G1 X128.401 Y154.101 E0.07988
G1 X128.404 Y175.901 E1.01908
G1 X128.826 Y177.617 E0.08262
G1 X129.947 Y178.906 E0.07988
G1 X131.528 Y179.555 E0.07988
G1 X192.565 Y189.162 E2.88839
G1 X193.454 Y189.235 E0.04172
G1 X196.579 Y189.235 E0.14609
G1 X197.272 Y189.175 E0.0325
G1 X198.394 Y188.847 E0.05463
G1 X199.23 Y188.364 E0.04515
G1 X200.143 Y187.537 E0.0576
G1 X201.02 Y186.145 E0.07689
G2 X201.397 Y184.189 I-6.388 J-2.246 E0.09338
G1 X201.42 Y146.694 E1.75277
G1 X201.278 Y144.875 E0.08527
G1 X201.112 Y144.133 E0.03556
G1 X200.145 Y142.468 E0.09002
G1 X199.23 Y141.636 E0.05781
G1 X198.394 Y141.153 E0.04515
G1 X197.062 Y140.797 E0.06443
G1 X193.454 Y140.765 E0.16867
G1 X192.565 Y140.838 E0.04172
G1 X131.525 Y150.445 E2.88853
G1 X129.894 Y151.13 E0.08266
G1 X130.264 Y151.473 F9000
G1 F1800
G1 X129.261 Y152.554 E0.06895
G1 X128.867 Y154.1 E0.0746
G1 X128.87 Y175.9 E1.01908
G1 X129.147 Y177.21 E0.06258
G1 X130.134 Y178.464 E0.0746
G1 X131.6 Y179.094 E0.0746
G1 X192.637 Y188.701 E2.88839
M73 P1 R17
G1 X193.454 Y188.768 E0.03832
G1 X196.579 Y188.768 E0.14609
G1 X197.211 Y188.713 E0.02964
G1 X198.215 Y188.416 E0.04894
G1 X198.946 Y187.994 E0.03945
G1 X199.813 Y187.206 E0.05478
G1 X200.58 Y185.99 E0.0672
G2 X200.933 Y184.137 I-5.894 J-2.083 E0.08846
G1 X200.954 Y146.694 E1.75032
G1 X200.817 Y144.947 E0.08193
G1 X200.669 Y144.28 E0.03194
G1 X199.816 Y142.797 E0.07997
G1 X198.946 Y142.006 E0.05496
G1 X198.215 Y141.584 E0.03945
G1 X197.001 Y141.259 E0.05874
G1 X193.454 Y141.232 E0.16583
G1 X192.637 Y141.299 E0.03832
G1 X131.597 Y150.906 E2.88853
G1 X130.346 Y151.384 E0.06263
G1 X130.264 Y151.473 E0.00565
; INIT printing object test1.stl id:0 copy 0
G1 E-0.8
; printing object test1.stl id:0 copy 0
; acceleration to travel
M204 S3000
G1 X134.418 Y163.988 F9000
; decel to extrusion
M204 S1000
G1 X135.803 Y168.16
; end travel
G1 E0.8 F1800
;TYPE:Internal perimeter
;WIDTH:0.48
G1 X135.803 Y173.197 E0.21536
G1 X160.197 Y173.197 E1.04298
G1 X160.197 Y167.303 E0.252
G1 X135.803 Y167.303 E1.04298
G1 X135.803 Y168.16 E0.03664
G1 X136.232 Y168.16 F9000
G1 F1800
G1 X136.232 Y172.768 E0.19704
G1 X159.769 Y172.768 E1.00633
G1 X159.769 Y167.732 E0.21536
G1 X136.232 Y167.732 E1.00633
G1 X136.232 Y168.16 E0.01832
G1 X136.66 Y168.16 F9000
;TYPE:External perimeter
G1 F1800
G1 X136.66 Y172.34 E0.17872
G1 X159.34 Y172.34 E0.96969
M73 P2 R17
G1 X159.34 Y168.16 E0.17872
G1 X136.66 Y168.16 E0.96969
;WIPE_START
M204 S5000
G1 X136.26 Y168.16 F9000
;WIPE_END
; acceleration to travel
M204 S3000
G1 X136.56 Y164.063
; decel to extrusion
M204 S1000
G1 X136.66 Y162.697
; end travel
;TYPE:Internal perimeter
G1 F1800
G1 X160.197 Y162.697 E1.00633
G1 X160.197 Y156.803 E0.252
G1 X135.803 Y156.803 E1.04298
G1 X135.803 Y162.697 E0.252
G1 X136.66 Y162.697 E0.03664
G1 X136.66 Y162.268 F9000
G1 F1800
G1 X159.769 Y162.268 E0.98801
G1 X159.769 Y157.232 E0.21536
G1 X136.232 Y157.232 E1.00633
G1 X136.232 Y162.268 E0.21536
G1 X136.66 Y162.268 E0.01832
G1 X136.66 Y161.84 F9000
;TYPE:External perimeter
G1 F1800
G1 X159.34 Y161.84 E0.96969
G1 X159.34 Y157.66 E0.17872
G1 X136.66 Y157.66 E0.96969
M73 P2 R16
G1 X136.66 Y161.84 E0.17872
;WIPE_START
M204 S5000
G1 X136.66 Y162.24 F9000
;WIPE_END
M204 S1000
G1 X136.66 Y163.125
;TYPE:Internal perimeter
G1 F1800
G1 X160.375 Y163.125 E1.01393
G1 X160.375 Y166.875 E0.16029
G1 X135.375 Y166.875 E1.06889
G1 X135.375 Y173.625 E0.28864
G1 X160.375 Y173.625 E1.06889
G1 X160.375 Y174.375 E0.03203
G1 X133.628 Y174.375 E1.14355
M73 P3 R16
G1 X133.626 Y155.625 E0.80162
G1 X160.375 Y155.625 E1.14366
G1 X160.375 Y156.375 E0.03203
G1 X135.375 Y156.375 E1.06889
G1 X135.375 Y163.125 E0.28864
G1 X136.66 Y163.125 E0.05496
; acceleration to travel
M204 S3000
G1 X134.063 Y157.179 F9000
; decel to extrusion
M204 S1000
G1 X133.197 Y155.197
; end travel
G1 F1800
G1 X160.803 Y155.197 E1.1803
G1 X160.803 Y174.803 E0.83826
G1 X133.2 Y174.803 E1.18019
G1 X133.197 Y155.197 E0.83826
G1 X132.769 Y154.768 F9000
G1 F1800
G1 X161.232 Y154.768 E1.21694
G1 X161.232 Y175.232 E0.87491
G1 X132.771 Y175.232 E1.21683
G1 X132.769 Y154.768 E0.87491
G1 X132.34 Y154.34 F9000
;TYPE:External perimeter
G1 F1800
G1 X161.66 Y154.34 E1.25359
M73 P4 R16
G1 X161.66 Y175.66 E0.91155
G1 X132.343 Y175.66 E1.25346
G1 X132.34 Y154.34 E0.91155
;WIPE_START
M204 S5000
G1 X132.687 Y154.54 F9000
;WIPE_END
; acceleration to travel
M204 S3000
G1 X134.529 Y155.635
; decel to extrusion
M204 S1000
G1 X135.143 Y156
; end travel
;TYPE:Gap fill
;WIDTH:0.406602
G1 F1800
G1 X135.321 Y156 E0.00629
G1 X160.178 Y156 E0.88073
G1 X160.5 Y156.571 F9000
;WIDTH:0.263591
G1 F1800
G1 X160.5 Y159.75 E0.06726
G1 X160.5 Y162.822 E0.06502
G1 X160.5 Y162.929 E0.00224
; acceleration to travel
M204 S3000
G1 X159.735 Y163.118 F9000
; decel to extrusion
M204 S1000
G1 X159.444 Y163.19
; end travel
;TYPE:Solid infill
;WIDTH:0.456504
G1 F3600
G1 X160.126 Y163.872 E0.03922
G1 X160.126 Y164.478 E0.02464
G1 X159.022 Y163.374 E0.06347
G1 X158.416 Y163.374 E0.02464
G1 X160.126 Y165.084 E0.09831
G1 X160.126 Y165.69 E0.02464
G1 X157.81 Y163.374 E0.13316
G1 X157.204 Y163.374 E0.02464
G1 X160.126 Y166.296 E0.16801
G1 X160.126 Y166.626 E0.01343
G1 X159.851 Y166.626 E0.01121
G1 X156.598 Y163.374 E0.18701
G1 X155.993 Y163.374 E0.02464
G1 X159.245 Y166.626 E0.18701
G1 X158.639 Y166.626 E0.02464
G1 X155.387 Y163.374 E0.18701
G1 X154.781 Y163.374 E0.02464
G1 X158.033 Y166.626 E0.18701
G1 X157.427 Y166.626 E0.02464
G1 X154.175 Y163.374 E0.18701
G1 X153.569 Y163.374 E0.02464
G1 X156.821 Y166.626 E0.18701
G1 X156.215 Y166.626 E0.02464
G1 X152.963 Y163.374 E0.18701
G1 X152.357 Y163.374 E0.02464
G1 X155.609 Y166.626 E0.18701
G1 X155.003 Y166.626 E0.02464
G1 X151.751 Y163.374 E0.18701
G1 X151.145 Y163.374 E0.02464
G1 X154.397 Y166.626 E0.18701
G1 X153.791 Y166.626 E0.02464
G1 X150.539 Y163.374 E0.18701
G1 X149.933 Y163.374 E0.02464
G1 X153.185 Y166.626 E0.18701
G1 X152.579 Y166.626 E0.02464
G1 X149.327 Y163.374 E0.18701
G1 X148.721 Y163.374 E0.02464
G1 X151.973 Y166.626 E0.18701
G1 X151.367 Y166.626 E0.02464
G1 X148.115 Y163.374 E0.18701
G1 X147.509 Y163.374 E0.02464
G1 X150.761 Y166.626 E0.18701
G1 X150.155 Y166.626 E0.02464
G1 X146.903 Y163.374 E0.18701
G1 X146.297 Y163.374 E0.02464
G1 X149.549 Y166.626 E0.18701
G1 X148.943 Y166.626 E0.02464
G1 X145.691 Y163.374 E0.18701
G1 X145.085 Y163.374 E0.02464
G1 X148.337 Y166.626 E0.18701
G1 X147.731 Y166.626 E0.02464
G1 X144.479 Y163.374 E0.18701
G1 X143.873 Y163.374 E0.02464
G1 X147.125 Y166.626 E0.18701
G1 X146.519 Y166.626 E0.02464
G1 X143.267 Y163.374 E0.18701
G1 X142.661 Y163.374 E0.02464
G1 X145.913 Y166.626 E0.18701
G1 X145.307 Y166.626 E0.02464
G1 X142.055 Y163.374 E0.18701
G1 X141.449 Y163.374 E0.02464
G1 X144.701 Y166.626 E0.18701
G1 X144.095 Y166.626 E0.02464
G1 X140.843 Y163.374 E0.18701
G1 X140.237 Y163.374 E0.02464
G1 X143.489 Y166.626 E0.18701
G1 X142.883 Y166.626 E0.02464
G1 X139.631 Y163.374 E0.18701
G1 X139.025 Y163.374 E0.02464
G1 X142.277 Y166.626 E0.18701
G1 X141.671 Y166.626 E0.02464
G1 X138.419 Y163.374 E0.18701
G1 X137.813 Y163.374 E0.02464
G1 X141.065 Y166.626 E0.18701
G1 X140.459 Y166.626 E0.02464
G1 X137.207 Y163.374 E0.18701
G1 X136.601 Y163.374 E0.02464
G1 X139.853 Y166.626 E0.18701
G1 X139.247 Y166.626 E0.02464
G1 X135.811 Y163.19 E0.1976
; acceleration to travel
M204 S3000
G1 X135.435 Y158.27 F9000
; decel to extrusion
M204 S1000
G1 X135.31 Y156.629
; end travel
G1 F3600
G1 X134.555 Y155.874 E0.04344
G1 X133.949 Y155.874 E0.02464
G1 X135.126 Y157.051 E0.0677
G1 X135.126 Y157.657 E0.02464
G1 X133.874 Y156.405 E0.07198
G1 X133.874 Y157.012 E0.02464
G1 X135.126 Y158.263 E0.07197
G1 X135.126 Y158.869 E0.02464
G1 X133.875 Y157.618 E0.07197
M73 P5 R16
G1 X133.875 Y158.224 E0.02464
G1 X135.126 Y159.475 E0.07196
G1 X135.126 Y160.081 E0.02464
G1 X133.875 Y158.83 E0.07196
G1 X133.875 Y159.436 E0.02464
G1 X135.126 Y160.687 E0.07196
G1 X135.126 Y161.293 E0.02464
G1 X133.875 Y160.042 E0.07195
G1 X133.875 Y160.648 E0.02464
G1 X135.126 Y161.899 E0.07195
G1 X135.126 Y162.505 E0.02464
G1 X133.875 Y161.254 E0.07194
G1 X133.875 Y161.86 E0.02464
G1 X138.641 Y166.626 E0.27407
G1 X138.035 Y166.626 E0.02464
G1 X133.875 Y162.466 E0.23922
G1 X133.875 Y163.072 E0.02464
G1 X137.429 Y166.626 E0.20436
G1 X136.823 Y166.626 E0.02464
G1 X133.875 Y163.678 E0.16951
G1 X133.875 Y164.284 E0.02464
G1 X136.217 Y166.626 E0.13466
G1 X135.611 Y166.626 E0.02464
G1 X133.876 Y164.89 E0.09981
G1 X133.876 Y165.496 E0.02464
G1 X135.126 Y166.747 E0.07191
G1 X135.126 Y167.353 E0.02464
G1 X133.876 Y166.103 E0.0719
G1 X133.876 Y166.709 E0.02464
G1 X135.126 Y167.959 E0.0719
G1 X135.126 Y168.565 E0.02464
G1 X133.876 Y167.315 E0.07189
G1 X133.876 Y167.921 E0.02464
G1 X135.126 Y169.171 E0.07189
G1 X135.126 Y169.777 E0.02464
G1 X133.876 Y168.527 E0.07188
G1 X133.876 Y169.133 E0.02464
G1 X135.126 Y170.383 E0.07188
G1 X135.126 Y170.989 E0.02464
G1 X133.876 Y169.739 E0.07187
G1 X133.876 Y170.345 E0.02464
G1 X135.126 Y171.595 E0.07187
G1 X135.126 Y172.201 E0.02464
G1 X133.876 Y170.951 E0.07187
G1 X133.876 Y171.557 E0.02464
G1 X135.126 Y172.807 E0.07186
G1 X135.126 Y173.413 E0.02464
G1 X133.877 Y172.163 E0.07186
G1 X133.877 Y172.769 E0.02464
G1 X134.937 Y173.83 E0.061
G1 X134.937 Y174.126 E0.01203
G1 X134.627 Y174.126 E0.01261
G1 X133.877 Y173.375 E0.04317
G1 X133.877 Y173.981 E0.02464
G1 X134.206 Y174.31 E0.01891
G1 X135.143 Y174 F9000
;TYPE:Gap fill
;WIDTH:0.406602
G1 F1800
G1 X135.321 Y174 E0.00629
G1 X160.178 Y174 E0.88073
G1 X160.5 Y173.429 F9000
;WIDTH:0.263591
G1 F1800
G1 X160.5 Y167.178 E0.13228
G1 X160.5 Y167.071 E0.00224
; INIT stop printing object test1.stl id:0 copy 0
; INIT printing object anchor.stl id:1 copy 0
G1 E-0.8
; stop printing object test1.stl id:0 copy 0
; printing object anchor.stl id:1 copy 0
; acceleration to travel
M204 S3000
G1 X176.499 Y165.864 F9000
; decel to extrusion
M204 S1000
G1 X181.832 Y165.461
; end travel
G1 E0.8 F1800
;TYPE:Internal perimeter
;WIDTH:0.48
G2 X182.154 Y163.692 I3.768 J-0.228 E0.93696
G2 X181.832 Y165.461 I3.237 J1.503 E0.07758
G1 X182.261 Y165.461 F9000
G1 F1800
G2 X182.357 Y164.406 I3.338 J-0.228 E0.85363
G2 X182.261 Y165.461 I3.029 J0.807 E0.04548
G1 X182.689 Y165.461 F9000
G1 F1800
G2 X182.689 Y165.002 I2.907 J-0.230 E0.76417
G1 X182.689 Y165.461 E0.01963
G1 X183.118 Y165.461 F9000
;TYPE:External perimeter
G1 F1800
G2 X183.118 Y165.039 I2.478 J-0.211 E0.65049
G1 X183.118 Y165.461 E0.01807
;WIPE_START
M204 S5000
G1 X182.796 Y165.699 F9000
;WIPE_END
; acceleration to travel
M204 S3000
G1 X180.228 Y165.444
; decel to extrusion
M204 S1000
G1 X179.372 Y165.359
; end travel
;TYPE:Internal perimeter
G1 F1800
G2 X178.901 Y167.094 I-3.774 J-0.093 E0.93696
G2 X179.372 Y165.359 I-3.091 J-1.771 E0.07758
G1 X178.945 Y165.323 F9000
G1 F1800
G2 X178.760 Y166.366 I-3.346 J-0.056 E0.85363
G2 X178.945 Y165.323 I-2.957 J-1.062 E0.04548
G1 X178.518 Y165.286 F9000
G1 F1800
G2 X178.479 Y165.744 I-2.917 J-0.018 E0.76415
G1 X178.518 Y165.286 E0.01962
G1 X178.091 Y165.25 F9000
;TYPE:External perimeter
G1 F1800
G2 X177.775 Y166.465 I-2.491 J0.001 E0.61436
G2 X178.091 Y165.250 I-2.185 J-1.217 E0.05421
;WIPE_START
M204 S5000
G1 X178.432 Y165.04 F9000
;WIPE_END
; acceleration to travel
M204 S3000
G1 X181.946 Y170.642
; decel to extrusion
M204 S1000
G1 X183.118 Y172.51
; end travel
;TYPE:Internal perimeter
G1 F1800
G1 X170.086 Y172.51 E0.55716
G3 X169.741 Y172.164 I-0.049 J-0.296 E0.02409
G1 X169.741 Y158.336 E0.59119
M73 P6 R16
G3 X170.086 Y157.990 I0.296 J-0.049 E0.02409
G1 X183.483 Y157.99 E0.57279
G2 X192.137 Y152.686 I-0.041 J-9.779 E0.45609
G2 X196.100 Y154.355 I3.542 J-2.870 E0.19144
G1 X196.095 Y176.144 E0.93161
G2 X192.135 Y177.811 I-0.415 J4.552 E0.19115
G2 X183.118 Y172.510 I-8.703 J4.485 E0.47154
; acceleration to travel
M204 S3000
G1 X193.186 Y175.614 F9000
; decel to extrusion
M204 S1000
G1 X196.542 Y176.649
; end travel
G1 F1800
G2 X192.056 Y178.668 I-0.865 J4.071 E0.22495
G2 X183.474 Y172.938 I-8.611 J3.606 E0.46722
G1 X170.052 Y172.938 E0.57387
G3 X169.312 Y172.198 I-0.037 J-0.703 E0.05031
G1 X169.312 Y158.302 E0.59411
G3 X170.052 Y157.562 I0.701 J-0.039 E0.05031
G1 X183.474 Y157.562 E0.57387
G2 X192.058 Y151.827 I-0.029 J-9.335 E0.46746
G2 X196.529 Y153.854 I3.618 J-2.037 E0.22448
G1 X196.523 Y154.914 E0.04532
G1 X196.523 Y176.093 E0.9055
G1 X196.542 Y176.649 E0.02381
G1 X196.991 Y177.242 F9000
G1 F1800
G2 X192.150 Y179.511 I-1.332 J3.457 E0.25555
G1 X191.895 Y179.509 E0.01087
G2 X183.466 Y173.367 I-8.438 J2.726 E0.47661
G1 X170.034 Y173.367 E0.57429
G3 X168.884 Y172.216 I-0.026 J-1.124 E0.07758
G1 X168.884 Y158.284 E0.59571
G3 X170.034 Y157.133 I1.124 J-0.027 E0.07758
G1 X183.466 Y157.133 E0.57429
G2 X191.990 Y150.671 I-0.008 J-8.864 E0.49085
G2 X192.692 Y152.020 I5.000 J-1.745 E0.06515
G2 X196.994 Y153.254 I2.951 J-2.173 E0.20576
G2 X196.952 Y154.916 I16.227 J1.242 E0.07109
G1 X196.952 Y176.086 E0.90514
G1 X196.991 Y177.242 E0.04945
G1 E-0.8
; acceleration to travel
M204 S3000
G1 X193.819 Y154.37 F9000
; decel to extrusion
M204 S1000
G1 X192.762 Y146.746
; end travel
G1 E0.8 F1800
G3 X192.858 Y145.908 I1.768 J-0.222 E0.03650
G3 X193.502 Y145.562 I0.606 J0.356 E0.03277
G1 X194.145 Y145.562 E0.02753
G1 X194.201 Y145.837 E0.01198
G2 X192.762 Y146.746 I1.442 J3.877 E0.07327
G1 X192.333 Y147.586 F9000
G1 F1800
G3 X192.353 Y146.057 I8.687 J-0.651 E0.06544
G3 X193.483 Y145.133 I1.104 J0.197 E0.06783
G1 X196.552 Y145.136 E0.13122
M73 P7 R16
G3 X196.956 Y145.526 I-0.161 J0.571 E0.02532
G1 X196.984 Y146.239 E0.03051
G2 X192.576 Y147.660 I-1.328 J3.427 E0.21439
G1 X192.333 Y147.586 E0.01087
G1 E-0.8
; acceleration to travel
M204 S3000
G1 X195.666 Y175.15 F9000
; decel to extrusion
M204 S1000
G1 X196.778 Y184.338
; end travel
G1 E0.8 F1800
G1 X196.93 Y184.572 E0.01191
G3 X196.535 Y184.867 I-0.563 J-0.342 E0.02171
G1 X193.483 Y184.867 E0.1305
G3 X192.333 Y183.716 I-0.024 J-1.126 E0.07758
G1 X192.333 Y182.917 E0.03418
G1 X192.579 Y182.845 E0.01096
G2 X196.778 Y184.338 I3.085 J-2.025 E0.20473
; acceleration to travel
M204 S3000
G1 X197.305 Y183.68 F9000
; decel to extrusion
M204 S1000
G1 X197.48 Y183.461
