; generated by SuperSlicer 2.4 on 2022-06-03 at 03:48:20 UTC


;
;

;
;
; 

; external perimeters extrusion width = 0.40mm
; perimeters extrusion width = 0.48mm
; infill extrusion width = 0.72mm
; solid infill extrusion width = 0.56mm
; top infill extrusion width = 0.40mm
; support material extrusion width = 0.40mm
; first layer extrusion width = 0.48mm

; object:{"name":"Untitled","id":"Untitled.stl id:0 copy 0","object_center":[165.000000,164.999996,0.000000],"boundingbox_center":[165.000000,164.999996,8.857692],"boundingbox_size":[19.223999,27.734001,17.714001]}
; plater:{"center":[165.000000,164.999996,0.000000],"boundingbox_center":[165.000000,164.999996,8.857692],"boundingbox_size":[19.223999,27.734001,17.714001]}

M73 P0 R18
;TYPE:Custom
START_PRINT T_BED=60 T_EXTRUDER=200
M107
G21 ; set units to millimeters
G90 ; use absolute coordinates
M83 ; use relative distances for extrusion
; Filament gcode
M104 S200 ; set temperature
M109 S200 ; set temperature and wait for it to be reached
M190 S60 ; set bed temperature and wait for it to be reached
M107
;LAYER_CHANGE
;Z:0.24
;HEIGHT:0.24
G1 Z0.24 F9000
G92 E0
M73 P1 R17
G1 E-0.8 F3000
M204 S1000
G1 X152.881 Y148.19 F9000
M73 P2 R17
G1 E0.8 F1800
;TYPE:Skirt
;WIDTH:0.52
G1 X151.767 Y149.748 E0.08771
G1 X151.379 Y151.623 E0.08771
G1 X151.387 Y153.841 E0.10164
G1 X152.388 Y178.583 E1.13437
G1 X152.778 Y180.264 E0.07908
G1 X153.896 Y181.819 E0.08771
G1 X155.547 Y182.788 E0.08771
G1 X156.819 Y183.085 E0.05985
G1 X157.389 Y183.119 E0.02614
G1 X173.446 Y183.086 E0.73563
G1 X174.727 Y182.786 E0.06027
G1 X176.266 Y181.913 E0.08105
G1 X177.431 Y180.393 E0.08771
G1 X177.882 Y178.532 E0.08771
G1 X178.611 Y153.961 E1.12614
G1 X178.618 Y151.616 E0.10743
G1 X178.062 Y149.404 E0.10451
G1 X176.823 Y147.944 E0.08771
G1 X175.1 Y147.109 E0.08771
G1 X173.454 Y146.881 E0.07616
G1 X155.908 Y146.92 E0.80378
G1 X154.906 Y147.107 E0.04669
G1 X152.881 Y148.19 E0.10524
G1 X153.275 Y148.493 F9000
G1 F1800
G1 X152.234 Y149.848 E0.0783
G1 X151.845 Y151.621 E0.08313
G1 X151.854 Y153.84 E0.10164
G1 X152.854 Y178.564 E1.13358
G1 X153.132 Y179.901 E0.06256
G1 X154.141 Y181.409 E0.08313
G1 X155.695 Y182.346 E0.08313
G1 X156.862 Y182.621 E0.05496
G1 X157.389 Y182.652 E0.02415
G1 X173.403 Y182.621 E0.73366
G1 X174.579 Y182.344 E0.05533
G1 X175.816 Y181.679 E0.06434
G1 X176.968 Y180.277 E0.08313
G1 X177.416 Y178.519 E0.08313
G1 X178.145 Y153.948 E1.12614
G1 X178.152 Y151.615 E0.10685
G1 X177.738 Y149.794 E0.08554
G1 X176.612 Y148.371 E0.08313
G1 X174.988 Y147.562 E0.08313
G1 X173.453 Y147.348 E0.07099
G1 X155.947 Y147.385 E0.802
G1 X155.018 Y147.559 E0.04332
G1 X153.339 Y148.409 E0.0862
G1 X153.275 Y148.493 E0.00483
G1 X153.655 Y148.81 F9000
G1 F1800
G1 X152.7 Y149.955 E0.06831
G1 X152.311 Y151.619 E0.07828
G1 X152.32 Y153.838 E0.10164
G1 X153.32 Y178.545 E1.1328
G1 X153.5 Y179.544 E0.04652
G1 X154.391 Y181.002 E0.07828
G1 X155.843 Y181.903 E0.07828
G1 X156.906 Y182.157 E0.05007
G1 X157.389 Y182.186 E0.02215
G1 X173.221 Y182.17 E0.7253
G1 X174.43 Y181.902 E0.05675
G1 X175.368 Y181.43 E0.04811
G1 X176.506 Y180.155 E0.07828
G1 X176.95 Y178.505 E0.07828
G1 X177.679 Y153.934 E1.12614
G1 X177.686 Y151.614 E0.10627
G1 X177.4 Y150.179 E0.06703
G1 X176.395 Y148.797 E0.07828
G1 X174.876 Y148.014 E0.07828
M73 P3 R17
G1 X173.453 Y147.814 E0.06581
G1 X155.986 Y147.849 E0.80023
G1 X155.129 Y148.012 E0.03996
G1 X153.794 Y148.643 E0.06762
G1 X153.655 Y148.81 E0.00996
G1 X154.018 Y149.144 F9000
G1 F1800
G1 X153.166 Y150.07 E0.05762
G1 X152.778 Y151.617 E0.07311
G1 X152.786 Y153.836 E0.10164
G1 X153.786 Y178.526 E1.13201
G1 X154.649 Y180.597 E0.1028
G1 X155.991 Y181.461 E0.07311
G1 X156.949 Y181.692 E0.04518
G1 X157.389 Y181.719 E0.02016
G1 X173.178 Y181.706 E0.72333
G1 X174.282 Y181.46 E0.05181
G1 X176.044 Y180.025 E0.10411
G1 X176.484 Y178.491 E0.07311
G1 X177.212 Y153.92 E1.12614
G1 X177.219 Y151.613 E0.10569
G1 X177.044 Y150.556 E0.04907
G1 X176.17 Y149.221 E0.07311
G1 X174.764 Y148.467 E0.07311
G1 X173.453 Y148.281 E0.06064
G1 X156.024 Y148.314 E0.79845
G1 X155.24 Y148.465 E0.03659
G1 X154.247 Y148.896 E0.04959
G1 X154.018 Y149.144 E0.01548
G1 E-0.8 F3000
; printing object Untitled.stl id:0 copy 0
; acceleration to travel
M204 S3000
G1 X163.746 Y165.533 F9000
; decel to extrusion
M204 S1000
G1 X166.988 Y170.995
; end travel
G1 E0.8 F1800
;TYPE:Internal perimeter
;WIDTH:0.48
G1 X166.961 Y171.395 E0.01678
G1 X166.995 Y171.894 E0.02094
G1 X167.106 Y172.385 E0.02111
G1 X167.284 Y172.851 E0.02088
G1 X167.528 Y173.285 E0.02087
G1 X167.835 Y173.684 E0.02107
G1 X168.196 Y174.03 E0.02096
G1 X168.602 Y174.322 E0.02094
G1 X169.051 Y174.552 E0.02116
G1 X169.523 Y174.712 E0.02086
G1 X170.011 Y174.803 E0.02083
G1 X170.51 Y174.822 E0.02089
G1 X171.008 Y174.768 E0.02102
G1 X171.725 Y174.582 E0.03104
G1 X171.726 Y176.961 E0.09967
G1 X158.542 Y176.961 E0.55244
G1 X158.542 Y174.551 E0.10096
G1 X159.02 Y174.712 E0.02116
G1 X159.507 Y174.803 E0.02075
G1 X160.006 Y174.822 E0.02089
G1 X160.504 Y174.768 E0.02102
G1 X160.994 Y174.641 E0.02121
G1 X161.454 Y174.443 E0.02098
G1 X161.879 Y174.186 E0.0208
G1 X162.264 Y173.865 E0.02102
G1 X162.602 Y173.489 E0.02119
G1 X162.876 Y173.07 E0.02097
G1 X163.088 Y172.621 E0.0208
G1 X163.233 Y172.139 E0.02108
G1 X163.305 Y171.643 E0.021
G1 X163.305 Y171.145 E0.02088
G1 X163.233 Y170.649 E0.021
G1 X163.088 Y170.167 E0.02108
G1 X162.875 Y169.715 E0.02094
G1 X162.6 Y169.299 E0.0209
G1 X162.264 Y168.925 E0.02104
G1 X161.883 Y168.607 E0.0208
G1 X161.454 Y168.344 E0.02108
G1 X160.989 Y168.147 E0.02117
G1 X160.51 Y168.023 E0.02071
G1 X160.012 Y167.966 E0.02102
G1 X159.507 Y167.985 E0.02115
G1 X159.02 Y168.076 E0.02075
G1 X158.542 Y168.237 E0.02117
G1 X158.541 Y153.038 E0.63681
G1 X170.478 Y153.038 E0.50015
G1 X171.726 Y153.039 E0.05228
G1 X171.726 Y168.246 E0.63717
G1 X171.493 Y168.147 E0.0106
G1 X171.014 Y168.023 E0.02071
G1 X170.516 Y167.966 E0.02102
G1 X170.011 Y167.985 E0.02115
G1 X169.523 Y168.076 E0.02084
G1 X169.046 Y168.238 E0.02109
G1 X168.602 Y168.469 E0.02099
G1 X168.2 Y168.755 E0.02066
G1 X167.835 Y169.104 E0.02117
G1 X167.526 Y169.505 E0.0212
G1 X167.283 Y169.942 E0.02095
G1 X167.106 Y170.405 E0.02076
G1 X166.995 Y170.896 E0.02111
G1 X166.988 Y170.995 E0.00416
G1 X167.416 Y171.025 F9000
G1 F1800
G1 X167.39 Y171.395 E0.01555
G1 X167.42 Y171.831 E0.01832
G1 X167.517 Y172.261 E0.01845
G1 X167.673 Y172.668 E0.01829
G1 X167.887 Y173.048 E0.01826
G1 X168.155 Y173.397 E0.01842
G1 X168.471 Y173.699 E0.01834
G1 X168.826 Y173.955 E0.01833
G1 X169.218 Y174.156 E0.01849
G1 X169.631 Y174.296 E0.01825
G1 X170.059 Y174.376 E0.01824
G1 X170.495 Y174.392 E0.01828
G1 X170.931 Y174.346 E0.01839
G1 X171.359 Y174.235 E0.01852
G1 X171.762 Y174.062 E0.01836
G1 X172.155 Y173.823 E0.01927
G1 X172.155 Y177.389 E0.14943
G1 X158.113 Y177.389 E0.58834
G1 X158.113 Y173.849 E0.14834
G1 X158.714 Y174.157 E0.02828
G1 X159.128 Y174.296 E0.01833
G1 X159.555 Y174.376 E0.01818
G1 X159.991 Y174.392 E0.01828
G1 X160.427 Y174.346 E0.01839
G1 X160.855 Y174.235 E0.01852
G1 X161.258 Y174.062 E0.01836
G1 X161.629 Y173.836 E0.01821
G1 X161.966 Y173.556 E0.01838
G1 X162.262 Y173.227 E0.01851
G1 X162.501 Y172.86 E0.01835
G1 X162.687 Y172.467 E0.01822
G1 X162.814 Y172.046 E0.01843
G1 X162.877 Y171.612 E0.01837
G1 X162.877 Y171.176 E0.01827
G1 X162.814 Y170.742 E0.01837
G1 X162.687 Y170.321 E0.01843
G1 X162.5 Y169.925 E0.01833
G1 X162.26 Y169.561 E0.01828
G1 X161.966 Y169.234 E0.0184
G1 X161.632 Y168.956 E0.01822
G1 X161.258 Y168.726 E0.01843
G1 X160.851 Y168.554 E0.01849
G1 X160.432 Y168.445 E0.01815
G1 X159.996 Y168.395 E0.01839
G1 X159.555 Y168.412 E0.01847
G1 X159.128 Y168.492 E0.01818
G1 X158.71 Y168.632 E0.0185
G1 X158.113 Y168.943 E0.0282
G1 X158.113 Y153.082 E0.66461
G1 X157.114 Y153.095 E0.04187
G1 X157.112 Y152.61 E0.02032
G1 X170.478 Y152.61 E0.56005
G1 X172.883 Y152.611 E0.10078
G1 X172.88 Y153.101 E0.02054
G1 X172.154 Y153.097 E0.03043
G1 X172.154 Y168.968 E0.66497
M73 P4 R17
G1 X171.762 Y168.726 E0.01934
G1 X171.355 Y168.554 E0.01849
G1 X170.936 Y168.445 E0.01815
G1 X170.5 Y168.395 E0.0184
G1 X170.059 Y168.412 E0.01847
G1 X169.631 Y168.492 E0.01824
G1 X169.215 Y168.633 E0.01842
G1 X168.826 Y168.836 E0.01837
G1 X168.473 Y169.086 E0.01811
G1 X168.155 Y169.391 E0.0185
G1 X167.885 Y169.741 E0.01851
G1 X167.672 Y170.124 E0.01833
G1 X167.517 Y170.529 E0.01819
G1 X167.42 Y170.959 E0.01844
G1 X167.416 Y171.025 E0.00277
G1 X167.843 Y171.054 F9000
G1 F1800
G1 X167.82 Y171.395 E0.01432
G1 X167.845 Y171.769 E0.0157
G1 X167.929 Y172.136 E0.01578
G1 X168.062 Y172.486 E0.01569
G1 X168.245 Y172.812 E0.01564
G1 X168.474 Y173.11 E0.01576
G1 X168.745 Y173.369 E0.01572
G1 X169.05 Y173.588 E0.01572
G1 X169.386 Y173.761 E0.01581
G1 X169.739 Y173.88 E0.01565
G1 X170.107 Y173.949 E0.01565
G1 X170.48 Y173.963 E0.01567
G1 X170.854 Y173.923 E0.01576
G1 X171.22 Y173.828 E0.01583
G1 X171.565 Y173.68 E0.01574
G1 X171.884 Y173.486 E0.01562
G1 X172.172 Y173.246 E0.01574
G1 X172.583 Y172.789 E0.02575
G1 X172.583 Y177.818 E0.21072
G1 X157.685 Y177.818 E0.62425
G1 X157.685 Y172.836 E0.20874
G1 X158.24 Y173.368 E0.03223
G1 X158.542 Y173.588 E0.01566
G1 X158.881 Y173.761 E0.01592
G1 X159.236 Y173.881 E0.01573
G1 X159.603 Y173.949 E0.01561
G1 X159.976 Y173.963 E0.01567
G1 X160.35 Y173.923 E0.01576
G1 X160.716 Y173.828 E0.01583
G1 X161.061 Y173.68 E0.01574
G1 X161.38 Y173.486 E0.01562
G1 X161.668 Y173.246 E0.01574
G1 X161.921 Y172.965 E0.01583
G1 X162.126 Y172.651 E0.01572
G1 X162.285 Y172.313 E0.01564
G1 X162.394 Y171.952 E0.01578
G1 X162.448 Y171.581 E0.01573
G1 X162.448 Y171.207 E0.01566
G1 X162.394 Y170.836 E0.01573
G1 X162.285 Y170.475 E0.01578
G1 X162.126 Y170.136 E0.01571
G1 X161.92 Y169.824 E0.01565
G1 X161.668 Y169.544 E0.01577
G1 X161.381 Y169.305 E0.01564
G1 X161.061 Y169.108 E0.01578
G1 X160.713 Y168.961 E0.01581
G1 X160.353 Y168.868 E0.01559
G1 X159.979 Y168.825 E0.01577
G1 X159.766 Y168.833 E0.00893
G1 X159.603 Y168.839 E0.00687
G1 X159.236 Y168.907 E0.01561
G1 X158.878 Y169.028 E0.01584
G1 X158.542 Y169.203 E0.01586
G1 X158.242 Y169.418 E0.0155
G1 X157.685 Y169.952 E0.03233
G1 X157.684 Y153.516 E0.68868
G1 X156.687 Y153.529 E0.0418
G1 X156.682 Y152.181 E0.05646
G1 X170.478 Y152.181 E0.57808
G1 X173.315 Y152.182 E0.11885
G1 X173.306 Y153.531 E0.05653
G1 X172.583 Y153.528 E0.03031
G1 X172.583 Y170.001 E0.69023
G1 X172.172 Y169.544 E0.02575
G1 X171.885 Y169.305 E0.01564
G1 X171.565 Y169.108 E0.01578
G1 X171.217 Y168.961 E0.01581
G1 X170.857 Y168.868 E0.01559
G1 X170.483 Y168.825 E0.01577
G1 X170.267 Y168.833 E0.00907
G1 X170.107 Y168.839 E0.00672
G1 X169.739 Y168.907 E0.01565
G1 X169.383 Y169.028 E0.01576
G1 X169.05 Y169.202 E0.01575
G1 X168.747 Y169.417 E0.01557
G1 X168.474 Y169.678 E0.01582
G1 X168.244 Y169.978 E0.01582
G1 X168.062 Y170.305 E0.01572
G1 X167.929 Y170.654 E0.01563
G1 X167.845 Y171.021 E0.01578
G1 X167.843 Y171.054 E0.00139
; acceleration to travel
M204 S3000
G1 X163.476 Y171.192 F9000
; decel to extrusion
M204 S1000
G1 X162.02 Y171.238
; end travel
;TYPE:External perimeter
G1 F1800
G1 X161.975 Y170.929 E0.0131
G1 X161.884 Y170.629 E0.01313
G1 X161.751 Y170.346 E0.0131
G1 X161.58 Y170.087 E0.01303
G1 X161.37 Y169.853 E0.01313
G1 X161.131 Y169.654 E0.01306
G1 X160.864 Y169.49 E0.01313
G1 X160.575 Y169.368 E0.01313
G1 X160.274 Y169.29 E0.01303
G1 X159.963 Y169.254 E0.01314
G1 X159.783 Y169.261 E0.00756
G1 X159.65 Y169.266 E0.00556
G1 X159.344 Y169.323 E0.01304
G1 X159.046 Y169.423 E0.01317
G1 X158.767 Y169.569 E0.01318
G1 X158.516 Y169.749 E0.01295
G1 X158.29 Y169.965 E0.01312
G1 X158.099 Y170.214 E0.01313
G1 X157.948 Y170.486 E0.01305
G1 X157.834 Y170.778 E0.01315
G1 X157.767 Y171.083 E0.01309
G1 X157.743 Y171.395 E0.01309
G1 X157.767 Y171.706 E0.01309
G1 X157.834 Y172.012 E0.01309
G1 X157.948 Y172.305 E0.01318
G1 X158.1 Y172.575 E0.01298
G1 X158.29 Y172.823 E0.0131
G1 X158.515 Y173.038 E0.01307
G1 X158.767 Y173.221 E0.01305
G1 X159.048 Y173.365 E0.01319
G1 X159.344 Y173.465 E0.01312
G1 X159.65 Y173.522 E0.01304
G1 X159.962 Y173.534 E0.01306
G1 X160.273 Y173.5 E0.01313
G1 X160.577 Y173.422 E0.01313
G1 X160.864 Y173.298 E0.01312
G1 X161.13 Y173.136 E0.01303
G1 X161.37 Y172.937 E0.0131
G1 X161.58 Y172.703 E0.01316
G1 X161.752 Y172.441 E0.0131
G1 X161.884 Y172.159 E0.01307
G1 X161.975 Y171.859 E0.01313
G1 X162.02 Y171.55 E0.0131
G1 X162.02 Y171.238 E0.01305
;WIPE_START
M204 S4000
G1 X162.345 Y171.006 F9000
;WIPE_END
; acceleration to travel
M204 S3000
G1 X166.773 Y171.298
; decel to extrusion
M204 S1000
G1 X168.249 Y171.395
; end travel
G1 F1800
G1 X168.271 Y171.706 E0.01308
G1 X168.34 Y172.012 E0.01311
G1 X168.451 Y172.304 E0.01309
G1 X168.604 Y172.575 E0.01303
G1 X168.794 Y172.823 E0.0131
G1 X169.02 Y173.039 E0.0131
G1 X169.274 Y173.222 E0.01312
G1 X169.553 Y173.365 E0.01314
G1 X169.848 Y173.465 E0.01304
G1 X170.154 Y173.522 E0.01305
G1 X170.466 Y173.534 E0.01306
G1 X170.777 Y173.5 E0.01313
G1 X171.081 Y173.422 E0.01313
G1 X171.368 Y173.298 E0.01312
G1 X171.634 Y173.136 E0.01303
G1 X171.874 Y172.937 E0.0131
G1 X172.084 Y172.703 E0.01316
G1 X172.256 Y172.441 E0.0131
G1 X172.388 Y172.159 E0.01307
G1 X172.479 Y171.859 E0.01313
G1 X172.524 Y171.55 E0.0131
G1 X172.524 Y171.238 E0.01305
G1 X172.479 Y170.929 E0.0131
G1 X172.388 Y170.629 E0.01313
G1 X172.255 Y170.346 E0.0131
G1 X172.084 Y170.087 E0.01303
G1 X171.874 Y169.853 E0.01313
G1 X171.635 Y169.654 E0.01306
G1 X171.368 Y169.49 E0.01313
G1 X171.079 Y169.368 E0.01313
G1 X170.778 Y169.29 E0.01303
G1 X170.467 Y169.254 E0.01314
G1 X170.283 Y169.261 E0.0077
G1 X170.154 Y169.266 E0.00541
G1 X169.848 Y169.323 E0.01305
G1 X169.552 Y169.423 E0.01309
G1 X169.274 Y169.568 E0.01313
G1 X169.021 Y169.748 E0.01302
G1 X168.794 Y169.965 E0.01315
G1 X168.603 Y170.214 E0.01313
G1 X168.451 Y170.487 E0.0131
G1 X168.34 Y170.778 E0.01307
G1 X168.271 Y171.083 E0.01311
G1 X168.249 Y171.395 E0.01308
;WIPE_START
M204 S4000
G1 X167.907 Y171.603 F9000
;WIPE_END
; acceleration to travel
M204 S3000
G1 X159.919 Y158.363
; decel to extrusion
M204 S1000
G1 X157.256 Y153.95
; end travel
G1 F1800
G1 X156.411 Y153.961 E0.0354
G1 X156.36 Y153.953 E0.00216
G1 X156.276 Y153.883 E0.00458
G1 X156.259 Y153.799 E0.00358
G1 X156.252 Y151.793 E0.08405
G1 X156.581 Y151.753 E0.01392
G1 X170.478 Y151.753 E0.58228
G1 X173.442 Y151.754 E0.12418
G1 X173.746 Y151.793 E0.01282
G1 X173.732 Y153.87 E0.08703
G1 X173.663 Y153.942 E0.00419
G1 X173.576 Y153.961 E0.00372
G1 X173.011 Y153.958 E0.02368
G1 X173.012 Y178.223 E1.01668
G1 X172.868 Y178.246 E0.00609
G1 X157.4 Y178.246 E0.64813
G1 X157.256 Y178.222 E0.0061
G1 X157.256 Y153.95 E1.01702
;WIPE_START
M204 S4000
G1 X157.252 Y153.55 F9000
;WIPE_END
; acceleration to travel
M204 S3000
G1 X167.059 Y153.226
; decel to extrusion
M204 S1000
G1 X170.795 Y153.103
; end travel
;TYPE:Solid infill
;WIDTH:0.469015
G1 F3600
G1 X171.477 Y153.785 E0.0395
G1 X171.477 Y154.391 E0.02481
G1 X170.373 Y153.287 E0.06392
G1 X169.767 Y153.287 E0.02481
G1 X171.477 Y154.997 E0.09901
G1 X171.477 Y155.603 E0.02481
G1 X169.161 Y153.287 E0.1341
G1 X168.555 Y153.287 E0.02481
G1 X171.477 Y156.209 E0.16918
G1 X171.477 Y156.815 E0.02481
G1 X167.949 Y153.287 E0.20427
G1 X167.343 Y153.287 E0.02481
G1 X171.477 Y157.421 E0.23936
G1 X171.477 Y158.027 E0.02481
G1 X166.737 Y153.287 E0.27445
G1 X166.131 Y153.287 E0.02481
G1 X171.477 Y158.633 E0.30954
G1 X171.477 Y159.239 E0.02481
G1 X165.525 Y153.287 E0.34462
G1 X164.919 Y153.287 E0.02481
G1 X171.477 Y159.845 E0.37971
G1 X171.477 Y160.451 E0.02481
G1 X164.313 Y153.287 E0.4148
G1 X163.707 Y153.287 E0.02481
G1 X171.477 Y161.057 E0.44989
M73 P5 R17
G1 X171.477 Y161.663 E0.02481
G1 X163.101 Y153.287 E0.48497
G1 X162.495 Y153.287 E0.02481
G1 X171.477 Y162.269 E0.52006
G1 X171.477 Y162.875 E0.02481
G1 X161.889 Y153.287 E0.55515
G1 X161.283 Y153.287 E0.02481
G1 X171.477 Y163.481 E0.59024
G1 X171.477 Y164.087 E0.02481
G1 X160.677 Y153.287 E0.62532
G1 X160.071 Y153.287 E0.02481
G1 X171.477 Y164.693 E0.66041
G1 X171.477 Y165.299 E0.02481
G1 X159.465 Y153.287 E0.6955
G1 X158.859 Y153.287 E0.02481
G1 X171.477 Y165.905 E0.73059
G1 X171.477 Y166.511 E0.02481
