; generated by SuperSlicer 2.3.57 on 2022-01-15 at 21:32:11 UTC


;
;

;
;
; 

; external perimeters extrusion width = 0.40mm
; perimeters extrusion width = 0.40mm
; infill extrusion width = 0.40mm
; solid infill extrusion width = 0.40mm
; top infill extrusion width = 0.40mm
; first layer extrusion width = 0.48mm


;TYPE:Custom
START_PRINT T_BED=60 T_EXTRUDER=200
M107
G21 ; set units to millimeters
G90 ; use absolute coordinates
M83 ; use relative distances for extrusion
; Filament gcode
M109 S200 ; set temperature and wait for it to be reached
M190 S60 ; set bed temperature and wait for it to be reached
;LAYER_CHANGE
;Z:0.24
;HEIGHT:0.24
G1 E-0.6 F3000
G1 Z0.24 F9000
M204 S1500
G1 X128.006 Y123.457
G1 E0.6 F1800
;TYPE:Skirt
;WIDTH:0.48
G1 F600
G1 X121.425 Y130.385 E0.40856
G1 X116.194 Y138.285 E0.4051
G1 X115.737 Y139.144 E0.0416
G1 X112.031 Y147.879 E0.40567
G1 X109.901 Y157.122 E0.40556
G1 X109.769 Y158.07 E0.04093
G1 X109.362 Y167.11 E0.3869
G1 X109.404 Y168.071 E0.0411
G1 X110.695 Y177.47 E0.40567
G1 X113.777 Y186.982 E0.4275
G1 X118.516 Y195.804 E0.42815
G1 X124.737 Y203.614 E0.42692
G1 X132.264 Y210.198 E0.42754
G1 X140.846 Y215.329 E0.42754
G1 X150.196 Y218.839 E0.42698
G1 X159.522 Y220.555 E0.40542
G1 X160.273 Y220.638 E0.03234
G1 X170.036 Y220.616 E0.41739
G1 X179.362 Y218.941 E0.40516
G1 X180.288 Y218.682 E0.0411
G1 X188.748 Y215.504 E0.38639
G1 X189.612 Y215.083 E0.0411
G1 X197.739 Y210.195 E0.40546
G1 X204.902 Y203.961 E0.406
G1 X205.567 Y203.267 E0.0411
G1 X211.463 Y195.836 E0.4056
G1 X216.201 Y187.034 E0.4274
G1 X219.298 Y177.502 E0.42849
G1 X220.638 Y167.589 E0.4277
G1 X220.185 Y157.589 E0.42796
G1 X218.095 Y148.333 E0.40572
G1 X217.8 Y147.424 E0.04085
G1 X214.244 Y139.099 E0.38708
G1 X213.785 Y138.254 E0.0411
G1 X208.543 Y130.346 E0.40565
G1 X202.01 Y123.473 E0.4054
G1 X201.282 Y122.832 E0.04151
G1 X193.595 Y117.266 E0.40574
G1 X184.596 Y112.922 E0.42725
G1 X174.949 Y110.254 E0.42796
G1 X165.004 Y109.357 E0.42694
G1 X155.052 Y110.254 E0.42722
G1 X145.406 Y112.922 E0.42791
G1 X136.406 Y117.265 E0.42727
G1 X128.725 Y122.827 E0.40547
G1 X128.051 Y123.417 E0.03828
G1 X128.192 Y123.578 F9000
M204 S500
G1 X128.332 Y123.738
G1 F600
G1 X128.315 Y123.753 E0.00098
G1 X121.763 Y130.649 E0.40672
G1 X116.555 Y138.517 E0.40339
G1 X116.131 Y139.312 E0.03854
G1 X112.586 Y147.612 E0.38588
G1 X112.315 Y148.46 E0.03806
G1 X110.236 Y157.676 E0.40392
G1 X109.791 Y167.125 E0.40445
G1 X109.828 Y168.014 E0.03806
G1 X111.114 Y177.38 E0.40418
G1 X114.173 Y186.818 E0.42421
G1 X118.876 Y195.571 E0.42483
G1 X125.046 Y203.317 E0.4234
G1 X132.514 Y209.85 E0.42424
G1 X141.03 Y214.942 E0.42423
G1 X150.308 Y218.425 E0.42369
G1 X160.294 Y220.21 E0.43374
G1 X169.988 Y220.19 E0.41447
G1 X179.281 Y218.52 E0.40368
G1 X180.138 Y218.281 E0.03806
G1 X188.592 Y215.105 E0.38612
G1 X189.392 Y214.715 E0.03806
G1 X197.486 Y209.85 E0.40374
G1 X204.617 Y203.642 E0.40425
G1 X205.233 Y202.999 E0.03806
G1 X211.108 Y195.595 E0.40411
G1 X215.809 Y186.861 E0.42411
G1 X218.88 Y177.409 E0.42492
G1 X220.209 Y167.572 E0.4244
G1 X219.76 Y157.65 E0.42465
G1 X217.677 Y148.428 E0.40423
G1 X217.405 Y147.592 E0.03758
G1 X213.852 Y139.272 E0.3868
G1 X213.427 Y138.49 E0.03806
G1 X208.209 Y130.614 E0.40393
G1 X201.701 Y123.769 E0.40384
G1 X201.024 Y123.174 E0.03853
G1 X193.371 Y117.631 E0.404
G1 X184.441 Y113.322 E0.42395
G1 X174.869 Y110.675 E0.42464
G1 X165.005 Y109.786 E0.42341
G1 X155.13 Y110.675 E0.42392
G1 X145.559 Y113.322 E0.42458
G1 X136.629 Y117.631 E0.42397
G1 X128.976 Y123.174 E0.40398
G1 X128.377 Y123.698 E0.03404
G1 E-0.6 F3000
M204 S1500
G1 X123.932 Y135.611 F9000
M204 S500
G1 X119.486 Y147.524
G1 E0.6 F1800
;TYPE:Internal perimeter
G1 F600
G1 X121.896 Y141.882 E0.26233
G1 X126.73 Y134.549 E0.3755
G1 X132.795 Y128.2 E0.3754
G1 X139.894 Y123.037 E0.37531
G1 X147.801 Y119.226 E0.37529
G1 X156.26 Y116.889 E0.3752
G1 X165 Y116.101 E0.3752
G1 X173.74 Y116.889 E0.3752
G1 X182.199 Y119.226 E0.3752
G1 X190.106 Y123.037 E0.37529
G1 X197.205 Y128.2 E0.37531
G1 X203.27 Y134.549 E0.3754
G1 X208.104 Y141.882 E0.3755
G1 X211.553 Y149.959 E0.37553
G1 X213.506 Y158.524 E0.37558
G1 X213.9 Y167.3 E0.3756
G1 X212.722 Y176.004 E0.37555
G1 X210.01 Y184.359 E0.37558
G1 X205.852 Y192.095 E0.37549
G1 X200.38 Y198.963 E0.37547
G1 X193.771 Y204.742 E0.37534
G1 X186.238 Y209.248 E0.37531
G1 X178.022 Y212.334 E0.37525
G1 X169.387 Y213.903 E0.37522
G1 X160.613 Y213.903 E0.37515
G1 X151.978 Y212.334 E0.37522
G1 X143.762 Y209.248 E0.37525
G1 X136.229 Y204.742 E0.37531
G1 X129.62 Y198.963 E0.37534
G1 X124.148 Y192.095 E0.37547
G1 X119.99 Y184.359 E0.37549
G1 X117.278 Y176.004 E0.37558
G1 X116.1 Y167.3 E0.37555
G1 X116.494 Y158.524 E0.3756
G1 X118.447 Y149.959 E0.37558
G1 X119.463 Y147.579 E0.11063
M204 S1500
G1 X119.266 Y147.495 F9000
M204 S500
G1 X119.069 Y147.411
G1 F600
G1 X121.517 Y141.678 E0.26654
G1 X126.394 Y134.281 E0.3788
G1 X132.512 Y127.876 E0.3787
G1 X139.673 Y122.668 E0.37861
G1 X147.65 Y118.823 E0.37859
G1 X156.183 Y116.465 E0.3785
G1 X165 Y115.671 E0.3785
G1 X173.817 Y116.465 E0.3785
G1 X182.35 Y118.823 E0.3785
G1 X190.327 Y122.668 E0.37859
G1 X197.488 Y127.876 E0.37861
G1 X203.606 Y134.281 E0.3787
G1 X208.483 Y141.678 E0.3788
G1 X211.963 Y149.826 E0.37883
G1 X213.932 Y158.466 E0.37887
G1 X214.329 Y167.319 E0.37889
G1 X213.142 Y176.1 E0.37885
G1 X210.406 Y184.528 E0.37888
G1 X206.211 Y192.331 E0.37878
G1 X200.691 Y199.26 E0.37877
G1 X194.024 Y205.09 E0.37864
G1 X186.425 Y209.635 E0.37861
G1 X178.136 Y212.749 E0.37855
G1 X169.426 Y214.332 E0.37852
G1 X160.574 Y214.332 E0.37845
G1 X151.864 Y212.749 E0.37852
G1 X143.575 Y209.635 E0.37855
G1 X135.976 Y205.09 E0.37861
G1 X129.309 Y199.26 E0.37864
G1 X123.789 Y192.331 E0.37877
G1 X119.594 Y184.528 E0.37878
G1 X116.858 Y176.1 E0.37888
G1 X115.671 Y167.319 E0.37885
G1 X116.068 Y158.466 E0.37889
G1 X118.037 Y149.826 E0.37887
G1 X119.045 Y147.466 E0.10972
M204 S1500
G1 X118.848 Y147.382 F9000
M204 S500
G1 X118.651 Y147.298
;TYPE:External perimeter
G1 F600
G1 X121.138 Y141.474 E0.27076
G1 X126.057 Y134.013 E0.38209
G1 X132.229 Y127.552 E0.382
G1 X139.453 Y122.299 E0.38191
G1 X147.499 Y118.421 E0.38189
G1 X156.106 Y116.042 E0.3818
G1 X165 Y115.241 E0.3818
G1 X173.894 Y116.042 E0.3818
G1 X182.501 Y118.421 E0.3818
G1 X190.547 Y122.299 E0.38189
G1 X197.771 Y127.552 E0.38191
G1 X203.943 Y134.013 E0.382
G1 X208.862 Y141.474 E0.38209
G1 X212.372 Y149.693 E0.38212
G1 X214.358 Y158.408 E0.38217
G1 X214.759 Y167.338 E0.38219
G1 X213.561 Y176.195 E0.38214
G1 X210.801 Y184.697 E0.38217
G1 X206.57 Y192.568 E0.38208
G1 X201.002 Y199.558 E0.38206
G1 X194.277 Y205.438 E0.38194
G1 X186.611 Y210.023 E0.38191
G1 X178.251 Y213.164 E0.38185
G1 X169.464 Y214.76 E0.38182
G1 X160.536 Y214.76 E0.38175
G1 X151.749 Y213.164 E0.38182
G1 X143.389 Y210.023 E0.38185
G1 X135.723 Y205.438 E0.38191
G1 X128.998 Y199.558 E0.38194
G1 X123.43 Y192.568 E0.38206
G1 X119.199 Y184.697 E0.38208
G1 X116.439 Y176.195 E0.38217
G1 X115.241 Y167.338 E0.38214
G1 X115.642 Y158.408 E0.38219
G1 X117.628 Y149.693 E0.38217
G1 X118.628 Y147.353 E0.1088
;WIPE_START
G1 X119.048 Y147.25 F9000
;WIPE_END
G1 E-0.6 F3000
M204 S1500
G1 X160.983 Y140.824 F9000
M204 S500
G1 X202.917 Y134.397
G1 E0.6 F1800
;TYPE:Solid infill
;WIDTH:0.480236
G1 X196.941 Y128.422 E0.36151
G1 X194.72 Y126.806 E0.11751
G1 X203.655 Y135.742 E0.54057
G1 X204.828 Y137.521 E0.09114
G1 X192.498 Y125.19 E0.74592
G1 X190.276 Y123.575 E0.11751
G1 X206.001 Y139.299 E0.95127
G1 X207.174 Y141.078 E0.09114
G1 X188.944 Y122.848 E1.10281
G1 X187.774 Y122.285 E0.05555
G1 X208.016 Y142.526 E1.2245
G1 X208.467 Y143.584 E0.0492
G1 X186.604 Y121.721 E1.3226
G1 X185.435 Y121.157 E0.05555
G1 X208.919 Y144.641 E1.42069
G1 X209.371 Y145.699 E0.0492
G1 X184.265 Y120.593 E1.51879
G1 X183.095 Y120.029 E0.05555
G1 X209.822 Y146.757 E1.61688
G1 X210.274 Y147.814 E0.0492
G1 X181.969 Y119.509 E1.7123
G1 X181.132 Y119.278 E0.03716
G1 X210.726 Y148.872 E1.79028
G1 X211.177 Y149.929 E0.0492
G1 X180.294 Y119.047 E1.86826
G1 X179.457 Y118.815 E0.03716
G1 X211.391 Y150.749 E1.93182
G1 X211.569 Y151.534 E0.03444
G1 X178.62 Y118.584 E1.9933
G1 X177.782 Y118.352 E0.03716
G1 X211.748 Y152.318 E2.05478
G1 X211.927 Y153.103 E0.03444
G1 X176.945 Y118.121 E2.11626
G1 X176.108 Y117.89 E0.03716
G1 X212.106 Y153.888 E2.17774
G1 X212.285 Y154.673 E0.03444
G1 X175.27 Y117.658 E2.23922
G1 X174.433 Y117.427 E0.03716
G1 X212.464 Y155.458 E2.3007
G1 X212.643 Y156.243 E0.03444
G1 X173.613 Y117.213 E2.36113
G1 X172.947 Y117.153 E0.0286
G1 X212.822 Y157.028 E2.41224
G1 X213.001 Y157.813 E0.03444
G1 X172.281 Y117.093 E2.46335
G1 X171.615 Y117.033 E0.0286
G1 X213.174 Y158.592 E2.51413
G1 X213.203 Y159.226 E0.02717
G1 X170.949 Y116.973 E2.55614
G1 X170.283 Y116.913 E0.0286
G1 X213.231 Y159.861 E2.59815
G1 X213.26 Y160.495 E0.02717
G1 X169.617 Y116.853 E2.64016
G1 X168.951 Y116.793 E0.0286
G1 X213.288 Y161.13 E2.68218
G1 X213.317 Y161.764 E0.02717
G1 X168.285 Y116.733 E2.72419
G1 X167.619 Y116.673 E0.0286
G1 X213.345 Y162.399 E2.7662
G1 X213.374 Y163.033 E0.02717
G1 X166.953 Y116.613 E2.80821
G1 X166.287 Y116.553 E0.0286
G1 X213.402 Y163.668 E2.85022
G1 X213.431 Y164.302 E0.02717
G1 X165.621 Y116.493 E2.89223
G1 X165 Y116.437 E0.02668
G1 X164.963 Y116.44 E0.00161
G1 X213.459 Y164.937 E2.9338
G1 X213.488 Y165.571 E0.02717
G1 X164.407 Y116.49 E2.96915
G1 X163.851 Y116.541 E0.02388
G1 X213.516 Y166.206 E3.00451
G1 X213.545 Y166.84 E0.02717
G1 X163.295 Y116.591 E3.03986
G1 X162.739 Y116.641 E0.02388
G1 X213.543 Y167.445 E3.07339
G1 X213.471 Y167.978 E0.02304
G1 X162.183 Y116.691 E3.10265
G1 X161.627 Y116.741 E0.02388
G1 X213.398 Y168.512 E3.13191
G1 X213.326 Y169.046 E0.02304
G1 X161.071 Y116.791 E3.16117
G1 X160.515 Y116.841 E0.02388
G1 X213.254 Y169.58 E3.19043
G1 X213.182 Y170.113 E0.02304
G1 X159.959 Y116.891 E3.2197
G1 X159.403 Y116.941 E0.02388
G1 X213.11 Y170.647 E3.24896
G1 X213.037 Y171.181 E0.02304
G1 X158.848 Y116.991 E3.27822
G1 X158.292 Y117.041 E0.02388
G1 X212.965 Y171.715 E3.30748
G1 X212.893 Y172.249 E0.02304
G1 X157.736 Y117.091 E3.33674
G1 X157.18 Y117.141 E0.02388
G1 X212.821 Y172.782 E3.366
G1 X212.749 Y173.316 E0.02304
G1 X156.624 Y117.191 E3.39527
G1 X156.32 Y117.219 E0.01306
G1 X156.105 Y117.278 E0.00955
G1 X212.676 Y173.85 E3.4223
G1 X212.604 Y174.384 E0.02304
G1 X155.63 Y117.409 E3.44666
G1 X155.155 Y117.541 E0.02107
G1 X212.532 Y174.917 E3.47101
G1 X212.46 Y175.451 E0.02304
G1 X154.68 Y117.672 E3.49536
G1 X154.206 Y117.803 E0.02107
G1 X212.38 Y175.977 E3.51924
G1 X212.231 Y176.435 E0.02057
G1 X153.731 Y117.934 E3.53898
G1 X153.256 Y118.065 E0.02107
G1 X212.083 Y176.892 E3.55872
G1 X211.934 Y177.349 E0.02057
G1 X152.781 Y118.197 E3.57846
G1 X152.306 Y118.328 E0.02107
G1 X211.786 Y177.807 E3.5982
G1 X211.637 Y178.264 E0.02057
G1 X151.832 Y118.459 E3.61793
G1 X151.357 Y118.59 E0.02107
G1 X211.489 Y178.722 E3.63767
G1 X211.34 Y179.179 E0.02057
G1 X150.882 Y118.721 E3.65741
G1 X150.407 Y118.853 E0.02107
G1 X211.192 Y179.637 E3.67715
G1 X211.043 Y180.094 E0.02057
G1 X149.933 Y118.984 E3.69689
G1 X149.458 Y119.115 E0.02107
G1 X210.895 Y180.552 E3.71663
G1 X210.746 Y181.009 E0.02057
G1 X148.983 Y119.246 E3.73637
G1 X148.508 Y119.377 E0.02107
G1 X210.598 Y181.467 E3.75611
G1 X210.449 Y181.924 E0.02057
G1 X148.033 Y119.509 E3.77584
G1 X147.919 Y119.54 E0.00506
G1 X147.609 Y119.69 E0.01475
G1 X210.301 Y182.382 E3.79255
G1 X210.152 Y182.839 E0.02057
G1 X147.2 Y119.887 E3.80831
G1 X146.791 Y120.084 E0.01942
G1 X210.004 Y183.297 E3.82406
G1 X209.855 Y183.754 E0.02057
G1 X146.382 Y120.281 E3.83981
G1 X145.973 Y120.478 E0.01942
G1 X209.707 Y184.212 E3.85557
G1 X209.497 Y184.608 E0.01918
G1 X145.564 Y120.675 E3.86762
G1 X145.155 Y120.872 E0.01942
G1 X209.285 Y185.002 E3.87954
G1 X209.073 Y185.396 E0.01914
G1 X144.746 Y121.07 E3.89146
G1 X144.338 Y121.267 E0.01942
G1 X208.861 Y185.79 E3.90337
G1 X208.649 Y186.185 E0.01914
G1 X143.929 Y121.464 E3.91529
G1 X143.52 Y121.661 E0.01942
G1 X208.438 Y186.579 E3.92721
G1 X208.226 Y186.973 E0.01914
G1 X143.111 Y121.858 E3.93913
G1 X142.702 Y122.055 E0.01942
G1 X208.014 Y187.367 E3.95105
G1 X207.802 Y187.761 E0.01914
G1 X142.293 Y122.252 E3.96297
G1 X141.884 Y122.449 E0.01942
G1 X207.59 Y188.155 E3.97489
G1 X207.378 Y188.549 E0.01914
G1 X141.475 Y122.646 E3.9868
G1 X141.066 Y122.843 E0.01942
G1 X207.166 Y188.943 E3.99872
G1 X206.954 Y189.337 E0.01914
G1 X140.657 Y123.04 E4.01064
G1 X140.249 Y123.238 E0.01942
G1 X206.743 Y189.731 E4.02256
G1 X206.531 Y190.126 E0.01914
G1 X139.872 Y123.467 E4.03253
G1 X139.521 Y123.722 E0.01856
G1 X206.319 Y190.52 E4.04094
G1 X206.107 Y190.914 E0.01914
G1 X139.17 Y123.977 E4.04934
G1 X138.819 Y124.232 E0.01856
G1 X205.895 Y191.308 E4.05775
G1 X205.683 Y191.702 E0.01914
G1 X138.469 Y124.487 E4.06616
G1 X138.118 Y124.743 E0.01856
G1 X205.444 Y192.069 E4.07294
G1 X205.176 Y192.407 E0.01845
G1 X137.767 Y124.998 E4.07791
G1 X137.416 Y125.253 E0.01856
G1 X204.907 Y192.744 E4.08288
G1 X204.638 Y193.081 E0.01845
G1 X137.065 Y125.508 E4.08785
G1 X136.714 Y125.763 E0.01856
G1 X204.37 Y193.418 E4.09281
G1 X204.101 Y193.756 E0.01845
G1 X136.364 Y126.018 E4.09778
G1 X136.013 Y126.273 E0.01856
G1 X203.832 Y194.093 E4.10275
G1 X203.564 Y194.43 E0.01845
G1 X135.662 Y126.529 E4.10772
G1 X135.311 Y126.784 E0.01856
G1 X203.295 Y194.768 E4.11269
G1 X203.026 Y195.105 E0.01845
G1 X134.96 Y127.039 E4.11766
G1 X134.609 Y127.294 E0.01856
G1 X202.757 Y195.442 E4.12263
G1 X202.489 Y195.779 E0.01845
G1 X134.258 Y127.549 E4.1276
G1 X133.908 Y127.804 E0.01856
G1 X202.22 Y196.117 E4.13257
G1 X201.951 Y196.454 E0.01845
G1 X133.557 Y128.059 E4.13754
G1 X133.206 Y128.315 E0.01856
G1 X201.683 Y196.791 E4.1425
G1 X201.414 Y197.128 E0.01845
G1 X132.88 Y128.595 E4.14595
G1 X132.584 Y128.905 E0.01833
G1 X201.145 Y197.466 E4.14761
G1 X200.877 Y197.803 E0.01845
G1 X132.288 Y129.215 E4.14926
G1 X131.992 Y129.525 E0.01833
G1 X200.608 Y198.14 E4.15092
G1 X200.339 Y198.478 E0.01845
G1 X131.696 Y129.835 E4.15257
G1 X131.4 Y130.144 E0.01833
G1 X200.057 Y198.801 E4.15341
G1 X199.734 Y199.084 E0.01837
G1 X131.104 Y130.454 E4.15176
G1 X130.808 Y130.764 E0.01833
G1 X199.41 Y199.367 E4.15011
G1 X199.087 Y199.65 E0.01837
G1 X130.512 Y131.074 E4.14847
G1 X130.216 Y131.384 E0.01833
G1 X198.764 Y199.932 E4.14682
G1 X198.441 Y200.215 E0.01837
G1 X129.92 Y131.694 E4.14517
G1 X129.624 Y132.004 E0.01833
G1 X198.117 Y200.498 E4.14352
G1 X197.794 Y200.78 E0.01837
G1 X129.328 Y132.314 E4.14188
G1 X129.032 Y132.624 E0.01833
G1 X197.471 Y201.063 E4.14023
G1 X197.147 Y201.346 E0.01837
G1 X128.736 Y132.934 E4.13858
G1 X128.44 Y133.244 E0.01833
G1 X196.824 Y201.628 E4.13693
G1 X196.501 Y201.911 E0.01837
G1 X128.144 Y133.554 E4.13529
G1 X127.847 Y133.864 E0.01833
G1 X196.178 Y202.194 E4.13364
G1 X195.854 Y202.477 E0.01837
G1 X127.551 Y134.174 E4.13199
G1 X127.255 Y134.484 E0.01833
G1 X195.531 Y202.759 E4.13034
G1 X195.208 Y203.042 E0.01837
G1 X126.966 Y134.8 E4.12832
G1 X126.725 Y135.165 E0.01871
G1 X194.884 Y203.325 E4.12333
G1 X194.561 Y203.607 E0.01837
G1 X126.484 Y135.53 E4.11834
G1 X126.243 Y135.895 E0.01871
G1 X194.238 Y203.89 E4.11335
G1 X193.915 Y204.173 E0.01837
G1 X126.002 Y136.261 E4.10836
G1 X125.762 Y136.626 E0.01871
G1 X193.591 Y204.456 E4.10337
G1 X193.574 Y204.471 E0.001
G1 X193.215 Y204.685 E0.01788
G1 X125.521 Y136.991 E4.09518
G1 X125.28 Y137.356 E0.01871
G1 X192.836 Y204.912 E4.0868
G1 X192.457 Y205.139 E0.0189
G1 X125.039 Y137.721 E4.07843
G1 X124.799 Y138.087 E0.01871
G1 X192.078 Y205.366 E4.07006
G1 X191.698 Y205.592 E0.0189
G1 X124.558 Y138.452 E4.06168
G1 X124.317 Y138.817 E0.01871
G1 X191.319 Y205.819 E4.05331
G1 X190.94 Y206.046 E0.0189
G1 X124.076 Y139.182 E4.04494
G1 X123.835 Y139.547 E0.01871
G1 X190.561 Y206.273 E4.03656
G1 X190.182 Y206.5 E0.0189
G1 X123.595 Y139.913 E4.02819
G1 X123.354 Y140.278 E0.01871
G1 X189.802 Y206.726 E4.01982
G1 X189.423 Y206.953 E0.0189
G1 X123.113 Y140.643 E4.01145
G1 X122.872 Y141.008 E0.01871
G1 X189.044 Y207.18 E4.00307
G1 X188.665 Y207.407 E0.0189
G1 X122.631 Y141.373 E3.9947
G1 X122.391 Y141.739 E0.01871
G1 X188.286 Y207.634 E3.98633
G1 X187.906 Y207.86 E0.0189
