; Postprocessed by [ArcWelder](https://github.com/FormerLurker/ArcWelderLib)
; Copyright(C) 2021 - Brad Hochgesang
; Version: 1.2.0, Branch: HEAD, BuildDate: 2021-11-21T20:25:43Z
; resolution=0.05mm
; path_tolerance=5.0%
; max_radius=9999.00mm
; g90_influences_extruder=True
; default_xyz_precision=3
; default_e_precision=5
; extrusion_rate_variance_percent=5.0%

; generated by SuperSlicer 2.4 on 2022-04-30 at 04:12:47 UTC







; 

; external perimeters extrusion width = 0.40mm
; perimeters extrusion width = 0.40mm
; infill extrusion width = 0.72mm
; solid infill extrusion width = 0.56mm
; top infill extrusion width = 0.40mm
; first layer extrusion width = 0.48mm

; object:{"name":"Armrest_spacer_v1","id":"Armrest_spacer_v1.STL id:0 copy 0","object_center":[165.000000,165.000000,0.000000],"boundingbox_center":[165.000000,165.000000,6.350000],"boundingbox_size":[110.000000,57.500000,12.700000]}
; plater:{"center":[165.000000,165.000000,0.000000],"boundingbox_center":[165.000000,165.000000,6.350000],"boundingbox_size":[110.000000,57.500000,12.700000]}

M73 P0 R64
;TYPE:Custom
START_PRINT T_BED=60 T_EXTRUDER=200
M107
G21 ; set units to millimeters
G90 ; use absolute coordinates
M83 ; use relative distances for extrusion
; Filament gcode
M104 S200 ; set temperature
M109 S200 ; set temperature and wait for it to be reached
M190 S60 ; set bed temperature and wait for it to be reached
M107
;LAYER_CHANGE
;Z:0.24
;HEIGHT:0.24
G1 Z0.24 F9000
G92 E0
G1 E-0.8 F3000
M204 S1000
G1 X108.647 Y134.502 F9000
G1 E0.8 F1800
;TYPE:Skirt
;WIDTH:0.52
G1 X108.296 Y134.786 E0.02108
G1 X107.485 Y135.941 E0.06599
G1 X107.149 Y136.772 E0.04189
G1 X106.926 Y138.256 E0.07017
G1 X106.926 Y191.744 E2.50037
G2 X107.650 Y194.358 I5.328 J-0.068 E0.12807
G1 X108.536 Y195.454 E0.06587
G1 X109.691 Y196.266 E0.06599
G1 X110.522 Y196.601 E0.04189
G1 X112.006 Y196.824 E0.07017
G1 X217.994 Y196.824 E4.95457
G2 X220.608 Y196.100 I-0.068 J-5.328 E0.12807
G1 X221.704 Y195.214 E0.06586
G1 X222.256 Y194.508 E0.04189
G1 X222.727 Y193.572 E0.04901
G2 X223.065 Y192.005 I-4.458 J-1.782 E0.07520
G1 X223.054 Y137.869 E2.53068
G1 X222.882 Y136.882 E0.04683
G1 X222.405 Y135.744 E0.05766
G2 X218.736 Y133.234 I-4.412 J2.513 E0.21485
G1 X215.562 Y133.177 E0.14838
G1 X112.006 Y133.176 E4.84089
G2 X108.647 Y134.502 I-0.015 J4.879 E0.17285
G1 X108.936 Y134.862 F9000
G1 F1800
G1 X108.642 Y135.098 E0.0176
G1 X107.904 Y136.145 E0.05992
G1 X107.592 Y136.916 E0.03885
G1 X107.392 Y138.256 E0.06335
G1 X107.392 Y191.744 E2.50037
G2 X108.046 Y194.111 I4.782 J-0.047 E0.11593
G1 X108.848 Y195.108 E0.0598
G1 X109.895 Y195.846 E0.05992
G1 X110.666 Y196.158 E0.03885
G1 X112.006 Y196.358 E0.06335
G1 X217.994 Y196.358 E4.95457
G2 X220.361 Y195.704 I-0.047 J-4.782 E0.11593
G1 X221.358 Y194.902 E0.05979
G1 X221.869 Y194.247 E0.03885
G2 X222.600 Y191.972 I-4.011 J-2.544 E0.11281
G1 X222.59 Y137.917 E2.52688
G1 X222.436 Y137.018 E0.04265
G1 X221.994 Y135.963 E0.05348
G2 X218.679 Y133.696 I-3.993 J2.281 E0.19396
G1 X215.562 Y133.643 E0.14572
G1 X112.006 Y133.642 E4.84089
G2 X108.936 Y134.862 I-0.010 J4.448 E0.15813
; INIT printing object Armrest_spacer_v1.STL id:0 copy 0
G1 E-0.8 F3000
; printing object Armrest_spacer_v1.STL id:0 copy 0
; acceleration to travel
M204 S4000
G1 X167.172 Y157.547 F9000
; decel to extrusion
M204 S1000
G1 X181.731 Y163.219
; end travel
G1 E0.8 F1800
;TYPE:Internal perimeter
;WIDTH:0.48
G2 X187.208 Y171.472 I5.517 J2.283 E0.49932
G1 X203.792 Y171.472 E0.70904
G2 X203.792 Y159.528 I-0.040 J-5.972 E0.79842
G1 X187.219 Y159.528 E0.70859
G2 X181.731 Y163.219 I0.028 J5.968 E0.29963
G1 X182.112 Y163.417 F9000
G1 F1800
G2 X187.223 Y171.044 I5.138 J2.083 E0.46236
G1 X203.777 Y171.044 E0.70776
G2 X203.777 Y159.956 I-0.027 J-5.544 E0.74209
G1 X187.23 Y159.956 E0.70747
G2 X182.112 Y163.417 I0.018 J5.542 E0.28011
G1 X182.508 Y163.581 F9000
;TYPE:External perimeter
G1 F1800
G2 X187.238 Y170.615 I4.742 J1.919 E0.42700
G1 X203.762 Y170.615 E0.70648
G2 X203.762 Y160.385 I-0.011 J-5.115 E0.68576
G1 X187.241 Y160.385 E0.70635
G2 X182.508 Y163.581 I0.008 J5.114 E0.25899
;WIPE_START
M204 S5000
G1 X182.344 Y163.605 F9000
;WIPE_END
; acceleration to travel
M204 S4000
G1 X162.7 Y175.757
; decel to extrusion
M204 S1000
G1 X157.789 Y178.795
; end travel
;TYPE:Internal perimeter
G1 F1800
G2 X152.792 Y176.028 I-5.030 J3.188 E0.25458
G1 X136.229 Y176.028 E0.70814
G2 X136.208 Y187.972 I0.020 J5.972 E0.79938
G1 X152.792 Y187.972 E0.70904
G2 X157.789 Y178.795 I-0.038 J-5.970 E0.54382
G1 X157.438 Y179.041 F9000
G1 F1800
G2 X152.777 Y176.456 I-4.684 J2.951 E0.23762
G1 X136.237 Y176.456 E0.70718
G2 X136.223 Y187.544 I0.012 J5.544 E0.74274
G1 X152.777 Y187.544 E0.70776
G2 X157.438 Y179.041 I-0.026 J-5.543 E0.50445
G1 X157.087 Y179.287 F9000
;TYPE:External perimeter
G1 F1800
G2 X152.762 Y176.885 I-4.334 J2.709 E0.22067
G1 X136.244 Y176.885 E0.70622
G2 X136.238 Y187.115 I0.006 J5.115 E0.68610
G1 X152.762 Y187.115 E0.70648
M73 P1 R64
G2 X157.087 Y179.287 I-0.011 J-5.115 E0.46509
;WIPE_START
M204 S5000
G1 X157.266 Y178.929 F9000
;WIPE_END
; acceleration to travel
M204 S4000
G1 X154.268 Y159.723
; decel to extrusion
M204 S1000
G1 X153.519 Y154.921
; end travel
;TYPE:Internal perimeter
G1 F1800
G2 X152.792 Y143.028 I-0.768 J-5.922 E0.76725
G1 X136.219 Y143.028 E0.70859
G2 X136.208 Y154.972 I0.030 J5.972 E0.79893
G1 X152.792 Y154.972 E0.70904
G1 X153.519 Y154.921 E0.03116
G1 X153.489 Y154.494 F9000
G1 F1800
G2 X152.777 Y143.456 I-0.739 J-5.494 E0.71155
G1 X136.23 Y143.456 E0.70747
G2 X136.223 Y154.544 I0.019 J5.544 E0.74244
G1 X152.777 Y154.544 E0.70776
G1 X153.489 Y154.494 E0.03052
G1 X153.459 Y154.066 F9000
;TYPE:External perimeter
G1 F1800
G2 X152.762 Y143.885 I-0.708 J-5.066 E0.65584
G1 X136.241 Y143.885 E0.70635
G2 X136.238 Y154.115 I0.009 J5.115 E0.68597
G1 X152.762 Y154.115 E0.70648
G2 X153.459 Y154.066 I-4.530 J-69.413 E0.02988
;WIPE_START
M204 S5000
G1 X153.505 Y154.124 F9000
;WIPE_END
G1 E-0.8 F3000
; acceleration to travel
M204 S4000
G1 X153.468 Y141.203 F9000
; decel to extrusion
M204 S1000
G1 X153.459 Y137.973
; end travel
G1 E0.8 F1800
;TYPE:Internal perimeter
G1 X217.978 Y137.973 E2.75854
G3 X218.278 Y138.313 I-0.009 J0.310 E0.02169
G1 X218.278 Y191.68 E2.28175
G3 X217.927 Y192.028 I-0.308 J0.041 E0.02417
G1 X112.073 Y192.028 E4.52582
G3 X111.722 Y191.677 I-0.043 J-0.308 E0.02431
G1 X111.722 Y138.323 E2.28116
G3 X112.073 Y137.972 I0.313 J-0.038 E0.02419
G1 X112.498 Y137.972 E0.01816
G1 X153.459 Y137.973 E1.75132
G1 X153.459 Y137.544 F9000
G1 F1800
G1 X218.004 Y137.545 E2.75966
G3 X218.706 Y138.290 I-0.012 J0.714 E0.04867
G1 X218.706 Y191.709 E2.28395
M73 P1 R63
G3 X217.953 Y192.456 I-0.719 J0.029 E0.05073
G1 X112.047 Y192.456 E4.52806
G3 X111.294 Y191.703 I-0.034 J-0.719 E0.05100
G1 X111.294 Y138.297 E2.2834
G3 X112.047 Y137.544 I0.715 J-0.038 E0.05107
G1 X112.498 Y137.544 E0.01928
G1 X153.459 Y137.544 E1.75132
G1 X153.459 Y137.116 F9000
;TYPE:External perimeter
G1 F1800
G1 X218.031 Y137.116 E2.76078
G3 X219.135 Y138.268 I-0.035 J1.138 E0.07543
G1 X219.135 Y191.738 E2.28615
G3 X217.979 Y192.885 I-1.137 J0.010 E0.07739
G1 X112.021 Y192.885 E4.5303
G3 X110.865 Y191.729 I-0.019 J-1.137 E0.07777
G1 X110.865 Y138.271 E2.28564
G3 X112.021 Y137.115 I1.137 J-0.019 E0.07777
G1 X112.498 Y137.115 E0.0204
G1 X153.459 Y137.116 E1.75132
;WIPE_START
M204 S5000
M73 P2 R63
G1 X153.659 Y137.462 F9000
;WIPE_END
; acceleration to travel
M204 S4000
G1 X203.751 Y138.611
; decel to extrusion
M204 S1000
G1 X218.063 Y138.939
; end travel
;TYPE:Solid infill
;WIDTH:0.476226
G1 F3600
G1 X217.38 Y138.256 E0.04103
G1 X216.773 Y138.255 E0.02571
G1 X217.88 Y139.362 E0.06639
G1 X217.881 Y139.969 E0.02576
G1 X216.167 Y138.255 E0.10283
G1 X215.561 Y138.255 E0.02571
G1 X217.882 Y140.576 E0.13927
G1 X217.884 Y141.184 E0.02576
G1 X214.955 Y138.255 E0.1757
G1 X214.349 Y138.255 E0.02571
G1 X217.885 Y141.791 E0.21214
G1 X217.886 Y142.398 E0.02576
G1 X213.742 Y138.254 E0.24858
G1 X213.136 Y138.254 E0.02571
G1 X217.887 Y143.005 E0.28501
G1 X217.888 Y143.612 E0.02576
G1 X212.53 Y138.254 E0.32145
G1 X211.924 Y138.254 E0.02571
G1 X217.89 Y144.22 E0.35789
G1 X217.891 Y144.827 E0.02576
G1 X211.318 Y138.254 E0.39433
G1 X210.711 Y138.253 E0.02571
G1 X217.892 Y145.434 E0.43076
G1 X217.893 Y146.041 E0.02576
G1 X210.105 Y138.253 E0.4672
G1 X209.499 Y138.253 E0.02571
G1 X217.894 Y146.648 E0.50364
G1 X217.896 Y147.255 E0.02576
G1 X208.893 Y138.253 E0.54007
G1 X208.287 Y138.253 E0.02571
G1 X217.897 Y147.863 E0.57651
G1 X217.898 Y148.47 E0.02576
G1 X207.681 Y138.252 E0.61295
G1 X207.074 Y138.252 E0.02571
G1 X217.899 Y149.077 E0.64939
G1 X217.9 Y149.684 E0.02576
G1 X206.468 Y138.252 E0.68582
G1 X205.862 Y138.252 E0.02571
G1 X217.902 Y150.291 E0.72226
G1 X217.903 Y150.899 E0.02576
G1 X205.256 Y138.252 E0.7587
G1 X204.65 Y138.251 E0.02571
G1 X217.904 Y151.506 E0.79513
G1 X217.905 Y152.113 E0.02576
G1 X204.043 Y138.251 E0.83157
G1 X203.437 Y138.251 E0.02571
G1 X217.906 Y152.72 E0.86801
G1 X217.908 Y153.327 E0.02576
G1 X202.831 Y138.251 E0.90445
G1 X202.225 Y138.251 E0.02571
G1 X217.909 Y153.935 E0.94088
G1 X217.91 Y154.542 E0.02576
G1 X201.619 Y138.25 E0.97732
G1 X201.013 Y138.25 E0.02571
G1 X217.911 Y155.149 E1.01376
G1 X217.913 Y155.756 E0.02576
G1 X200.406 Y138.25 E1.05019
G1 X199.8 Y138.25 E0.02571
G1 X217.914 Y156.363 E1.08663
G1 X217.915 Y156.97 E0.02576
G1 X199.194 Y138.25 E1.12307
G1 X198.588 Y138.249 E0.02571
G1 X217.916 Y157.578 E1.15951
G1 X217.917 Y158.185 E0.02576
G1 X197.982 Y138.249 E1.19594
G1 X197.375 Y138.249 E0.02571
G1 X217.919 Y158.792 E1.23238
G1 X217.92 Y159.399 E0.02576
G1 X196.769 Y138.249 E1.26882
G1 X196.163 Y138.249 E0.02571
G1 X217.921 Y160.006 E1.30525
G1 X217.922 Y160.614 E0.02576
G1 X195.557 Y138.248 E1.34169
G1 X194.951 Y138.248 E0.02571
G1 X217.923 Y161.221 E1.37813
G1 X217.925 Y161.828 E0.02576
G1 X194.344 Y138.248 E1.41456
G1 X193.738 Y138.248 E0.02571
G1 X217.926 Y162.435 E1.451
G1 X217.927 Y163.042 E0.02576
G1 X193.132 Y138.247 E1.48744
G1 X192.526 Y138.247 E0.02571
G1 X217.928 Y163.65 E1.52388
G1 X217.929 Y164.257 E0.02576
G1 X191.92 Y138.247 E1.56031
G1 X191.314 Y138.247 E0.02571
G1 X217.931 Y164.864 E1.59675
G1 X217.932 Y165.471 E0.02576
G1 X190.707 Y138.247 E1.63319
G1 X190.101 Y138.246 E0.02571
G1 X217.933 Y166.078 E1.66962
G1 X217.934 Y166.685 E0.02576
G1 X189.495 Y138.246 E1.70606
G1 X188.889 Y138.246 E0.02571
G1 X217.935 Y167.293 E1.7425
G1 X217.937 Y167.9 E0.02576
G1 X188.283 Y138.246 E1.77894
G1 X187.676 Y138.246 E0.02571
G1 X217.938 Y168.507 E1.81537
G1 X217.939 Y169.114 E0.02576
G1 X187.07 Y138.245 E1.85181
G1 X186.464 Y138.245 E0.02571
G1 X217.94 Y169.721 E1.88825
G1 X217.941 Y170.329 E0.02576
G1 X185.858 Y138.245 E1.92468
G1 X185.252 Y138.245 E0.02571
G1 X217.943 Y170.936 E1.96112
G1 X217.944 Y171.543 E0.02576
G1 X209.462 Y163.061 E0.5088
G1 X209.684 Y163.889 E0.03635
G1 X217.945 Y172.15 E0.49557
G1 X217.946 Y172.757 E0.02576
G1 X209.906 Y164.717 E0.48234
G1 X209.943 Y164.854 E0.006
G1 X209.902 Y165.319 E0.0198
G1 X217.947 Y173.364 E0.48267
G1 X217.949 Y173.972 E0.02576
G1 X209.852 Y165.876 E0.48569
G1 X209.803 Y166.432 E0.02371
G1 X217.95 Y174.579 E0.4887
G1 X217.951 Y175.186 E0.02576
G1 X209.754 Y166.989 E0.49172
G3 X209.625 Y167.466 I-0.759 J0.051 E0.02123
G1 X217.952 Y175.793 E0.49958
G1 X217.953 Y176.4 E0.02576
G1 X209.438 Y167.885 E0.51086
G1 X209.251 Y168.304 E0.01947
G1 X217.955 Y177.008 E0.52214
G1 X217.956 Y177.615 E0.02576
G1 X209.064 Y168.723 E0.53342
G3 X208.799 Y169.064 I-0.677 J-0.253 E0.01845
G1 X217.957 Y178.222 E0.54936
G1 X217.958 Y178.829 E0.02576
G1 X208.517 Y169.388 E0.56639
G1 X208.234 Y169.711 E0.01822
G1 X217.959 Y179.436 E0.58341
G1 X217.961 Y180.044 E0.02576
G1 X207.952 Y170.035 E0.60043
G3 X207.648 Y170.336 I-0.640 J-0.343 E0.01833
G1 X217.962 Y180.651 E0.61875
G1 X217.963 Y181.258 E0.02576
G1 X207.274 Y170.569 E0.64122
G1 X206.901 Y170.802 E0.01866
G1 X217.964 Y181.865 E0.66368
G1 X217.965 Y182.472 E0.02576
G1 X206.528 Y171.035 E0.68614
G3 X206.121 Y171.234 I-0.552 J-0.613 E0.01939
G1 X217.967 Y183.079 E0.71061
G1 X217.968 Y183.687 E0.02576
G1 X205.65 Y171.369 E0.73893
G1 X205.179 Y171.504 E0.02078
G1 X217.969 Y184.294 E0.76726
G1 X217.97 Y184.901 E0.02576
G1 X204.708 Y171.639 E0.79558
G1 X204.617 Y171.665 E0.00404
G1 X204.13 Y171.667 E0.02065
G1 X217.971 Y185.508 E0.83034
G1 X217.973 Y186.115 E0.02576
G1 X203.526 Y171.669 E0.86665
G1 X202.922 Y171.671 E0.02562
G1 X217.974 Y186.723 E0.90296
G1 X217.975 Y187.33 E0.02576
G1 X202.318 Y171.673 E0.93927
G1 X201.714 Y171.675 E0.02562
G1 X217.976 Y187.937 E0.97558
G1 X217.977 Y188.544 E0.02576
G1 X201.11 Y171.677 E1.01189
G1 X200.506 Y171.678 E0.02562
G1 X217.979 Y189.151 E1.0482
G1 X217.98 Y189.759 E0.02576
G1 X199.902 Y171.68 E1.08451
G1 X199.298 Y171.682 E0.02562
G1 X217.981 Y190.366 E1.12082
G1 X217.982 Y190.973 E0.02576
G1 X198.694 Y171.684 E1.15713
G1 X198.09 Y171.686 E0.02562
G1 X217.983 Y191.58 E1.19344
G1 X217.984 Y191.637 E0.0024
G1 X217.435 Y191.637 E0.02329
G1 X197.485 Y171.688 E1.19674
M73 P3 R63
G1 X196.881 Y171.69 E0.02562
G1 X216.829 Y191.638 E1.19666
G1 X216.224 Y191.638 E0.02568
G1 X196.277 Y171.692 E1.19658
G1 X195.673 Y171.694 E0.02562
G1 X215.618 Y191.639 E1.1965
G1 X215.013 Y191.639 E0.02568
G1 X195.069 Y171.696 E1.19642
G1 X194.465 Y171.698 E0.02562
G1 X214.407 Y191.64 E1.19634
G1 X213.802 Y191.64 E0.02568
G1 X193.861 Y171.7 E1.19625
M73 P3 R62
G1 X193.257 Y171.701 E0.02562
G1 X213.197 Y191.641 E1.19617
G1 X212.591 Y191.642 E0.02568
G1 X192.653 Y171.703 E1.19609
G1 X192.049 Y171.705 E0.02562
G1 X211.986 Y191.642 E1.19601
G1 X211.38 Y191.643 E0.02568
G1 X191.445 Y171.707 E1.19593
G1 X190.841 Y171.709 E0.02562
G1 X210.775 Y191.643 E1.19585
G1 X210.169 Y191.644 E0.02568
G1 X190.237 Y171.711 E1.19576
G1 X189.633 Y171.713 E0.02562
G1 X209.564 Y191.644 E1.19568
G1 X208.959 Y191.645 E0.02568
G1 X189.029 Y171.715 E1.1956
G1 X188.425 Y171.717 E0.02562
G1 X208.353 Y191.646 E1.19552
G1 X207.748 Y191.646 E0.02568
G1 X187.82 Y171.719 E1.19544
G1 X187.216 Y171.721 E0.02562
G1 X207.142 Y191.647 E1.19536
G1 X206.537 Y191.647 E0.02568
G1 X186.514 Y171.625 E1.20115
G1 X185.808 Y171.525 E0.03026
G1 X205.931 Y191.648 E1.20719
G1 X205.326 Y191.648 E0.02568
G1 X184.405 Y170.727 E1.25505
G1 E-0.8 F3000
; acceleration to travel
M204 S4000
G1 X202.406 Y162.549 F9000
; decel to extrusion
M204 S1000
G1 X206.906 Y160.505
; end travel
G1 E0.8 F1800
G1 F3600
G1 X184.646 Y138.245 E1.33539
G1 X184.039 Y138.244 E0.02571
G1 X205.351 Y159.557 E1.27851
G1 X204.612 Y159.423 E0.03187
G1 X183.433 Y138.244 E1.27052
G1 X182.827 Y138.244 E0.02571
G1 X203.873 Y159.29 E1.26254
G2 X203.256 Y159.279 I-0.338 J1.649 E0.02619
G1 X182.221 Y138.244 E1.26191
G1 X181.615 Y138.244 E0.02571
G1 X202.65 Y159.279 E1.26192
G1 X202.044 Y159.279 E0.02571
G1 X181.008 Y138.243 E1.26194
G1 X180.402 Y138.243 E0.02571
G1 X201.438 Y159.279 E1.26195
G1 X200.832 Y159.279 E0.02571
G1 X179.796 Y138.243 E1.26196
G1 X179.19 Y138.243 E0.02571
G1 X200.226 Y159.279 E1.26197
G1 X199.62 Y159.279 E0.02571
G1 X178.584 Y138.243 E1.26199
G1 X177.977 Y138.242 E0.02571
G1 X199.014 Y159.279 E1.262
G1 X198.408 Y159.279 E0.02571
G1 X177.371 Y138.242 E1.26201
G1 X176.765 Y138.242 E0.02571
G1 X197.802 Y159.279 E1.26202
G1 X197.196 Y159.279 E0.02571
G1 X176.159 Y138.242 E1.26203
G1 X175.553 Y138.242 E0.02571
G1 X196.59 Y159.279 E1.26205
G1 X195.984 Y159.279 E0.02571
G1 X174.947 Y138.241 E1.26206
G1 X174.34 Y138.241 E0.02571
G1 X195.378 Y159.279 E1.26207
G1 X194.772 Y159.279 E0.02571
G1 X173.734 Y138.241 E1.26208
G1 X173.128 Y138.241 E0.02571
G1 X194.166 Y159.279 E1.26209
G1 X193.56 Y159.279 E0.02571
G1 X172.522 Y138.241 E1.26211
G1 X171.916 Y138.24 E0.02571
G1 X192.954 Y159.279 E1.26212
G1 X192.349 Y159.279 E0.02571
G1 X171.309 Y138.24 E1.26213
G1 X170.703 Y138.24 E0.02571
G1 X191.743 Y159.279 E1.26214
G1 X191.137 Y159.279 E0.02571
G1 X170.097 Y138.24 E1.26215
G1 X169.491 Y138.24 E0.02571
G1 X190.531 Y159.279 E1.26217
G1 X189.925 Y159.279 E0.02571
G1 X168.885 Y138.239 E1.26218
G1 X168.279 Y138.239 E0.02571
G1 X189.319 Y159.279 E1.26219
G1 X188.713 Y159.279 E0.02571
