; Postprocessed by [ArcWelder](https://github.com/FormerLurker/ArcWelderLib)
; Copyright(C) 2021 - Brad Hochgesang
; Version: 1.2.0, Branch: HEAD, BuildDate: 2021-11-21T20:25:43Z
; resolution=0.05mm
; path_tolerance=5.0%
; max_radius=9999.00mm
; g90_influences_extruder=True
; default_xyz_precision=3
; default_e_precision=5
; extrusion_rate_variance_percent=5.0%

; generated by SuperSlicer 2.4 on 2022-05-01 at 07:18:35 UTC







; 

; external perimeters extrusion width = 0.40mm
; perimeters extrusion width = 0.40mm
; infill extrusion width = 0.72mm
; solid infill extrusion width = 0.56mm
; top infill extrusion width = 0.40mm
; first layer extrusion width = 0.48mm

; object:{"name":"Untitled","id":"Untitled.stl id:0 copy 0","object_center":[160.940130,160.002802,0.000000],"boundingbox_center":[160.940130,160.002802,4.826000],"boundingbox_size":[16.636993,19.210754,9.652000]}
; plater:{"center":[160.940130,160.002802,0.000000],"boundingbox_center":[160.940130,160.002802,4.826000],"boundingbox_size":[16.636993,19.210754,9.652000]}

M73 P0 R9
;TYPE:Custom
START_PRINT T_BED=60 T_EXTRUDER=200
M107
G21 ; set units to millimeters
G90 ; use absolute coordinates
M83 ; use relative distances for extrusion
; Filament gcode
M104 S200 ; set temperature
M109 S200 ; set temperature and wait for it to be reached
M190 S60 ; set bed temperature and wait for it to be reached
M107
;LAYER_CHANGE
;Z:0.24
;HEIGHT:0.24
G1 Z0.24 F9000
G92 E0
G1 E-0.8 F3000
M204 S1000
G1 X149.146 Y151.623 F9000
G1 E0.8 F1800
;TYPE:Skirt
;WIDTH:0.52
G1 X148.019 Y153.288 E0.09395
G1 X147.623 Y155.258 E0.09395
G1 X147.623 Y164.748 E0.44362
G1 X147.786 Y166.027 E0.0603
G1 X148.664 Y167.835 E0.09395
G1 X150.172 Y169.163 E0.09395
G1 X158.391 Y173.908 E0.44362
M73 P0 R8
G1 X159.581 Y174.407 E0.0603
G1 X161.585 Y174.55 E0.09395
G1 X163.489 Y173.908 E0.09395
G1 X171.708 Y169.163 E0.44362
G1 X172.734 Y168.382 E0.0603
G1 X173.861 Y166.718 E0.09395
G1 X174.257 Y164.748 E0.09395
G1 X174.257 Y155.258 E0.44362
G1 X174.094 Y153.978 E0.0603
G1 X173.216 Y152.171 E0.09395
G1 X171.708 Y150.842 E0.09395
G1 X163.489 Y146.097 E0.44362
G1 X162.3 Y145.599 E0.0603
G1 X160.295 Y145.455 E0.09395
G1 X158.391 Y146.097 E0.09395
G1 X150.172 Y150.842 E0.44362
G1 X149.146 Y151.623 E0.0603
G1 X149.546 Y151.912 F9000
G1 F1800
G1 X148.485 Y153.385 E0.08485
G1 X148.089 Y155.258 E0.0895
G1 X148.089 Y164.748 E0.44362
G1 X148.196 Y165.734 E0.04637
G1 X148.981 Y167.48 E0.0895
G1 X150.406 Y168.759 E0.0895
G1 X158.624 Y173.504 E0.44362
M73 P1 R8
G1 X159.531 Y173.905 E0.04637
G1 X161.436 Y174.098 E0.0895
G1 X163.256 Y173.504 E0.0895
G1 X171.475 Y168.759 E0.44362
G1 X172.276 Y168.174 E0.04637
G1 X173.395 Y166.621 E0.0895
G1 X173.791 Y164.748 E0.0895
G1 X173.791 Y155.258 E0.44362
G1 X173.685 Y154.272 E0.04637
G1 X172.899 Y152.526 E0.0895
G1 X171.475 Y151.246 E0.0895
G1 X163.256 Y146.501 E0.44362
G1 X162.349 Y146.1 E0.04637
G1 X160.444 Y145.907 E0.0895
G1 X158.624 Y146.501 E0.0895
G1 X150.406 Y151.246 E0.44362
G1 X149.605 Y151.831 E0.04637
G1 X149.546 Y151.912 E0.00465
G1 X150.008 Y152.336 F9000
G1 F1800
G1 X148.951 Y153.487 E0.07304
G1 X148.556 Y155.258 E0.08483
G1 X148.556 Y164.748 E0.44362
G1 X149.303 Y167.128 E0.1166
G1 X150.639 Y168.356 E0.08483
G1 X158.857 Y173.1 E0.44362
G1 X161.292 Y173.644 E0.1166
G1 X163.023 Y173.1 E0.08483
G1 X171.242 Y168.356 E0.44362
G1 X172.929 Y166.519 E0.1166
G1 X173.324 Y164.748 E0.08483
G1 X173.324 Y155.258 E0.44362
G1 X172.578 Y152.878 E0.1166
G1 X171.242 Y151.65 E0.08483
G1 X163.023 Y146.905 E0.44362
G1 X160.589 Y146.362 E0.1166
G1 X158.857 Y146.905 E0.08483
G1 X153.084 Y150.238 E0.31161
G1 X150.639 Y151.65 E0.13201
G1 X150.008 Y152.336 E0.04357
G1 X150.324 Y152.634 F9000
G1 F1800
G1 X149.417 Y153.595 E0.06177
G1 X149.022 Y155.258 E0.07988
G1 X149.022 Y164.748 E0.44362
G1 X149.629 Y166.779 E0.09909
M73 P2 R8
G1 X150.872 Y167.952 E0.07988
G1 X159.09 Y172.697 E0.44362
G1 X161.153 Y173.186 E0.09909
G1 X162.79 Y172.697 E0.07988
G1 X171.008 Y167.952 E0.44362
G1 X172.464 Y166.41 E0.09909
G1 X172.858 Y164.748 E0.07988
G1 X172.858 Y155.258 E0.44362
G1 X172.251 Y153.227 E0.09909
G1 X171.008 Y152.054 E0.07988
G1 X162.79 Y147.309 E0.44362
G1 X160.727 Y146.819 E0.09909
G1 X159.09 Y147.309 E0.07988
G1 X153.317 Y150.642 E0.31161
G1 X150.872 Y152.054 E0.13201
G1 X150.324 Y152.634 E0.03732
G1 X150.636 Y152.939 F9000
G1 F1800
G1 X149.882 Y153.711 E0.05045
G1 X149.488 Y155.258 E0.0746
G1 X149.488 Y164.748 E0.44362
G1 X149.963 Y166.433 E0.08186
G1 X151.105 Y167.548 E0.0746
G1 X159.324 Y172.293 E0.44362
G1 X161.021 Y172.725 E0.08186
G1 X162.557 Y172.293 E0.0746
G1 X170.775 Y167.548 E0.44362
G1 X171.998 Y166.294 E0.08186
G1 X172.392 Y164.748 E0.0746
G1 X172.392 Y155.258 E0.44362
G1 X171.918 Y153.572 E0.08186
G1 X170.775 Y152.458 E0.0746
G1 X162.557 Y147.713 E0.44362
G1 X160.86 Y147.281 E0.08186
G1 X159.324 Y147.713 E0.0746
G1 X157.294 Y148.885 E0.10956
G1 X151.105 Y152.458 E0.33407
G1 X150.636 Y152.939 E0.03141
; INIT printing object Untitled.stl id:0 copy 0
G1 E-0.8 F3000
; printing object Untitled.stl id:0 copy 0
; acceleration to travel
M204 S4000
G1 X155.688 Y156.822 F9000
; decel to extrusion
M204 S1000
G1 X156.952 Y157.793
; end travel
G1 E0.8 F1800
;TYPE:Internal perimeter
;WIDTH:0.48
G1 X156.892 Y157.878 E0.00445
G1 X156.502 Y158.909 E0.04712
G1 X156.369 Y160.003 E0.04712
G1 X156.502 Y161.097 E0.04712
G1 X156.892 Y162.127 E0.04712
G1 X157.518 Y163.034 E0.04712
G1 X158.343 Y163.765 E0.04712
G1 X159.319 Y164.277 E0.04712
G1 X160.389 Y164.541 E0.04712
G1 X161.491 Y164.541 E0.04712
G1 X162.561 Y164.277 E0.04712
M73 P3 R8
G1 X163.537 Y163.765 E0.04712
G1 X164.362 Y163.034 E0.04712
G1 X164.988 Y162.127 E0.04712
G1 X165.379 Y161.097 E0.04712
G1 X165.511 Y160.003 E0.04712
G1 X165.379 Y158.909 E0.04712
G1 X164.988 Y157.878 E0.04712
G1 X164.362 Y156.971 E0.04712
G1 X163.537 Y156.241 E0.04712
G1 X162.561 Y155.729 E0.04712
G1 X161.491 Y155.465 E0.04712
G1 X160.389 Y155.465 E0.04712
G1 X159.319 Y155.729 E0.04712
G1 X158.343 Y156.241 E0.04712
G1 X157.518 Y156.971 E0.04712
G1 X156.952 Y157.793 E0.04267
G1 X157.304 Y158.036 F9000
G1 F1800
G1 X157.275 Y158.079 E0.00222
G1 X156.921 Y159.012 E0.04267
G1 X156.8 Y160.003 E0.04267
G1 X156.921 Y160.993 E0.04267
G1 X157.275 Y161.927 E0.04267
G1 X157.842 Y162.748 E0.04267
G1 X158.589 Y163.41 E0.04267
G1 X159.472 Y163.873 E0.04267
G1 X160.441 Y164.112 E0.04267
G1 X161.439 Y164.112 E0.04267
G1 X162.408 Y163.873 E0.04267
G1 X163.292 Y163.41 E0.04267
G1 X164.039 Y162.748 E0.04267
G1 X164.606 Y161.927 E0.04267
G1 X164.959 Y160.993 E0.04267
G1 X165.08 Y160.003 E0.04267
G1 X164.959 Y159.012 E0.04267
G1 X164.606 Y158.079 E0.04267
G1 X164.039 Y157.258 E0.04267
G1 X163.292 Y156.596 E0.04267
G1 X162.408 Y156.132 E0.04267
G1 X161.439 Y155.893 E0.04267
G1 X160.441 Y155.893 E0.04267
G1 X159.472 Y156.132 E0.04267
G1 X158.589 Y156.596 E0.04267
G1 X157.842 Y157.258 E0.04267
G1 X157.304 Y158.036 E0.04044
G1 X157.657 Y158.28 F9000
;TYPE:External perimeter
G1 F1800
G1 X157.34 Y159.115 E0.03822
G1 X157.232 Y160.003 E0.03822
G1 X157.34 Y160.89 E0.03822
G1 X157.657 Y161.726 E0.03822
G1 X158.165 Y162.462 E0.03822
G1 X158.834 Y163.054 E0.03822
G1 X159.625 Y163.47 E0.03822
G1 X160.493 Y163.684 E0.03822
G1 X161.387 Y163.684 E0.03822
G1 X162.255 Y163.47 E0.03822
G1 X163.047 Y163.054 E0.03822
G1 X163.716 Y162.462 E0.03822
G3 X164.223 Y161.726 I193.684 J132.879 E0.03822
G1 X164.54 Y160.89 E0.03822
G1 X164.648 Y160.003 E0.03822
G1 X164.54 Y159.115 E0.03822
G2 X164.223 Y158.280 I-87.201 J32.627 E0.03821
G2 X163.716 Y157.544 I-386.582 J265.758 E0.03822
G1 X163.047 Y156.951 E0.03822
G1 X162.255 Y156.536 E0.03822
G1 X161.387 Y156.322 E0.03822
G1 X160.493 Y156.322 E0.03822
G1 X159.625 Y156.536 E0.03822
G1 X158.834 Y156.951 E0.03822
G1 X158.165 Y157.544 E0.03822
G2 X157.657 Y158.280 I109.207 J75.920 E0.03822
;WIPE_START
M204 S5000
G1 X157.258 Y158.312 F9000
;WIPE_END
; acceleration to travel
M204 S4000
G1 X154.507 Y156.375
; decel to extrusion
M204 S1000
G1 X153.819 Y155.891
; end travel
;TYPE:Internal perimeter
G1 F1800
G1 X160.94 Y151.78 E0.35159
G1 X168.062 Y155.891 E0.35159
G1 X168.062 Y164.114 E0.35159
G1 X160.94 Y168.226 E0.35159
G1 X153.819 Y164.114 E0.35159
G1 X153.819 Y155.891 E0.35159
G1 X153.39 Y155.644 F9000
G1 F1800
G1 X160.94 Y151.285 E0.37274
G1 X168.49 Y155.644 E0.37274
G1 X168.49 Y164.362 E0.37274
G1 X160.94 Y168.721 E0.37274
G1 X153.39 Y164.362 E0.37274
M73 P4 R8
G1 X153.39 Y155.644 E0.37274
G1 X152.962 Y155.396 F9000
;TYPE:External perimeter
G1 F1800
G1 X160.94 Y150.79 E0.3939
G1 X161.186 Y150.932 E0.01214
G1 X168.919 Y155.396 E0.38176
G1 X168.919 Y164.609 E0.3939
G1 X160.94 Y169.216 E0.3939
G1 X152.962 Y164.609 E0.3939
G1 X152.962 Y155.396 E0.3939
;WIPE_START
M204 S5000
G1 X153.356 Y155.466 F9000
;WIPE_END
; acceleration to travel
M204 S4000
G1 X164.744 Y156.506
; decel to extrusion
M204 S1000
G1 X167.997 Y156.804
; end travel
;TYPE:Solid infill
;WIDTH:0.459262
G1 F3600
G1 X166.43 Y155.236 E0.09068
G1 X164.996 Y154.408 E0.06773
G1 X167.813 Y157.225 E0.16297
G1 X167.813 Y157.831 E0.02479
G1 X163.562 Y153.58 E0.24592
G1 X162.129 Y152.753 E0.06773
G1 X167.813 Y158.437 E0.32887
G1 X167.813 Y159.043 E0.02479
G1 X160.874 Y152.104 E0.40143
G1 X160.49 Y152.326 E0.01815
G1 X167.813 Y159.649 E0.42365
G1 X167.813 Y160.255 E0.02479
G1 X160.106 Y152.548 E0.44588
G1 X159.722 Y152.77 E0.01815
G1 X162.554 Y155.602 E0.16386
G1 X161.578 Y155.232 E0.04271
G1 X159.338 Y152.992 E0.12961
G1 X158.954 Y153.214 E0.01815
G1 X160.956 Y155.216 E0.11587
G1 X160.352 Y155.218 E0.02472
G1 X158.569 Y153.435 E0.10314
G1 X158.185 Y153.657 E0.01815
G1 X159.866 Y155.338 E0.09724
G1 X159.38 Y155.458 E0.02048
G1 X157.801 Y153.879 E0.09134
G1 X157.417 Y154.101 E0.01815
G1 X158.978 Y155.662 E0.09033
G1 X158.62 Y155.909 E0.01782
G1 X157.033 Y154.323 E0.09181
G1 X156.648 Y154.544 E0.01815
G1 X158.261 Y156.157 E0.09329
G1 X157.903 Y156.404 E0.01782
G1 X156.264 Y154.766 E0.09478
G1 X155.88 Y154.988 E0.01815
G1 X157.544 Y156.652 E0.09626
G2 X157.245 Y156.959 I0.142 J0.437 E0.01803
G1 X155.496 Y155.21 E0.10117
G1 X155.112 Y155.432 E0.01815
G1 X157.036 Y157.356 E0.11133
G1 X156.827 Y157.753 E0.01836
G1 X154.728 Y155.653 E0.12149
G1 X154.343 Y155.875 E0.01815
G1 X156.619 Y158.151 E0.13165
M73 P5 R8
G1 X156.41 Y158.548 E0.01836
G1 X154.067 Y156.205 E0.13556
G1 X154.067 Y156.811 E0.02479
G1 X156.242 Y158.986 E0.12582
G1 X156.176 Y159.526 E0.02227
G1 X154.067 Y157.417 E0.12203
G1 X154.067 Y158.023 E0.02479
G1 X156.128 Y160.084 E0.11925
G1 X156.212 Y160.774 E0.02842
G1 X154.067 Y158.629 E0.1241
G1 X154.067 Y159.235 E0.02479
G1 X156.981 Y162.149 E0.1686
G1 E-0.8 F3000
; acceleration to travel
M204 S4000
G1 X163.395 Y158.867 F9000
; decel to extrusion
M204 S1000
G1 X164.999 Y158.047
; end travel
G1 E0.8 F1800
G1 F3600
G1 X167.813 Y160.861 E0.16282
G1 X167.813 Y161.467 E0.02479
G1 X165.627 Y159.281 E0.12647
G1 X165.627 Y159.887 E0.02479
G1 X167.813 Y162.073 E0.12647
G1 X167.813 Y162.679 E0.02479
G1 X165.627 Y160.493 E0.12647
G1 X165.627 Y161.099 E0.02479
G1 X167.813 Y163.285 E0.12647
G1 X167.813 Y163.891 E0.02479
G1 X165.439 Y161.517 E0.13736
G1 X165.23 Y161.914 E0.01836
G1 X167.48 Y164.164 E0.13013
G1 X167.095 Y164.385 E0.01815
G1 X165.022 Y162.312 E0.11997
G1 X164.813 Y162.709 E0.01836
G1 X166.711 Y164.607 E0.10981
G1 X166.327 Y164.829 E0.01815
G1 X164.605 Y163.106 E0.09965
G1 X164.553 Y163.204 E0.0045
G1 X164.283 Y163.391 E0.01345
G1 X165.943 Y165.051 E0.09604
G1 X165.559 Y165.273 E0.01815
G1 X163.924 Y163.638 E0.09456
G1 X163.566 Y163.886 E0.01782
G1 X165.174 Y165.494 E0.09307
G1 X164.79 Y165.716 E0.01815
G1 X163.207 Y164.133 E0.09159
G1 X162.849 Y164.38 E0.01782
G1 X164.406 Y165.938 E0.0901
G1 X164.022 Y166.16 E0.01815
G1 X162.428 Y164.566 E0.09222
G1 X161.942 Y164.686 E0.02048
G1 X163.638 Y166.382 E0.09812
G1 X163.254 Y166.603 E0.01815
G1 X161.434 Y164.784 E0.10524
G1 X160.745 Y164.7 E0.02842
G1 X162.869 Y166.825 E0.12292
G1 X162.485 Y167.047 E0.01815
G1 X160.055 Y164.617 E0.1406
G1 X159.365 Y164.533 E0.02842
G1 X162.101 Y167.269 E0.15828
G1 X161.717 Y167.491 E0.01815
G1 X154.067 Y159.841 E0.44256
G1 X154.067 Y160.447 E0.02479
G1 X161.333 Y167.712 E0.42034
G1 X160.949 Y167.934 E0.01815
G1 X154.067 Y161.053 E0.39811
G1 X154.067 Y161.659 E0.02479
G1 X159.538 Y167.129 E0.31649
G1 X158.104 Y166.302 E0.06773
G1 X154.067 Y162.265 E0.23354
G1 X154.067 Y162.871 E0.02479
G1 X156.67 Y165.474 E0.1506
G1 X155.236 Y164.646 E0.06773
G1 X153.883 Y163.292 E0.07831
G1 E-0.8 F3000
; acceleration to travel
M204 S4000
G1 X164.869 Y157.088 F9000
; decel to extrusion
M204 S1000
G1 X167.272 Y155.731
; end travel
G1 E0.8 F1800
;TYPE:Gap fill
;WIDTH:0.147505
G1 X167.415 Y155.841 E0.00173
;WIDTH:0.193573
G1 X167.52 Y155.921 E0.00188
;WIDTH:0.239641
G1 X167.625 Y156.002 E0.00248
;WIDTH:0.280066
G3 X167.847 Y156.198 I-0.638 J0.947 E0.00676
; INIT stop printing object Untitled.stl id:0 copy 0
;LAYER_CHANGE
;Z:0.44
;HEIGHT:0.2
; stop printing object Untitled.stl id:0 copy 0
M204 S5000
G1 Z0.44 F9000
G92 E0
; INIT printing object Untitled.stl id:0 copy 0
; printing object Untitled.stl id:0 copy 0
; acceleration to travel
M204 S4000
G1 X166.644 Y156.939
; decel to extrusion
M204 S3500
G1 X164.826 Y158.061
; end travel
;TYPE:Internal perimeter
;WIDTH:0.4
G1 F6000
G1 X164.795 Y157.98 E0.00257
G1 X164.199 Y157.116 E0.03116
G1 X163.413 Y156.42 E0.03116
G1 X162.484 Y155.932 E0.03116
G1 X161.465 Y155.681 E0.03116
G1 X160.415 Y155.681 E0.03116
G1 X159.396 Y155.932 E0.03116
G1 X158.467 Y156.42 E0.03116
G1 X157.681 Y157.116 E0.03116
G1 X157.085 Y157.98 E0.03116
G1 X156.713 Y158.961 E0.03116
G1 X156.587 Y160.003 E0.03116
G1 X156.713 Y161.045 E0.03116
G1 X157.085 Y162.026 E0.03116
G1 X157.681 Y162.89 E0.03116
G1 X158.467 Y163.586 E0.03116
G1 X159.396 Y164.073 E0.03116
G1 X160.415 Y164.325 E0.03116
G1 X161.465 Y164.325 E0.03116
G1 X162.484 Y164.073 E0.03116
G1 X163.413 Y163.586 E0.03116
G1 X164.199 Y162.89 E0.03116
G1 X164.795 Y162.026 E0.03116
G1 X165.167 Y161.045 E0.03116
G1 X165.294 Y160.003 E0.03116
G1 X165.167 Y158.961 E0.03116
M73 P6 R8
G1 X164.826 Y158.061 E0.02859
; acceleration to travel
M204 S4000
G1 X164.648 Y158.128 F9000
; decel to extrusion
M204 S3500
G1 X164.492 Y158.187
; end travel
G1 F6000
G1 X164.476 Y158.147 E0.00129
G1 X163.93 Y157.354 E0.02859
G1 X163.209 Y156.716 E0.02859
G1 X162.356 Y156.269 E0.02859
G1 X161.422 Y156.038 E0.02859
G1 X160.459 Y156.038 E0.02859
G1 X159.524 Y156.269 E0.02859
G1 X158.671 Y156.716 E0.02859
G1 X157.951 Y157.354 E0.02859
G1 X157.404 Y158.147 E0.02859
G1 X157.062 Y159.047 E0.02859
G1 X156.946 Y160.003 E0.02859
G1 X157.062 Y160.959 E0.02859
G1 X157.404 Y161.859 E0.02859
G1 X157.951 Y162.651 E0.02859
G1 X158.671 Y163.29 E0.02859
G1 X159.524 Y163.737 E0.02859
G1 X160.459 Y163.968 E0.02859
G1 X161.422 Y163.968 E0.02859
G1 X162.356 Y163.737 E0.02859
G1 X163.209 Y163.29 E0.02859
G1 X163.93 Y162.651 E0.02859
G1 X164.476 Y161.859 E0.02859
G1 X164.818 Y160.959 E0.02859
G1 X164.934 Y160.003 E0.02859
G1 X164.818 Y159.047 E0.02859
G1 X164.492 Y158.187 E0.0273
; acceleration to travel
M204 S4000
G1 X164.267 Y158.273 F9000
; decel to extrusion
M204 S2500
G1 X164.158 Y158.314
; end travel
;TYPE:External perimeter
G1 F4800
G1 X163.66 Y157.593 E0.02601
G1 X163.005 Y157.012 E0.02601
G1 X162.229 Y156.605 E0.02601
G1 X161.378 Y156.395 E0.02601
G1 X160.502 Y156.395 E0.02601
G1 X159.651 Y156.605 E0.02601
G1 X158.876 Y157.012 E0.02601
G1 X158.22 Y157.593 E0.02601
G1 X157.722 Y158.314 E0.02601
G1 X157.412 Y159.133 E0.02601
G1 X157.306 Y160.003 E0.02601
G1 X157.412 Y160.873 E0.02601
G1 X157.722 Y161.692 E0.02601
G1 X158.22 Y162.413 E0.02601
G1 X158.876 Y162.994 E0.02601
G1 X159.651 Y163.401 E0.02601
G1 X160.502 Y163.61 E0.02601
G1 X161.378 Y163.61 E0.02601
G1 X162.229 Y163.401 E0.02601
G1 X163.005 Y162.994 E0.02601
G1 X163.66 Y162.413 E0.02601
G1 X164.158 Y161.692 E0.02601
G1 X164.469 Y160.873 E0.02601
G3 X164.574 Y160.003 I213.315 J25.304 E0.02601
G1 X164.469 Y159.133 E0.02601
G1 X164.158 Y158.314 E0.02601
;WIPE_START
M204 S5000
G1 X164.358 Y157.968 F9000
;WIPE_END
; acceleration to travel
M204 S4000
