; generated by SuperSlicer 2.3.57 on 2022-04-16 at 23:23:31 UTC


;
;

;
;
; 

; external perimeters extrusion width = 0.40mm
; perimeters extrusion width = 0.45mm
; infill extrusion width = 0.72mm
; solid infill extrusion width = 0.56mm
; top infill extrusion width = 0.40mm
; support material extrusion width = 0.42mm
; first layer extrusion width = 0.48mm

; object:{"name":"arm-rest-with-container","id":"arm-rest-with-container.stl id:0 copy 0","object_center":[164.999975,165.000025,0.000000],"boundingbox_center":[164.999975,165.000025,6.250000],"boundingbox_size":[156.384155,140.183838,12.500000]}
; plater:{"center":[164.999975,165.000025,0.000000],"boundingbox_center":[164.999975,165.000025,6.250000],"boundingbox_size":[156.384155,140.183838,12.500000]}

;TYPE:Custom
START_PRINT T_BED=60 T_EXTRUDER=200
M107
G21 ; set units to millimeters
G90 ; use absolute coordinates
M83 ; use relative distances for extrusion
; Filament gcode
M104 S200 ; set temperature
M109 S200 ; set temperature and wait for it to be reached
M190 S60 ; set bed temperature and wait for it to be reached
M107
;LAYER_CHANGE
;Z:0.24
;HEIGHT:0.24
G1 E-0.6 F3000
G1 Z0.24 F9000
G1 X96.809 Y103.34
G1 E0.6 F1800
; External perimeter
;Skirt
SET_VELOCITY_LIMIT ACCEL=300 ACCEL_TO_DECEL=3000 SQUARE_CORNER_VELOCITY=5

; Support material

;TYPE:Skirt
;WIDTH:0.48
G1 X94.326 Y105.904 E0.15261
G1 X92.112 Y108.591 E0.14885
G1 X90.171 Y111.374 E0.14508
G1 X88.27 Y114.635 E0.16138
G1 X86.795 Y117.727 E0.14648
G1 X85.581 Y120.895 E0.14507
G1 X84.515 Y124.556 E0.163
G1 X83.836 Y127.875 E0.14487
G1 X83.409 Y131.37 E0.15051
G1 X83.265 Y134.891 E0.15069
G1 X83.396 Y138.265 E0.14435
G1 X83.794 Y141.665 E0.14636
G1 X84.451 Y144.99 E0.14492
G1 X85.352 Y148.215 E0.14317
G1 X86.485 Y151.325 E0.14152
G1 X88.013 Y154.665 E0.15703
G1 X89.6 Y157.516 E0.13952
G1 X91.527 Y160.417 E0.14889
G1 X93.526 Y162.976 E0.13883
G1 X95.753 Y165.417 E0.14128
G1 X98.235 Y167.753 E0.14573
G1 X161.192 Y225.099 E3.64103
G1 X163.032 Y226.685 E0.10385
G1 X165.029 Y228.242 E0.10827
G1 X167.773 Y230.114 E0.14206
G1 X170.068 Y231.48 E0.11415
G1 X172.434 Y232.737 E0.11455
G1 X175.674 Y234.211 E0.1522
G1 X178.942 Y235.452 E0.14946
G1 X182.211 Y236.465 E0.14635
G1 X186.035 Y237.391 E0.1682
G1 X189.53 Y238.009 E0.15177
G1 X193.127 Y238.419 E0.15477
G1 X196.748 Y238.618 E0.15507
G1 X200.253 Y238.602 E0.14985
G1 X202.164 Y238.514 E0.08177
G1 X205.742 Y238.161 E0.15372
G1 X209.355 Y237.579 E0.1565
G1 X212.714 Y236.815 E0.14726
G1 X214.43 Y236.341 E0.07612
G1 X217.792 Y235.234 E0.15133
G1 X219.633 Y234.519 E0.08445
G1 X222.561 Y233.22 E0.13694
G1 X224.265 Y232.364 E0.08153
G1 X227.248 Y230.656 E0.14698
G1 X230.156 Y228.706 E0.14972
G1 X232.773 Y226.659 E0.14201
G1 X234.586 Y225.039 E0.10396
G1 X236.843 Y222.748 E0.13751
G1 X238.44 Y220.904 E0.10431
G1 X239.461 Y219.588 E0.0712
G1 X241.303 Y216.883 E0.13993
G1 X243.46 Y212.885 E0.19424
G1 X244.22 Y211.128 E0.08185
G1 X244.991 Y208.999 E0.09679
G1 X245.787 Y206.179 E0.12528
G1 X246.389 Y203.001 E0.13829
G1 X246.658 Y200.574 E0.10443
G1 X246.727 Y199.133 E0.06165
G1 X246.672 Y196.01 E0.13354
G1 X246.337 Y192.915 E0.13311
G1 X245.7 Y189.788 E0.13643
G1 X244.727 Y186.592 E0.14284
G1 X242.981 Y182.511 E0.18979
G1 X241.325 Y179.549 E0.14511
G1 X239.537 Y176.884 E0.13722
G1 X237.375 Y174.194 E0.14754
G1 X235.299 Y171.966 E0.1302
G1 X232.905 Y169.73 E0.14005
G1 X154.893 Y101.626 E4.4276
G1 X152.132 Y99.48 E0.14951
G1 X149.105 Y97.499 E0.1547
G1 X145.961 Y95.797 E0.15284
G1 X142.768 Y94.388 E0.14924
G1 X139.443 Y93.231 E0.15051
G1 X136.018 Y92.342 E0.15129
G1 X132.496 Y91.732 E0.15283
G1 X129.025 Y91.414 E0.14904
G1 X125.565 Y91.378 E0.14792
G1 X121.935 Y91.632 E0.15558
G1 X118.625 Y92.136 E0.14316
G1 X114.873 Y93.029 E0.1649
G1 X111.689 Y94.066 E0.1432
G1 X108.435 Y95.423 E0.15071
G1 X105.302 Y97.039 E0.15072
G1 X102.427 Y98.826 E0.14475
G1 X99.359 Y101.102 E0.16332
G1 X96.854 Y103.3 E0.14249
G1 X97.164 Y103.6 F9000
G1 F1800
G1 X94.559 Y106.291 E0.16014
G1 X92.448 Y108.857 E0.14206
G1 X90.454 Y111.722 E0.14925
G1 X88.698 Y114.739 E0.14924
G1 X87.21 Y117.847 E0.14735
G1 X85.944 Y121.153 E0.15132
G1 X84.996 Y124.392 E0.14433
G1 X84.243 Y128.054 E0.15983
G1 X83.835 Y131.409 E0.14451
G1 X83.694 Y134.892 E0.14905
G1 X83.825 Y138.256 E0.14392
G1 X84.212 Y141.564 E0.1424
G1 X84.867 Y144.887 E0.14483
G1 X85.726 Y147.97 E0.13683
G1 X86.977 Y151.396 E0.15594
G1 X88.329 Y154.348 E0.1388
G1 X89.959 Y157.283 E0.14355
G1 X91.814 Y160.084 E0.14365
G1 X93.79 Y162.621 E0.13747
G1 X96.149 Y165.212 E0.14985
G1 X98.538 Y167.45 E0.13992
G1 X161.501 Y224.801 E3.64138
G1 X163.303 Y226.353 E0.10168
G1 X165.29 Y227.902 E0.10774
G1 X168.06 Y229.79 E0.14331
G1 X170.328 Y231.134 E0.11271
G1 X174.078 Y233.047 E0.18
G1 X175.882 Y233.833 E0.08413
G1 X179.016 Y235.024 E0.14336
G1 X182.271 Y236.036 E0.14574
G1 X186.066 Y236.96 E0.16696
G1 X189.536 Y237.576 E0.15071
G1 X193.108 Y237.988 E0.15372
G1 X196.708 Y238.189 E0.15419
G1 X200.297 Y238.172 E0.15345
G1 X203.941 Y237.934 E0.15611
G1 X205.731 Y237.73 E0.07704
G1 X209.167 Y237.179 E0.14878
G1 X212.61 Y236.4 E0.15095
G1 X214.463 Y235.884 E0.0822
G1 X217.648 Y234.83 E0.14345
G1 X219.362 Y234.169 E0.07853
G1 X222.378 Y232.832 E0.14108
G1 X224.011 Y232.012 E0.07812
G1 X226.966 Y230.326 E0.14547
G1 X229.824 Y228.419 E0.1469
G1 X232.345 Y226.459 E0.13653
G1 X234.285 Y224.735 E0.11097
G1 X236.611 Y222.365 E0.14196
G1 X238.114 Y220.626 E0.0983
G1 X239.126 Y219.32 E0.07063
G1 X241.009 Y216.542 E0.14348
G1 X243.123 Y212.599 E0.19128
G1 X243.791 Y211.051 E0.07208
G1 X244.542 Y208.989 E0.09383
G1 X245.398 Y205.968 E0.13425
G1 X245.997 Y202.725 E0.141
G1 X246.232 Y200.527 E0.09451
G1 X246.3 Y199.097 E0.06122
G1 X246.239 Y195.951 E0.13454
G1 X246.104 Y194.396 E0.06674
G1 X245.657 Y191.547 E0.12329
G1 X244.887 Y188.439 E0.13691
G1 X244.298 Y186.673 E0.07958
G1 X242.533 Y182.573 E0.19084
G1 X240.92 Y179.709 E0.14056
G1 X239.265 Y177.237 E0.12718
G1 X238.23 Y175.892 E0.07254
G1 X237.102 Y174.531 E0.07557
G1 X235.045 Y172.318 E0.12921
G1 X232.615 Y170.046 E0.14222
G1 X154.611 Y101.949 E4.42719
G1 X151.868 Y99.818 E0.14849
G1 X148.881 Y97.865 E0.1526
G1 X145.767 Y96.18 E0.15137
G1 X142.611 Y94.786 E0.14754
G1 X139.314 Y93.639 E0.14924
G1 X135.927 Y92.761 E0.14958
G1 X132.439 Y92.156 E0.15136
G1 X129.003 Y91.841 E0.14755
G1 X125.562 Y91.807 E0.14711
G1 X121.982 Y92.058 E0.15344
G1 X118.694 Y92.558 E0.1422
G1 X115.001 Y93.438 E0.16232
G1 X111.837 Y94.468 E0.14225
G1 X108.612 Y95.814 E0.14943
G1 X105.509 Y97.414 E0.14924
G1 X102.546 Y99.26 E0.14925
G1 X99.739 Y101.342 E0.14943
G1 X97.206 Y103.557 E0.1439
; INIT printing object arm-rest-with-container.stl id:0 copy 0
G1 E-0.6 F3000
; printing object arm-rest-with-container.stl id:0 copy 0
G1 X180.574 Y160.141 F9000
G1 E0.6 F1800
; External perimeter
;Perimeter
SET_VELOCITY_LIMIT ACCEL=2000 ACCEL_TO_DECEL=2000 SQUARE_CORNER_VELOCITY=5

; Overhang perimeter

;TYPE:Internal perimeter
G1 X181.727 Y159.174 E0.06436
G1 X183.126 Y158.168 E0.07366
G1 X185.779 Y156.529 E0.13334
G1 X187.956 Y155.447 E0.10396
G1 X190.754 Y154.347 E0.12852
G1 X192.605 Y153.796 E0.08258
G1 X195.08 Y153.289 E0.10801
G1 X196.468 Y153.137 E0.05971
G1 X198.261 Y153.056 E0.07674
G1 X199.793 Y153.083 E0.06552
G1 X201.83 Y153.27 E0.08746
G1 X203.062 Y153.458 E0.05327
G1 X205.533 Y153.987 E0.10805
G1 X207.052 Y154.458 E0.06798
G1 X208.13 Y154.904 E0.04991
G1 X209.215 Y155.517 E0.05326
G1 X210.75 Y156.669 E0.08206
G1 X213.107 Y158.863 E0.13767
G1 X217.055 Y162.606 E0.23263
G1 X217.445 Y162.954 E0.02234
G1 X225.316 Y169.735 E0.44418
G1 X226.891 Y171.031 E0.08721
G1 X228.376 Y172.14 E0.07924
G1 X229.767 Y173.283 E0.077
G1 X231.949 Y175.319 E0.12757
G1 X233.879 Y177.395 E0.12119
G1 X234.855 Y178.575 E0.06547
G1 X235.753 Y179.738 E0.06282
G1 X236.578 Y180.93 E0.06202
G1 X237.278 Y182.016 E0.05523
G1 X238.708 Y184.566 E0.12498
G1 X240.288 Y188.257 E0.17166
G1 X240.749 Y189.652 E0.06282
G1 X241.113 Y190.979 E0.05885
G1 X241.418 Y192.333 E0.05932
G1 X241.654 Y193.645 E0.057
G1 X241.827 Y194.937 E0.05575
G1 X241.939 Y196.268 E0.05709
G1 X241.995 Y197.649 E0.05911
G1 X241.99 Y198.957 E0.05592
G1 X241.934 Y200.176 E0.05218
G1 X241.719 Y202.194 E0.08678
G1 X241.198 Y204.991 E0.12165
G1 X240.473 Y207.561 E0.11415
G1 X239.78 Y209.47 E0.08682
G1 X239.222 Y210.761 E0.06013
G1 X237.283 Y214.37 E0.17517
G1 X235.673 Y216.739 E0.12248
G1 X234.786 Y217.884 E0.06192
G1 X233.385 Y219.505 E0.09163
G1 X231.304 Y221.619 E0.12681
G1 X229.646 Y223.097 E0.09496
G1 X227.298 Y224.924 E0.1272
G1 X226.065 Y225.782 E0.06423
G1 X224.756 Y226.625 E0.06658
G1 X222.044 Y228.176 E0.13355
G1 X220.556 Y228.925 E0.07122
G1 X217.736 Y230.176 E0.13192
G1 X216.215 Y230.764 E0.06971
G1 X213.135 Y231.782 E0.1387
G1 X211.575 Y232.215 E0.06922
G1 X209.959 Y232.605 E0.07107
G1 X208.402 Y232.936 E0.06806
G1 X206.688 Y233.231 E0.07434
G1 X205.129 Y233.461 E0.06737
G1 X203.472 Y233.648 E0.0713
G1 X201.84 Y233.785 E0.07002
G1 X200.149 Y233.863 E0.07238
G1 X198.456 Y233.895 E0.07242
G1 X196.818 Y233.879 E0.07
G1 X195.018 Y233.796 E0.07707
G1 X193.474 Y233.692 E0.06614
G1 X191.78 Y233.521 E0.07281
G1 X190.22 Y233.319 E0.06726
G1 X186.946 Y232.739 E0.14215
G1 X185.23 Y232.355 E0.07517
G1 X183.475 Y231.896 E0.07759
G1 X180.476 Y230.967 E0.13421
G1 X177.491 Y229.833 E0.13654
G1 X175.879 Y229.13 E0.07518
G1 X174.536 Y228.489 E0.06365
G1 X172.393 Y227.349 E0.10375
G1 X170.41 Y226.175 E0.09856
G1 X167.883 Y224.458 E0.13061
G1 X166.036 Y223.019 E0.10013
G1 X164.363 Y221.576 E0.09447
G1 X162.777 Y220.027 E0.09476
G1 X161.233 Y218.353 E0.09738
G1 X159.896 Y216.7 E0.09087
G1 X157.862 Y213.763 E0.15274
G1 X156.568 Y211.464 E0.11281
G1 X155.605 Y209.408 E0.09709
G1 X154.851 Y207.492 E0.08804
G1 X154.061 Y204.901 E0.11578
G1 X153.752 Y203.582 E0.05793
G1 X153.384 Y201.282 E0.09958
G1 X153.134 Y198.344 E0.12608
G1 X153.186 Y195.583 E0.11804
G1 X153.411 Y193.478 E0.09053
G1 X153.712 Y191.683 E0.07783
G1 X154.445 Y188.677 E0.13229
G1 X123.562 Y173.576 E1.46982
G1 X120.313 Y173.154 E0.1401
G1 X117.352 Y172.532 E0.12935
G1 X114.449 Y171.681 E0.12935
G1 X111.62 Y170.606 E0.12936
G1 X108.927 Y169.336 E0.12731
G1 X106.258 Y167.813 E0.1314
G1 X103.756 Y166.112 E0.12935
G1 X101.431 Y164.252 E0.12731
G1 X99.221 Y162.186 E0.12935
G1 X97.148 Y159.917 E0.1314
G1 X95.317 Y157.569 E0.12731
G1 X93.646 Y155.046 E0.12936
G1 X92.177 Y152.401 E0.12935
G1 X90.919 Y149.651 E0.12933
G1 X89.865 Y146.763 E0.13141
G1 X89.063 Y143.896 E0.12731
G1 X88.477 Y140.928 E0.12936
G1 X88.124 Y137.923 E0.12935
G1 X88.006 Y134.901 E0.12932
G1 X88.133 Y131.757 E0.13453
G1 X88.515 Y128.634 E0.13449
G1 X89.148 Y125.553 E0.13449
G1 X90.029 Y122.534 E0.13449
G1 X91.152 Y119.595 E0.13449
G1 X92.508 Y116.757 E0.13449
G1 X94.091 Y114.039 E0.13449
G1 X95.888 Y111.457 E0.13449
G1 X97.858 Y109.066 E0.13245
G1 X100.079 Y106.772 E0.13654
G1 X102.445 Y104.7 E0.13446
G1 X104.971 Y102.826 E0.13449
G1 X107.641 Y101.162 E0.13449
G1 X110.437 Y99.721 E0.13449
G1 X113.34 Y98.51 E0.13449
G1 X116.286 Y97.553 E0.13245
G1 X119.393 Y96.813 E0.13654
G1 X122.455 Y96.344 E0.13243
G1 X125.596 Y96.118 E0.13465
G1 X126.051 Y96.12 E0.01946
G1 X128.785 Y96.148 E0.1169
G1 X131.87 Y96.431 E0.13245
G1 X135.016 Y96.976 E0.13654
G1 X138.061 Y97.765 E0.13447
G1 X141.032 Y98.799 E0.13449
G1 X143.866 Y100.05 E0.13245
G1 X146.675 Y101.569 E0.13654
G1 X149.309 Y103.288 E0.13446
G1 X151.795 Y105.214 E0.1345
G1 X154.083 Y107.303 E0.13245
G1 X156.261 Y109.639 E0.13654
G1 X158.21 Y112.107 E0.13447
G1 X159.953 Y114.726 E0.13449
G1 X161.456 Y117.434 E0.13245
G1 X162.776 Y120.342 E0.13654
G1 X163.836 Y123.303 E0.13447
G1 X164.654 Y126.341 E0.13449
G1 X165.223 Y129.434 E0.1345
G1 X165.536 Y132.516 E0.13245
G1 X165.601 Y135.709 E0.13654
G1 X165.38 Y139.315 E0.15444
G1 X180.538 Y160.093 E1.09966
G1 X180.65 Y159.518 F9000
G1 F1800
G1 X181.464 Y158.835 E0.04544
G1 X182.888 Y157.811 E0.07499
G1 X185.571 Y156.154 E0.13482
G1 X187.782 Y155.055 E0.1056
G1 X190.614 Y153.942 E0.13009
G1 X192.501 Y153.38 E0.08415
G1 X195.013 Y152.866 E0.10966
G1 X196.435 Y152.71 E0.06115
G1 X198.255 Y152.628 E0.0779
G1 X199.817 Y152.655 E0.06676
G1 X201.882 Y152.844 E0.08869
G1 X203.139 Y153.037 E0.05437
G1 X205.642 Y153.572 E0.10941
G1 X207.198 Y154.055 E0.06965
G1 X208.318 Y154.518 E0.05186
G1 X209.45 Y155.158 E0.05556
G1 X211.025 Y156.34 E0.08422
G1 X213.4 Y158.551 E0.13873
G1 X217.346 Y162.291 E0.23244
G1 X217.728 Y162.632 E0.02191
G1 X225.592 Y169.407 E0.4438
G1 X227.155 Y170.694 E0.08657
G1 X228.64 Y171.803 E0.07923
G1 X230.05 Y172.961 E0.078
G1 X232.252 Y175.016 E0.1288
G1 X234.201 Y177.112 E0.12237
G1 X235.19 Y178.307 E0.06632
G1 X236.099 Y179.485 E0.0636
G1 X236.934 Y180.692 E0.06279
G1 X237.645 Y181.795 E0.05609
G1 X239.093 Y184.376 E0.12653
G1 X240.689 Y188.105 E0.17341
G1 X241.16 Y189.528 E0.06408
G1 X241.528 Y190.876 E0.05975
G1 X241.838 Y192.248 E0.06014
G1 X242.077 Y193.579 E0.05781
G1 X242.253 Y194.891 E0.05661
G1 X242.367 Y196.241 E0.05794
G1 X242.423 Y197.641 E0.05991
G1 X242.419 Y198.968 E0.05671
G1 X242.362 Y200.209 E0.05312
G1 X242.143 Y202.256 E0.08804
G1 X241.616 Y205.089 E0.12319
G1 X240.882 Y207.693 E0.11565
G1 X240.178 Y209.628 E0.08804
G1 X239.608 Y210.947 E0.06146
G1 X237.65 Y214.592 E0.17691
G1 X236.02 Y216.991 E0.12399
G1 X235.118 Y218.156 E0.06298
G1 X233.7 Y219.796 E0.09272
G1 X231.599 Y221.93 E0.128
G1 X229.92 Y223.426 E0.09617
G1 X227.552 Y225.269 E0.1283
G1 X226.303 Y226.138 E0.06505
G1 X224.978 Y226.991 E0.06739
G1 X222.247 Y228.553 E0.13452
G1 X220.739 Y229.312 E0.07216
G1 X217.9 Y230.572 E0.13281
G1 X216.359 Y231.167 E0.07061
G1 X213.259 Y232.192 E0.1396
G1 X211.682 Y232.629 E0.06997
G1 X210.054 Y233.023 E0.07163
G1 X208.483 Y233.357 E0.06867
G1 X206.756 Y233.654 E0.07492
G1 X205.185 Y233.886 E0.0679
G1 X203.514 Y234.075 E0.07188
G1 X201.868 Y234.213 E0.07063
G1 X200.163 Y234.291 E0.07297
G1 X198.458 Y234.323 E0.07293
G1 X196.806 Y234.308 E0.0706
G1 X194.993 Y234.224 E0.0776
G1 X193.438 Y234.119 E0.06664
G1 X191.731 Y233.947 E0.07337
G1 X190.155 Y233.743 E0.06794
G1 X186.862 Y233.159 E0.14298
G1 X185.129 Y232.772 E0.07591
G1 X183.357 Y232.308 E0.07833
G1 X180.337 Y231.372 E0.13519
G1 X177.329 Y230.23 E0.13756
G1 X175.701 Y229.52 E0.07593
G1 X174.343 Y228.871 E0.06436
G1 X172.183 Y227.723 E0.10457
G1 X170.18 Y226.537 E0.09955
G1 X167.631 Y224.804 E0.13177
G1 X165.764 Y223.35 E0.10118
G1 X164.073 Y221.891 E0.09549
G1 X162.469 Y220.326 E0.09581
G1 X160.909 Y218.633 E0.09845
G1 X159.553 Y216.958 E0.09215
G1 X157.498 Y213.991 E0.15428
G1 X156.187 Y211.66 E0.11434
G1 X155.211 Y209.577 E0.09835
G1 X154.446 Y207.633 E0.08934
G1 X153.647 Y205.013 E0.11711
G1 X153.332 Y203.665 E0.05919
G1 X152.959 Y201.334 E0.10091
G1 X152.705 Y198.358 E0.12771
G1 X152.758 Y195.557 E0.11979
G1 X152.986 Y193.42 E0.09188
G1 X153.292 Y191.596 E0.07905
G1 X153.947 Y188.91 E0.11821
G1 X123.437 Y173.992 E1.45206
G1 X120.241 Y173.577 E0.1378
G1 X117.247 Y172.948 E0.13078
G1 X114.312 Y172.087 E0.13078
G1 X111.453 Y171.001 E0.13079
G1 X108.73 Y169.716 E0.12873
G1 X106.031 Y168.177 E0.13284
G1 X103.502 Y166.457 E0.13078
G1 X101.15 Y164.576 E0.12873
G1 X98.916 Y162.487 E0.13078
G1 X96.82 Y160.193 E0.13284
G1 X94.969 Y157.819 E0.12873
G1 X93.28 Y155.269 E0.13079
G1 X91.794 Y152.595 E0.13078
G1 X90.522 Y149.813 E0.13077
G1 X89.457 Y146.895 E0.13284
G1 X88.646 Y143.995 E0.12873
G1 X88.053 Y140.994 E0.13078
G1 X87.696 Y137.956 E0.13078
G1 X87.577 Y134.9 E0.13076
G1 X87.706 Y131.722 E0.136
G1 X88.092 Y128.565 E0.13598
G1 X88.732 Y125.45 E0.13597
G1 X89.623 Y122.397 E0.13598
G1 X90.758 Y119.426 E0.13597
G1 X92.129 Y116.557 E0.13597
G1 X93.729 Y113.808 E0.13597
G1 X95.546 Y111.198 E0.13598
G1 X97.538 Y108.781 E0.13393
G1 X99.784 Y106.461 E0.13803
G1 X102.176 Y104.366 E0.13596
G1 X104.73 Y102.471 E0.13597
G1 X107.429 Y100.789 E0.13598
G1 X110.256 Y99.332 E0.13598
G1 X113.191 Y98.108 E0.13597
G1 X116.17 Y97.14 E0.13393
G1 X119.311 Y96.392 E0.13803
G1 X122.407 Y95.918 E0.13392
G1 X125.581 Y95.69 E0.13607
G1 X126.054 Y95.691 E0.02021
G1 X128.807 Y95.72 E0.1177
G1 X131.926 Y96.006 E0.13393
G1 X135.107 Y96.557 E0.13802
