; generated by SuperSlicer 2.4 on 2022-07-22 at 01:08:05 UTC


;
;

;
;
; 

; external perimeters extrusion width = 0.48mm
; perimeters extrusion width = 0.48mm
; infill extrusion width = 0.72mm
; solid infill extrusion width = 0.56mm
; top infill extrusion width = 0.40mm
; support material extrusion width = 0.42mm
; first layer extrusion width = 0.48mm

; external perimeters extrusion width = 0.40mm
; perimeters extrusion width = 0.48mm
; infill extrusion width = 0.72mm
; solid infill extrusion width = 0.56mm
; top infill extrusion width = 0.72mm
; support material extrusion width = 0.42mm
; first layer extrusion width = 0.48mm

; object:{"name":"Barge","id":"Barge.stl id:0 copy 0","object_center":[161.324208,165.328251,0.000000],"boundingbox_center":[161.324208,165.328251,8.819000],"boundingbox_size":[109.952003,60.042000,17.638000]}
; plater:{"center":[161.324208,165.328251,0.000000],"boundingbox_center":[161.324208,165.328251,8.819000],"boundingbox_size":[109.952003,60.042000,17.638000]}

M73 P0 R85
M73 P0 R85
;TYPE:Custom
START_PRINT T_BED=60 T_EXTRUDER=200
M107
G21 ; set units to millimeters
G90 ; use absolute coordinates
M83 ; use relative distances for extrusion
; Filament gcode
M109 S200 ; set temperature and wait for it to be reached
M190 S60 ; set bed temperature and wait for it to be reached
M107
;LAYER_CHANGE
;Z:0.24
;HEIGHT:0.24
G1 Z0.24 F9000
G92 E0
M73 P0 R85
G1 E-0.8 F3000
M204 S1000
G1 X104.895 Y132.868 F9000
G1 E0.8 F1800
;TYPE:Skirt
;WIDTH:0.52
G1 X104.36 Y133.346 E0.03283
G1 X104.046 Y133.679 E0.02099
G1 X103.383 Y134.662 E0.05433
G1 X103.009 Y135.673 E0.04939
G1 X102.822 Y136.918 E0.05766
G1 X102.822 Y180.152 E1.98064
G1 X103.02 Y181.516 E0.06314
G1 X103.417 Y182.491 E0.04819
G1 X104.102 Y183.459 E0.05432
G1 X104.488 Y183.862 E0.02559
G1 X105.348 Y184.54 E0.05017
G1 X106.159 Y184.945 E0.04153
G1 X144.986 Y198.702 E1.88709
G1 X146.222 Y198.914 E0.05743
G1 X176.411 Y198.914 E1.38303
G1 X177.646 Y198.702 E0.05738
G1 X216.408 Y184.981 E1.88376
G1 X217.424 Y184.453 E0.05244
G1 X218.551 Y183.452 E0.06906
G1 X219.23 Y182.491 E0.05391
G1 X219.626 Y181.516 E0.04819
G1 X219.807 Y180.505 E0.04709
G1 X219.824 Y136.919 E1.99672
G1 X219.588 Y135.516 E0.06522
G1 X219.19 Y134.537 E0.04839
G1 X218.737 Y133.854 E0.03756
G1 X218.26 Y133.319 E0.03283
G1 X217.335 Y132.551 E0.05509
G1 X216.741 Y132.241 E0.03067
G1 X215.604 Y131.889 E0.05454
G1 X214.751 Y131.79 E0.03932
G1 X107.961 Y131.781 E4.89226
G1 X106.557 Y132.017 E0.06523
G1 X105.578 Y132.416 E0.04839
G1 X104.895 Y132.868 E0.03756
G1 X105.207 Y133.279 F9000
G1 F1800
G1 X104.7 Y133.665 E0.02921
G1 X103.806 Y134.858 E0.06828
G1 X103.464 Y135.775 E0.04482
G1 X103.288 Y136.918 E0.05301
G1 X103.288 Y180.152 E1.98064
G1 X103.472 Y181.404 E0.05794
G1 X103.819 Y182.255 E0.04211
G1 X104.438 Y183.136 E0.04931
G1 X104.825 Y183.539 E0.02559
G1 X105.607 Y184.151 E0.04551
G1 X106.315 Y184.506 E0.0363
G1 X145.142 Y198.262 E1.88707
G1 X146.222 Y198.448 E0.05019
G1 X176.411 Y198.448 E1.38303
G1 X177.49 Y198.263 E0.05015
G1 X216.253 Y184.541 E1.88376
G1 X217.181 Y184.056 E0.04798
G1 X218.214 Y183.13 E0.06355
G1 X218.827 Y182.255 E0.04895
G1 X219.174 Y181.404 E0.04211
G1 X219.343 Y180.46 E0.04391
G1 X219.358 Y136.919 E1.99468
G1 X219.135 Y135.628 E0.06004
G1 X218.787 Y134.773 E0.04229
G1 X217.94 Y133.659 E0.06412
G1 X217.089 Y132.947 E0.05082
G1 X216.564 Y132.673 E0.02717
G1 X215.496 Y132.343 E0.05117
G1 X214.751 Y132.256 E0.03436
G1 X107.961 Y132.248 E4.89226
G1 X106.669 Y132.47 E0.06005
G1 X105.814 Y132.818 E0.04229
G1 X105.207 Y133.279 E0.03491
G1 E-0.8 F3000
; printing object Barge.stl id:0 copy 0
; acceleration to travel
M204 S3000
G1 X135.426 Y172.607 F9000
; decel to extrusion
M204 S1000
G1 X145.499 Y185.716
; end travel
G1 E0.8 F1800
;TYPE:Internal perimeter
;WIDTH:0.48
G1 X138.264 Y185.154 E0.30403
G1 X130.618 Y184.333 E0.32223
G1 X122.999 Y183.279 E0.32227
G1 X115.417 Y181.994 E0.32222
G1 X107.944 Y180.489 E0.31942
G1 X107.877 Y180.466 E0.00295
G1 X107.644 Y180.223 E0.01408
G1 X107.619 Y180.082 E0.00602
G1 X107.619 Y137.039 E1.80352
G1 X107.664 Y136.834 E0.00878
G1 X107.805 Y136.685 E0.00859
G1 X107.866 Y136.634 E0.00332
G1 X108.095 Y136.578 E0.00986
G1 X108.447 Y136.578 E0.01478
G1 X214.617 Y136.586 E4.44855
M73 P1 R84
G1 X214.763 Y136.625 E0.00632
G1 X214.929 Y136.774 E0.00935
G1 X214.971 Y136.825 E0.00277
G1 X215.028 Y137.054 E0.00987
G1 X215.028 Y180.082 E1.8029
G1 X215.002 Y180.224 E0.00605
G1 X214.807 Y180.428 E0.01182
G1 X214.685 Y180.493 E0.0058
G1 X207.23 Y181.994 E0.31865
G1 X199.646 Y183.279 E0.32226
G1 X192.029 Y184.333 E0.3222
G1 X184.383 Y185.154 E0.32223
G1 X176.798 Y185.743 E0.31878
G1 X176.011 Y186.652 E0.05037
G1 X176.011 Y194.118 E0.31282
G1 X146.636 Y194.118 E1.23083
G1 X146.635 Y186.653 E0.31276
G1 X145.851 Y185.743 E0.05035
G1 X145.499 Y185.716 E0.0148
G1 X145.465 Y186.143 F9000
G1 F1800
G1 X138.225 Y185.58 E0.3043
M73 P1 R84
G1 X130.566 Y184.758 E0.32277
G1 X122.934 Y183.702 E0.32282
G1 X115.339 Y182.415 E0.32276
G1 X107.829 Y180.903 E0.32097
G1 X107.699 Y180.857 E0.00579
G1 X107.589 Y180.784 E0.00555
G1 X107.307 Y180.491 E0.01701
G1 X107.235 Y180.367 E0.00599
G1 X107.2 Y180.228 E0.00603
G1 X107.19 Y180.121 E0.00451
G1 X107.19 Y136.992 E1.80712
G1 X107.257 Y136.691 E0.0129
G1 X107.302 Y136.594 E0.0045
G1 X107.512 Y136.371 E0.01282
G1 X107.621 Y136.281 E0.0059
G1 X107.703 Y136.234 E0.00398
G1 X108.042 Y136.149 E0.01466
G1 X108.447 Y136.149 E0.01698
G1 X214.673 Y136.158 E4.45089
G1 X214.925 Y136.218 E0.01086
G1 X214.972 Y136.237 E0.00214
G1 X215.24 Y136.477 E0.01505
G1 X215.324 Y136.58 E0.00557
G1 X215.372 Y136.662 E0.00398
G1 X215.456 Y137.001 E0.01466
G1 X215.456 Y180.121 E1.80672
G1 X215.446 Y180.228 E0.00451
G1 X215.411 Y180.367 E0.00603
G1 X215.339 Y180.492 E0.00603
G1 X215.069 Y180.774 E0.01634
G1 X214.895 Y180.88 E0.00858
G1 X214.831 Y180.9 E0.0028
G1 X207.308 Y182.415 E0.32155
G1 X199.712 Y183.702 E0.32281
G1 X192.082 Y184.758 E0.32274
G1 X184.423 Y185.58 E0.32276
G1 X177.007 Y186.157 E0.31166
G1 X176.44 Y186.812 E0.0363
G1 X176.439 Y194.306 E0.31403
G1 X176.414 Y194.34 E0.00177
G1 X176.362 Y194.486 E0.00648
G1 X176.198 Y194.546 E0.00732
G1 X146.447 Y194.546 E1.24655
G1 X146.401 Y194.511 E0.00243
G1 X146.207 Y194.45 E0.00853
G1 X146.207 Y186.813 E0.32002
G1 X145.641 Y186.157 E0.03628
G1 X145.465 Y186.143 E0.0074
G1 X145.432 Y186.57 F9000
;TYPE:External perimeter
G1 F1800
G1 X138.185 Y186.007 E0.30456
G1 X130.513 Y185.183 E0.3233
G1 X122.869 Y184.126 E0.32337
G1 X115.261 Y182.837 E0.32331
G1 X107.714 Y181.317 E0.32253
G1 X107.506 Y181.243 E0.00929
G1 X107.312 Y181.114 E0.00974
G1 X106.963 Y180.751 E0.02111
G1 X106.834 Y180.531 E0.01069
G1 X106.777 Y180.3 E0.00995
G1 X106.762 Y180.141 E0.0067
G1 X106.762 Y136.945 E1.80995
G1 X106.849 Y136.553 E0.0168
G1 X106.942 Y136.351 E0.00934
G1 X107.219 Y136.057 E0.01691
G1 X107.375 Y135.929 E0.00848
G1 X107.539 Y135.833 E0.00797
G1 X107.99 Y135.721 E0.01944
G1 X108.447 Y135.721 E0.01917
G1 X214.723 Y135.729 E4.45298
G1 X215.057 Y135.808 E0.01438
G1 X215.204 Y135.869 E0.00665
G1 X215.55 Y136.18 E0.01952
G1 X215.677 Y136.334 E0.00836
G1 X215.773 Y136.498 E0.00797
G1 X215.885 Y136.949 E0.01944
G1 X215.885 Y180.141 E1.80977
G1 X215.869 Y180.3 E0.0067
G1 X215.812 Y180.531 E0.00995
G1 X215.683 Y180.751 E0.01071
G1 X215.341 Y181.11 E0.02078
G1 X215.074 Y181.273 E0.01312
G1 X214.938 Y181.316 E0.00596
G1 X207.386 Y182.837 E0.32279
G1 X199.777 Y184.126 E0.32336
G1 X192.134 Y185.183 E0.32329
G1 X184.462 Y186.007 E0.3233
G1 X177.215 Y186.57 E0.30455
G1 X176.868 Y186.971 E0.02223
G1 X176.868 Y194.451 E0.31339
G1 X176.795 Y194.547 E0.00505
G1 X176.736 Y194.711 E0.00731
G1 X176.677 Y194.809 E0.0048
G1 X176.635 Y194.841 E0.00222
G1 X176.389 Y194.932 E0.01099
G1 X176.332 Y194.975 E0.00297
G1 X146.303 Y194.975 E1.25823
G1 X146.201 Y194.898 E0.00534
G1 X146.005 Y194.836 E0.00863
G1 X145.958 Y194.8 E0.00247
G1 X145.879 Y194.692 E0.00564
G1 X145.779 Y194.476 E0.00996
G1 X145.778 Y186.972 E0.31443
G1 X145.432 Y186.57 E0.02221
;WIPE_START
M204 S4000
G1 X145.358 Y186.177 F9000
;WIPE_END
G1 E-0.8 F3000
; acceleration to travel
M204 S3000
G1 X195.762 Y151.038 F9000
; decel to extrusion
M204 S1000
G1 X214.963 Y137.652
; end travel
G1 E0.8 F1800
;TYPE:Solid infill
;WIDTH:0.477963
G1 F3600
G1 X214.184 Y136.873 E0.04596
G1 X213.578 Y136.873 E0.02529
G1 X214.779 Y138.074 E0.07085
G1 X214.778 Y138.679 E0.02527
G1 X212.972 Y136.873 E0.1066
G1 X212.365 Y136.872 E0.02529
G1 X214.778 Y139.285 E0.14235
G1 X214.778 Y139.89 E0.02527
G1 X211.759 Y136.872 E0.1781
G1 X211.153 Y136.872 E0.02529
G1 X214.777 Y140.496 E0.21385
G1 X214.777 Y141.102 E0.02527
G1 X210.547 Y136.872 E0.2496
G1 X209.94 Y136.871 E0.02529
G1 X214.776 Y141.707 E0.28535
G1 X214.776 Y142.313 E0.02527
G1 X209.334 Y136.871 E0.3211
G1 X208.728 Y136.871 E0.02529
G1 X214.776 Y142.919 E0.35685
G1 X214.775 Y143.524 E0.02527
G1 X208.122 Y136.87 E0.3926
G1 X207.515 Y136.87 E0.02529
G1 X214.775 Y144.13 E0.42835
G1 X214.775 Y144.735 E0.02527
G1 X206.909 Y136.87 E0.4641
G1 X206.303 Y136.87 E0.02529
G1 X214.774 Y145.341 E0.49985
G1 X214.774 Y145.947 E0.02527
G1 X205.697 Y136.869 E0.5356
G1 X205.09 Y136.869 E0.02529
G1 X214.774 Y146.552 E0.57135
G1 X214.773 Y147.158 E0.02527
G1 X204.484 Y136.869 E0.6071
G1 X203.878 Y136.869 E0.02529
G1 X214.773 Y147.764 E0.64285
G1 X214.772 Y148.369 E0.02527
G1 X203.272 Y136.868 E0.6786
G1 X202.665 Y136.868 E0.02529
G1 X214.772 Y148.975 E0.71435
G1 X214.772 Y149.58 E0.02527
G1 X202.059 Y136.868 E0.7501
G1 X201.453 Y136.867 E0.02529
G1 X214.771 Y150.186 E0.78585
G1 X214.771 Y150.792 E0.02527
G1 X200.847 Y136.867 E0.8216
G1 X200.24 Y136.867 E0.02529
G1 X214.771 Y151.397 E0.85735
G1 X214.77 Y152.003 E0.02527
G1 X199.634 Y136.867 E0.8931
G1 X199.028 Y136.866 E0.02529
G1 X214.77 Y152.608 E0.92885
G1 X214.77 Y153.214 E0.02527
G1 X198.422 Y136.866 E0.9646
G1 X197.815 Y136.866 E0.02529
G1 X214.769 Y153.82 E1.00036
G1 X214.769 Y154.425 E0.02527
G1 X197.209 Y136.866 E1.03611
G1 X196.603 Y136.865 E0.02529
G1 X214.768 Y155.031 E1.07186
G1 X214.768 Y155.637 E0.02527
G1 X195.997 Y136.865 E1.10761
G1 X195.39 Y136.865 E0.02529
G1 X214.768 Y156.242 E1.14336
G1 X214.767 Y156.848 E0.02527
G1 X194.784 Y136.865 E1.17911
G1 X194.178 Y136.864 E0.02529
G1 X214.767 Y157.453 E1.21486
G1 X214.767 Y158.059 E0.02527
G1 X193.572 Y136.864 E1.25061
G1 X192.965 Y136.864 E0.02529
G1 X214.766 Y158.665 E1.28636
G1 X214.766 Y159.27 E0.02527
G1 X192.359 Y136.863 E1.32211
G1 X191.753 Y136.863 E0.02529
G1 X214.766 Y159.876 E1.35786
G1 X214.765 Y160.482 E0.02527
G1 X191.147 Y136.863 E1.39361
G1 X190.54 Y136.863 E0.02529
G1 X214.765 Y161.087 E1.42936
G1 X214.764 Y161.693 E0.02527
G1 X189.934 Y136.862 E1.46511
G1 X189.328 Y136.862 E0.02529
G1 X214.764 Y162.298 E1.50086
G1 X214.764 Y162.904 E0.02527
G1 X188.722 Y136.862 E1.53661
G1 X188.115 Y136.862 E0.02529
G1 X214.763 Y163.51 E1.57236
G1 X214.763 Y164.115 E0.02527
G1 X187.509 Y136.861 E1.60811
G1 X186.903 Y136.861 E0.02529
G1 X214.763 Y164.721 E1.64386
G1 X214.762 Y165.326 E0.02527
G1 X186.297 Y136.861 E1.67961
G1 X185.69 Y136.86 E0.02529
G1 X214.762 Y165.932 E1.71536
G1 X214.762 Y166.538 E0.02527
G1 X185.084 Y136.86 E1.75111
G1 X184.478 Y136.86 E0.02529
G1 X214.761 Y167.143 E1.78686
G1 X214.761 Y167.749 E0.02527
G1 X183.872 Y136.86 E1.82261
M73 P2 R83
G1 X183.265 Y136.859 E0.02529
G1 X214.76 Y168.355 E1.85836
G1 X214.76 Y168.96 E0.02527
G1 X182.659 Y136.859 E1.89411
G1 X182.053 Y136.859 E0.02529
G1 X214.76 Y169.566 E1.92986
G1 X214.759 Y170.171 E0.02527
G1 X181.447 Y136.859 E1.96561
G1 X180.84 Y136.858 E0.02529
G1 X214.759 Y170.777 E2.00136
G1 X214.759 Y171.383 E0.02527
G1 X180.234 Y136.858 E2.03711
G1 X179.628 Y136.858 E0.02529
G1 X214.758 Y171.988 E2.07286
G1 X214.758 Y172.594 E0.02527
G1 X179.022 Y136.858 E2.10861
G1 X178.415 Y136.857 E0.02529
G1 X214.758 Y173.2 E2.14436
G1 X214.757 Y173.805 E0.02527
G1 X177.809 Y136.857 E2.18011
G1 X177.203 Y136.857 E0.02529
G1 X214.757 Y174.411 E2.21586
G1 X214.756 Y175.016 E0.02527
G1 X176.597 Y136.856 E2.25161
G1 X175.99 Y136.856 E0.02529
G1 X214.756 Y175.622 E2.28736
G1 X214.756 Y176.228 E0.02527
G1 X175.384 Y136.856 E2.32311
G1 X174.778 Y136.856 E0.02529
G1 X214.755 Y176.833 E2.35886
G1 X214.755 Y177.439 E0.02527
G1 X174.172 Y136.855 E2.39461
G1 X173.565 Y136.855 E0.02529
G1 X214.755 Y178.045 E2.43036
M73 P2 R83
G1 X214.754 Y178.65 E0.02527
G1 X172.959 Y136.855 E2.46611
G1 X172.353 Y136.855 E0.02529
G1 X214.754 Y179.256 E2.50187
G1 X214.754 Y179.861 E0.02527
G1 X171.746 Y136.854 E2.53762
G1 X171.14 Y136.854 E0.02529
G1 X214.552 Y180.266 E2.56151
G1 X214.048 Y180.368 E0.02147
G1 X170.534 Y136.854 E2.56752
G1 X169.928 Y136.854 E0.02529
G1 X213.543 Y180.469 E2.57352
G1 X213.039 Y180.571 E0.02147
G1 X169.321 Y136.853 E2.57953
G1 X168.715 Y136.853 E0.02529
G1 X212.535 Y180.672 E2.58554
G1 X212.03 Y180.774 E0.02147
G1 X168.109 Y136.853 E2.59155
G1 X167.503 Y136.852 E0.02529
G1 X211.526 Y180.875 E2.59756
G1 X211.021 Y180.977 E0.02147
G1 X166.896 Y136.852 E2.60357
G1 X166.29 Y136.852 E0.02529
G1 X210.517 Y181.078 E2.60957
G1 X210.012 Y181.18 E0.02147
G1 X165.684 Y136.852 E2.61558
G1 X165.078 Y136.851 E0.02529
G1 X209.508 Y181.282 E2.62159
G1 X209.004 Y181.383 E0.02147
G1 X164.471 Y136.851 E2.6276
G1 X163.865 Y136.851 E0.02529
G1 X208.499 Y181.485 E2.63361
G1 X207.995 Y181.586 E0.02147
G1 X163.259 Y136.851 E2.63962
G1 X162.653 Y136.85 E0.02529
G1 X207.49 Y181.688 E2.64562
G1 X207.184 Y181.749 E0.01302
G1 X206.98 Y181.784 E0.00863
G1 X162.046 Y136.85 E2.65131
G1 X161.44 Y136.85 E0.02529
G1 X206.462 Y181.872 E2.65651
G1 X205.944 Y181.96 E0.02193
G1 X160.834 Y136.849 E2.6617
G1 X160.228 Y136.849 E0.02529
G1 X205.426 Y182.047 E2.6669
G1 X204.908 Y182.135 E0.02193
G1 X159.621 Y136.849 E2.6721
G1 X159.015 Y136.849 E0.02529
G1 X204.389 Y182.223 E2.67729
G1 X203.871 Y182.311 E0.02193
G1 X158.409 Y136.848 E2.68249
G1 X157.803 Y136.848 E0.02529
G1 X203.353 Y182.399 E2.68768
G1 X202.835 Y182.486 E0.02193
G1 X157.196 Y136.848 E2.69288
G1 X156.59 Y136.848 E0.02529
G1 X202.317 Y182.574 E2.69808
G1 X201.799 Y182.662 E0.02193
G1 X155.984 Y136.847 E2.70327
G1 X155.378 Y136.847 E0.02529
G1 X201.28 Y182.75 E2.70847
G1 X200.762 Y182.838 E0.02193
G1 X154.771 Y136.847 E2.71366
M73 P3 R82
G1 X154.165 Y136.847 E0.02529
G1 X200.244 Y182.925 E2.71886
G1 X199.726 Y183.013 E0.02193
G1 X153.559 Y136.846 E2.72406
G1 X152.953 Y136.846 E0.02529
G1 X199.197 Y183.09 E2.72861
G1 X198.664 Y183.164 E0.02242
G1 X152.346 Y136.846 E2.73297
G1 X151.74 Y136.845 E0.02529
G1 X198.132 Y183.237 E2.73733
G1 X197.6 Y183.311 E0.02242
G1 X151.134 Y136.845 E2.7417
G1 X150.528 Y136.845 E0.02529
G1 X197.067 Y183.385 E2.74606
G1 X196.535 Y183.458 E0.02242
G1 X149.921 Y136.845 E2.75042
G1 X149.315 Y136.844 E0.02529
G1 X196.003 Y183.532 E2.75478
G1 X195.47 Y183.606 E0.02242
G1 X148.709 Y136.844 E2.75915
G1 X148.103 Y136.844 E0.02529
G1 X194.938 Y183.679 E2.76351
G1 X194.406 Y183.753 E0.02242
G1 X147.496 Y136.844 E2.76787
G1 X146.89 Y136.843 E0.02529
G1 X193.874 Y183.827 E2.77223
G1 X193.341 Y183.9 E0.02242
G1 X146.284 Y136.843 E2.7766
G1 X145.678 Y136.843 E0.02529
G1 X192.809 Y183.974 E2.78096
G1 X192.277 Y184.048 E0.02242
G1 X145.071 Y136.842 E2.78532
G1 X144.465 Y136.842 E0.02529
G1 X191.737 Y184.114 E2.78926
G1 X191.19 Y184.173 E0.02296
G1 X143.859 Y136.842 E2.79275
G1 X143.253 Y136.842 E0.02529
G1 X190.643 Y184.232 E2.79623
G1 X190.095 Y184.29 E0.02296
G1 X142.646 Y136.841 E2.79971
G1 X142.04 Y136.841 E0.02529
G1 X189.548 Y184.349 E2.8032
G1 X189.001 Y184.408 E0.02296
G1 X141.434 Y136.841 E2.80668
M73 P3 R82
G1 X140.828 Y136.841 E0.02529
G1 X188.454 Y184.467 E2.81016
G1 X187.907 Y184.525 E0.02296
G1 X140.221 Y136.84 E2.81364
G1 X139.615 Y136.84 E0.02529
G1 X187.359 Y184.584 E2.81713
G1 X186.812 Y184.643 E0.02296
G1 X139.009 Y136.84 E2.82061
G1 X138.403 Y136.84 E0.02529
G1 X186.265 Y184.702 E2.82409
G1 X185.718 Y184.761 E0.02296
G1 X137.796 Y136.839 E2.82758
G1 X137.19 Y136.839 E0.02529
G1 X185.17 Y184.819 E2.83106
G1 X184.623 Y184.878 E0.02296
G1 X136.584 Y136.839 E2.83454
G1 X135.978 Y136.838 E0.02529
G1 X184.068 Y184.929 E2.83756
