; generated by SuperSlicer 2.4 on 2022-05-16 at 04:14:53 UTC


;
;

;
;
; 

; external perimeters extrusion width = 0.40mm
; perimeters extrusion width = 0.40mm
; infill extrusion width = 0.72mm
; solid infill extrusion width = 0.56mm
; top infill extrusion width = 0.40mm
; support material extrusion width = 0.40mm
; first layer extrusion width = 0.48mm

; object:{"name":"Base X100","id":"Base X100.5 Y98.5.stl id:0 copy 0","object_center":[152.500000,150.000000,0.000000],"boundingbox_center":[152.500000,150.000000,4.875000],"boundingbox_size":[174.277360,61.690930,9.750000]}
; plater:{"center":[152.500000,150.000000,0.000000],"boundingbox_center":[152.500000,150.000000,4.875000],"boundingbox_size":[174.277360,61.690930,9.750000]}

M73 P0 R69
;TYPE:Custom
START_PRINT T_BED=60 T_EXTRUDER=200
M107
G21 ; set units to millimeters
G90 ; use absolute coordinates
M83 ; use relative distances for extrusion
; Filament gcode
M109 S200 ; set temperature and wait for it to be reached
M190 S60 ; set bed temperature and wait for it to be reached
M107
;LAYER_CHANGE
;Z:0.24
;HEIGHT:0.24
G1 Z0.24 F9000
G92 E0
M73 P0 R68
G1 E-0.8 F3000
M204 S1000
G1 X64.244 Y115.935 F9000
G1 E0.8 F1800
;TYPE:Skirt
;WIDTH:0.52
G1 X63.161 Y116.637 E0.06031
G1 X62.319 Y117.675 E0.0625
G1 X61.841 Y118.967 E0.0644
G1 X61.762 Y119.744 E0.03654
G1 X61.762 Y180.256 E2.82869
G1 X61.841 Y181.033 E0.03654
G1 X62.246 Y182.192 E0.05738
G1 X63.046 Y183.256 E0.06224
G1 X64.096 Y183.996 E0.06005
G1 X65.286 Y184.381 E0.05847
G1 X65.996 Y184.445 E0.03329
G1 X239.004 Y184.445 E8.08757
G1 X239.713 Y184.381 E0.03329
G1 X240.756 Y184.065 E0.05092
G1 X241.839 Y183.363 E0.06032
G1 X242.681 Y182.325 E0.06249
G1 X243.159 Y181.033 E0.0644
G1 X243.238 Y180.256 E0.03654
G1 X243.238 Y119.744 E2.82869
G1 X243.158 Y118.963 E0.03673
G1 X242.889 Y118.076 E0.0433
G1 X242.298 Y117.117 E0.05267
G1 X241.32 Y116.241 E0.06139
G1 X240.32 Y115.767 E0.05172
G1 X239.095 Y115.562 E0.05806
G1 X65.996 Y115.555 E8.09181
G1 X65.287 Y115.619 E0.0333
G1 X64.244 Y115.935 E0.05093
G1 X64.443 Y116.356 F9000
G1 F1800
G1 X63.478 Y116.979 E0.05366
G1 X62.727 Y117.899 E0.05554
G1 X62.301 Y119.045 E0.05717
G1 X62.228 Y119.744 E0.03285
G1 X62.228 Y180.256 E2.82869
G1 X62.301 Y180.955 E0.03285
G1 X62.654 Y181.967 E0.05015
G1 X63.363 Y182.914 E0.05528
G1 X64.295 Y183.574 E0.0534
G1 X65.354 Y183.919 E0.05206
G1 X65.996 Y183.979 E0.03012
G1 X239.004 Y183.979 E8.08757
M73 P1 R68
G1 X239.646 Y183.919 E0.03012
G1 X240.557 Y183.644 E0.0445
G1 X241.522 Y183.021 E0.05367
G1 X242.273 Y182.101 E0.05553
G1 X242.699 Y180.955 E0.05717
G1 X242.772 Y180.256 E0.03285
G1 X242.772 Y119.744 E2.82869
G1 X242.699 Y119.041 E0.03305
G1 X242.463 Y118.267 E0.03785
G1 X241.931 Y117.405 E0.04735
G1 X241.059 Y116.628 E0.05459
G1 X240.186 Y116.214 E0.0452
G1 X239.095 Y116.029 E0.0517
G1 X65.996 Y116.021 E8.09181
G1 X65.354 Y116.081 E0.03012
G1 X64.443 Y116.356 E0.04451
G1 E-0.8 F3000
; printing object Base X100.5 Y98.5.stl id:0 copy 0
; acceleration to travel
M204 S3000
G1 X66.351 Y119.674 F9000
; decel to extrusion
M204 S1000
G1 X66.987 Y120.78
; end travel
G1 E0.8 F1800
;TYPE:Internal perimeter
;WIDTH:0.48
G1 X238.013 Y120.787 E7.31231
G1 X238.013 Y179.22 E2.49832
G1 X66.987 Y179.22 E7.31231
G1 X66.987 Y120.78 E2.49863
G1 X66.558 Y120.352 F9000
G1 F1800
G1 X238.442 Y120.359 E7.34895
M73 P1 R67
G1 X238.442 Y179.648 E2.53496
G1 X66.558 Y179.648 E7.34895
M73 P2 R67
G1 X66.558 Y120.352 E2.53527
G1 X66.13 Y119.923 F9000
G1 F1800
G1 X66.487 Y119.923 E0.01529
G1 X238.87 Y119.93 E7.37031
G1 X238.87 Y180.077 E2.5716
G1 X66.13 Y180.077 E7.38559
G1 X66.13 Y119.923 E2.57191
G1 X65.753 Y119.606 F9000
;TYPE:External perimeter
G1 F1800
G1 X65.813 Y119.551 E0.00349
G1 X65.894 Y119.512 E0.00386
G1 X66.013 Y119.495 E0.00515
G1 X66.487 Y119.495 E0.02027
G1 X239.06 Y119.502 E7.3784
G1 X239.149 Y119.529 E0.00399
G1 X239.263 Y119.632 E0.00658
G1 X239.299 Y119.774 E0.00626
G1 X239.299 Y180.235 E2.58506
G1 X239.282 Y180.33 E0.00412
G1 X239.188 Y180.449 E0.00652
G1 X239.106 Y180.488 E0.00386
G1 X238.987 Y180.505 E0.00515
G1 X66.013 Y180.505 E7.39556
G1 X65.894 Y180.488 E0.00515
G1 X65.813 Y180.449 E0.00386
G1 X65.753 Y180.394 E0.00349
G1 X65.718 Y180.33 E0.00311
G1 X65.701 Y180.235 E0.00412
G1 X65.701 Y119.765 E2.58544
G1 X65.718 Y119.67 E0.00412
G1 X65.753 Y119.606 E0.00311
;WIPE_START
M204 S4000
G1 X66.145 Y119.683 F9000
;WIPE_END
; acceleration to travel
M204 S3000
G1 X189.928 Y120.529
; decel to extrusion
M204 S1000
G1 X237.083 Y120.851
; end travel
;TYPE:Solid infill
;WIDTH:0.478406
G1 F3600
G1 X237.765 Y121.533 E0.0411
G1 X237.765 Y122.139 E0.02582
G1 X236.661 Y121.036 E0.06652
G1 X236.055 Y121.036 E0.02582
G1 X237.765 Y122.745 E0.10304
G1 X237.765 Y123.351 E0.02582
G1 X235.449 Y121.036 E0.13956
G1 X234.843 Y121.036 E0.02582
G1 X237.765 Y123.957 E0.17608
G1 X237.765 Y124.563 E0.02582
G1 X234.237 Y121.035 E0.2126
G1 X233.631 Y121.035 E0.02582
G1 X237.765 Y125.169 E0.24912
G1 X237.765 Y125.775 E0.02582
G1 X233.025 Y121.035 E0.28564
G1 X232.419 Y121.035 E0.02582
G1 X237.765 Y126.381 E0.32216
G1 X237.765 Y126.987 E0.02582
G1 X231.813 Y121.035 E0.35868
G1 X231.207 Y121.035 E0.02582
G1 X237.765 Y127.593 E0.3952
G1 X237.765 Y128.199 E0.02582
G1 X230.601 Y121.035 E0.43172
G1 X229.995 Y121.035 E0.02582
G1 X237.765 Y128.805 E0.46825
G1 X237.765 Y129.411 E0.02582
G1 X229.389 Y121.035 E0.50477
G1 X228.783 Y121.035 E0.02582
G1 X237.765 Y130.017 E0.54129
G1 X237.765 Y130.623 E0.02582
G1 X228.177 Y121.035 E0.57781
G1 X227.571 Y121.035 E0.02582
G1 X237.765 Y131.229 E0.61433
G1 X237.765 Y131.835 E0.02582
G1 X226.965 Y121.035 E0.65085
G1 X226.359 Y121.035 E0.02582
G1 X237.765 Y132.441 E0.68737
G1 X237.765 Y133.047 E0.02582
G1 X225.753 Y121.035 E0.72389
G1 X225.147 Y121.035 E0.02582
G1 X237.765 Y133.653 E0.76041
G1 X237.765 Y134.259 E0.02582
G1 X224.541 Y121.035 E0.79693
G1 X223.935 Y121.035 E0.02582
G1 X237.765 Y134.865 E0.83345
G1 X237.765 Y135.471 E0.02582
G1 X223.329 Y121.035 E0.86997
G1 X222.723 Y121.035 E0.02582
G1 X237.765 Y136.077 E0.9065
G1 X237.765 Y136.683 E0.02582
G1 X222.117 Y121.035 E0.94302
G1 X221.511 Y121.035 E0.02582
G1 X237.765 Y137.289 E0.97954
M73 P3 R67
G1 X237.765 Y137.895 E0.02582
G1 X220.905 Y121.035 E1.01606
G1 X220.299 Y121.035 E0.02582
G1 X237.765 Y138.501 E1.05258
G1 X237.765 Y139.107 E0.02582
G1 X219.693 Y121.035 E1.0891
G1 X219.087 Y121.035 E0.02582
G1 X237.765 Y139.713 E1.12562
G1 X237.765 Y140.319 E0.02582
G1 X218.481 Y121.035 E1.16214
G1 X217.875 Y121.035 E0.02582
G1 X237.765 Y140.925 E1.19866
G1 X237.765 Y141.531 E0.02582
G1 X217.269 Y121.035 E1.23518
G1 X216.663 Y121.035 E0.02582
G1 X237.765 Y142.137 E1.2717
G1 X237.765 Y142.743 E0.02582
G1 X216.057 Y121.035 E1.30822
G1 X215.451 Y121.035 E0.02582
G1 X237.765 Y143.349 E1.34475
G1 X237.765 Y143.955 E0.02582
G1 X214.845 Y121.035 E1.38127
G1 X214.239 Y121.035 E0.02582
G1 X237.765 Y144.561 E1.41779
M73 P3 R66
G1 X237.765 Y145.167 E0.02582
G1 X213.633 Y121.035 E1.45431
G1 X213.027 Y121.035 E0.02582
G1 X237.765 Y145.773 E1.49083
G1 X237.765 Y146.379 E0.02582
G1 X212.421 Y121.035 E1.52735
G1 X211.815 Y121.035 E0.02582
G1 X237.765 Y146.985 E1.56387
G1 X237.765 Y147.591 E0.02582
G1 X211.209 Y121.035 E1.60039
G1 X210.603 Y121.035 E0.02582
G1 X237.765 Y148.197 E1.63691
G1 X237.765 Y148.803 E0.02582
G1 X209.997 Y121.034 E1.67343
G1 X209.391 Y121.034 E0.02582
G1 X237.765 Y149.409 E1.70995
G1 X237.765 Y150.015 E0.02582
G1 X208.785 Y121.034 E1.74647
G1 X208.179 Y121.034 E0.02582
G1 X237.765 Y150.621 E1.783
G1 X237.765 Y151.227 E0.02582
G1 X207.573 Y121.034 E1.81952
G1 X206.967 Y121.034 E0.02582
G1 X237.765 Y151.832 E1.85604
G1 X237.765 Y152.438 E0.02582
G1 X206.361 Y121.034 E1.89256
G1 X205.755 Y121.034 E0.02582
G1 X237.765 Y153.044 E1.92908
G1 X237.765 Y153.65 E0.02582
G1 X205.149 Y121.034 E1.9656
G1 X204.543 Y121.034 E0.02582
G1 X237.765 Y154.256 E2.00212
G1 X237.765 Y154.862 E0.02582
G1 X203.937 Y121.034 E2.03864
G1 X203.33 Y121.034 E0.02582
G1 X237.765 Y155.468 E2.07516
G1 X237.765 Y156.074 E0.02582
G1 X202.724 Y121.034 E2.11168
G1 X202.118 Y121.034 E0.02582
G1 X237.765 Y156.68 E2.1482
G1 X237.765 Y157.286 E0.02582
G1 X201.512 Y121.034 E2.18472
G1 X200.906 Y121.034 E0.02582
G1 X237.765 Y157.892 E2.22125
G1 X237.765 Y158.498 E0.02582
G1 X200.3 Y121.034 E2.25777
G1 X199.694 Y121.034 E0.02582
G1 X237.765 Y159.104 E2.29429
G1 X237.765 Y159.71 E0.02582
G1 X199.088 Y121.034 E2.33081
G1 X198.482 Y121.034 E0.02582
G1 X237.765 Y160.316 E2.36733
G1 X237.765 Y160.922 E0.02582
G1 X197.876 Y121.034 E2.40385
G1 X197.27 Y121.034 E0.02582
G1 X237.765 Y161.528 E2.44037
G1 X237.765 Y162.134 E0.02582
G1 X196.664 Y121.034 E2.47689
G1 X196.058 Y121.034 E0.02582
G1 X237.765 Y162.74 E2.51341
G1 X237.765 Y163.346 E0.02582
G1 X195.452 Y121.034 E2.54993
G1 X194.846 Y121.034 E0.02582
G1 X237.765 Y163.952 E2.58645
G1 X237.765 Y164.558 E0.02582
G1 X194.24 Y121.034 E2.62298
G1 X193.634 Y121.034 E0.02582
G1 X237.765 Y165.164 E2.6595
G1 X237.765 Y165.77 E0.02582
G1 X193.028 Y121.034 E2.69602
G1 X192.422 Y121.034 E0.02582
G1 X237.765 Y166.376 E2.73254
G1 X237.765 Y166.982 E0.02582
G1 X191.816 Y121.034 E2.76906
G1 X191.21 Y121.034 E0.02582
G1 X237.765 Y167.588 E2.80558
G1 X237.765 Y168.194 E0.02582
G1 X190.604 Y121.034 E2.8421
M73 P4 R66
G1 X189.998 Y121.034 E0.02582
G1 X237.765 Y168.8 E2.87862
G1 X237.765 Y169.406 E0.02582
G1 X189.392 Y121.034 E2.91514
G1 X188.786 Y121.034 E0.02582
G1 X237.765 Y170.012 E2.95166
G1 X237.765 Y170.618 E0.02582
G1 X188.18 Y121.034 E2.98818
G1 X187.574 Y121.034 E0.02582
G1 X237.765 Y171.224 E3.0247
G1 X237.765 Y171.83 E0.02582
G1 X186.968 Y121.034 E3.06123
G1 X186.362 Y121.034 E0.02582
G1 X237.765 Y172.436 E3.09775
G1 X237.765 Y173.042 E0.02582
G1 X185.756 Y121.033 E3.13427
G1 X185.15 Y121.033 E0.02582
G1 X237.765 Y173.648 E3.17079
G1 X237.765 Y174.254 E0.02582
G1 X184.544 Y121.033 E3.20731
G1 X183.938 Y121.033 E0.02582
G1 X237.765 Y174.86 E3.24383
G1 X237.765 Y175.466 E0.02582
G1 X183.332 Y121.033 E3.28035
G1 X182.726 Y121.033 E0.02582
G1 X237.765 Y176.072 E3.31687
G1 X237.765 Y176.678 E0.02582
G1 X182.12 Y121.033 E3.35339
G1 X181.514 Y121.033 E0.02582
G1 X237.765 Y177.284 E3.38991
G1 X237.765 Y177.89 E0.02582
G1 X180.908 Y121.033 E3.42643
G1 X180.302 Y121.033 E0.02582
G1 X237.765 Y178.496 E3.46295
G1 X237.765 Y178.971 E0.02027
G1 X237.634 Y178.971 E0.00555
G1 X179.696 Y121.033 E3.49162
G1 X179.09 Y121.033 E0.02582
G1 X237.028 Y178.971 E3.49163
M73 P4 R65
G1 X236.422 Y178.971 E0.02582
G1 X178.484 Y121.033 E3.49163
G1 X177.878 Y121.033 E0.02582
G1 X235.816 Y178.971 E3.49163
G1 X235.21 Y178.971 E0.02582
G1 X177.272 Y121.033 E3.49163
G1 X176.666 Y121.033 E0.02582
G1 X234.604 Y178.971 E3.49163
G1 X233.999 Y178.971 E0.02582
G1 X176.06 Y121.033 E3.49163
G1 X175.454 Y121.033 E0.02582
G1 X233.393 Y178.971 E3.49163
G1 X232.787 Y178.971 E0.02582
G1 X174.848 Y121.033 E3.49164
G1 X174.242 Y121.033 E0.02582
G1 X232.181 Y178.971 E3.49164
G1 X231.575 Y178.971 E0.02582
G1 X173.636 Y121.033 E3.49164
G1 X173.03 Y121.033 E0.02582
G1 X230.969 Y178.971 E3.49164
G1 X230.363 Y178.971 E0.02582
G1 X172.424 Y121.033 E3.49164
M73 P5 R65
G1 X171.818 Y121.033 E0.02582
G1 X229.757 Y178.971 E3.49164
G1 X229.151 Y178.971 E0.02582
G1 X171.212 Y121.033 E3.49165
G1 X170.606 Y121.033 E0.02582
G1 X228.545 Y178.971 E3.49165
G1 X227.939 Y178.971 E0.02582
G1 X170 Y121.033 E3.49165
G1 X169.394 Y121.033 E0.02582
G1 X227.333 Y178.971 E3.49165
G1 X226.727 Y178.971 E0.02582
G1 X168.788 Y121.033 E3.49165
G1 X168.182 Y121.033 E0.02582
G1 X226.121 Y178.971 E3.49165
G1 X225.515 Y178.971 E0.02582
G1 X167.576 Y121.033 E3.49165
G1 X166.97 Y121.033 E0.02582
G1 X224.909 Y178.971 E3.49166
G1 X224.303 Y178.971 E0.02582
G1 X166.364 Y121.033 E3.49166
G1 X165.758 Y121.033 E0.02582
G1 X223.697 Y178.971 E3.49166
G1 X223.091 Y178.971 E0.02582
G1 X165.152 Y121.033 E3.49166
G1 X164.546 Y121.033 E0.02582
G1 X222.485 Y178.971 E3.49166
G1 X221.879 Y178.971 E0.02582
G1 X163.94 Y121.033 E3.49166
G1 X163.334 Y121.033 E0.02582
G1 X221.273 Y178.971 E3.49167
G1 X220.667 Y178.971 E0.02582
G1 X162.728 Y121.033 E3.49167
G1 X162.122 Y121.032 E0.02582
G1 X220.061 Y178.971 E3.49167
G1 X219.455 Y178.971 E0.02582
G1 X161.516 Y121.032 E3.49167
G1 X160.91 Y121.032 E0.02582
G1 X218.849 Y178.971 E3.49167
G1 X218.243 Y178.971 E0.02582
G1 X160.304 Y121.032 E3.49167
G1 X159.698 Y121.032 E0.02582
G1 X217.637 Y178.971 E3.49167
G1 X217.031 Y178.971 E0.02582
G1 X159.092 Y121.032 E3.49168
G1 X158.486 Y121.032 E0.02582
G1 X216.425 Y178.971 E3.49168
G1 X215.819 Y178.971 E0.02582
G1 X157.88 Y121.032 E3.49168
G1 X157.274 Y121.032 E0.02582
G1 X215.213 Y178.971 E3.49168
G1 X214.607 Y178.971 E0.02582
G1 X156.668 Y121.032 E3.49168
G1 X156.062 Y121.032 E0.02582
G1 X214.001 Y178.971 E3.49168
G1 X213.395 Y178.971 E0.02582
G1 X155.456 Y121.032 E3.49168
G1 X154.85 Y121.032 E0.02582
G1 X212.789 Y178.971 E3.49169
M73 P6 R65
G1 X212.183 Y178.971 E0.02582
G1 X154.244 Y121.032 E3.49169
G1 X153.638 Y121.032 E0.02582
G1 X211.577 Y178.971 E3.49169
M73 P6 R64
G1 X210.971 Y178.971 E0.02582
G1 X153.032 Y121.032 E3.49169
G1 X152.426 Y121.032 E0.02582
G1 X210.365 Y178.971 E3.49169
G1 X209.759 Y178.971 E0.02582
G1 X151.82 Y121.032 E3.49169
G1 X151.214 Y121.032 E0.02582
G1 X209.153 Y178.971 E3.4917
G1 X208.547 Y178.971 E0.02582
G1 X150.608 Y121.032 E3.4917
G1 X150.002 Y121.032 E0.02582
G1 X207.941 Y178.971 E3.4917
G1 X207.335 Y178.971 E0.02582
G1 X149.396 Y121.032 E3.4917
G1 X148.79 Y121.032 E0.02582
G1 X206.729 Y178.971 E3.4917
G1 X206.123 Y178.971 E0.02582
G1 X148.184 Y121.032 E3.4917
G1 X147.578 Y121.032 E0.02582
G1 X205.517 Y178.971 E3.4917
G1 X204.911 Y178.971 E0.02582
G1 X146.972 Y121.032 E3.49171
G1 X146.366 Y121.032 E0.02582
G1 X204.305 Y178.971 E3.49171
G1 X203.699 Y178.971 E0.02582
G1 X145.76 Y121.032 E3.49171
G1 X145.154 Y121.032 E0.02582
G1 X203.093 Y178.971 E3.49171
G1 X202.487 Y178.971 E0.02582
G1 X144.548 Y121.032 E3.49171
G1 X143.942 Y121.032 E0.02582
G1 X201.881 Y178.971 E3.49171
G1 X201.275 Y178.971 E0.02582
G1 X143.336 Y121.032 E3.49171
G1 X142.73 Y121.032 E0.02582
G1 X200.669 Y178.971 E3.49172
G1 X200.063 Y178.971 E0.02582
G1 X142.124 Y121.032 E3.49172
G1 X141.518 Y121.032 E0.02582
G1 X199.457 Y178.971 E3.49172
G1 X198.851 Y178.971 E0.02582
G1 X140.912 Y121.032 E3.49172
G1 X140.306 Y121.032 E0.02582
G1 X198.245 Y178.971 E3.49172
G1 X197.64 Y178.971 E0.02582
G1 X139.7 Y121.032 E3.49172
G1 X139.094 Y121.032 E0.02582
G1 X197.034 Y178.971 E3.49173
G1 X196.428 Y178.971 E0.02582
G1 X138.488 Y121.032 E3.49173
G1 X137.882 Y121.031 E0.02582
G1 X195.822 Y178.971 E3.49173
G1 X195.216 Y178.971 E0.02582
G1 X137.276 Y121.031 E3.49173
M73 P7 R64
G1 X136.67 Y121.031 E0.02582
G1 X194.61 Y178.971 E3.49173
G1 X194.004 Y178.971 E0.02582
G1 X136.064 Y121.031 E3.49173
G1 X135.458 Y121.031 E0.02582
G1 X193.398 Y178.971 E3.49173
G1 X192.792 Y178.971 E0.02582
G1 X134.852 Y121.031 E3.49174
G1 X134.246 Y121.031 E0.02582
G1 X192.186 Y178.971 E3.49174
G1 X191.58 Y178.971 E0.02582
G1 X133.64 Y121.031 E3.49174
G1 X133.034 Y121.031 E0.02582
G1 X190.974 Y178.971 E3.49174
G1 X190.368 Y178.971 E0.02582
G1 X132.428 Y121.031 E3.49174
G1 X131.821 Y121.031 E0.02582
G1 X189.762 Y178.971 E3.49174
G1 X189.156 Y178.971 E0.02582
G1 X131.215 Y121.031 E3.49175
G1 X130.609 Y121.031 E0.02582
G1 X188.55 Y178.971 E3.49175
G1 X187.944 Y178.971 E0.02582
G1 X130.003 Y121.031 E3.49175
G1 X129.397 Y121.031 E0.02582
G1 X187.338 Y178.971 E3.49175
G1 X186.732 Y178.971 E0.02582
G1 X128.791 Y121.031 E3.49175
M73 P7 R63
G1 X128.185 Y121.031 E0.02582
G1 X186.126 Y178.971 E3.49175
G1 X185.52 Y178.971 E0.02582
G1 X127.579 Y121.031 E3.49175
G1 X126.973 Y121.031 E0.02582
G1 X184.914 Y178.971 E3.49176
G1 X184.308 Y178.971 E0.02582
G1 X126.367 Y121.031 E3.49176
G1 X125.761 Y121.031 E0.02582
G1 X183.702 Y178.971 E3.49176
G1 X183.096 Y178.971 E0.02582
G1 X125.155 Y121.031 E3.49176
G1 X124.549 Y121.031 E0.02582
G1 X182.49 Y178.971 E3.49176
G1 X181.884 Y178.971 E0.02582
G1 X123.943 Y121.031 E3.49176
G1 X123.337 Y121.031 E0.02582
G1 X181.278 Y178.971 E3.49176
G1 X180.672 Y178.971 E0.02582
G1 X122.731 Y121.031 E3.49177
G1 X122.125 Y121.031 E0.02582
