; generated by SuperSlicer 2.3.57 on 2022-02-08 at 23:50:17 UTC


;
;

;
;
; 

; external perimeters extrusion width = 0.40mm
; perimeters extrusion width = 0.40mm
; infill extrusion width = 0.40mm
; solid infill extrusion width = 0.40mm
; top infill extrusion width = 0.40mm
; first layer extrusion width = 0.48mm

; object:{"name":"Base_doppelt","id":"Base_doppelt.stl id:0 copy 0","object_center":[165.000000,165.000000,0.000000],"boundingbox_center":[165.000000,165.000000,7.500000],"boundingbox_size":[146.399994,300.000000,15.000000]}
; plater:{"center":[165.000000,165.000000,0.000000],"boundingbox_center":[165.000000,165.000000,7.500000],"boundingbox_size":[146.399994,300.000000,15.000000]}

;TYPE:Custom
START_PRINT T_BED=60 T_EXTRUDER=200
M107
G21 ; set units to millimeters
G90 ; use absolute coordinates
M83 ; use relative distances for extrusion
; Filament gcode
M104 S200 ; set temperature
M109 S200 ; set temperature and wait for it to be reached
M190 S60 ; set bed temperature and wait for it to be reached
;LAYER_CHANGE
;Z:0.24
;HEIGHT:0.24
G1 E-0.6 F3000
G1 Z0.24 F18000
G1 X88.349 Y14.286
G1 E0.6 F1800
;TYPE:Skirt
;WIDTH:0.48
G1 X88.257 Y15.095 E0.0348
G1 X88.257 Y314.921 E12.8192
G1 X88.405 Y315.926 E0.0434
G1 X88.821 Y316.846 E0.0432
G1 X89.478 Y317.621 E0.0434
G1 X90.318 Y318.181 E0.0432
G1 X91.082 Y318.45 E0.0346
G1 X91.891 Y318.543 E0.0348
G1 X238.14 Y318.543 E6.25297
G1 X239.139 Y318.391 E0.0432
G1 X240.054 Y317.974 E0.04301
G1 X240.821 Y317.322 E0.04301
G1 X241.381 Y316.482 E0.0432
G1 X241.651 Y315.714 E0.0348
G1 X241.743 Y314.905 E0.0348
G1 X241.743 Y15.06 E12.82
G1 X241.666 Y14.358 E0.03019
G1 X241.454 Y13.679 E0.03039
G1 X241.114 Y13.055 E0.03039
G1 X240.663 Y12.512 E0.03019
G1 X240.116 Y12.066 E0.03019
G1 X239.488 Y11.732 E0.03039
G1 X238.807 Y11.527 E0.03039
G1 X238.105 Y11.457 E0.03019
G1 X91.85 Y11.458 E6.25317
G1 X90.856 Y11.61 E0.04301
G1 X89.942 Y12.029 E0.04301
G1 X89.176 Y12.681 E0.04301
G1 X88.619 Y13.518 E0.04301
G1 X88.369 Y14.23 E0.03224
G1 X88.771 Y14.371 F18000
G1 F1800
G1 X88.686 Y15.096 E0.03121
G1 X88.686 Y314.917 E12.81902
G1 X88.816 Y315.804 E0.03832
G1 X89.183 Y316.617 E0.03813
G1 X89.759 Y317.297 E0.03813
G1 X90.504 Y317.795 E0.03832
G1 X91.18 Y318.033 E0.03061
G1 X91.891 Y318.114 E0.03062
G1 X238.131 Y318.114 E6.25254
G1 X239.013 Y317.982 E0.03813
G1 X239.824 Y317.613 E0.03813
G1 X240.503 Y317.034 E0.03813
G1 X240.995 Y316.296 E0.03794
G1 X241.234 Y315.616 E0.0308
G1 X241.314 Y314.904 E0.03061
G1 X241.314 Y15.069 E12.81958
G1 X241.248 Y14.449 E0.02666
G1 X241.061 Y13.85 E0.02685
G1 X240.764 Y13.302 E0.02666
G1 X240.364 Y12.818 E0.02685
G1 X239.877 Y12.421 E0.02685
G1 X239.326 Y12.129 E0.02666
G1 X238.729 Y11.948 E0.02666
G1 X238.104 Y11.886 E0.02685
G1 X91.861 Y11.886 E6.25272
G1 X90.979 Y12.021 E0.03813
G1 X90.172 Y12.39 E0.03794
G1 X89.497 Y12.966 E0.03794
G1 X89.005 Y13.704 E0.03794
G1 X88.791 Y14.314 E0.02763
; INIT printing object Base_doppelt.stl id:0 copy 0
G1 E-0.6 F3000
; printing object Base_doppelt.stl id:0 copy 0
G1 X162.665 Y152.47 F18000
G1 E0.6 F1800
;TYPE:Internal perimeter
G1 X161.842 Y153.07 E0.04352
G1 X161.095 Y153.82 E0.04526
G1 X160.423 Y154.704 E0.04748
G1 X159.825 Y155.708 E0.05
G1 X159.3 Y156.822 E0.05262
G1 X158.85 Y158.031 E0.05516
G1 X158.477 Y159.322 E0.05746
G1 X158.184 Y160.681 E0.05943
G1 X157.973 Y162.091 E0.06098
G1 X157.845 Y163.537 E0.06204
G1 X157.803 Y165 E0.06258
G1 X157.845 Y166.463 E0.06258
G1 X157.973 Y167.909 E0.06204
G1 X158.184 Y169.319 E0.06098
G1 X158.477 Y170.678 E0.05943
G1 X158.85 Y171.969 E0.05746
G1 X159.3 Y173.178 E0.05516
G1 X159.825 Y174.292 E0.05262
G1 X160.423 Y175.296 E0.05
G1 X161.095 Y176.18 E0.04748
G1 X161.842 Y176.93 E0.04526
G1 X162.665 Y177.53 E0.04352
G1 X163.561 Y177.954 E0.04238
G1 X164.513 Y178.177 E0.0418
G1 X165.487 Y178.177 E0.04164
G1 X166.439 Y177.954 E0.0418
G1 X167.335 Y177.53 E0.04238
G1 X168.158 Y176.93 E0.04352
G1 X168.905 Y176.18 E0.04526
G1 X169.577 Y175.296 E0.04748
G1 X170.175 Y174.292 E0.05
G1 X170.7 Y173.178 E0.05262
G1 X171.15 Y171.969 E0.05516
G1 X171.523 Y170.678 E0.05746
G1 X171.816 Y169.319 E0.05943
G1 X172.027 Y167.909 E0.06098
G1 X172.155 Y166.463 E0.06204
G1 X172.197 Y165 E0.06258
G1 X172.155 Y163.537 E0.06258
G1 X172.027 Y162.091 E0.06204
G1 X171.816 Y160.681 E0.06098
G1 X171.523 Y159.322 E0.05943
G1 X171.15 Y158.031 E0.05746
G1 X170.7 Y156.822 E0.05516
G1 X170.175 Y155.708 E0.05262
G1 X169.577 Y154.704 E0.05
G1 X168.905 Y153.82 E0.04748
G1 X168.158 Y153.07 E0.04526
G1 X167.335 Y152.47 E0.04352
G1 X166.439 Y152.046 E0.04238
G1 X165.487 Y151.823 E0.0418
G1 X164.513 Y151.823 E0.04164
G1 X163.561 Y152.046 E0.0418
G1 X162.719 Y152.445 E0.03982
G1 X162.903 Y152.832 F18000
G1 F1800
G1 X162.885 Y152.84 E0.00085
G1 X162.122 Y153.396 E0.04036
G1 X161.419 Y154.102 E0.04258
G1 X160.779 Y154.944 E0.04523
G1 X160.203 Y155.91 E0.04808
G1 X159.695 Y156.988 E0.05096
G1 X159.257 Y158.165 E0.05369
G1 X158.893 Y159.427 E0.05615
G1 X158.605 Y160.758 E0.05822
G1 X158.398 Y162.142 E0.05984
G1 X158.273 Y163.562 E0.06095
G1 X158.231 Y165 E0.06151
G1 X158.273 Y166.438 E0.06151
G1 X158.398 Y167.858 E0.06095
G1 X158.605 Y169.242 E0.05984
G1 X158.893 Y170.573 E0.05822
G1 X159.257 Y171.835 E0.05615
G1 X159.695 Y173.012 E0.05369
G1 X160.203 Y174.09 E0.05096
G1 X160.779 Y175.056 E0.04808
G1 X161.419 Y175.898 E0.04523
G1 X162.122 Y176.604 E0.04258
G1 X162.885 Y177.16 E0.04036
G1 X163.703 Y177.547 E0.03871
G1 X164.563 Y177.748 E0.03773
G1 X165.437 Y177.748 E0.03741
G1 X166.297 Y177.547 E0.03773
G1 X167.115 Y177.16 E0.03871
G1 X167.878 Y176.604 E0.04036
G1 X168.581 Y175.898 E0.04258
G1 X169.221 Y175.056 E0.04523
G1 X169.797 Y174.09 E0.04808
G1 X170.305 Y173.012 E0.05096
G1 X170.743 Y171.835 E0.05369
G1 X171.107 Y170.573 E0.05615
G1 X171.395 Y169.242 E0.05822
G1 X171.602 Y167.858 E0.05984
G1 X171.727 Y166.438 E0.06095
G1 X171.769 Y165 E0.06151
G1 X171.727 Y163.562 E0.06151
G1 X171.602 Y162.142 E0.06095
G1 X171.395 Y160.758 E0.05984
G1 X171.107 Y159.427 E0.05822
G1 X170.743 Y158.165 E0.05615
G1 X170.305 Y156.988 E0.05369
G1 X169.797 Y155.91 E0.05096
G1 X169.221 Y154.944 E0.04808
G1 X168.581 Y154.102 E0.04523
G1 X167.878 Y153.396 E0.04258
G1 X167.115 Y152.84 E0.04036
G1 X166.297 Y152.453 E0.03871
G1 X165.437 Y152.252 E0.03773
G1 X164.563 Y152.252 E0.03741
G1 X163.703 Y152.453 E0.03773
G1 X162.957 Y152.806 E0.03529
G1 X163.141 Y153.193 F18000
;TYPE:External perimeter
G1 F1800
G1 X163.105 Y153.211 E0.0017
G1 X162.402 Y153.722 E0.03719
G1 X161.743 Y154.384 E0.03991
G1 X161.135 Y155.184 E0.04297
G1 X160.582 Y156.112 E0.04617
G1 X160.09 Y157.154 E0.0493
G1 X159.664 Y158.299 E0.05223
G1 X159.308 Y159.531 E0.05483
G1 X159.027 Y160.835 E0.05701
G1 X158.824 Y162.192 E0.0587
G1 X158.701 Y163.587 E0.05985
G1 X158.66 Y165 E0.06044
G1 X158.701 Y166.413 E0.06044
G1 X158.824 Y167.808 E0.05985
G1 X159.027 Y169.165 E0.0587
G1 X159.308 Y170.469 E0.05701
G1 X159.664 Y171.701 E0.05483
G1 X160.09 Y172.846 E0.05223
G1 X160.582 Y173.888 E0.0493
G1 X161.135 Y174.816 E0.04617
G1 X161.743 Y175.616 E0.04297
G1 X162.402 Y176.278 E0.03991
G1 X163.105 Y176.789 E0.03719
G1 X163.845 Y177.14 E0.03504
G1 X164.612 Y177.32 E0.03366
G1 X165.388 Y177.32 E0.03319
G1 X166.155 Y177.14 E0.03366
G1 X166.895 Y176.789 E0.03504
G1 X167.598 Y176.278 E0.03719
G1 X168.257 Y175.616 E0.03991
G1 X168.865 Y174.816 E0.04297
G1 X169.418 Y173.888 E0.04617
G1 X169.91 Y172.846 E0.0493
G1 X170.336 Y171.701 E0.05223
G1 X170.692 Y170.469 E0.05483
G1 X170.973 Y169.165 E0.05701
G1 X171.176 Y167.808 E0.0587
G1 X171.299 Y166.413 E0.05985
G1 X171.34 Y165 E0.06044
G1 X171.299 Y163.587 E0.06044
G1 X171.176 Y162.192 E0.05985
G1 X170.973 Y160.835 E0.0587
G1 X170.692 Y159.531 E0.05701
G1 X170.336 Y158.299 E0.05483
G1 X169.91 Y157.154 E0.05223
G1 X169.418 Y156.112 E0.0493
G1 X168.865 Y155.184 E0.04617
G1 X168.257 Y154.384 E0.04297
G1 X167.598 Y153.722 E0.03991
G1 X166.895 Y153.211 E0.03719
G1 X166.155 Y152.86 E0.03504
G1 X165.388 Y152.68 E0.03366
G1 X164.612 Y152.68 E0.03319
G1 X163.845 Y152.86 E0.03366
G1 X163.195 Y153.168 E0.03077
;WIPE_START
G1 X163.108 Y153.171 F18000
;WIPE_END
G1 E-0.6 F3000
G1 X222.665 Y272.47 F18000
G1 E0.6 F1800
;TYPE:Internal perimeter
G1 X221.842 Y273.07 E0.04352
G1 X221.095 Y273.82 E0.04526
G1 X220.423 Y274.704 E0.04748
G1 X219.825 Y275.709 E0.05
G1 X219.3 Y276.822 E0.05262
G1 X218.85 Y278.031 E0.05516
G1 X218.477 Y279.322 E0.05747
G1 X218.184 Y280.681 E0.05943
G1 X217.973 Y282.091 E0.06098
G1 X217.845 Y283.537 E0.06204
G1 X217.803 Y285 E0.06259
G1 X217.845 Y286.463 E0.06259
G1 X217.973 Y287.909 E0.06204
G1 X218.184 Y289.319 E0.06098
G1 X218.477 Y290.678 E0.05943
G1 X218.85 Y291.969 E0.05747
G1 X219.3 Y293.178 E0.05515
G1 X219.825 Y294.291 E0.05262
G1 X220.423 Y295.296 E0.05
G1 X221.095 Y296.18 E0.04748
G1 X221.842 Y296.93 E0.04526
G1 X222.665 Y297.53 E0.04352
G1 X223.561 Y297.954 E0.04238
G1 X224.513 Y298.177 E0.0418
G1 X225.487 Y298.177 E0.04164
G1 X226.439 Y297.954 E0.0418
G1 X227.335 Y297.53 E0.04238
G1 X228.158 Y296.93 E0.04352
G1 X228.905 Y296.18 E0.04526
G1 X229.577 Y295.296 E0.04748
G1 X230.175 Y294.292 E0.05
G1 X230.7 Y293.178 E0.05262
G1 X231.15 Y291.969 E0.05515
G1 X231.523 Y290.678 E0.05747
G1 X231.816 Y289.319 E0.05943
G1 X232.027 Y287.909 E0.06098
G1 X232.155 Y286.463 E0.06204
G1 X232.197 Y285 E0.06259
G1 X232.155 Y283.537 E0.06259
G1 X232.027 Y282.091 E0.06204
G1 X231.816 Y280.681 E0.06098
G1 X231.523 Y279.322 E0.05943
G1 X231.15 Y278.031 E0.05747
G1 X230.7 Y276.822 E0.05516
G1 X230.175 Y275.709 E0.05262
G1 X229.577 Y274.704 E0.05
G1 X228.905 Y273.82 E0.04748
G1 X228.158 Y273.07 E0.04526
G1 X227.335 Y272.47 E0.04352
G1 X226.439 Y272.046 E0.04238
G1 X225.487 Y271.823 E0.0418
G1 X224.513 Y271.823 E0.04164
G1 X223.561 Y272.046 E0.0418
G1 X222.719 Y272.445 E0.03982
G1 X222.903 Y272.832 F18000
G1 F1800
G1 X222.885 Y272.84 E0.00085
G1 X222.122 Y273.396 E0.04036
G1 X221.419 Y274.102 E0.04258
G1 X220.779 Y274.944 E0.04523
G1 X220.203 Y275.91 E0.04808
G1 X219.695 Y276.988 E0.05096
G1 X219.257 Y278.165 E0.05369
G1 X218.893 Y279.427 E0.05615
G1 X218.605 Y280.758 E0.05822
G1 X218.398 Y282.142 E0.05984
G1 X218.273 Y283.562 E0.06095
G1 X218.231 Y285 E0.06151
G1 X218.273 Y286.438 E0.06151
G1 X218.398 Y287.858 E0.06095
G1 X218.605 Y289.242 E0.05984
G1 X218.893 Y290.573 E0.05822
G1 X219.257 Y291.835 E0.05615
G1 X219.695 Y293.012 E0.05369
G1 X220.203 Y294.09 E0.05096
G1 X220.779 Y295.056 E0.04808
G1 X221.419 Y295.898 E0.04523
G1 X222.122 Y296.604 E0.04258
G1 X222.885 Y297.16 E0.04036
G1 X223.703 Y297.547 E0.03871
G1 X224.562 Y297.748 E0.03773
G1 X225.438 Y297.748 E0.03741
G1 X226.297 Y297.547 E0.03773
G1 X227.115 Y297.16 E0.03871
G1 X227.878 Y296.604 E0.04036
G1 X228.581 Y295.898 E0.04258
G1 X229.221 Y295.056 E0.04523
G1 X229.797 Y294.09 E0.04808
G1 X230.305 Y293.012 E0.05096
G1 X230.743 Y291.835 E0.05369
G1 X231.107 Y290.573 E0.05615
G1 X231.395 Y289.242 E0.05822
G1 X231.602 Y287.858 E0.05984
G1 X231.727 Y286.438 E0.06095
G1 X231.769 Y285 E0.06151
G1 X231.727 Y283.562 E0.06151
G1 X231.602 Y282.142 E0.06095
G1 X231.395 Y280.758 E0.05984
G1 X231.107 Y279.427 E0.05822
G1 X230.743 Y278.165 E0.05615
G1 X230.305 Y276.988 E0.05369
G1 X229.797 Y275.91 E0.05096
G1 X229.221 Y274.944 E0.04808
G1 X228.581 Y274.102 E0.04523
G1 X227.878 Y273.396 E0.04258
G1 X227.115 Y272.84 E0.04036
G1 X226.297 Y272.453 E0.03871
G1 X225.438 Y272.252 E0.03773
G1 X224.562 Y272.252 E0.03741
G1 X223.703 Y272.453 E0.03773
G1 X222.957 Y272.806 E0.03529
G1 X223.141 Y273.193 F18000
;TYPE:External perimeter
G1 F1800
G1 X223.105 Y273.211 E0.0017
G1 X222.402 Y273.722 E0.03719
G1 X221.743 Y274.384 E0.03991
G1 X221.135 Y275.184 E0.04297
G1 X220.582 Y276.112 E0.04617
G1 X220.09 Y277.154 E0.0493
G1 X219.664 Y278.299 E0.05223
G1 X219.308 Y279.531 E0.05483
G1 X219.027 Y280.835 E0.05701
G1 X218.824 Y282.192 E0.0587
G1 X218.701 Y283.587 E0.05985
G1 X218.66 Y285 E0.06044
G1 X218.701 Y286.413 E0.06044
G1 X218.824 Y287.808 E0.05985
G1 X219.027 Y289.165 E0.0587
G1 X219.308 Y290.469 E0.05701
G1 X219.664 Y291.701 E0.05483
G1 X220.09 Y292.846 E0.05223
G1 X220.582 Y293.888 E0.0493
G1 X221.135 Y294.816 E0.04617
G1 X221.743 Y295.616 E0.04297
G1 X222.402 Y296.278 E0.03991
G1 X223.105 Y296.789 E0.03719
G1 X223.845 Y297.14 E0.03504
G1 X224.612 Y297.32 E0.03366
G1 X225.388 Y297.32 E0.03319
G1 X226.155 Y297.14 E0.03366
G1 X226.895 Y296.789 E0.03504
G1 X227.598 Y296.278 E0.03719
G1 X228.257 Y295.616 E0.03991
G1 X228.865 Y294.816 E0.04297
G1 X229.418 Y293.888 E0.04617
G1 X229.91 Y292.846 E0.0493
G1 X230.336 Y291.701 E0.05223
G1 X230.692 Y290.469 E0.05483
G1 X230.973 Y289.165 E0.05701
G1 X231.176 Y287.808 E0.0587
G1 X231.299 Y286.413 E0.05985
G1 X231.34 Y285 E0.06044
G1 X231.299 Y283.587 E0.06044
G1 X231.176 Y282.192 E0.05985
G1 X230.973 Y280.835 E0.0587
G1 X230.692 Y279.531 E0.05701
G1 X230.336 Y278.299 E0.05483
G1 X229.91 Y277.154 E0.05223
G1 X229.418 Y276.112 E0.0493
G1 X228.865 Y275.184 E0.04617
G1 X228.257 Y274.384 E0.04297
G1 X227.598 Y273.722 E0.03991
G1 X226.895 Y273.211 E0.03719
G1 X226.155 Y272.86 E0.03504
G1 X225.388 Y272.68 E0.03366
G1 X224.612 Y272.68 E0.03319
G1 X223.845 Y272.86 E0.03366
G1 X223.195 Y273.168 E0.03077
;WIPE_START
G1 X223.108 Y273.171 F18000
;WIPE_END
G1 X104.513 Y271.823
;TYPE:Internal perimeter
G1 F1800
G1 X103.561 Y272.046 E0.0418
G1 X102.665 Y272.47 E0.04238
G1 X101.842 Y273.07 E0.04352
G1 X101.095 Y273.82 E0.04526
G1 X100.423 Y274.704 E0.04748
G1 X99.825 Y275.709 E0.05
G1 X99.3 Y276.822 E0.05262
G1 X98.85 Y278.031 E0.05516
G1 X98.477 Y279.322 E0.05747
G1 X98.184 Y280.681 E0.05943
G1 X97.973 Y282.091 E0.06098
G1 X97.845 Y283.537 E0.06204
G1 X97.803 Y285 E0.06259
G1 X97.845 Y286.463 E0.06259
G1 X97.973 Y287.909 E0.06204
G1 X98.184 Y289.319 E0.06098
G1 X98.477 Y290.678 E0.05943
G1 X98.85 Y291.969 E0.05747
G1 X99.3 Y293.178 E0.05515
G1 X99.825 Y294.292 E0.05262
G1 X100.423 Y295.296 E0.05
G1 X101.095 Y296.18 E0.04748
G1 X101.842 Y296.93 E0.04526
G1 X102.665 Y297.53 E0.04352
G1 X103.561 Y297.954 E0.04238
G1 X104.513 Y298.177 E0.0418
G1 X105.487 Y298.177 E0.04164
G1 X106.439 Y297.954 E0.0418
G1 X107.335 Y297.53 E0.04238
G1 X108.158 Y296.93 E0.04352
G1 X108.905 Y296.18 E0.04526
G1 X109.577 Y295.296 E0.04748
G1 X110.175 Y294.291 E0.05
G1 X110.7 Y293.178 E0.05262
G1 X111.15 Y291.969 E0.05515
G1 X111.523 Y290.678 E0.05747
G1 X111.816 Y289.319 E0.05943
G1 X112.027 Y287.909 E0.06098
G1 X112.155 Y286.463 E0.06204
G1 X112.197 Y285 E0.06259
G1 X112.155 Y283.537 E0.06259
G1 X112.027 Y282.091 E0.06204
G1 X111.816 Y280.681 E0.06098
G1 X111.523 Y279.322 E0.05943
G1 X111.15 Y278.031 E0.05747
G1 X110.7 Y276.822 E0.05516
G1 X110.175 Y275.709 E0.05262
G1 X109.577 Y274.704 E0.05
G1 X108.905 Y273.82 E0.04748
G1 X108.158 Y273.07 E0.04526
G1 X107.335 Y272.47 E0.04352
G1 X106.439 Y272.046 E0.04238
G1 X105.487 Y271.823 E0.0418
G1 X104.573 Y271.823 E0.03907
G1 X104.573 Y272.252 F18000
G1 F1800
G1 X103.703 Y272.453 E0.03817
G1 X102.885 Y272.84 E0.03871
G1 X102.122 Y273.396 E0.04036
G1 X101.419 Y274.102 E0.04258
G1 X100.779 Y274.944 E0.04523
G1 X100.203 Y275.91 E0.04808
G1 X99.695 Y276.988 E0.05096
G1 X99.257 Y278.165 E0.05369
G1 X98.893 Y279.427 E0.05615
G1 X98.605 Y280.758 E0.05822
G1 X98.398 Y282.142 E0.05984
G1 X98.273 Y283.562 E0.06095
G1 X98.231 Y285 E0.06151
G1 X98.273 Y286.438 E0.06151
G1 X98.398 Y287.858 E0.06095
G1 X98.605 Y289.242 E0.05984
G1 X98.893 Y290.573 E0.05822
G1 X99.257 Y291.835 E0.05615
G1 X99.695 Y293.012 E0.05369
G1 X100.203 Y294.09 E0.05096
G1 X100.779 Y295.056 E0.04808
G1 X101.419 Y295.898 E0.04523
G1 X102.122 Y296.604 E0.04258
G1 X102.885 Y297.16 E0.04036
G1 X103.703 Y297.547 E0.03871
G1 X104.562 Y297.748 E0.03773
G1 X105.438 Y297.748 E0.03741
G1 X106.297 Y297.547 E0.03773
G1 X107.115 Y297.16 E0.03871
G1 X107.878 Y296.604 E0.04036
G1 X108.581 Y295.898 E0.04258
G1 X109.221 Y295.056 E0.04523
G1 X109.797 Y294.09 E0.04808
G1 X110.305 Y293.012 E0.05096
G1 X110.743 Y291.835 E0.05369
G1 X111.107 Y290.573 E0.05615
G1 X111.395 Y289.242 E0.05822
G1 X111.602 Y287.858 E0.05984
G1 X111.727 Y286.438 E0.06095
G1 X111.769 Y285 E0.06151
G1 X111.727 Y283.562 E0.06151
G1 X111.602 Y282.142 E0.06095
