; generated by SuperSlicer 2.4 on 2022-07-18 at 20:10:04 UTC


;
;

;
;
; 

; external perimeters extrusion width = 0.40mm
; perimeters extrusion width = 0.48mm
; infill extrusion width = 0.72mm
; solid infill extrusion width = 0.56mm
; top infill extrusion width = 0.40mm
; support material extrusion width = 0.42mm
; first layer extrusion width = 0.48mm

; external perimeters extrusion width = 0.40mm
; perimeters extrusion width = 0.48mm
; infill extrusion width = 0.72mm
; solid infill extrusion width = 0.56mm
; top infill extrusion width = 0.40mm
; support material extrusion width = 0.42mm
; first layer extrusion width = 0.48mm

; external perimeters extrusion width = 0.40mm
; perimeters extrusion width = 0.48mm
; infill extrusion width = 0.72mm
; solid infill extrusion width = 0.56mm
; top infill extrusion width = 0.40mm
; support material extrusion width = 0.42mm
; first layer extrusion width = 0.48mm

; external perimeters extrusion width = 0.40mm
; perimeters extrusion width = 0.48mm
; infill extrusion width = 0.72mm
; solid infill extrusion width = 0.56mm
; top infill extrusion width = 0.40mm
; support material extrusion width = 0.42mm
; first layer extrusion width = 0.48mm

; object:{"name":"Base X100","id":"Base X100.5 Y98.5.stl id:0 copy 0","object_center":[165.000001,131.322172,0.000000],"boundingbox_center":[165.000001,131.322172,4.875000],"boundingbox_size":[173.410309,61.355653,9.750000]}
; object:{"name":"Base X100","id":"Base X100.5 Y98.5.stl id:1 copy 0","object_center":[165.000001,198.677828,0.000000],"boundingbox_center":[165.000001,198.677828,4.875000],"boundingbox_size":[173.410309,61.355653,9.750000]}
; object:{"name":"Base X100","id":"Base X100.5 Y98.5.stl id:2 copy 0","object_center":[165.000001,63.966516,0.000000],"boundingbox_center":[165.000001,63.966516,4.875000],"boundingbox_size":[173.410309,61.355653,9.750000]}
; object:{"name":"Base X100","id":"Base X100.5 Y98.5.stl id:3 copy 0","object_center":[165.000001,266.033484,0.000000],"boundingbox_center":[165.000001,266.033484,4.875000],"boundingbox_size":[173.410309,61.355653,9.750000]}
; plater:{"center":[165.000001,165.000000,0.000000],"boundingbox_center":[165.000001,165.000000,4.875000],"boundingbox_size":[173.410309,263.422621,9.750000]}

M73 P0 R279
;TYPE:Custom
START_PRINT T_BED=60 T_EXTRUDER=200
M107
G21 ; set units to millimeters
G90 ; use absolute coordinates
M83 ; use relative distances for extrusion
; Filament gcode
M104 S200 ; set temperature
M109 S200 ; set temperature and wait for it to be reached
M190 S60 ; set bed temperature and wait for it to be reached
M107
;LAYER_CHANGE
;Z:0.24
;HEIGHT:0.24
G1 Z0.24 F9000
G92 E0
G1 E-0.8 F3000
M204 S1000
G1 X75.252 Y31.807 F9000
G1 E0.8 F1800
;TYPE:Skirt
;WIDTH:0.52
G1 X74.774 Y33.099 E0.0631
G1 X74.695 Y33.875 E0.03577
G1 X74.695 Y296.125 E12.01409
G1 X74.774 Y296.901 E0.03577
G1 X75.252 Y298.193 E0.06309
G1 X75.979 Y299.124 E0.05412
G1 X77.029 Y299.862 E0.0588
G1 X78.218 Y300.247 E0.05724
G1 X78.926 Y300.311 E0.03257
G1 X251.074 Y300.311 E7.88639
G1 X251.782 Y300.247 E0.03257
G1 X252.971 Y299.862 E0.05724
G1 X254.021 Y299.124 E0.05881
G1 X254.748 Y298.193 E0.05412
G1 X255.226 Y296.901 E0.06309
G1 X255.305 Y296.125 E0.03577
G1 X255.305 Y33.875 E12.01409
G1 X255.226 Y33.099 E0.03577
G1 X254.821 Y31.939 E0.05627
G1 X254.177 Y31.028 E0.05111
G1 X253.387 Y30.374 E0.04697
G1 X252.388 Y29.901 E0.05067
G1 X251.164 Y29.696 E0.05683
G1 X78.926 Y29.689 E7.89052
M73 P0 R278
G1 X78.218 Y29.753 E0.03258
G1 X77.029 Y30.138 E0.05725
G1 X75.979 Y30.876 E0.0588
G1 X75.252 Y31.807 E0.05411
G1 X75.661 Y32.032 F9000
G1 F1800
G1 X75.234 Y33.177 E0.05601
G1 X75.162 Y33.875 E0.03216
G1 X75.162 Y296.125 E12.01409
G1 X75.234 Y296.823 E0.03216
G1 X75.661 Y297.968 E0.056
G1 X76.296 Y298.782 E0.0473
G1 X77.228 Y299.441 E0.05228
G1 X78.286 Y299.785 E0.05095
G1 X78.926 Y299.844 E0.02946
G1 X251.074 Y299.844 E7.88639
G1 X251.714 Y299.785 E0.02946
G1 X252.772 Y299.441 E0.05095
G1 X253.704 Y298.782 E0.0523
G1 X254.339 Y297.968 E0.04729
G1 X254.766 Y296.823 E0.056
G1 X254.838 Y296.125 E0.03216
G1 X254.838 Y33.875 E12.01409
G1 X254.766 Y33.177 E0.03216
G1 X254.412 Y32.164 E0.04918
G1 X253.835 Y31.344 E0.04596
G1 X253.127 Y30.761 E0.04199
G1 X252.253 Y30.347 E0.04428
G1 X251.164 Y30.163 E0.05061
G1 X78.926 Y30.156 E7.89052
G1 X78.286 Y30.215 E0.02947
G1 X77.228 Y30.559 E0.05096
G1 X76.296 Y31.218 E0.05229
G1 X75.661 Y32.032 E0.04729
G1 E-0.8 F3000
; printing object Base X100.5 Y98.5.stl id:0 copy 0
; acceleration to travel
M204 S3000
G1 X78.534 Y84.389 F9000
; decel to extrusion
M204 S1000
G1 X79.492 Y101.841
; end travel
G1 E0.8 F1800
;TYPE:Internal perimeter
;WIDTH:0.48
G1 X250.508 Y101.848 E7.16564
G1 X250.508 Y160.803 E2.47022
G1 X79.492 Y160.803 E7.16564
G1 X79.492 Y101.841 E2.47051
G1 X79.063 Y101.413 F9000
G1 F1800
G1 X79.418 Y101.413 E0.01487
G1 X250.937 Y101.42 E7.18669
G1 X250.937 Y161.232 E2.50613
G1 X79.063 Y161.232 E7.20155
M73 P0 R277
G1 X79.063 Y101.413 E2.50642
G1 X78.685 Y101.095 F9000
;TYPE:External perimeter
G1 F1800
G1 X78.745 Y101.04 E0.00338
G1 X78.825 Y101.002 E0.00374
G1 X78.944 Y100.984 E0.00501
G1 X79.418 Y100.984 E0.01988
G1 X251.129 Y100.991 E7.19473
G1 X251.209 Y101.016 E0.00351
G1 X251.318 Y101.1 E0.00578
G1 X251.349 Y101.158 E0.00273
G1 X251.365 Y101.251 E0.00399
G1 X251.365 Y161.393 E2.51995
G1 X251.349 Y161.487 E0.00399
G1 X251.255 Y161.605 E0.00631
G1 X251.175 Y161.643 E0.00374
G1 X251.056 Y161.66 E0.00501
G1 X78.944 Y161.66 E7.21158
G1 X78.825 Y161.643 E0.00501
G1 X78.745 Y161.605 E0.00374
G1 X78.685 Y161.55 E0.00338
G1 X78.651 Y161.487 E0.00301
G1 X78.635 Y161.393 E0.00399
G1 X78.635 Y101.251 E2.51995
G1 X78.651 Y101.158 E0.00399
G1 X78.685 Y101.095 E0.00301
;WIPE_START
M204 S4000
G1 X79.078 Y101.171 F9000
;WIPE_END
G1 E-0.8 F3000
; acceleration to travel
M204 S3000
G1 X202.543 Y101.708 F9000
; decel to extrusion
M204 S1000
G1 X249.578 Y101.913
; end travel
G1 E0.8 F1800
;TYPE:Solid infill
;WIDTH:0.478416
G1 F3600
G1 X250.26 Y102.595 E0.04028
G1 X250.26 Y103.201 E0.02531
G1 X249.156 Y102.097 E0.06519
G1 X248.55 Y102.097 E0.02531
G1 X250.26 Y103.807 E0.10098
G1 X250.26 Y104.413 E0.02531
G1 X247.944 Y102.097 E0.13677
G1 X247.338 Y102.097 E0.02531
G1 X250.26 Y105.019 E0.17256
G1 X250.26 Y105.625 E0.02531
G1 X246.732 Y102.097 E0.20835
G1 X246.126 Y102.097 E0.02531
G1 X250.26 Y106.231 E0.24414
G1 X250.26 Y106.837 E0.02531
G1 X245.52 Y102.097 E0.27993
G1 X244.914 Y102.097 E0.02531
G1 X250.26 Y107.442 E0.31573
G1 X250.26 Y108.048 E0.02531
G1 X244.308 Y102.097 E0.35152
G1 X243.702 Y102.097 E0.02531
G1 X250.26 Y108.654 E0.38731
G1 X250.26 Y109.26 E0.02531
G1 X243.096 Y102.097 E0.4231
G1 X242.49 Y102.097 E0.02531
G1 X250.26 Y109.866 E0.45889
G1 X250.26 Y110.472 E0.02531
G1 X241.884 Y102.097 E0.49468
G1 X241.278 Y102.097 E0.02531
G1 X250.26 Y111.078 E0.53047
G1 X250.26 Y111.684 E0.02531
G1 X240.672 Y102.097 E0.56626
G1 X240.066 Y102.096 E0.02531
G1 X250.26 Y112.29 E0.60205
G1 X250.26 Y112.896 E0.02531
G1 X239.46 Y102.096 E0.63785
G1 X238.854 Y102.096 E0.02531
G1 X250.26 Y113.502 E0.67364
G1 X250.26 Y114.108 E0.02531
G1 X238.248 Y102.096 E0.70943
G1 X237.642 Y102.096 E0.02531
G1 X250.26 Y114.714 E0.74522
G1 X250.26 Y115.32 E0.02531
G1 X237.036 Y102.096 E0.78101
G1 X236.43 Y102.096 E0.02531
G1 X250.26 Y115.926 E0.8168
G1 X250.26 Y116.532 E0.02531
G1 X235.824 Y102.096 E0.85259
G1 X235.218 Y102.096 E0.02531
G1 X250.26 Y117.138 E0.88838
G1 X250.26 Y117.744 E0.02531
G1 X234.612 Y102.096 E0.92418
G1 X234.006 Y102.096 E0.02531
G1 X250.26 Y118.35 E0.95997
G1 X250.26 Y118.956 E0.02531
G1 X233.4 Y102.096 E0.99576
G1 X232.794 Y102.096 E0.02531
G1 X250.26 Y119.562 E1.03155
G1 X250.26 Y120.168 E0.02531
G1 X232.188 Y102.096 E1.06734
G1 X231.582 Y102.096 E0.02531
G1 X250.26 Y120.774 E1.10313
G1 X250.26 Y121.38 E0.02531
G1 X230.976 Y102.096 E1.13892
G1 X230.37 Y102.096 E0.02531
G1 X250.26 Y121.986 E1.17471
G1 X250.26 Y122.592 E0.02531
G1 X229.764 Y102.096 E1.2105
G1 X229.158 Y102.096 E0.02531
G1 X250.26 Y123.198 E1.2463
G1 X250.26 Y123.804 E0.02531
G1 X228.552 Y102.096 E1.28209
G1 X227.946 Y102.096 E0.02531
G1 X250.26 Y124.41 E1.31788
G1 X250.26 Y125.016 E0.02531
G1 X227.34 Y102.096 E1.35367
G1 X226.734 Y102.096 E0.02531
G1 X250.26 Y125.622 E1.38946
G1 X250.26 Y126.228 E0.02531
G1 X226.128 Y102.096 E1.42525
G1 X225.522 Y102.096 E0.02531
G1 X250.26 Y126.834 E1.46104
G1 X250.26 Y127.44 E0.02531
G1 X224.916 Y102.096 E1.49683
G1 X224.31 Y102.096 E0.02531
G1 X250.26 Y128.046 E1.53263
G1 X250.26 Y128.652 E0.02531
G1 X223.704 Y102.096 E1.56842
G1 X223.098 Y102.096 E0.02531
G1 X250.26 Y129.258 E1.60421
G1 X250.26 Y129.864 E0.02531
G1 X222.492 Y102.096 E1.64
G1 X221.886 Y102.096 E0.02531
G1 X250.26 Y130.47 E1.67579
G1 X250.26 Y131.076 E0.02531
G1 X221.28 Y102.096 E1.71158
G1 X220.674 Y102.096 E0.02531
G1 X250.26 Y131.682 E1.74737
G1 X250.26 Y132.288 E0.02531
G1 X220.068 Y102.096 E1.78316
G1 X219.462 Y102.096 E0.02531
G1 X250.26 Y132.894 E1.81896
G1 X250.26 Y133.5 E0.02531
G1 X218.856 Y102.096 E1.85475
G1 X218.249 Y102.096 E0.02531
G1 X250.26 Y134.106 E1.89054
G1 X250.26 Y134.712 E0.02531
G1 X217.643 Y102.096 E1.92633
G1 X217.037 Y102.096 E0.02531
G1 X250.26 Y135.318 E1.96212
G1 X250.26 Y135.924 E0.02531
G1 X216.431 Y102.096 E1.99791
G1 X215.825 Y102.095 E0.02531
G1 X250.26 Y136.53 E2.0337
G1 X250.26 Y137.136 E0.02531
G1 X215.219 Y102.095 E2.06949
G1 X214.613 Y102.095 E0.02531
G1 X250.26 Y137.742 E2.10528
G1 X250.26 Y138.348 E0.02531
G1 X214.007 Y102.095 E2.14108
G1 X213.401 Y102.095 E0.02531
G1 X250.26 Y138.954 E2.17687
G1 X250.26 Y139.56 E0.02531
G1 X212.795 Y102.095 E2.21266
G1 X212.189 Y102.095 E0.02531
G1 X250.26 Y140.166 E2.24845
G1 X250.26 Y140.772 E0.02531
G1 X211.583 Y102.095 E2.28424
G1 X210.977 Y102.095 E0.02531
G1 X250.26 Y141.378 E2.32003
G1 X250.26 Y141.984 E0.02531
G1 X210.371 Y102.095 E2.35582
G1 X209.765 Y102.095 E0.02531
G1 X250.26 Y142.59 E2.39161
G1 X250.26 Y143.196 E0.02531
G1 X209.159 Y102.095 E2.42741
G1 X208.553 Y102.095 E0.02531
G1 X250.26 Y143.801 E2.4632
M73 P1 R277
G1 X250.26 Y144.407 E0.02531
G1 X207.947 Y102.095 E2.49899
G1 X207.341 Y102.095 E0.02531
G1 X250.26 Y145.013 E2.53478
M73 P1 R276
G1 X250.26 Y145.619 E0.02531
G1 X206.735 Y102.095 E2.57057
G1 X206.129 Y102.095 E0.02531
G1 X250.26 Y146.225 E2.60636
G1 X250.26 Y146.831 E0.02531
G1 X205.523 Y102.095 E2.64215
G1 X204.917 Y102.095 E0.02531
G1 X250.26 Y147.437 E2.67794
G1 X250.26 Y148.043 E0.02531
G1 X204.311 Y102.095 E2.71373
G1 X203.705 Y102.095 E0.02531
G1 X250.26 Y148.649 E2.74953
G1 X250.26 Y149.255 E0.02531
G1 X203.099 Y102.095 E2.78532
G1 X202.493 Y102.095 E0.02531
G1 X250.26 Y149.861 E2.82111
G1 X250.26 Y150.467 E0.02531
G1 X201.887 Y102.095 E2.8569
G1 X201.281 Y102.095 E0.02531
G1 X250.26 Y151.073 E2.89269
G1 X250.26 Y151.679 E0.02531
G1 X200.675 Y102.095 E2.92848
G1 X200.069 Y102.095 E0.02531
G1 X250.26 Y152.285 E2.96427
G1 X250.26 Y152.891 E0.02531
G1 X199.463 Y102.095 E3.00006
G1 X198.857 Y102.095 E0.02531
G1 X250.26 Y153.497 E3.03586
G1 X250.26 Y154.103 E0.02531
G1 X198.251 Y102.095 E3.07165
G1 X197.645 Y102.095 E0.02531
G1 X250.26 Y154.709 E3.10744
G1 X250.26 Y155.315 E0.02531
G1 X197.039 Y102.095 E3.14323
G1 X196.433 Y102.095 E0.02531
G1 X250.26 Y155.921 E3.17902
G1 X250.26 Y156.527 E0.02531
G1 X195.827 Y102.095 E3.21481
G1 X195.221 Y102.095 E0.02531
G1 X250.26 Y157.133 E3.2506
G1 X250.26 Y157.739 E0.02531
G1 X194.615 Y102.095 E3.28639
G1 X194.009 Y102.095 E0.02531
G1 X250.26 Y158.345 E3.32219
G1 X250.26 Y158.951 E0.02531
G1 X193.403 Y102.095 E3.35798
G1 X192.797 Y102.095 E0.02531
G1 X250.26 Y159.557 E3.39377
G1 X250.26 Y160.163 E0.02531
G1 X192.191 Y102.095 E3.42956
G1 X191.585 Y102.094 E0.02531
G1 X250.045 Y160.555 E3.45268
G1 X249.439 Y160.555 E0.02531
G1 X190.979 Y102.094 E3.45268
G1 X190.373 Y102.094 E0.02531
G1 X248.833 Y160.555 E3.45268
G1 X248.227 Y160.555 E0.02531
G1 X189.767 Y102.094 E3.45268
G1 X189.161 Y102.094 E0.02531
G1 X247.621 Y160.555 E3.45269
G1 X247.015 Y160.555 E0.02531
G1 X188.555 Y102.094 E3.45269
G1 X187.949 Y102.094 E0.02531
G1 X246.409 Y160.555 E3.45269
G1 X245.803 Y160.555 E0.02531
G1 X187.343 Y102.094 E3.45269
G1 X186.737 Y102.094 E0.02531
G1 X245.197 Y160.555 E3.45269
G1 X244.591 Y160.555 E0.02531
G1 X186.131 Y102.094 E3.45269
G1 X185.525 Y102.094 E0.02531
G1 X243.985 Y160.555 E3.45269
G1 X243.379 Y160.555 E0.02531
G1 X184.919 Y102.094 E3.4527
G1 X184.313 Y102.094 E0.02531
G1 X242.773 Y160.555 E3.4527
G1 X242.167 Y160.555 E0.02531
G1 X183.707 Y102.094 E3.4527
G1 X183.101 Y102.094 E0.02531
G1 X241.561 Y160.555 E3.4527
G1 X240.955 Y160.555 E0.02531
G1 X182.495 Y102.094 E3.4527
G1 X181.889 Y102.094 E0.02531
G1 X240.349 Y160.555 E3.4527
G1 X239.743 Y160.555 E0.02531
G1 X181.283 Y102.094 E3.4527
G1 X180.677 Y102.094 E0.02531
G1 X239.137 Y160.555 E3.45271
M73 P1 R275
G1 X238.531 Y160.555 E0.02531
G1 X180.071 Y102.094 E3.45271
G1 X179.465 Y102.094 E0.02531
G1 X237.925 Y160.555 E3.45271
G1 X237.319 Y160.555 E0.02531
G1 X178.859 Y102.094 E3.45271
G1 X178.253 Y102.094 E0.02531
G1 X236.713 Y160.555 E3.45271
G1 X236.108 Y160.555 E0.02531
G1 X177.647 Y102.094 E3.45271
G1 X177.041 Y102.094 E0.02531
G1 X235.502 Y160.555 E3.45272
G1 X234.896 Y160.555 E0.02531
G1 X176.435 Y102.094 E3.45272
G1 X175.829 Y102.094 E0.02531
G1 X234.29 Y160.555 E3.45272
G1 X233.684 Y160.555 E0.02531
G1 X175.223 Y102.094 E3.45272
G1 X174.617 Y102.094 E0.02531
G1 X233.078 Y160.555 E3.45272
G1 X232.472 Y160.555 E0.02531
G1 X174.011 Y102.094 E3.45272
G1 X173.405 Y102.094 E0.02531
G1 X231.866 Y160.555 E3.45272
G1 X231.26 Y160.555 E0.02531
G1 X172.799 Y102.094 E3.45273
G1 X172.193 Y102.094 E0.02531
G1 X230.654 Y160.555 E3.45273
G1 X230.048 Y160.555 E0.02531
G1 X171.587 Y102.094 E3.45273
G1 X170.981 Y102.094 E0.02531
G1 X229.442 Y160.555 E3.45273
G1 X228.836 Y160.555 E0.02531
G1 X170.375 Y102.094 E3.45273
G1 X169.769 Y102.094 E0.02531
G1 X228.23 Y160.555 E3.45273
G1 X227.624 Y160.555 E0.02531
G1 X169.163 Y102.094 E3.45273
G1 X168.557 Y102.094 E0.02531
G1 X227.018 Y160.555 E3.45274
G1 X226.412 Y160.555 E0.02531
G1 X167.951 Y102.094 E3.45274
G1 X167.345 Y102.093 E0.02531
G1 X225.806 Y160.555 E3.45274
G1 X225.2 Y160.555 E0.02531
G1 X166.739 Y102.093 E3.45274
G1 X166.133 Y102.093 E0.02531
G1 X224.594 Y160.555 E3.45274
G1 X223.988 Y160.555 E0.02531
G1 X165.527 Y102.093 E3.45274
G1 X164.921 Y102.093 E0.02531
G1 X223.382 Y160.555 E3.45274
G1 X222.776 Y160.555 E0.02531
G1 X164.315 Y102.093 E3.45275
G1 X163.709 Y102.093 E0.02531
G1 X222.17 Y160.555 E3.45275
G1 X221.564 Y160.555 E0.02531
G1 X163.103 Y102.093 E3.45275
G1 X162.497 Y102.093 E0.02531
G1 X220.958 Y160.555 E3.45275
G1 X220.352 Y160.555 E0.02531
G1 X161.891 Y102.093 E3.45275
G1 X161.285 Y102.093 E0.02531
G1 X219.746 Y160.555 E3.45275
G1 X219.14 Y160.555 E0.02531
G1 X160.679 Y102.093 E3.45275
G1 X160.073 Y102.093 E0.02531
G1 X218.534 Y160.555 E3.45276
G1 X217.928 Y160.555 E0.02531
G1 X159.467 Y102.093 E3.45276
G1 X158.861 Y102.093 E0.02531
G1 X217.322 Y160.555 E3.45276
G1 X216.716 Y160.555 E0.02531
G1 X158.255 Y102.093 E3.45276
G1 X157.649 Y102.093 E0.02531
G1 X216.11 Y160.555 E3.45276
G1 X215.504 Y160.555 E0.02531
G1 X157.043 Y102.093 E3.45276
G1 X156.437 Y102.093 E0.02531
G1 X214.898 Y160.555 E3.45277
G1 X214.292 Y160.555 E0.02531
G1 X155.831 Y102.093 E3.45277
G1 X155.225 Y102.093 E0.02531
G1 X213.686 Y160.555 E3.45277
M73 P1 R274
G1 X213.08 Y160.555 E0.02531
G1 X154.619 Y102.093 E3.45277
G1 X154.013 Y102.093 E0.02531
G1 X212.474 Y160.555 E3.45277
G1 X211.868 Y160.555 E0.02531
G1 X153.407 Y102.093 E3.45277
G1 X152.801 Y102.093 E0.02531
G1 X211.262 Y160.555 E3.45277
G1 X210.656 Y160.555 E0.02531
G1 X152.195 Y102.093 E3.45278
G1 X151.589 Y102.093 E0.02531
G1 X210.05 Y160.555 E3.45278
G1 X209.444 Y160.555 E0.02531
G1 X150.983 Y102.093 E3.45278
G1 X150.377 Y102.093 E0.02531
G1 X208.838 Y160.555 E3.45278
G1 X208.232 Y160.555 E0.02531
G1 X149.771 Y102.093 E3.45278
G1 X149.165 Y102.093 E0.02531
G1 X207.626 Y160.555 E3.45278
G1 X207.02 Y160.555 E0.02531
G1 X148.559 Y102.093 E3.45278
G1 X147.953 Y102.093 E0.02531
G1 X206.414 Y160.555 E3.45279
G1 X205.808 Y160.555 E0.02531
