; generated by SuperSlicer 2.4 on 2022-05-15 at 06:18:21 UTC


;
;

;
;
; 

; external perimeters extrusion width = 0.40mm
; perimeters extrusion width = 0.40mm
; infill extrusion width = 0.72mm
; solid infill extrusion width = 0.56mm
; top infill extrusion width = 0.40mm
; support material extrusion width = 0.40mm
; first layer extrusion width = 0.48mm

; external perimeters extrusion width = 0.40mm
; perimeters extrusion width = 0.40mm
; infill extrusion width = 0.72mm
; solid infill extrusion width = 0.56mm
; top infill extrusion width = 0.40mm
; support material extrusion width = 0.40mm
; first layer extrusion width = 0.48mm

; external perimeters extrusion width = 0.40mm
; perimeters extrusion width = 0.40mm
; infill extrusion width = 0.72mm
; solid infill extrusion width = 0.56mm
; top infill extrusion width = 0.40mm
; support material extrusion width = 0.40mm
; first layer extrusion width = 0.48mm

; object:{"name":"Base X100","id":"Base X100.5 Y98.5.stl id:0 copy 0","object_center":[152.500000,131.838395,0.000000],"boundingbox_center":[152.500000,131.838395,4.875000],"boundingbox_size":[173.410309,61.355653,9.750000]}
; object:{"name":"Post","id":"Post.stl id:1 copy 0","object_center":[152.500712,174.597026,0.000000],"boundingbox_center":[152.500712,174.597026,10.875000],"boundingbox_size":[110.969398,12.161605,21.750000]}
; object:{"name":"Post","id":"Post.stl id:2 copy 0","object_center":[152.500713,192.758631,0.000000],"boundingbox_center":[152.500713,192.758631,10.875000],"boundingbox_size":[110.969398,12.161605,21.750000]}
; plater:{"center":[152.500000,150.000001,0.000000],"boundingbox_center":[152.500000,150.000001,10.875000],"boundingbox_size":[173.410309,97.678865,21.750000]}

M73 P0 R125
;TYPE:Custom
START_PRINT T_BED=60 T_EXTRUDER=200
M107
G21 ; set units to millimeters
G90 ; use absolute coordinates
M83 ; use relative distances for extrusion
; Filament gcode
M104 S200 ; set temperature
M109 S200 ; set temperature and wait for it to be reached
M190 S60 ; set bed temperature and wait for it to be reached
M107
;LAYER_CHANGE
;Z:0.24
;HEIGHT:0.24
G1 Z0.24 F9000
G92 E0
G1 E-0.8 F3000
M204 S1000
G1 X63.837 Y98.484 F9000
G1 E0.8 F1800
;TYPE:Skirt
;WIDTH:0.52
G1 X63.594 Y98.641 E0.01352
G1 X62.752 Y99.679 E0.06245
G1 X62.274 Y100.971 E0.06439
G1 X62.195 Y101.747 E0.0365
G1 X62.195 Y161.929 E2.81331
G1 X62.274 Y162.706 E0.0365
G1 X62.679 Y163.866 E0.05741
G1 X63.179 Y164.616 E0.04214
G1 X94.301 Y201.115 E2.24226
G1 X95.454 Y202.019 E0.06849
G1 X97.116 Y202.414 E0.07988
G1 X207.763 Y202.411 E5.17236
G1 X209.479 Y201.989 E0.0826
G1 X210.642 Y201.08 E0.06901
G1 X241.818 Y164.62 E2.24252
G1 X242.321 Y163.866 E0.04237
G1 X242.726 Y162.706 E0.05741
G1 X242.805 Y161.929 E0.0365
G1 X242.805 Y101.747 E2.81331
G1 X242.726 Y100.971 E0.0365
G1 X242.321 Y99.811 E0.05742
G1 X241.677 Y98.899 E0.05215
G1 X240.887 Y98.246 E0.04793
G1 X239.888 Y97.773 E0.0517
G1 X238.664 Y97.568 E0.05799
G1 X66.426 Y97.561 E8.05155
G1 X65.718 Y97.625 E0.03324
G1 X64.676 Y97.94 E0.05091
G1 X63.837 Y98.484 E0.04674
G1 X64.086 Y98.871 F9000
G1 F1800
G1 X63.911 Y98.983 E0.00973
G1 X63.161 Y99.903 E0.05549
G1 X62.734 Y101.049 E0.05715
G1 X62.662 Y101.747 E0.03281
G1 X62.662 Y161.929 E2.81331
G1 X62.734 Y162.628 E0.03281
G1 X63.088 Y163.641 E0.05017
G1 X63.534 Y164.313 E0.03771
G1 X94.656 Y200.812 E2.24226
G1 X95.57 Y201.554 E0.05502
G1 X97.116 Y201.947 E0.0746
G1 X207.763 Y201.945 E5.17236
G1 X209.262 Y201.576 E0.07219
G1 X210.288 Y200.777 E0.06075
G1 X241.463 Y164.317 E2.24252
G1 X241.912 Y163.641 E0.03792
G1 X242.266 Y162.628 E0.05017
G1 X242.338 Y161.929 E0.03281
G1 X242.338 Y101.747 E2.81331
G1 X242.266 Y101.049 E0.03281
G1 X241.912 Y100.036 E0.05018
G1 X241.335 Y99.215 E0.04689
G1 X240.627 Y98.633 E0.04285
G1 X239.753 Y98.219 E0.04519
G1 X238.664 Y98.035 E0.05164
G1 X66.426 Y98.027 E8.05155
G1 X65.786 Y98.087 E0.03007
G1 X64.875 Y98.362 E0.04449
G1 X64.086 Y98.871 E0.04388
; INIT printing object Base X100.5 Y98.5.stl id:0 copy 0
G1 E-0.8 F3000
; printing object Base X100.5 Y98.5.stl id:0 copy 0
; acceleration to travel
M204 S3000
G1 X66.587 Y101.807 F9000
; decel to extrusion
M204 S1000
G1 X67.42 Y102.786
; end travel
G1 E0.8 F1800
;TYPE:Internal perimeter
;WIDTH:0.48
G1 X237.58 Y102.793 E7.27524
G1 X237.58 Y160.891 E2.48399
G1 X67.42 Y160.891 E7.27524
G1 X67.42 Y102.786 E2.48429
G1 X66.992 Y102.358 F9000
G1 F1800
G1 X238.008 Y102.365 E7.31188
G1 X238.008 Y161.319 E2.52063
M73 P0 R124
G1 X66.992 Y161.319 E7.31188
G1 X66.992 Y102.358 E2.52093
G1 X66.563 Y101.929 F9000
G1 F1800
G1 X66.918 Y101.929 E0.01517
G1 X238.437 Y101.936 E7.33335
G1 X238.437 Y161.748 E2.55727
G1 X66.563 Y161.748 E7.34852
M73 P1 R124
G1 X66.563 Y101.929 E2.55757
G1 X66.185 Y101.611 F9000
;TYPE:External perimeter
G1 F1800
G1 X66.245 Y101.556 E0.00345
G1 X66.325 Y101.518 E0.00382
G1 X66.444 Y101.501 E0.00511
G1 X66.918 Y101.501 E0.02029
G1 X238.629 Y101.508 E7.34156
G1 X238.663 Y101.518 E0.00152
G1 X238.709 Y101.532 E0.00207
G1 X238.818 Y101.617 E0.0059
G1 X238.838 Y101.654 E0.0018
G1 X238.849 Y101.674 E0.00099
G1 X238.865 Y101.768 E0.00407
G1 X238.865 Y161.909 E2.57137
G1 X238.849 Y162.003 E0.00407
G1 X238.829 Y162.04 E0.00182
G1 X238.815 Y162.066 E0.00125
G1 X238.755 Y162.121 E0.00345
G1 X238.675 Y162.159 E0.00382
G1 X238.556 Y162.176 E0.00511
G1 X66.444 Y162.176 E7.35876
G1 X66.325 Y162.159 E0.00511
G1 X66.245 Y162.121 E0.00382
G1 X66.185 Y162.066 E0.00345
G1 X66.151 Y162.003 E0.00307
G1 X66.135 Y161.909 E0.00407
G1 X66.135 Y101.768 E2.57137
G1 X66.151 Y101.674 E0.00407
G1 X66.185 Y101.611 E0.00307
;WIPE_START
M204 S4000
G1 X66.265 Y101.625 F9000
;WIPE_END
; acceleration to travel
M204 S3000
G1 X189.647 Y102.517
; decel to extrusion
M204 S1000
G1 X236.649 Y102.857
; end travel
;TYPE:Solid infill
;WIDTH:0.478397
G1 F3600
G1 X237.331 Y103.539 E0.0411
G1 X237.331 Y104.145 E0.02582
G1 X236.227 Y103.042 E0.06651
G1 X235.621 Y103.042 E0.02582
G1 X237.331 Y104.751 E0.10303
G1 X237.331 Y105.357 E0.02582
G1 X235.015 Y103.042 E0.13955
G1 X234.409 Y103.041 E0.02582
G1 X237.331 Y105.963 E0.17607
G1 X237.331 Y106.569 E0.02582
G1 X233.803 Y103.041 E0.21259
G1 X233.197 Y103.041 E0.02582
G1 X237.331 Y107.175 E0.24911
G1 X237.331 Y107.781 E0.02582
G1 X232.591 Y103.041 E0.28564
G1 X231.985 Y103.041 E0.02582
G1 X237.331 Y108.387 E0.32216
G1 X237.331 Y108.993 E0.02582
G1 X231.379 Y103.041 E0.35868
G1 X230.773 Y103.041 E0.02582
G1 X237.331 Y109.599 E0.3952
G1 X237.331 Y110.205 E0.02582
G1 X230.167 Y103.041 E0.43172
G1 X229.561 Y103.041 E0.02582
G1 X237.331 Y110.811 E0.46824
G1 X237.331 Y111.417 E0.02582
G1 X228.955 Y103.041 E0.50476
G1 X228.349 Y103.041 E0.02582
G1 X237.331 Y112.023 E0.54128
G1 X237.331 Y112.629 E0.02582
G1 X227.743 Y103.041 E0.5778
G1 X227.137 Y103.041 E0.02582
G1 X237.331 Y113.235 E0.61432
G1 X237.331 Y113.841 E0.02582
G1 X226.531 Y103.041 E0.65084
G1 X225.925 Y103.041 E0.02582
G1 X237.331 Y114.447 E0.68736
G1 X237.331 Y115.053 E0.02582
G1 X225.319 Y103.041 E0.72388
G1 X224.713 Y103.041 E0.02582
G1 X237.331 Y115.659 E0.7604
G1 X237.331 Y116.265 E0.02582
G1 X224.107 Y103.041 E0.79692
G1 X223.501 Y103.041 E0.02582
G1 X237.331 Y116.871 E0.83344
G1 X237.331 Y117.477 E0.02582
G1 X222.895 Y103.041 E0.86996
G1 X222.289 Y103.041 E0.02582
G1 X237.331 Y118.083 E0.90648
G1 X237.331 Y118.689 E0.02582
G1 X221.683 Y103.041 E0.943
G1 X221.077 Y103.041 E0.02582
G1 X237.331 Y119.295 E0.97952
G1 X237.331 Y119.901 E0.02582
G1 X220.471 Y103.041 E1.01604
G1 X219.865 Y103.041 E0.02582
G1 X237.331 Y120.507 E1.05256
G1 X237.331 Y121.113 E0.02582
G1 X219.259 Y103.041 E1.08908
G1 X218.653 Y103.041 E0.02582
G1 X237.331 Y121.719 E1.1256
G1 X237.331 Y122.325 E0.02582
G1 X218.047 Y103.041 E1.16212
G1 X217.441 Y103.041 E0.02582
G1 X237.331 Y122.931 E1.19864
G1 X237.331 Y123.537 E0.02582
G1 X216.835 Y103.041 E1.23516
G1 X216.229 Y103.041 E0.02582
G1 X237.331 Y124.143 E1.27168
G1 X237.331 Y124.749 E0.02582
G1 X215.623 Y103.041 E1.3082
G1 X215.017 Y103.041 E0.02582
G1 X237.331 Y125.355 E1.34472
G1 X237.331 Y125.961 E0.02582
G1 X214.411 Y103.041 E1.38124
G1 X213.805 Y103.041 E0.02582
G1 X237.331 Y126.567 E1.41776
G1 X237.331 Y127.173 E0.02582
G1 X213.199 Y103.041 E1.45428
G1 X212.593 Y103.041 E0.02582
G1 X237.331 Y127.779 E1.4908
G1 X237.331 Y128.385 E0.02582
G1 X211.987 Y103.041 E1.52732
G1 X211.381 Y103.041 E0.02582
G1 X237.331 Y128.991 E1.56384
G1 X237.331 Y129.597 E0.02582
G1 X210.775 Y103.041 E1.60036
G1 X210.169 Y103.04 E0.02582
G1 X237.331 Y130.203 E1.63688
G1 X237.331 Y130.809 E0.02582
G1 X209.563 Y103.04 E1.6734
G1 X208.957 Y103.04 E0.02582
G1 X237.331 Y131.415 E1.70992
M73 P1 R123
G1 X237.331 Y132.021 E0.02582
G1 X208.351 Y103.04 E1.74644
G1 X207.745 Y103.04 E0.02582
G1 X237.331 Y132.627 E1.78296
G1 X237.331 Y133.233 E0.02582
G1 X207.139 Y103.04 E1.81948
G1 X206.533 Y103.04 E0.02582
G1 X237.331 Y133.838 E1.856
G1 X237.331 Y134.444 E0.02582
G1 X205.927 Y103.04 E1.89252
G1 X205.321 Y103.04 E0.02582
G1 X237.331 Y135.05 E1.92904
G1 X237.331 Y135.656 E0.02582
G1 X204.715 Y103.04 E1.96556
G1 X204.109 Y103.04 E0.02582
G1 X237.331 Y136.262 E2.00208
G1 X237.331 Y136.868 E0.02582
G1 X203.503 Y103.04 E2.0386
G1 X202.897 Y103.04 E0.02582
G1 X237.331 Y137.474 E2.07512
G1 X237.331 Y138.08 E0.02582
G1 X202.291 Y103.04 E2.11164
G1 X201.685 Y103.04 E0.02582
G1 X237.331 Y138.686 E2.14816
G1 X237.331 Y139.292 E0.02582
G1 X201.079 Y103.04 E2.18468
G1 X200.473 Y103.04 E0.02582
G1 X237.331 Y139.898 E2.2212
G1 X237.331 Y140.504 E0.02582
G1 X199.867 Y103.04 E2.25772
G1 X199.261 Y103.04 E0.02582
G1 X237.331 Y141.11 E2.29424
G1 X237.331 Y141.716 E0.02582
G1 X198.655 Y103.04 E2.33076
G1 X198.049 Y103.04 E0.02582
G1 X237.331 Y142.322 E2.36728
G1 X237.331 Y142.928 E0.02582
G1 X197.443 Y103.04 E2.4038
G1 X196.837 Y103.04 E0.02582
G1 X237.331 Y143.534 E2.44032
G1 X237.331 Y144.14 E0.02582
G1 X196.231 Y103.04 E2.47684
G1 X195.625 Y103.04 E0.02582
G1 X237.331 Y144.746 E2.51336
G1 X237.331 Y145.352 E0.02582
G1 X195.019 Y103.04 E2.54988
G1 X194.413 Y103.04 E0.02582
G1 X237.331 Y145.958 E2.5864
G1 X237.331 Y146.564 E0.02582
G1 X193.807 Y103.04 E2.62292
G1 X193.201 Y103.04 E0.02582
G1 X237.331 Y147.17 E2.65944
G1 X237.331 Y147.776 E0.02582
G1 X192.595 Y103.04 E2.69596
G1 X191.989 Y103.04 E0.02582
G1 X237.331 Y148.382 E2.73248
G1 X237.331 Y148.988 E0.02582
G1 X191.383 Y103.04 E2.769
G1 X190.777 Y103.04 E0.02582
G1 X237.331 Y149.594 E2.80552
G1 X237.331 Y150.2 E0.02582
G1 X190.171 Y103.04 E2.84204
G1 X189.565 Y103.04 E0.02582
G1 X237.331 Y150.806 E2.87856
G1 X237.331 Y151.412 E0.02582
G1 X188.959 Y103.04 E2.91508
G1 X188.353 Y103.04 E0.02582
G1 X237.331 Y152.018 E2.9516
M73 P2 R123
G1 X237.331 Y152.624 E0.02582
G1 X187.747 Y103.04 E2.98812
G1 X187.141 Y103.04 E0.02582
G1 X237.331 Y153.23 E3.02464
G1 X237.331 Y153.836 E0.02582
G1 X186.535 Y103.04 E3.06116
G1 X185.929 Y103.039 E0.02582
G1 X237.331 Y154.442 E3.09768
G1 X237.331 Y155.048 E0.02582
G1 X185.323 Y103.039 E3.1342
G1 X184.717 Y103.039 E0.02582
G1 X237.331 Y155.654 E3.17072
G1 X237.331 Y156.26 E0.02582
G1 X184.111 Y103.039 E3.20724
G1 X183.505 Y103.039 E0.02582
G1 X237.331 Y156.866 E3.24376
G1 X237.331 Y157.472 E0.02582
G1 X182.899 Y103.039 E3.28028
G1 X182.293 Y103.039 E0.02582
G1 X237.331 Y158.078 E3.3168
G1 X237.331 Y158.684 E0.02582
G1 X181.687 Y103.039 E3.35332
G1 X181.081 Y103.039 E0.02582
G1 X237.331 Y159.29 E3.38984
G1 X237.331 Y159.896 E0.02582
G1 X180.475 Y103.039 E3.42636
G1 X179.869 Y103.039 E0.02582
G1 X237.331 Y160.502 E3.46288
G1 X237.331 Y160.642 E0.00599
G1 X236.866 Y160.642 E0.01984
G1 X179.263 Y103.039 E3.47135
G1 X178.657 Y103.039 E0.02582
G1 X236.26 Y160.642 E3.47135
G1 X235.654 Y160.642 E0.02582
G1 X178.051 Y103.039 E3.47135
G1 X177.445 Y103.039 E0.02582
G1 X235.048 Y160.642 E3.47135
G1 X234.442 Y160.642 E0.02582
G1 X176.839 Y103.039 E3.47136
G1 X176.233 Y103.039 E0.02582
G1 X233.836 Y160.642 E3.47136
M73 P2 R122
G1 X233.23 Y160.642 E0.02582
G1 X175.627 Y103.039 E3.47136
G1 X175.021 Y103.039 E0.02582
G1 X232.624 Y160.642 E3.47136
G1 X232.018 Y160.642 E0.02582
G1 X174.415 Y103.039 E3.47136
G1 X173.809 Y103.039 E0.02582
G1 X231.412 Y160.642 E3.47136
G1 X230.806 Y160.642 E0.02582
G1 X173.203 Y103.039 E3.47137
G1 X172.597 Y103.039 E0.02582
G1 X230.2 Y160.642 E3.47137
G1 X229.594 Y160.642 E0.02582
G1 X171.991 Y103.039 E3.47137
G1 X171.385 Y103.039 E0.02582
G1 X228.988 Y160.642 E3.47137
G1 X228.382 Y160.642 E0.02582
G1 X170.779 Y103.039 E3.47137
G1 X170.173 Y103.039 E0.02582
G1 X227.776 Y160.642 E3.47137
G1 X227.17 Y160.642 E0.02582
G1 X169.566 Y103.039 E3.47137
G1 X168.96 Y103.039 E0.02582
G1 X226.564 Y160.642 E3.47138
G1 X225.958 Y160.642 E0.02582
G1 X168.354 Y103.039 E3.47138
G1 X167.748 Y103.039 E0.02582
G1 X225.352 Y160.642 E3.47138
G1 X224.746 Y160.642 E0.02582
G1 X167.142 Y103.039 E3.47138
G1 X166.536 Y103.039 E0.02582
G1 X224.14 Y160.642 E3.47138
G1 X223.534 Y160.642 E0.02582
G1 X165.93 Y103.039 E3.47138
G1 X165.324 Y103.039 E0.02582
G1 X222.928 Y160.642 E3.47139
G1 X222.322 Y160.642 E0.02582
G1 X164.718 Y103.039 E3.47139
G1 X164.112 Y103.039 E0.02582
G1 X221.716 Y160.642 E3.47139
G1 X221.11 Y160.642 E0.02582
G1 X163.506 Y103.039 E3.47139
G1 X162.9 Y103.039 E0.02582
G1 X220.504 Y160.642 E3.47139
G1 X219.898 Y160.642 E0.02582
G1 X162.294 Y103.039 E3.47139
G1 X161.688 Y103.038 E0.02582
G1 X219.292 Y160.642 E3.47139
G1 X218.686 Y160.642 E0.02582
G1 X161.082 Y103.038 E3.4714
G1 X160.476 Y103.038 E0.02582
G1 X218.08 Y160.642 E3.4714
G1 X217.474 Y160.642 E0.02582
G1 X159.87 Y103.038 E3.4714
G1 X159.264 Y103.038 E0.02582
G1 X216.868 Y160.642 E3.4714
G1 X216.262 Y160.642 E0.02582
G1 X158.658 Y103.038 E3.4714
G1 X158.052 Y103.038 E0.02582
G1 X215.656 Y160.642 E3.4714
G1 X215.05 Y160.642 E0.02582
G1 X157.446 Y103.038 E3.4714
G1 X156.84 Y103.038 E0.02582
G1 X214.444 Y160.642 E3.47141
G1 X213.838 Y160.642 E0.02582
G1 X156.234 Y103.038 E3.47141
G1 X155.628 Y103.038 E0.02582
G1 X213.232 Y160.642 E3.47141
M73 P3 R122
G1 X212.626 Y160.642 E0.02582
G1 X155.022 Y103.038 E3.47141
G1 X154.416 Y103.038 E0.02582
G1 X212.02 Y160.642 E3.47141
G1 X211.414 Y160.642 E0.02582
G1 X153.81 Y103.038 E3.47141
G1 X153.204 Y103.038 E0.02582
G1 X210.808 Y160.642 E3.47142
G1 X210.202 Y160.642 E0.02582
G1 X152.598 Y103.038 E3.47142
G1 X151.992 Y103.038 E0.02582
G1 X209.596 Y160.642 E3.47142
G1 X208.99 Y160.642 E0.02582
G1 X151.386 Y103.038 E3.47142
G1 X150.78 Y103.038 E0.02582
G1 X208.384 Y160.642 E3.47142
M73 P3 R121
G1 X207.778 Y160.642 E0.02582
G1 X150.174 Y103.038 E3.47142
G1 X149.568 Y103.038 E0.02582
G1 X207.172 Y160.642 E3.47142
G1 X206.566 Y160.642 E0.02582
G1 X148.962 Y103.038 E3.47143
G1 X148.356 Y103.038 E0.02582
G1 X205.96 Y160.642 E3.47143
G1 X205.355 Y160.642 E0.02582
G1 X147.75 Y103.038 E3.47143
G1 X147.144 Y103.038 E0.02582
G1 X204.749 Y160.642 E3.47143
G1 X204.143 Y160.642 E0.02582
G1 X146.538 Y103.038 E3.47143
G1 X145.932 Y103.038 E0.02582
G1 X203.537 Y160.642 E3.47143
G1 X202.931 Y160.642 E0.02582
G1 X145.326 Y103.038 E3.47143
G1 X144.72 Y103.038 E0.02582
G1 X202.325 Y160.642 E3.47144
G1 X201.719 Y160.642 E0.02582
G1 X144.114 Y103.038 E3.47144
G1 X143.508 Y103.038 E0.02582
G1 X201.113 Y160.642 E3.47144
G1 X200.507 Y160.642 E0.02582
G1 X142.902 Y103.038 E3.47144
G1 X142.296 Y103.038 E0.02582
G1 X199.901 Y160.642 E3.47144
G1 X199.295 Y160.642 E0.02582
G1 X141.69 Y103.038 E3.47144
G1 X141.084 Y103.038 E0.02582
G1 X198.689 Y160.642 E3.47145
G1 X198.083 Y160.642 E0.02582
G1 X140.478 Y103.038 E3.47145
G1 X139.872 Y103.038 E0.02582
G1 X197.477 Y160.642 E3.47145
G1 X196.871 Y160.642 E0.02582
G1 X139.266 Y103.038 E3.47145
G1 X138.66 Y103.038 E0.02582
G1 X196.265 Y160.642 E3.47145
G1 X195.659 Y160.642 E0.02582
G1 X138.054 Y103.038 E3.47145
G1 X137.448 Y103.037 E0.02582
G1 X195.053 Y160.642 E3.47145
G1 X194.447 Y160.642 E0.02582
G1 X136.842 Y103.037 E3.47146
G1 X136.236 Y103.037 E0.02582
G1 X193.841 Y160.642 E3.47146
G1 X193.235 Y160.642 E0.02582
G1 X135.63 Y103.037 E3.47146
G1 X135.024 Y103.037 E0.02582
G1 X192.629 Y160.642 E3.47146
G1 X192.023 Y160.642 E0.02582
G1 X134.418 Y103.037 E3.47146
G1 X133.812 Y103.037 E0.02582
G1 X191.417 Y160.642 E3.47146
