; generated by SuperSlicer 2.3.57 on 2022-02-09 at 05:13:06 UTC


;
;

;
;
; 

; external perimeters extrusion width = 0.40mm
; perimeters extrusion width = 0.45mm
; infill extrusion width = 0.72mm
; solid infill extrusion width = 0.56mm
; top infill extrusion width = 0.40mm
; first layer extrusion width = 0.48mm

; object:{"name":"bearing_holder","id":"bearing_holder.stl id:0 copy 0","object_center":[165.000000,147.000000,0.000000],"boundingbox_center":[165.000000,147.000000,4.500000],"boundingbox_size":[140.000000,35.000000,9.000000]}
; object:{"name":"bearing_holder","id":"bearing_holder.stl id:1 copy 0","object_center":[165.000000,183.000000,0.000000],"boundingbox_center":[165.000000,183.000000,4.500000],"boundingbox_size":[140.000000,35.000000,9.000000]}
; plater:{"center":[165.000000,165.000000,0.000000],"boundingbox_center":[165.000000,165.000000,4.500000],"boundingbox_size":[140.000000,71.000000,9.000000]}

;TYPE:Custom
START_PRINT T_BED=60 T_EXTRUDER=200
M107
G21 ; set units to millimeters
G90 ; use absolute coordinates
M83 ; use relative distances for extrusion
; Filament gcode
M104 S200 ; set temperature
M109 S200 ; set temperature and wait for it to be reached
M190 S60 ; set bed temperature and wait for it to be reached
;LAYER_CHANGE
;Z:0.24
;HEIGHT:0.24
G1 E-0.6 F3000
G1 Z0.24 F9000
G1 X94.042 Y128.274
G1 E0.6 F1800
; External perimeter
;Skirt
SET_VELOCITY_LIMIT ACCEL=4000 ACCEL_TO_DECEL=4000 SQUARE_CORNER_VELOCITY=8

; Support material

;TYPE:Skirt
;WIDTH:0.48
G1 X93.397 Y129.04 E0.04281
G1 X92.985 Y129.952 E0.04281
G1 X92.837 Y130.942 E0.04281
G1 X92.838 Y190.572 E2.54948
G1 X92.968 Y192.265 E0.07262
G1 X93.172 Y193.333 E0.0465
G1 X93.473 Y194.374 E0.0463
G1 X94.134 Y195.964 E0.07362
G1 X95.07 Y197.52 E0.07764
G1 X95.815 Y198.47 E0.05164
G1 X97.118 Y199.763 E0.07848
G1 X98.554 Y200.812 E0.07603
G1 X99.606 Y201.4 E0.05153
G1 X101.257 Y202.072 E0.07623
G1 X102.99 Y202.494 E0.07623
G1 X104.192 Y202.634 E0.05173
G1 X225.037 Y202.663 E5.16679
G1 X226.77 Y202.532 E0.0743
G1 X227.882 Y202.315 E0.04846
G1 X229.504 Y201.796 E0.07278
G1 X230.464 Y201.366 E0.04498
G1 X232.016 Y200.433 E0.07744
G1 X232.96 Y199.694 E0.05123
G1 X234.257 Y198.389 E0.07868
G1 X235.279 Y196.998 E0.07382
G1 X235.896 Y195.902 E0.05374
G1 X236.57 Y194.252 E0.07623
G1 X236.983 Y192.57 E0.07401
G1 X237.133 Y191.318 E0.05395
G1 X237.157 Y130.775 E2.58853
G1 X237.054 Y130.095 E0.02939
G1 X236.825 Y129.447 E0.02939
G1 X236.478 Y128.854 E0.02939
G1 X236.026 Y128.336 E0.02939
G1 X235.48 Y127.91 E0.02959
G1 X234.869 Y127.596 E0.02939
G1 X234.209 Y127.403 E0.02939
G1 X233.525 Y127.337 E0.02939
G1 X96.473 Y127.337 E5.85971
G1 X95.65 Y127.433 E0.03541
G1 X94.871 Y127.712 E0.03541
G1 X94.091 Y128.24 E0.04024
G1 X94.333 Y128.588 F9000
G1 F1800
G1 X93.761 Y129.267 E0.03794
G1 X93.396 Y130.076 E0.03794
G1 X93.266 Y130.953 E0.03794
G1 X93.266 Y190.562 E2.5486
G1 X93.393 Y192.211 E0.07072
G1 X93.588 Y193.23 E0.04434
G1 X93.875 Y194.226 E0.04433
G1 X94.514 Y195.765 E0.07122
G1 X95.424 Y197.279 E0.07556
G1 X96.137 Y198.187 E0.04932
G1 X97.407 Y199.446 E0.07647
G1 X98.863 Y200.501 E0.07689
G1 X100.423 Y201.303 E0.075
G1 X101.487 Y201.695 E0.04849
G1 X103.169 Y202.09 E0.07387
G1 X104.876 Y202.232 E0.07324
G1 X225.031 Y202.234 E5.13727
G1 X226.715 Y202.107 E0.0722
G1 X227.779 Y201.899 E0.04636
G1 X228.73 Y201.623 E0.04236
G1 X230.265 Y200.986 E0.07103
G1 X231.776 Y200.078 E0.07537
G1 X232.674 Y199.375 E0.04875
G1 X233.931 Y198.11 E0.07628
G1 X234.921 Y196.762 E0.07149
G1 X235.509 Y195.718 E0.05125
G1 X236.161 Y194.123 E0.07368
G1 X236.562 Y192.49 E0.07187
G1 X236.705 Y191.309 E0.05087
G1 X236.73 Y130.821 E2.5862
G1 X236.642 Y130.217 E0.02609
G1 X236.442 Y129.641 E0.02609
G1 X236.139 Y129.116 E0.02591
G1 X235.739 Y128.655 E0.02609
G1 X235.26 Y128.277 E0.02609
G1 X234.717 Y127.997 E0.02609
G1 X234.132 Y127.825 E0.02609
G1 X233.524 Y127.766 E0.02609
G1 X96.472 Y127.766 E5.85976
G1 X95.752 Y127.849 E0.03099
G1 X95.069 Y128.092 E0.03099
G1 X94.382 Y128.555 E0.03538
; INIT printing object bearing_holder.stl id:0 copy 0
G1 E-0.6 F3000
; printing object bearing_holder.stl id:0 copy 0
G1 X97.577 Y132.077 F9000
G1 E0.6 F1800
; External perimeter
;Perimeter
SET_VELOCITY_LIMIT ACCEL=2000 ACCEL_TO_DECEL=2000 SQUARE_CORNER_VELOCITY=8

; Overhang perimeter

;TYPE:Internal perimeter
G1 X232.423 Y132.077 E5.7654
G1 X232.423 Y154.477 E0.95771
G1 X232.4 Y155.077 E0.02569
G1 X232.322 Y155.708 E0.02718
G1 X232.219 Y156.225 E0.02255
G1 X232.062 Y156.784 E0.02483
G1 X231.862 Y157.329 E0.02481
G1 X231.621 Y157.854 E0.02472
G1 X231.309 Y158.408 E0.02714
G1 X231.017 Y158.846 E0.02252
G1 X230.658 Y159.303 E0.02487
G1 X230.266 Y159.729 E0.02474
G1 X229.802 Y160.159 E0.02705
G1 X229.347 Y160.516 E0.02473
G1 X228.863 Y160.837 E0.02481
G1 X228.356 Y161.12 E0.02481
G1 X227.829 Y161.362 E0.02481
G1 X227.284 Y161.562 E0.02484
G1 X226.776 Y161.705 E0.02254
G1 X226.154 Y161.832 E0.02717
G1 X225.58 Y161.899 E0.02469
G1 X224.977 Y161.923 E0.02581
G1 X196.05 Y161.923 E1.23677
G1 X193.555 Y161.15 E0.11167
G1 X191.232 Y160.497 E0.10319
G1 X188.893 Y159.899 E0.10323
G1 X186.074 Y159.261 E0.12356
G1 X184.181 Y158.872 E0.08261
G1 X181.808 Y158.443 E0.10313
G1 X179.424 Y158.071 E0.10313
G1 X177.033 Y157.756 E0.10313
G1 X174.634 Y157.498 E0.10313
G1 X172.231 Y157.297 E0.10313
G1 X169.823 Y157.153 E0.10313
G1 X167.412 Y157.067 E0.10313
G1 X165 Y157.038 E0.10313
G1 X162.588 Y157.067 E0.10313
G1 X160.177 Y157.153 E0.10313
G1 X157.769 Y157.297 E0.10313
G1 X155.366 Y157.498 E0.10313
G1 X152.967 Y157.756 E0.10313
G1 X150.576 Y158.071 E0.10313
G1 X148.192 Y158.443 E0.10313
G1 X145.819 Y158.872 E0.10313
G1 X143.926 Y159.261 E0.08261
G1 X141.107 Y159.899 E0.12356
G1 X138.768 Y160.497 E0.10323
G1 X136.445 Y161.15 E0.10319
G1 X133.95 Y161.923 E0.11167
G1 X105.023 Y161.923 E1.23677
G1 X104.42 Y161.899 E0.02581
G1 X103.844 Y161.831 E0.02481
G1 X103.274 Y161.719 E0.02481
G1 X102.716 Y161.562 E0.02481
G1 X102.171 Y161.362 E0.02481
G1 X101.644 Y161.12 E0.02481
G1 X101.137 Y160.837 E0.02481
G1 X100.653 Y160.516 E0.02481
G1 X100.197 Y160.158 E0.02481
G1 X99.771 Y159.766 E0.02474
G1 X99.341 Y159.302 E0.02705
G1 X98.984 Y158.847 E0.02473
G1 X98.663 Y158.363 E0.02481
G1 X98.38 Y157.856 E0.02481
G1 X98.138 Y157.329 E0.02481
G1 X97.938 Y156.784 E0.02481
G1 X97.781 Y156.226 E0.02481
G1 X97.668 Y155.656 E0.02482
G1 X97.606 Y155.132 E0.02255
G1 X97.577 Y154.474 E0.02819
G1 X97.577 Y132.137 E0.95501
G1 X97.148 Y131.648 F9000
G1 F1800
G1 X232.852 Y131.648 E5.80204
G1 X232.852 Y154.485 E0.97639
G1 X232.827 Y155.112 E0.02681
G1 X232.745 Y155.776 E0.02862
G1 X232.636 Y156.325 E0.02393
G1 X232.47 Y156.916 E0.02626
G1 X232.258 Y157.492 E0.02625
G1 X232.003 Y158.049 E0.02619
G1 X231.675 Y158.632 E0.0286
G1 X231.364 Y159.097 E0.02391
G1 X230.985 Y159.581 E0.02628
G1 X230.57 Y160.032 E0.0262
G1 X230.08 Y160.485 E0.02854
G1 X229.598 Y160.863 E0.0262
G1 X229.087 Y161.203 E0.02625
G1 X228.55 Y161.502 E0.02625
G1 X227.992 Y161.758 E0.02625
G1 X227.416 Y161.97 E0.02626
G1 X226.877 Y162.122 E0.02393
G1 X226.221 Y162.255 E0.02862
G1 X225.613 Y162.327 E0.02617
G1 X224.985 Y162.352 E0.02689
G1 X195.985 Y162.352 E1.2399
G1 X193.434 Y161.561 E0.1142
G1 X191.121 Y160.911 E0.10273
G1 X188.792 Y160.316 E0.10275
G1 X185.983 Y159.68 E0.12312
G1 X184.1 Y159.293 E0.08221
G1 X181.736 Y158.866 E0.1027
G1 X179.363 Y158.495 E0.1027
G1 X176.982 Y158.181 E0.1027
G1 X174.594 Y157.924 E0.1027
G1 X172.2 Y157.724 E0.1027
G1 X169.802 Y157.581 E0.1027
G1 X167.402 Y157.495 E0.1027
G1 X165 Y157.466 E0.1027
G1 X162.598 Y157.495 E0.1027
G1 X160.198 Y157.581 E0.1027
G1 X157.8 Y157.724 E0.1027
G1 X155.406 Y157.924 E0.1027
G1 X153.018 Y158.181 E0.1027
G1 X150.637 Y158.495 E0.1027
G1 X148.264 Y158.866 E0.1027
G1 X145.9 Y159.293 E0.1027
G1 X144.017 Y159.68 E0.08221
G1 X141.208 Y160.316 E0.12312
G1 X138.879 Y160.911 E0.10275
G1 X136.566 Y161.561 E0.10273
G1 X134.015 Y162.352 E0.1142
G1 X105.015 Y162.352 E1.2399
G1 X104.387 Y162.327 E0.02689
G1 X103.777 Y162.255 E0.02625
G1 X103.175 Y162.136 E0.02625
G1 X102.584 Y161.97 E0.02625
G1 X102.008 Y161.758 E0.02625
G1 X101.45 Y161.502 E0.02625
G1 X100.913 Y161.203 E0.02625
G1 X100.402 Y160.863 E0.02625
G1 X99.919 Y160.485 E0.02624
G1 X99.468 Y160.07 E0.0262
G1 X99.015 Y159.58 E0.02854
G1 X98.637 Y159.098 E0.0262
G1 X98.297 Y158.587 E0.02624
G1 X97.998 Y158.05 E0.02625
G1 X97.742 Y157.492 E0.02625
G1 X97.53 Y156.916 E0.02625
G1 X97.364 Y156.325 E0.02625
G1 X97.245 Y155.723 E0.02625
G1 X97.179 Y155.167 E0.02394
G1 X97.148 Y154.483 E0.02927
G1 X97.148 Y131.708 E0.97374
G1 X96.72 Y131.22 F9000
; External perimeter
;ExternalPerimeter
SET_VELOCITY_LIMIT ACCEL=1000 ACCEL_TO_DECEL=1000 SQUARE_CORNER_VELOCITY=8

; Perimeter

;TYPE:External perimeter
G1 F1800
G1 X233.28 Y131.22 E5.83869
G1 X233.28 Y131.34 E0.00458
G1 X233.28 Y131.58 E0.00971
G1 X233.28 Y154.493 E0.97967
G1 X233.254 Y155.146 E0.02794
G1 X233.168 Y155.844 E0.03006
G1 X233.053 Y156.425 E0.02532
G1 X232.878 Y157.048 E0.02768
G1 X232.655 Y157.656 E0.02768
G1 X232.385 Y158.244 E0.02766
G1 X232.04 Y158.857 E0.03005
G1 X231.711 Y159.349 E0.02531
G1 X231.312 Y159.858 E0.02769
G1 X230.874 Y160.335 E0.02766
G1 X230.358 Y160.812 E0.03003
G1 X229.849 Y161.211 E0.02766
G1 X229.31 Y161.569 E0.02768
G1 X228.744 Y161.885 E0.02768
G1 X228.156 Y162.155 E0.02768
G1 X227.548 Y162.378 E0.02769
G1 X226.978 Y162.539 E0.02532
G1 X226.289 Y162.679 E0.03006
G1 X225.647 Y162.754 E0.02765
G1 X224.993 Y162.78 E0.02796
G1 X195.92 Y162.78 E1.24304
G1 X193.312 Y161.972 E0.11673
G1 X191.01 Y161.325 E0.10227
G1 X188.692 Y160.732 E0.10228
G1 X185.893 Y160.099 E0.12269
G1 X184.019 Y159.714 E0.08181
G1 X181.665 Y159.289 E0.10226
G1 X179.302 Y158.92 E0.10226
G1 X176.931 Y158.607 E0.10226
G1 X174.553 Y158.351 E0.10226
G1 X172.169 Y158.151 E0.10226
G1 X169.782 Y158.009 E0.10226
G1 X167.392 Y157.924 E0.10226
G1 X165 Y157.895 E0.10226
G1 X162.608 Y157.924 E0.10226
G1 X160.218 Y158.009 E0.10226
G1 X157.831 Y158.151 E0.10226
G1 X155.447 Y158.351 E0.10226
G1 X153.069 Y158.607 E0.10226
G1 X150.698 Y158.92 E0.10226
G1 X148.335 Y159.289 E0.10226
G1 X145.981 Y159.714 E0.10226
G1 X144.107 Y160.099 E0.08181
G1 X141.308 Y160.732 E0.12269
G1 X138.99 Y161.325 E0.10228
G1 X136.688 Y161.972 E0.10227
G1 X134.08 Y162.78 E0.11673
G1 X105.007 Y162.78 E1.24304
G1 X104.353 Y162.754 E0.02796
G1 X103.71 Y162.679 E0.02768
G1 X103.075 Y162.553 E0.02768
G1 X102.452 Y162.378 E0.02768
G1 X101.844 Y162.155 E0.02768
G1 X101.256 Y161.885 E0.02768
G1 X100.69 Y161.569 E0.02768
G1 X100.151 Y161.211 E0.02768
G1 X99.642 Y160.812 E0.02768
G1 X99.165 Y160.374 E0.02766
G1 X98.688 Y159.858 E0.03003
G1 X98.289 Y159.349 E0.02766
G1 X97.931 Y158.81 E0.02768
G1 X97.615 Y158.244 E0.02768
G1 X97.345 Y157.656 E0.02768
G1 X97.122 Y157.048 E0.02768
G1 X96.947 Y156.425 E0.02768
G1 X96.821 Y155.79 E0.02768
G1 X96.752 Y155.202 E0.02532
G1 X96.72 Y154.493 E0.03035
G1 X96.72 Y131.28 E0.99247
;WIPE_START
G1 X97.066 Y131.42 F9000
;WIPE_END
G1 X231.493 Y132.141
; External perimeter
;SolidInfill
SET_VELOCITY_LIMIT ACCEL=3000 ACCEL_TO_DECEL=3000 SQUARE_CORNER_VELOCITY=8

; Bridge infill

;TYPE:Solid infill
;WIDTH:0.477065
G1 F2400
G1 X232.175 Y132.823 E0.04098
G1 X232.175 Y133.429 E0.02575
G1 X231.071 Y132.325 E0.06633
G1 X230.465 Y132.325 E0.02575
G1 X232.175 Y134.035 E0.10274
G1 X232.175 Y134.641 E0.02575
G1 X229.859 Y132.325 E0.13916
G1 X229.253 Y132.325 E0.02575
G1 X232.175 Y135.247 E0.17558
G1 X232.175 Y135.853 E0.02575
G1 X228.647 Y132.325 E0.21199
G1 X228.041 Y132.325 E0.02575
G1 X232.175 Y136.459 E0.24841
G1 X232.175 Y137.065 E0.02575
G1 X227.435 Y132.325 E0.28483
G1 X226.829 Y132.325 E0.02575
G1 X232.175 Y137.671 E0.32124
G1 X232.175 Y138.277 E0.02575
G1 X226.223 Y132.325 E0.35766
G1 X225.617 Y132.325 E0.02575
G1 X232.175 Y138.883 E0.39408
G1 X232.175 Y139.489 E0.02575
G1 X225.011 Y132.325 E0.4305
G1 X224.405 Y132.325 E0.02575
G1 X232.175 Y140.095 E0.46691
G1 X232.175 Y140.701 E0.02575
G1 X223.799 Y132.325 E0.50333
G1 X223.193 Y132.325 E0.02575
G1 X232.175 Y141.307 E0.53975
G1 X232.175 Y141.913 E0.02575
G1 X222.587 Y132.325 E0.57616
G1 X221.981 Y132.325 E0.02575
G1 X232.175 Y142.519 E0.61258
G1 X232.175 Y143.125 E0.02575
G1 X221.375 Y132.325 E0.649
G1 X220.769 Y132.325 E0.02575
G1 X232.175 Y143.731 E0.68541
G1 X232.175 Y144.337 E0.02575
G1 X220.163 Y132.325 E0.72183
G1 X219.557 Y132.325 E0.02575
G1 X232.175 Y144.943 E0.75825
G1 X232.175 Y145.549 E0.02575
G1 X218.951 Y132.325 E0.79467
G1 X218.345 Y132.325 E0.02575
G1 X232.175 Y146.155 E0.83108
G1 X232.175 Y146.761 E0.02575
G1 X217.739 Y132.325 E0.8675
G1 X217.133 Y132.325 E0.02575
G1 X232.175 Y147.367 E0.90392
G1 X232.175 Y147.973 E0.02575
G1 X216.527 Y132.325 E0.94033
G1 X215.921 Y132.325 E0.02575
G1 X232.175 Y148.579 E0.97675
G1 X232.175 Y149.185 E0.02575
G1 X215.315 Y132.325 E1.01317
G1 X214.709 Y132.325 E0.02575
G1 X232.175 Y149.791 E1.04958
G1 X232.175 Y150.397 E0.02575
G1 X214.103 Y132.325 E1.086
G1 X213.497 Y132.325 E0.02575
G1 X232.175 Y151.003 E1.12242
G1 X232.175 Y151.609 E0.02575
G1 X212.891 Y132.325 E1.15884
G1 X212.285 Y132.325 E0.02575
G1 X232.175 Y152.215 E1.19525
G1 X232.175 Y152.821 E0.02575
G1 X211.679 Y132.325 E1.23167
G1 X211.073 Y132.325 E0.02575
G1 X232.175 Y153.427 E1.26809
G1 X232.175 Y154.033 E0.02575
G1 X210.467 Y132.325 E1.3045
G1 X209.861 Y132.325 E0.02575
G1 X232.168 Y154.632 E1.34054
G1 X232.152 Y155.057 E0.01806
G1 X232.134 Y155.204 E0.00628
G1 X209.255 Y132.325 E1.37487
G1 X208.649 Y132.325 E0.02575
G1 X232.062 Y155.738 E1.40701
G1 X231.977 Y156.167 E0.01858
G1 X231.957 Y156.239 E0.00316
G1 X208.043 Y132.325 E1.43709
G1 X207.437 Y132.325 E0.02575
G1 X231.824 Y156.712 E1.46551
G1 X231.661 Y157.155 E0.02006
G1 X206.831 Y132.325 E1.49214
G1 X206.226 Y132.325 E0.02575
G1 X231.475 Y157.575 E1.5174
G1 X231.399 Y157.741 E0.00777
G1 X231.268 Y157.974 E0.01134
G1 X205.62 Y132.325 E1.54137
G1 X205.014 Y132.325 E0.02575
G1 X231.045 Y158.357 E1.56435
G1 X230.815 Y158.7 E0.01754
G1 X230.801 Y158.718 E0.00102
G1 X204.408 Y132.325 E1.5861
G1 X203.802 Y132.325 E0.02575
G1 X230.534 Y159.058 E1.60652
G1 X230.468 Y159.142 E0.00454
G1 X230.25 Y159.38 E0.01371
G1 X203.196 Y132.325 E1.62585
G1 X202.59 Y132.325 E0.02575
G1 X229.949 Y159.685 E1.64416
G1 X229.633 Y159.975 E0.01822
G1 X201.984 Y132.325 E1.66163
G1 X201.378 Y132.325 E0.02575
G1 X229.294 Y160.242 E1.67763
G1 X229.201 Y160.314 E0.00501
G1 X228.936 Y160.49 E0.0135
G1 X200.772 Y132.325 E1.69258
G1 X200.166 Y132.325 E0.02575
G1 X228.561 Y160.721 E1.70645
G1 X228.244 Y160.898 E0.01543
G1 X228.167 Y160.933 E0.00359
G1 X199.56 Y132.325 E1.71919
G1 X198.954 Y132.325 E0.02575
G1 X227.752 Y161.124 E1.73065
G1 X227.734 Y161.132 E0.00083
G1 X227.31 Y161.288 E0.01921
G1 X198.348 Y132.325 E1.7405
G1 X197.742 Y132.325 E0.02575
G1 X226.844 Y161.428 E1.74892
G1 X226.718 Y161.463 E0.00558
G1 X226.349 Y161.538 E0.016
G1 X197.136 Y132.325 E1.75557
G1 X196.53 Y132.325 E0.02575
G1 X225.825 Y161.62 E1.76049
G1 X225.561 Y161.651 E0.0113
G1 X225.261 Y161.663 E0.01272
G1 X195.924 Y132.325 E1.76307
G1 X195.318 Y132.325 E0.02575
G1 X224.667 Y161.675 E1.76375
G1 X224.061 Y161.675 E0.02575
G1 X194.712 Y132.325 E1.76375
G1 X194.106 Y132.325 E0.02575
G1 X223.455 Y161.675 E1.76375
G1 X222.849 Y161.675 E0.02575
G1 X193.5 Y132.325 E1.76375
G1 X192.894 Y132.325 E0.02575
G1 X222.243 Y161.675 E1.76375
G1 X221.637 Y161.675 E0.02575
G1 X192.288 Y132.325 E1.76375
G1 X191.682 Y132.325 E0.02575
G1 X221.031 Y161.675 E1.76375
G1 X220.425 Y161.675 E0.02575
G1 X191.076 Y132.325 E1.76375
G1 X190.47 Y132.325 E0.02575
G1 X219.819 Y161.675 E1.76375
G1 X219.213 Y161.675 E0.02575
G1 X189.864 Y132.325 E1.76375
G1 X189.258 Y132.325 E0.02575
G1 X218.607 Y161.675 E1.76375
G1 X218.001 Y161.675 E0.02575
G1 X188.652 Y132.325 E1.76375
G1 X188.046 Y132.325 E0.02575
G1 X217.395 Y161.675 E1.76375
G1 X216.789 Y161.675 E0.02575
G1 X187.44 Y132.325 E1.76375
G1 X186.834 Y132.325 E0.02575
G1 X216.183 Y161.675 E1.76375
G1 X215.577 Y161.675 E0.02575
G1 X186.228 Y132.325 E1.76375
G1 X185.622 Y132.325 E0.02575
G1 X214.971 Y161.675 E1.76375
G1 X214.365 Y161.675 E0.02575
