; Postprocessed by [ArcWelder](https://github.com/FormerLurker/ArcWelderLib)
; Copyright(C) 2021 - Brad Hochgesang
; Version: 1.2.0, Branch: HEAD, BuildDate: 2021-11-21T20:25:43Z
; resolution=0.05mm
; path_tolerance=5.0%
; max_radius=9999.00mm
; g90_influences_extruder=True
; default_xyz_precision=3
; default_e_precision=5
; extrusion_rate_variance_percent=5.0%

; generated by SuperSlicer 2.4 on 2022-05-02 at 20:08:19 UTC







; 

; external perimeters extrusion width = 0.40mm
; perimeters extrusion width = 0.40mm
; infill extrusion width = 0.72mm
; solid infill extrusion width = 0.56mm
; top infill extrusion width = 0.40mm
; first layer extrusion width = 0.48mm

; object:{"name":"extruder_body","id":"extruder_body.stl id:0 copy 0","object_center":[165.000000,165.000211,0.000000],"boundingbox_center":[165.000000,165.000211,11.849998],"boundingbox_size":[59.298126,55.018677,23.699997]}
; plater:{"center":[165.000000,165.000211,0.000000],"boundingbox_center":[165.000000,165.000211,11.849998],"boundingbox_size":[59.298126,55.018677,23.699997]}

M73 P0 R62
;TYPE:Custom
START_PRINT T_BED=110 T_EXTRUDER=245
M107
G21 ; set units to millimeters
G90 ; use absolute coordinates
M83 ; use relative distances for extrusion
; Filament gcode
M104 S245 ; set temperature
M109 S245 ; set temperature and wait for it to be reached
M190 S110 ; set bed temperature and wait for it to be reached
M107
;LAYER_CHANGE
;Z:0.24
;HEIGHT:0.24
G1 Z0.24 F9000
G92 E0
G1 E-0.5 F3000
M204 S1000
G1 X138.254 Y141.424 F9000
G1 E0.5 F1800
;TYPE:Skirt
;WIDTH:0.52
G1 X135.833 Y144.043 E0.16672
G1 X134.67 Y145.828 E0.09959
G1 X133.785 Y147.542 E0.09017
G1 X133.382 Y148.605 E0.05315
G1 X132.524 Y151.596 E0.14546
G2 X132.055 Y155.082 I19.853 J4.446 E0.16456
G1 X132.031 Y173.957 E0.88238
G1 X132.193 Y176.513 E0.11969
G1 X132.694 Y179.104 E0.12338
G1 X133.64 Y182.126 E0.14806
G1 X134.67 Y184.172 E0.10707
G1 X136.083 Y186.265 E0.11805
G1 X137.848 Y188.189 E0.12203
G1 X139.019 Y189.169 E0.07137
G1 X140.437 Y189.913 E0.07484
G1 X141.989 Y190.332 E0.07517
G1 X189.887 Y195.64 E2.25279
M73 P0 R61
G2 X194.147 Y195.792 I3.350 J-34.123 E0.19933
G1 X195.467 Y195.419 E0.06417
G1 X196.456 Y194.79 E0.0548
G1 X196.938 Y194.307 E0.03186
G1 X197.524 Y193.401 E0.05044
G1 X197.89 Y192.289 E0.05475
G1 X197.969 Y191.511 E0.03653
G1 X198.069 Y152.388 E1.8289
G1 X197.959 Y138.364 E0.65558
G1 X197.713 Y137.05 E0.0625
G1 X197.059 Y135.852 E0.0638
G1 X196.063 Y134.918 E0.06381
G1 X194.826 Y134.343 E0.06381
G1 X193.656 Y134.179 E0.05522
G1 X192.396 Y134.207 E0.05891
G1 X188.651 Y134.477 E0.17552
G1 X142.304 Y139.627 E2.17988
G1 X141.358 Y139.795 E0.0449
G1 X140.143 Y140.21 E0.06004
G1 X139.286 Y140.66 E0.04522
G1 X138.254 Y141.424 E0.06004
G1 X138.571 Y141.766 F9000
G1 F1800
G1 X136.211 Y144.317 E0.16246
G1 X135.07 Y146.068 E0.0977
G1 X134.213 Y147.728 E0.08734
G1 X133.827 Y148.742 E0.05071
G1 X132.978 Y151.706 E0.14412
G2 X132.520 Y155.112 I19.328 J4.333 E0.16080
G1 X132.498 Y173.957 E0.88096
G1 X132.657 Y176.462 E0.11733
G1 X133.148 Y178.994 E0.12054
G1 X134.068 Y181.94 E0.14428
G1 X135.07 Y183.932 E0.10424
G1 X136.429 Y185.952 E0.11383
G1 X138.186 Y187.868 E0.12153
G1 X139.271 Y188.776 E0.06613
G1 X140.616 Y189.482 E0.07101
G1 X142.05 Y189.869 E0.06944
G1 X189.851 Y195.169 E2.24824
G2 X194.081 Y195.331 I3.462 J-35.102 E0.19797
G1 X195.261 Y195.001 E0.05726
G1 X196.157 Y194.432 E0.04962
G1 X196.586 Y194.001 E0.0284
G1 X197.109 Y193.187 E0.04525
G1 X197.429 Y192.215 E0.04784
G1 X197.502 Y191.51 E0.03313
G1 X197.602 Y152.388 E1.82884
G1 X197.493 Y138.368 E0.65541
G1 X197.27 Y137.196 E0.05577
G1 X196.684 Y136.129 E0.0569
G1 X195.793 Y135.299 E0.05691
G1 X194.688 Y134.788 E0.05691
G1 X193.666 Y134.646 E0.04826
G1 X192.406 Y134.673 E0.05891
G1 X188.695 Y134.941 E0.17393
G1 X142.365 Y140.089 E2.17907
G1 X141.46 Y140.25 E0.04298
G1 X140.323 Y140.64 E0.05622
G1 X139.539 Y141.052 E0.0414
G1 X138.571 Y141.766 E0.05621
; INIT printing object extruder_body.stl id:0 copy 0
G1 E-0.5 F3000
; printing object extruder_body.stl id:0 copy 0
; acceleration to travel
M204 S4000
G1 X178.731 Y179.377 F9000
; decel to extrusion
M204 S1000
G1 X188.771 Y188.78
; end travel
G1 E0.5 F1800
;TYPE:Internal perimeter
;WIDTH:0.48
G2 X192.332 Y190.264 I19.298 J-41.294 E0.16500
G1 X192.273 Y190.548 E0.01239
G3 X188.117 Y190.201 I1.643 J-44.737 E0.17837
G2 X188.771 Y188.780 I-3.698 J-2.563 E0.06717
G1 X188.458 Y188.159 F9000
G1 F1800
G2 X193.172 Y190.135 I23.140 J-48.594 E0.21859
G1 X193.172 Y191.013 E0.03755
G3 X187.283 Y190.515 I1.064 J-47.648 E0.25282
G2 X188.458 Y188.159 I-2.804 J-2.870 E0.11453
G1 X188.036 Y187.404 F9000
G1 F1800
G1 X188.328 Y187.625 E0.01564
G2 X193.601 Y189.835 I23.718 J-49.196 E0.24455
G1 X193.601 Y191.459 E0.06944
G3 X186.183 Y190.788 I0.998 J-52.371 E0.31872
G2 X188.036 Y187.404 I-1.731 J-3.147 E0.17437
G1 E-0.5 F3000
; acceleration to travel
M204 S4000
G1 X148.077 Y160.048 F9000
; decel to extrusion
M204 S1000
G1 X138.087 Y153.209
; end travel
G1 E0.5 F1800
G2 X137.707 Y153.526 I1.262 J1.899 E0.02121
G1 X137.49 Y153.405 E0.01064
G1 X137.605 Y152.818 E0.02555
G1 X138.087 Y153.209 E0.02652
G1 X138.87 Y153.213 F9000
G1 F1800
G2 X137.138 Y154.964 I1.920 J3.632 E0.10691
G1 X136.874 Y154.886 E0.01173
G3 X137.390 Y151.888 I15.689 J1.157 E0.13028
G2 X138.870 Y153.213 I3.662 J-2.601 E0.08561
G1 E-0.5 F3000
; acceleration to travel
M204 S4000
G1 X150.654 Y158.316 F9000
; decel to extrusion
M204 S1000
G1 X153.601 Y159.592
; end travel
G1 E0.5 F1800
G1 X150.471 Y165.013 E0.26763
G1 X153.972 Y171.077 E0.29936
G1 X160.973 Y171.077 E0.29936
G1 X164.474 Y165.013 E0.29935
G1 X160.973 Y158.95 E0.29935
G1 X153.972 Y158.95 E0.29936
G1 X153.601 Y159.592 E0.03173
G1 X153.972 Y159.806 F9000
G1 F1800
G1 X150.965 Y165.013 E0.25705
G1 X154.219 Y170.648 E0.27821
G1 X160.726 Y170.648 E0.27821
G1 X163.979 Y165.013 E0.2782
G1 X160.726 Y159.378 E0.27819
G1 X154.219 Y159.378 E0.27821
G1 X153.972 Y159.806 E0.02115
G1 X154.343 Y160.021 F9000
G1 F1800
G1 X151.46 Y165.013 E0.24647
G1 X154.466 Y170.22 E0.25705
G1 X160.479 Y170.22 E0.25705
G1 X163.484 Y165.013 E0.25705
G1 X160.479 Y159.807 E0.25704
G1 X154.466 Y159.807 E0.25705
G1 X154.343 Y160.021 E0.01058
G1 X154.714 Y160.235 F9000
;TYPE:External perimeter
G1 F1800
G2 X151.955 Y165.013 I2234.665 J1293.567 E0.23590
G1 X154.714 Y169.791 E0.2359
G1 X160.231 Y169.791 E0.2359
G1 X162.99 Y165.013 E0.23589
G1 X161.53 Y162.484 E0.12485
G1 X160.231 Y160.235 E0.11103
G1 X154.714 Y160.235 E0.2359
;WIPE_START
M204 S5000
G1 X154.338 Y160.098 F9000
;WIPE_END
; acceleration to travel
M204 S4000
G1 X164.378 Y160.371
; decel to extrusion
M204 S1000
G1 X166.888 Y160.44
; end travel
;TYPE:Internal perimeter
G1 F1800
G2 X166.934 Y159.857 I6.153 J0.192 E1.62841
G2 X166.888 Y160.440 I3.317 J0.555 E0.02498
G1 X167.317 Y160.44 F9000
G1 F1800
G2 X167.359 Y159.913 I5.724 J0.191 E1.51576
G2 X167.317 Y160.440 I3.053 J0.509 E0.02262
G1 X167.745 Y160.44 F9000
G1 F1800
G2 X167.785 Y159.968 I5.295 J0.211 E1.40280
G2 X167.745 Y160.440 I2.653 J0.462 E0.02025
G1 X168.174 Y160.44 F9000
;TYPE:External perimeter
G1 F1800
G2 X168.281 Y159.611 I4.866 J0.207 E1.27202
G2 X168.174 Y160.440 I4.838 J1.046 E0.03576
;WIPE_START
M204 S5000
G1 X167.822 Y160.63 F9000
;WIPE_END
G1 E-0.5 F3000
; acceleration to travel
M204 S4000
G1 X178.204 Y169.243 F9000
; decel to extrusion
M204 S1000
G1 X180.8 Y171.397
; end travel
G1 E0.5 F1800
;TYPE:Internal perimeter
G2 X186.372 Y178.490 I3.601 J2.906 E0.53188
G1 X186.372 Y183.809 E0.22742
G2 X180.420 Y187.260 I-1.712 J3.906 E0.34200
G2 X171.824 Y185.195 I-8.606 J16.899 E0.38146
G1 X143.03 Y185.183 E1.23107
G1 X142.978 Y184.902 E0.01219
G2 X141.583 Y175.874 I-1.425 J-4.402 E0.55790
G1 X140.39 Y175.894 E0.05101
G2 X137.605 Y177.182 I0.502 J4.740 E0.13344
G3 X137.256 Y173.941 I14.753 J-3.228 E0.13963
G1 X137.256 Y159.845 E0.60266
G2 X143.930 Y153.466 I3.587 J-2.928 E0.65242
G2 X142.958 Y145.090 I-2.379 J-3.968 E0.45333
G1 X142.996 Y144.82 E0.01166
G1 X143.162 Y144.806 E0.00712
G1 X171.824 Y144.806 E1.22544
G2 X180.407 Y142.746 I-0.014 J-18.968 E0.38084
G2 X186.053 Y146.306 I4.245 J-0.476 E0.32730
G1 X186.761 Y146.018 E0.0327
G2 X186.372 Y147.380 I2.374 J1.414 E0.06114
G1 X186.372 Y156.427 E0.38678
G2 X189.335 Y158.633 I2.271 J0.043 E0.18431
G2 X191.061 Y157.542 I-1.217 J-3.836 E0.08823
G1 X192.29 Y156.116 E0.08048
M73 P1 R61
G1 X192.744 Y155.642 E0.02804
G1 X192.744 Y159.42 E0.1615
G1 X188.774 Y159.419 E0.16973
G1 X188.774 Y170.581 E0.47724
G1 X192.744 Y170.58 E0.16973
G1 X192.744 Y176.653 E0.25965
G1 X190.869 Y175.279 E0.09938
G2 X189.014 Y174.582 I-2.041 J2.616 E0.08596
G2 X180.800 Y171.397 I-4.613 J-0.288 E0.49911
; acceleration to travel
M204 S4000
G1 X187.035 Y149.405 F9000
; decel to extrusion
M204 S1000
G1 X188.594 Y143.907
; end travel
G1 F1800
G2 X188.100 Y139.801 I-3.932 J-1.610 E0.18450
G3 X192.737 Y139.434 I5.683 J42.326 E0.19895
G1 X192.741 Y141.389 E0.0836
G2 X188.798 Y144.052 I20.513 J34.623 E0.20357
G1 X188.594 Y143.907 E0.01071
; acceleration to travel
M204 S4000
G1 X182.572 Y166.181 F9000
; decel to extrusion
M204 S1000
G1 X181.066 Y171.75
; end travel
G1 F1800
G2 X186.801 Y177.738 I3.330 J2.551 E0.50839
G1 X186.801 Y184.552 E0.29131
G2 X180.818 Y187.959 I-2.156 J3.170 E0.36523
G2 X171.819 Y185.623 I-9.004 J16.186 E0.40180
G1 X142.877 Y185.611 E1.23741
G3 X141.137 Y184.720 I0.306 J-2.743 E0.08534
G2 X144.361 Y183.620 I0.183 J-4.738 E0.14926
G2 X141.575 Y176.303 I-2.809 J-3.120 E0.43105
G1 X140.427 Y176.322 E0.04909
G2 X137.390 Y178.112 I0.436 J4.212 E0.15537
G3 X136.828 Y173.946 I15.179 J-4.169 E0.18029
G1 X136.828 Y158.835 E0.64605
G1 X137.094 Y158.774 E0.01167
G2 X143.145 Y153.394 I3.761 J-1.863 E0.65938
G2 X141.975 Y145.322 I-1.599 J-3.889 E0.47581
G1 X141.127 Y145.301 E0.03627
G3 X143.143 Y144.377 I2.012 J1.729 E0.09762
G1 X171.819 Y144.377 E1.22603
G2 X180.832 Y142.033 I-0.035 J-18.636 E0.40247
G2 X187.258 Y139.489 I3.818 J0.256 E0.65900
G3 X193.164 Y138.988 I6.919 J46.501 E0.25362
G1 X193.171 Y141.628 E0.11288
G2 X187.700 Y145.479 I20.661 J35.164 E0.28635
G2 X186.800 Y147.400 I1.846 J2.036 E0.09286
G1 X186.8 Y156.4 E0.38483
G2 X189.216 Y158.220 I1.846 J0.063 E0.15138
G2 X190.753 Y157.243 I-1.100 J-3.427 E0.07867
G3 X193.172 Y154.577 I26.150 J21.297 E0.15398
G1 X193.172 Y159.848 E0.22538
G1 X189.202 Y159.847 E0.16973
G1 X189.202 Y170.152 E0.44059
G1 X193.172 Y170.151 E0.16973
G1 X193.173 Y177.448 E0.31197
G3 X190.625 Y175.632 I24.626 J-37.248 E0.13380
G2 X188.533 Y175.019 I-1.822 J2.342 E0.09550
G2 X181.066 Y171.750 I-4.133 J-0.723 E0.47746
G1 X181.417 Y171.996 F9000
G1 F1800
G2 X186.648 Y177.325 I2.983 J2.304 E0.46199
G1 X187.229 Y176.84 E0.03238
G1 X187.229 Y185.518 E0.37103
G2 X181.283 Y188.189 I-2.589 J2.189 E0.37424
G1 X181.402 Y188.799 E0.02658
G2 X171.814 Y186.052 I-9.594 J15.380 E0.43199
G1 X143.125 Y186.052 E1.22663
G3 X141.004 Y185.169 I-0.014 J-2.954 E0.10082
G3 X140.159 Y184.243 I10.780 J-10.685 E0.05360
G2 X141.945 Y184.249 I0.935 J-12.562 E0.07640
G2 X141.567 Y176.731 I-0.394 J-3.749 E0.48841
G1 X140.464 Y176.75 E0.04717
G2 X137.288 Y179.210 I0.412 J3.813 E0.18060
G3 X136.399 Y173.950 I15.145 J-5.265 E0.22915
G1 X136.399 Y156.05 E0.76533
G3 X137.288 Y150.790 I16.034 J0.005 E0.22915
G2 X140.033 Y153.218 I3.798 J-1.529 E0.16244
G2 X142.934 Y153.771 I0.801 J3.682 E0.88280
G2 X141.967 Y153.286 I-2.724 J4.225 E0.04631
G2 X145.136 Y150.665 I-0.599 J-3.950 E0.18494
G2 X141.200 Y145.731 I-3.604 J-1.162 E0.31859
G1 X140.156 Y145.761 E0.04467
G3 X141.623 Y144.350 I4.822 J3.545 E0.08743
G3 X143.125 Y143.949 I1.485 J2.550 E0.06721
G1 X171.814 Y143.949 E1.22663
G2 X181.429 Y141.185 I-0.037 J-18.236 E0.43330
G2 X186.145 Y139.218 I3.220 J1.082 E0.66652
G3 X193.592 Y138.550 I8.248 J50.101 E0.31998
G1 X193.6 Y141.872 E0.14204
G2 X187.999 Y145.788 I20.227 J34.893 E0.29254
G2 X187.229 Y147.419 I1.551 J1.730 E0.07896
G1 X187.229 Y156.374 E0.38287
G2 X188.504 Y157.872 I1.409 J0.092 E0.09280
G2 X190.135 Y157.227 I-0.007 J-2.402 E0.07680
G1 X190.445 Y156.944 E0.01795
G3 X193.628 Y153.560 I23.750 J19.150 E0.19877
G1 X193.601 Y154.375 E0.03487
G1 X193.601 Y160.277 E0.25232
G1 X189.631 Y160.276 E0.16973
G1 X189.631 Y169.724 E0.40394
G1 X193.601 Y169.723 E0.16973
G1 X193.601 Y178.221 E0.36334
G3 X190.381 Y175.984 I20.207 J-32.522 E0.16771
G2 X187.957 Y175.597 I-1.549 J1.920 E0.10983
G2 X181.417 Y171.996 I-3.554 J-1.285 E0.45650
G1 X181.768 Y172.241 F9000
;TYPE:External perimeter
G1 F1800
G2 X182.002 Y171.974 I2.626 J2.065 E0.88180
G1 X181.768 Y172.241 E0.01519
;WIPE_START
M204 S5000
G1 X181.416 Y172.198 F9000
;WIPE_END
G1 E-0.5 F3000
; acceleration to travel
M204 S4000
G1 X183.604 Y182.268 F9000
; decel to extrusion
M204 S1000
G1 X184.151 Y184.785
; end travel
G1 E0.5 F1800
G2 X184.323 Y190.630 I0.477 J2.911 E0.36192
G2 X184.151 Y184.785 I0.342 J-2.935 E0.43386
;WIPE_START
M204 S5000
G1 X183.991 Y184.598 F9000
;WIPE_END
G1 E-0.5 F3000
; acceleration to travel
M204 S4000
G1 X184.517 Y153.125 F9000
; decel to extrusion
M204 S1000
G1 X184.649 Y145.257
; end travel
G1 E0.5 F1800
G2 X182.726 Y140.080 I0.021 J-2.953 E0.48839
G2 X184.649 Y145.257 I1.899 J2.240 E0.30733
;WIPE_START
M204 S5000
G1 X184.821 Y145.543 F9000
;WIPE_END
; acceleration to travel
M204 S4000
G1 X152.241 Y154.004
; decel to extrusion
M204 S1000
G1 X144.096 Y156.119
; end travel
G1 F1800
G2 X144.162 Y156.468 I-3.243 J0.794 E0.88182
G3 X144.096 Y156.119 I46.395 J-8.955 E0.01520
;WIPE_START
M204 S5000
G1 X144.348 Y155.868 F9000
;WIPE_END
G1 E-0.5 F3000
; acceleration to travel
M204 S4000
G1 X139.079 Y176.402 F9000
; decel to extrusion
M204 S1000
G1 X137.761 Y181.536
; end travel
G1 E0.5 F1800
;TYPE:Thin wall
;WIDTH:0.178017
G1 X137.736 Y181.467 E0.00096
;WIDTH:0.01978
G1 X137.761 Y181.536 E0.00011
;WIDTH:0.043056
G1 X137.787 Y181.597 E0.00025
;WIDTH:0.049512
G2 X138.189 Y182.371 I4.732 J-1.966 E0.00385
;WIDTH:0.040627
G2 X138.344 Y182.600 I1.206 J-0.650 E0.00098
;WIDTH:0.019082
G1 X138.413 Y182.688 E0.00016
G1 X138.435 Y182.715 F9000
;TYPE:External perimeter
;WIDTH:0.48
G1 F1800
G1 X138.465 Y182.69 E0.00164
G2 X140.505 Y183.821 I2.707 J-2.478 E0.10162
G1 X141.557 Y183.84 E0.04498
M73 P1 R60
G2 X141.560 Y177.160 I-0.006 J-3.340 E0.44780
G2 X139.492 Y177.449 I-0.456 J4.278 E0.09011
G2 X137.606 Y179.840 I1.300 J2.965 E0.13565
G2 X137.681 Y181.174 I5.024 J0.387 E0.05722
G1 X137.747 Y181.42 E0.01092
G1 X137.674 Y181.447 E0.00335
G1 X137.464 Y181.002 E0.02104
G3 X137.057 Y179.882 I3.706 J-1.981 E0.05111
G3 X135.971 Y173.955 I15.875 J-5.972 E0.25899
G1 X135.971 Y156.045 E0.76573
G3 X137.057 Y150.118 I16.961 J0.045 E0.25896
G3 X137.677 Y148.544 I5.313 J1.184 E0.07257
G1 X137.725 Y148.562 E0.00219
G1 X137.739 Y148.524 F9000
;TYPE:Thin wall
;WIDTH:0.179604
G1 F1800
G1 X137.766 Y148.455 E0.00099
;WIDTH:0.388526
G1 X137.791 Y148.394 E0.00224
;WIDTH:0.453842
G3 X138.395 Y147.349 I4.127 J1.688 E0.04923
G1 X138.467 Y147.364 E0.003
;WIDTH:0.291583
G1 X138.579 Y147.388 E0.0028
;WIDTH:0.080315
G1 X138.604 Y147.393 E0.00009
;WIDTH:0.008924
G1 X138.579 Y147.388 E0.00001
;WIDTH:0.032398
G1 X138.467 Y147.364 E0.00031
;WIDTH:0.050427
G1 X138.395 Y147.349 E0.00033
G2 X137.791 Y148.394 I3.523 J2.733 E0.00546
;WIDTH:0.04317
G1 X137.766 Y148.455 E0.00025
;WIDTH:0.019956
G1 X137.739 Y148.524 E0.00011
G1 X137.725 Y148.562 F9000
;TYPE:External perimeter
;WIDTH:0.48
G1 F1800
G1 X137.75 Y148.571 E0.00114
G2 X137.628 Y149.165 I2.685 J0.861 E0.02597
G1 X137.606 Y150.161 E0.04257
G2 X140.508 Y152.823 I3.214 J-0.591 E0.18076
G2 X142.583 Y152.677 I0.622 J-5.984 E0.08946
G2 X141.201 Y146.160 I-1.057 J-3.181 E0.41857
G2 X138.774 Y147.018 I-0.201 J3.293 E0.11316
G2 X138.465 Y147.310 I3.135 J3.627 E0.01819
G1 X138.405 Y147.26 E0.00334
G1 X139.014 Y146.369 E0.04615
G2 X140.217 Y145.039 I-14.629 J-14.442 E0.07670
G3 X142.811 Y143.533 I3.092 J2.338 E0.13189
G1 X143.116 Y143.52 E0.01301
G1 X171.81 Y143.52 E1.22683
G2 X181.707 Y140.458 I0.065 J-17.317 E0.44987
G3 X182.936 Y139.394 I4.315 J3.742 E0.06970
G3 X184.343 Y138.938 I1.714 J2.891 E0.06374
G1 X185.267 Y138.912 E0.03954
G3 X193.702 Y138.119 I9.289 J53.551 E0.36257
