; generated by SuperSlicer 2.4 on 2022-08-22 at 19:02:20 UTC


;
;

;
;
; 

; external perimeters extrusion width = 0.48mm
; perimeters extrusion width = 0.48mm
; infill extrusion width = 0.72mm
; solid infill extrusion width = 0.56mm
; top infill extrusion width = 0.40mm
; first layer extrusion width = 0.48mm

; object:{"name":"bottom","id":"bottom.stl id:0 copy 0","object_center":[165.000000,165.000000,0.000000],"boundingbox_center":[165.000000,165.000000,6.008934],"boundingbox_size":[263.030029,101.904007,12.018000]}
; plater:{"center":[165.000000,165.000000,0.000000],"boundingbox_center":[165.000000,165.000000,6.008934],"boundingbox_size":[263.030029,101.904007,12.018000]}

M73 P0 R106
;TYPE:Custom
START_PRINT T_BED=110 T_EXTRUDER=245
M107
G21 ; set units to millimeters
G90 ; use absolute coordinates
M83 ; use relative distances for extrusion
; Filament gcode
M104 S245 ; set temperature
M109 S245 ; set temperature and wait for it to be reached
M190 S110 ; set bed temperature and wait for it to be reached
M107
;LAYER_CHANGE
;Z:0.2
;HEIGHT:0.2
G1 Z0.2 F9000
G92 E0
G1 E-0.5 F3000
M204 S1000
G1 X33.587 Y110.488 F9000
G1 E0.5 F1800
;TYPE:Skirt
;WIDTH:0.52
G1 X31.366 Y111.225 E0.09282
G1 X30.266 Y112.538 E0.06793
G1 X29.871 Y114.204 E0.06793
G1 X29.873 Y215.852 E4.03231
G1 X30.61 Y218.073 E0.09282
G1 X31.923 Y219.173 E0.06793
G1 X33.589 Y219.568 E0.06793
G1 X296.415 Y219.568 E10.42611
M73 P0 R106
G1 X298.636 Y218.831 E0.09283
G1 X299.736 Y217.518 E0.06793
G1 X300.13 Y215.852 E0.06793
G1 X300.123 Y114.192 E4.0328
G1 X299.386 Y111.971 E0.09282
G1 X298.073 Y110.871 E0.06793
G1 X296.407 Y110.476 E0.06793
G1 X33.587 Y110.488 E10.42589
G1 X33.587 Y110.965 F9000
G1 F1800
G1 X31.828 Y111.485 E0.07275
G1 X30.742 Y112.656 E0.06336
G1 X30.348 Y114.204 E0.06336
G1 X30.35 Y215.852 E4.03231
G1 X30.87 Y217.611 E0.07275
G1 X32.041 Y218.697 E0.06336
G1 X33.589 Y219.091 E0.06336
G1 X296.415 Y219.091 E10.42611
G1 X298.174 Y218.571 E0.07276
G1 X299.259 Y217.4 E0.06336
G1 X299.653 Y215.852 E0.06336
G1 X299.646 Y114.192 E4.03279
G1 X299.126 Y112.433 E0.07275
G1 X297.955 Y111.347 E0.06336
G1 X296.407 Y110.953 E0.06336
G1 X33.587 Y110.965 E10.42589
M73 P1 R105
G1 E-0.5 F3000
; printing object bottom.stl id:0 copy 0
; acceleration to travel
M204 S3000
G1 X147.592 Y145.579 F9000
; decel to extrusion
M204 S1000
G1 X185.594 Y157.116
; end travel
G1 E0.5 F1800
;TYPE:Internal perimeter
;WIDTH:0.48
G1 X184.897 Y161.85 E0.17388
G1 X184.663 Y166.669 E0.17536
G1 X184.907 Y171.49 E0.17544
G1 X185.619 Y176.264 E0.17541
G1 X186.796 Y180.944 E0.17538
G1 X188.426 Y185.486 E0.1754
G1 X190.493 Y189.846 E0.17535
G1 X192.977 Y193.986 E0.17547
G1 X195.858 Y197.86 E0.17547
G1 X199.102 Y201.433 E0.17537
G1 X202.68 Y204.67 E0.17539
G1 X206.56 Y207.544 E0.17547
G1 X210.703 Y210.019 E0.17537
G1 X215.065 Y212.08 E0.17534
G1 X219.613 Y213.7 E0.17548
G1 X222.536 Y214.431 E0.10952
G1 X222.499 Y214.738 E0.01124
G1 X123.357 Y214.738 E3.60314
G1 X123.319 Y214.431 E0.01123
G1 X126.335 Y213.671 E0.11303
G1 X130.877 Y212.045 E0.17534
G1 X135.241 Y209.976 E0.17553
G1 X139.377 Y207.49 E0.17537
G1 X143.253 Y204.611 E0.17547
G1 X146.812 Y201.35 E0.17544
G1 X150.046 Y197.777 E0.17514
G1 X152.916 Y193.899 E0.17533
G1 X155.409 Y189.77 E0.17527
G1 X157.471 Y185.402 E0.17556
G1 X159.091 Y180.858 E0.17533
G1 X160.262 Y176.174 E0.17546
G1 X160.965 Y171.4 E0.17539
G1 X161.197 Y166.577 E0.17548
G1 X160.957 Y161.758 E0.17536
G1 X160.243 Y156.984 E0.17544
G1 X159.066 Y152.306 E0.1753
G1 X157.436 Y147.76 E0.17553
G1 X155.368 Y143.4 E0.17537
G1 X152.881 Y139.264 E0.1754
G1 X150.004 Y135.388 E0.17542
G1 X146.76 Y131.816 E0.17539
G1 X143.181 Y128.577 E0.1754
G1 X139.301 Y125.706 E0.17542
G1 X135.159 Y123.229 E0.17542
G1 X130.793 Y121.17 E0.17541
G1 X126.249 Y119.546 E0.1754
G1 X121.565 Y118.379 E0.17544
G1 X116.791 Y117.676 E0.17538
G1 X111.925 Y117.444 E0.17704
G1 X107.15 Y117.684 E0.17374
G1 X102.377 Y118.398 E0.17543
G1 X97.697 Y119.575 E0.17537
G1 X93.155 Y121.205 E0.17539
G1 X88.791 Y123.272 E0.17548
G1 X84.654 Y125.756 E0.17536
G1 X80.781 Y128.637 E0.17545
G1 X77.206 Y131.879 E0.17539
G1 X73.968 Y135.462 E0.17553
G1 X71.122 Y139.352 E0.17516
G1 X68.622 Y143.479 E0.17536
G1 X66.561 Y147.844 E0.17544
G1 X64.941 Y152.392 E0.17547
G1 X63.77 Y157.074 E0.17538
G1 X63.067 Y161.85 E0.17546
G1 X62.835 Y166.669 E0.17534
G1 X63.075 Y171.49 E0.17544
G1 X63.789 Y176.264 E0.17544
G1 X64.966 Y180.944 E0.17537
G1 X66.596 Y185.486 E0.1754
G1 X68.663 Y189.846 E0.17535
G1 X71.147 Y193.986 E0.17547
G1 X74.028 Y197.86 E0.17547
G1 X77.272 Y201.433 E0.17537
G1 X80.85 Y204.67 E0.17539
G1 X84.73 Y207.544 E0.17547
G1 X88.873 Y210.019 E0.17538
G1 X93.238 Y212.08 E0.17543
G1 X97.783 Y213.7 E0.17536
G1 X100.708 Y214.431 E0.10957
G1 X100.67 Y214.738 E0.01124
G1 X34.703 Y214.738 E2.39746
G1 X34.701 Y115.318 E3.61324
M73 P1 R105
G1 X294.933 Y115.306 E9.45768
G1 X294.933 Y214.738 E3.61368
G1 X245.189 Y214.738 E1.80785
G1 X245.151 Y214.431 E0.01123
G1 X248.167 Y213.672 E0.11302
G1 X252.707 Y212.045 E0.17528
G1 X257.071 Y209.976 E0.17553
G1 X261.207 Y207.49 E0.17538
G1 X265.083 Y204.611 E0.17547
G1 X268.636 Y201.355 E0.17514
G1 X271.876 Y197.777 E0.17545
G1 X274.744 Y193.899 E0.17528
G1 X277.238 Y189.771 E0.1753
G1 X279.3 Y185.402 E0.17556
G1 X280.923 Y180.858 E0.17537
G1 X282.091 Y176.174 E0.17545
G1 X282.795 Y171.4 E0.17538
G1 X283.027 Y166.577 E0.17549
G1 X282.787 Y161.758 E0.17535
G1 X282.075 Y156.984 E0.17544
G1 X280.896 Y152.306 E0.17532
G1 X279.266 Y147.76 E0.17552
G1 X277.199 Y143.4 E0.17537
G1 X274.713 Y139.264 E0.17537
G1 X271.834 Y135.388 E0.17547
G1 X268.59 Y131.816 E0.17538
G1 X265.011 Y128.577 E0.17539
G1 X261.131 Y125.706 E0.17542
G1 X256.989 Y123.229 E0.17541
G1 X252.625 Y121.17 E0.17535
G1 X248.079 Y119.546 E0.17546
G1 X243.395 Y118.379 E0.17544
G1 X238.621 Y117.676 E0.17536
G1 X233.802 Y117.442 E0.17536
G1 X228.978 Y117.684 E0.17552
G1 X224.208 Y118.398 E0.17529
G1 X219.527 Y119.575 E0.17543
G1 X214.983 Y121.205 E0.17546
G1 X210.623 Y123.272 E0.17535
G1 X206.484 Y125.756 E0.17542
G1 X202.611 Y128.637 E0.17545
G1 X199.036 Y131.879 E0.17539
G1 X195.798 Y135.462 E0.17552
G1 X192.951 Y139.351 E0.17516
G1 X190.452 Y143.479 E0.17537
G1 X188.391 Y147.844 E0.17544
G1 X186.771 Y152.392 E0.17547
G1 X185.6 Y157.074 E0.17538
G1 X185.594 Y157.116 E0.00157
G1 X186.026 Y157.18 F9000
G1 F1800
G1 X185.332 Y161.892 E0.1731
G1 X185.101 Y166.669 E0.1738
G1 X185.342 Y171.447 E0.17388
G1 X186.048 Y176.178 E0.17385
G1 X187.214 Y180.817 E0.17382
G1 X188.83 Y185.319 E0.17384
G1 X190.879 Y189.639 E0.17379
G1 X193.34 Y193.743 E0.17391
G1 X196.196 Y197.582 E0.1739
G1 X199.411 Y201.123 E0.17381
G1 X202.958 Y204.332 E0.17383
G1 X206.803 Y207.179 E0.1739
G1 X210.909 Y209.633 E0.17381
G1 X215.232 Y211.675 E0.17378
G1 X219.74 Y213.281 E0.17391
G1 X224.38 Y214.441 E0.17383
G1 X227.16 Y214.851 E0.10212
G1 X227.136 Y215.175 E0.01181
G1 X118.71 Y215.175 E3.94056
G1 X118.686 Y214.851 E0.0118
G1 X121.57 Y214.421 E0.10596
G1 X126.207 Y213.253 E0.17382
G1 X130.709 Y211.641 E0.17379
G1 X135.034 Y209.59 E0.17396
G1 X139.134 Y207.127 E0.17381
G1 X142.975 Y204.274 E0.17388
G1 X146.501 Y201.041 E0.17388
G1 X149.707 Y197.5 E0.17362
G1 X152.552 Y193.655 E0.1738
G1 X155.023 Y189.564 E0.17371
G1 X157.066 Y185.235 E0.17396
G1 X158.672 Y180.731 E0.17377
G1 X159.832 Y176.089 E0.1739
G1 X160.529 Y171.358 E0.17382
G1 X160.759 Y166.577 E0.17393
G1 X160.521 Y161.801 E0.1738
G1 X159.814 Y157.069 E0.17388
G1 X158.647 Y152.433 E0.17374
G1 X157.032 Y147.928 E0.17397
G1 X154.983 Y143.606 E0.17381
G1 X152.518 Y139.507 E0.17385
G1 X149.666 Y135.666 E0.17386
G1 X146.451 Y132.125 E0.17382
G1 X142.904 Y128.916 E0.17383
G1 X139.059 Y126.071 E0.17386
G1 X134.953 Y123.615 E0.17386
G1 X130.626 Y121.575 E0.17386
G1 X126.122 Y119.965 E0.17383
G1 X121.48 Y118.808 E0.17387
G1 X116.748 Y118.111 E0.17381
G1 X111.925 Y117.882 E0.17548
G1 X107.194 Y118.119 E0.17218
M73 P2 R104
G1 X102.462 Y118.827 E0.17387
G1 X97.824 Y119.993 E0.17381
G1 X93.322 Y121.609 E0.17383
G1 X88.998 Y123.658 E0.17392
G1 X84.898 Y126.119 E0.17379
G1 X81.059 Y128.975 E0.17389
G1 X77.516 Y132.188 E0.17382
G1 X74.307 Y135.738 E0.17392
G1 X71.486 Y139.594 E0.17365
G1 X69.007 Y143.686 E0.17384
G1 X66.966 Y148.011 E0.17383
G1 X65.36 Y152.519 E0.17391
G1 X64.2 Y157.159 E0.17383
G1 X63.502 Y161.892 E0.17389
G1 X63.273 Y166.669 E0.17379
G1 X63.51 Y171.447 E0.17387
G1 X64.218 Y176.179 E0.17387
G1 X65.384 Y180.817 E0.17381
G1 X67 Y185.319 E0.17384
G1 X69.049 Y189.639 E0.17379
G1 X71.51 Y193.743 E0.1739
G1 X74.366 Y197.582 E0.1739
G1 X77.581 Y201.123 E0.17381
G1 X81.128 Y204.332 E0.17383
G1 X84.973 Y207.179 E0.1739
G1 X89.079 Y209.633 E0.17382
G1 X93.405 Y211.675 E0.17387
G1 X97.91 Y213.281 E0.17381
G1 X102.551 Y214.441 E0.17386
G1 X105.332 Y214.851 E0.10216
G1 X105.308 Y215.175 E0.01181
G1 X34.266 Y215.175 E2.58189
G1 X34.264 Y114.881 E3.64501
G1 X295.73 Y114.869 E9.50254
G1 X295.73 Y115.277 E0.01482
G1 X295.37 Y115.277 E0.01308
G1 X295.37 Y215.175 E3.63063
G1 X240.54 Y215.175 E1.9927
G1 X240.516 Y214.851 E0.0118
G1 X243.399 Y214.421 E0.10595
G1 X248.039 Y213.253 E0.17389
G1 X252.539 Y211.641 E0.17373
G1 X256.864 Y209.59 E0.17396
G1 X260.964 Y207.127 E0.17382
G1 X264.805 Y204.274 E0.17387
G1 X268.326 Y201.047 E0.17358
G1 X271.538 Y197.499 E0.17392
G1 X274.38 Y193.655 E0.17375
G1 X276.853 Y189.564 E0.17374
G1 X278.896 Y185.235 E0.17397
G1 X280.504 Y180.731 E0.1738
G1 X281.662 Y176.089 E0.17389
G1 X282.359 Y171.358 E0.17382
G1 X282.589 Y166.577 E0.17393
G1 X282.351 Y161.801 E0.17379
G1 X281.646 Y157.069 E0.17387
G1 X280.477 Y152.433 E0.17376
M73 P2 R104
G1 X278.862 Y147.928 E0.17396
G1 X276.813 Y143.607 E0.1738
G1 X274.35 Y139.507 E0.17381
G1 X271.496 Y135.666 E0.17391
G1 X268.281 Y132.125 E0.17382
G1 X264.734 Y128.916 E0.17383
G1 X260.889 Y126.071 E0.17386
G1 X256.783 Y123.615 E0.17385
G1 X252.458 Y121.575 E0.1738
G1 X247.952 Y119.965 E0.1739
G1 X243.31 Y118.808 E0.17387
G1 X238.579 Y118.111 E0.17381
G1 X233.802 Y117.88 E0.1738
G1 X233.294 Y117.905 E0.01851
G1 X229.022 Y118.119 E0.15544
G1 X224.294 Y118.827 E0.17373
G1 X219.654 Y119.993 E0.17388
G1 X215.15 Y121.609 E0.1739
G1 X210.83 Y123.658 E0.17379
G1 X206.728 Y126.119 E0.17386
G1 X202.889 Y128.975 E0.17389
G1 X199.346 Y132.188 E0.17383
G1 X196.137 Y135.738 E0.17392
G1 X193.315 Y139.594 E0.17365
G1 X190.837 Y143.686 E0.17385
G1 X188.796 Y148.011 E0.17383
G1 X187.19 Y152.519 E0.17391
G1 X186.03 Y157.159 E0.17383
G1 X186.026 Y157.18 E0.00079
G1 E-0.5 F3000
; acceleration to travel
M204 S3000
G1 X166.485 Y160.101 F9000
; decel to extrusion
M204 S1000
G1 X159.971 Y161.075
; end travel
G1 E0.5 F1800
;TYPE:External perimeter
G1 X159.385 Y157.155 E0.14404
G1 X158.229 Y152.561 E0.17218
G1 X156.627 Y148.095 E0.17241
G1 X154.597 Y143.813 E0.17224
G1 X152.154 Y139.751 E0.17229
G1 X149.328 Y135.944 E0.1723
G1 X146.142 Y132.435 E0.17226
G1 X142.627 Y129.255 E0.17227
G1 X138.816 Y126.435 E0.17229
G1 X134.747 Y124.001 E0.1723
G1 X130.459 Y121.979 E0.1723
G1 X125.996 Y120.384 E0.17227
G1 X121.395 Y119.238 E0.17231
G1 X116.706 Y118.547 E0.17225
G1 X111.926 Y118.32 E0.17392
G1 X107.237 Y118.555 E0.17062
G1 X102.548 Y119.256 E0.17231
G1 X97.952 Y120.412 E0.17225
G1 X93.49 Y122.013 E0.17227
G1 X89.204 Y124.044 E0.17236
G1 X85.141 Y126.483 E0.17223
G1 X81.337 Y129.313 E0.17233
G1 X77.826 Y132.497 E0.17226
G1 X74.647 Y136.015 E0.17231
G1 X71.85 Y139.837 E0.17214
G1 X69.393 Y143.893 E0.17233
G1 X67.37 Y148.178 E0.17222
G1 X65.779 Y152.645 E0.17235
G1 X64.629 Y157.244 E0.17227
G1 X63.938 Y161.935 E0.17233
G1 X63.71 Y166.668 E0.17223
G1 X63.946 Y171.404 E0.17231
G1 X64.647 Y176.093 E0.17231
G1 X65.803 Y180.689 E0.17225
G1 X67.404 Y185.151 E0.17228
G1 X69.435 Y189.433 E0.17224
G1 X71.874 Y193.499 E0.17234
G1 X74.704 Y197.304 E0.17234
G1 X77.89 Y200.813 E0.17226
G1 X81.405 Y203.993 E0.17227
G1 X85.216 Y206.815 E0.17234
G1 X89.285 Y209.247 E0.17226
G1 X93.572 Y211.271 E0.17231
G1 X98.036 Y212.862 E0.17225
G1 X102.636 Y214.012 E0.1723
G1 X107.326 Y214.703 E0.1723
G1 X112.059 Y214.931 E0.17223
G1 X116.795 Y214.691 E0.17232
G1 X121.484 Y213.992 E0.1723
G1 X126.08 Y212.834 E0.17227
G1 X130.542 Y211.237 E0.17223
G1 X134.828 Y209.204 E0.1724
G1 X138.89 Y206.763 E0.17225
G1 X142.696 Y203.937 E0.17228
G1 X146.191 Y200.733 E0.17232
G1 X149.369 Y197.222 E0.17209
G1 X152.189 Y193.412 E0.17227
G1 X154.637 Y189.357 E0.17216
G1 X156.662 Y185.068 E0.17237
G1 X158.253 Y180.605 E0.17222
G1 X159.403 Y176.004 E0.17234
G1 X160.094 Y171.315 E0.17226
G1 X160.321 Y166.578 E0.17237
G1 X160.086 Y161.844 E0.17224
G1 X159.971 Y161.075 E0.02827
;WIPE_START
M204 S4000
G1 X160.284 Y160.826 F9000
;WIPE_END
G1 E-0.5 F3000
; acceleration to travel
M204 S3000
G1 X179.392 Y161.753 F9000
; decel to extrusion
M204 S1000
G1 X185.762 Y162.062
; end travel
G1 E0.5 F1800
G1 X185.538 Y166.668 E0.16763
G1 X185.778 Y171.404 E0.17232
G1 X186.477 Y176.093 E0.17229
G1 X187.633 Y180.689 E0.17225
G1 X189.234 Y185.151 E0.17228
G1 X191.265 Y189.433 E0.17223
G1 X193.704 Y193.499 E0.17234
G1 X196.534 Y197.304 E0.17234
G1 X199.72 Y200.813 E0.17226
G1 X203.235 Y203.993 E0.17227
G1 X207.046 Y206.815 E0.17234
G1 X211.115 Y209.247 E0.17226
G1 X215.399 Y211.271 E0.17221
G1 X219.866 Y212.862 E0.17235
G1 X224.465 Y214.012 E0.17227
G1 X229.156 Y214.703 E0.17233
G1 X233.891 Y214.931 E0.1723
G1 X238.625 Y214.691 E0.17224
G1 X243.314 Y213.992 E0.1723
G1 X247.912 Y212.835 E0.17233
G1 X252.372 Y211.236 E0.17217
G1 X256.658 Y209.204 E0.1724
G1 X260.72 Y206.763 E0.17226
G1 X264.526 Y203.937 E0.17228
G1 X268.015 Y200.738 E0.17202
G1 X271.199 Y197.222 E0.1724
G1 X274.017 Y193.412 E0.17222
G1 X276.467 Y189.357 E0.17219
G1 X278.492 Y185.068 E0.17237
G1 X280.085 Y180.605 E0.17224
G1 X281.233 Y176.004 E0.17232
G1 X281.924 Y171.315 E0.17226
G1 X282.151 Y166.578 E0.17237
G1 X281.916 Y161.844 E0.17224
G1 X281.217 Y157.155 E0.1723
G1 X280.059 Y152.561 E0.1722
G1 X278.457 Y148.095 E0.1724
G1 X276.427 Y143.813 E0.17224
G1 X273.986 Y139.751 E0.17226
G1 X271.158 Y135.944 E0.17235
G1 X267.972 Y132.435 E0.17226
G1 X264.457 Y129.255 E0.17227
G1 X260.646 Y126.435 E0.1723
G1 X256.577 Y124.001 E0.17229
G1 X252.291 Y121.979 E0.17224
G1 X247.826 Y120.384 E0.17234
G1 X243.225 Y119.238 E0.17231
G1 X238.536 Y118.547 E0.17225
G1 X233.803 Y118.317 E0.17223
G1 X233.315 Y118.342 E0.01773
G1 X229.065 Y118.555 E0.15466
G1 X224.38 Y119.256 E0.17217
G1 X219.782 Y120.412 E0.17232
G1 X215.318 Y122.013 E0.17234
G1 X211.036 Y124.044 E0.17223
G1 X206.971 Y126.483 E0.17229
G1 X203.167 Y129.313 E0.17233
G1 X199.656 Y132.497 E0.17227
G1 X196.477 Y136.015 E0.17231
G1 X193.679 Y139.836 E0.17214
G1 X191.223 Y143.893 E0.17234
G1 X189.2 Y148.178 E0.17222
G1 X187.609 Y152.645 E0.17235
G1 X186.459 Y157.244 E0.17227
G1 X185.768 Y161.935 E0.17232
G1 X185.762 Y162.062 E0.00461
;WIPE_START
M204 S4000
G1 X185.406 Y162.244 F9000
;WIPE_END
G1 E-0.5 F3000
; acceleration to travel
M204 S3000
G1 X268.207 Y127.347 F9000
; decel to extrusion
M204 S1000
G1 X295.807 Y115.714
; end travel
G1 E0.5 F1800
G1 X295.807 Y214.528 E3.59123
G1 X296.175 Y214.528 E0.01336
G1 X296.175 Y215.612 E0.0394
G1 X33.829 Y215.612 E9.53451
M73 P3 R103
G1 X33.827 Y114.444 E3.67678
G1 X296.167 Y114.432 E9.53431
G1 X296.167 Y115.714 E0.04659
G1 X295.807 Y115.714 E0.01308
;WIPE_START
M204 S4000
G1 X295.407 Y115.714 F9000
;WIPE_END
; acceleration to travel
M204 S3000
G1 X294.376 Y115.466
; decel to extrusion
M204 S1000
G1 X293.984 Y115.372
; end travel
;TYPE:Solid infill
;WIDTH:0.475689
G1 F3600
G1 X294.679 Y116.067 E0.03543
G1 X294.679 Y116.685 E0.02226
G1 X293.554 Y115.56 E0.05734
G1 X292.936 Y115.56 E0.02226
G1 X294.679 Y117.304 E0.08882
G1 X294.679 Y117.922 E0.02226
G1 X292.317 Y115.56 E0.12031
G1 X291.699 Y115.56 E0.02226
G1 X294.679 Y118.54 E0.15179
G1 X294.679 Y119.158 E0.02226
G1 X291.081 Y115.56 E0.18327
G1 X290.463 Y115.56 E0.02226
G1 X294.679 Y119.776 E0.21475
G1 X294.679 Y120.394 E0.02226
G1 X289.845 Y115.56 E0.24624
G1 X289.227 Y115.56 E0.02226
G1 X294.679 Y121.012 E0.27772
G1 X294.679 Y121.63 E0.02226
G1 X288.609 Y115.56 E0.3092
G1 X287.991 Y115.56 E0.02226
G1 X294.679 Y122.249 E0.34069
