; generated by SuperSlicer 2.4 on 2022-09-02 at 17:55:42 UTC


;
;

;
;
; 

; external perimeters extrusion width = 0.40mm
; perimeters extrusion width = 0.50mm
; infill extrusion width = 0.72mm
; solid infill extrusion width = 0.56mm
; top infill extrusion width = 0.40mm
; support material extrusion width = 0.50mm

; external perimeters extrusion width = 0.40mm
; perimeters extrusion width = 0.50mm
; infill extrusion width = 0.72mm
; solid infill extrusion width = 0.56mm
; top infill extrusion width = 0.40mm
; support material extrusion width = 0.50mm

; external perimeters extrusion width = 0.40mm
; perimeters extrusion width = 0.50mm
; infill extrusion width = 0.72mm
; solid infill extrusion width = 0.56mm
; top infill extrusion width = 0.40mm
; support material extrusion width = 0.50mm

; object:{"name":"bottle_openerrrrSTL","id":"bottle_openerrrrSTL.stl id:0 copy 0","object_center":[165.062676,196.736405,0.000000],"boundingbox_center":[165.062676,196.736405,5.396124],"boundingbox_size":[73.005081,20.973751,10.792248]}
; object:{"name":"bottle_opener(1)","id":"bottle_opener(1).stl id:1 copy 0","object_center":[161.914180,152.455025,0.000000],"boundingbox_center":[161.914180,152.455025,4.000000],"boundingbox_size":[17.000000,59.356644,8.000000]}
; object:{"name":"MiniBottleOpener","id":"MiniBottleOpener.stl id:2 copy 0","object_center":[178.288629,168.443215,0.000000],"boundingbox_center":[178.288629,168.443215,3.750000],"boundingbox_size":[10.320854,22.005405,7.500000]}
; plater:{"center":[165.062676,164.999992,0.000000],"boundingbox_center":[165.062676,164.999992,5.396124],"boundingbox_size":[73.005081,84.446577,10.792248]}

M73 P0 R41
;TYPE:Custom
START_PRINT T_BED=60 T_EXTRUDER=200
M107
G21 ; set units to millimeters
G90 ; use absolute coordinates
M83 ; use relative distances for extrusion
; Filament gcode
;_TOOLCHANGE 0
M109 S200 ; set temperature and wait for it to be reached
M190 S60 ; set bed temperature and wait for it to be reached
M107
;LAYER_CHANGE
;Z:0.24
;HEIGHT:0.24
G1 Z0.24 F9000
G92 E0
G1 E-0.8 F3000
M204 S1000
G1 X151.784 Y123.114 F9000
G1 E0.8 F1800
;TYPE:Skirt
;WIDTH:0.52
G1 X151.015 Y124.095 E0.05708
G1 X150.53 Y125.006 E0.04728
G1 X126.022 Y195.651 E3.42563
M73 P0 R41
G1 X125.851 Y196.371 E0.03389
G1 X125.006 Y202.669 E0.29112
G1 X125.416 Y204.917 E0.10469
G1 X126.553 Y206.193 E0.07828
G1 X128.141 Y206.822 E0.07828
G1 X133.742 Y207.634 E0.25927
G1 X139.24 Y208.313 E0.25377
G1 X144.653 Y208.889 E0.24937
G1 X154.699 Y209.717 E0.46177
G1 X172.442 Y210.59 E0.81383
G1 X177.277 Y210.754 E0.22163
G1 X182.052 Y210.822 E0.21879
G1 X186.65 Y210.752 E0.21064
G1 X190.951 Y210.496 E0.1974
G1 X194.852 Y210.004 E0.18014
G1 X198.278 Y209.203 E0.16117
G1 X198.933 Y208.979 E0.03173
G1 X201.208 Y207.954 E0.11427
G1 X202.27 Y207.231 E0.05887
G1 X203.653 Y205.883 E0.0885
G1 X204.679 Y204.055 E0.09603
G1 X205.071 Y202.332 E0.08096
G1 X205.143 Y201.122 E0.05551
G1 X204.71 Y197.989 E0.14487
G1 X204.359 Y196.622 E0.06466
G1 X203.913 Y195.416 E0.05892
G1 X184.446 Y156.171 E2.00692
G1 X166.086 Y122.4 E1.76096
G1 X165.23 Y121.235 E0.06625
G1 X164.145 Y120.325 E0.06484
G1 X163.237 Y119.839 E0.04722
G1 X162.629 Y119.618 E0.0296
G1 X161.231 Y119.372 E0.06503
G1 X157.42 Y119.415 E0.17459
G1 X156.41 Y119.628 E0.04729
G1 X155.061 Y120.202 E0.06718
G1 X153.74 Y121.192 E0.07563
G1 X151.784 Y123.114 E0.12561
G1 X152.159 Y123.416 F9000
G1 F1800
G1 X151.399 Y124.36 E0.05549
G1 X150.951 Y125.205 E0.04385
G1 X126.462 Y195.804 E3.4233
G1 X126.313 Y196.433 E0.02962
G1 X125.468 Y202.731 E0.29112
G1 X125.733 Y204.507 E0.08225
G1 X126.734 Y205.749 E0.07311
G1 X128.208 Y206.361 E0.07311
G1 X133.732 Y207.162 E0.25571
G1 X139.289 Y207.849 E0.25652
G1 X144.695 Y208.425 E0.24903
G1 X154.724 Y209.251 E0.461
M73 P1 R41
G1 X172.464 Y210.124 E0.81369
G1 X177.293 Y210.288 E0.22134
G1 X182.059 Y210.356 E0.21837
G1 X186.642 Y210.285 E0.21
G1 X190.923 Y210.031 E0.19645
G1 X194.793 Y209.541 E0.1787
G1 X198.742 Y208.554 E0.18648
G1 X201.016 Y207.529 E0.11427
G1 X201.944 Y206.897 E0.05145
G1 X203.328 Y205.549 E0.0885
G1 X204.224 Y203.951 E0.08393
G1 X204.616 Y202.228 E0.08096
G1 X204.679 Y201.171 E0.04851
G1 X204.251 Y198.071 E0.14338
G1 X203.909 Y196.743 E0.06281
G1 X203.478 Y195.586 E0.05656
G1 X184.028 Y156.379 E2.00502
G1 X165.676 Y122.623 E1.76017
G1 X164.9 Y121.564 E0.06013
G1 X163.878 Y120.707 E0.06112
G1 X162.509 Y120.069 E0.06921
G1 X161.191 Y119.837 E0.06131
G1 X157.495 Y119.875 E0.16931
G1 X156.558 Y120.07 E0.04385
G1 X155.664 Y120.413 E0.04385
G1 X154.321 Y121.301 E0.07375
G1 X152.254 Y123.299 E0.13173
G1 X152.159 Y123.416 E0.00691
G1 E-0.8 F3000
; printing object bottle_openerrrrSTL.stl id:0 copy 0
; acceleration to travel
M204 S3000
G1 X163.783 Y173.55 F9000
; decel to extrusion
M204 S1000
G1 X167.657 Y190.261
; end travel
G1 E0.8 F1800
;TYPE:Internal perimeter
;WIDTH:0.5
G1 X166.148 Y191.682 E0.09091
G1 X165.714 Y193.367 E0.07627
G1 X165.761 Y194.773 E0.06173
G1 X166.023 Y196.094 E0.05903
G1 X166.436 Y197.392 E0.05977
G1 X166.979 Y198.662 E0.06057
G1 X167.645 Y199.874 E0.06065
G1 X168.452 Y201.003 E0.06085
G1 X169.495 Y202.03 E0.06418
G1 X170.735 Y202.686 E0.06155
G1 X172.199 Y203.034 E0.06597
G1 X173.456 Y203.255 E0.05597
G1 X174.724 Y203.414 E0.05605
G1 X175.997 Y203.521 E0.05604
G1 X177.269 Y203.585 E0.05586
G1 X178.543 Y203.615 E0.05589
G1 X181.001 Y203.603 E0.10779
G1 X185.537 Y203.499 E0.19899
G1 X190.279 Y203.48 E0.20796
G1 X195.226 Y203.34 E0.21705
G1 X195.269 Y203.661 E0.01418
G1 X193.948 Y203.978 E0.05956
G1 X190.504 Y204.42 E0.15229
G1 X186.501 Y204.661 E0.17589
G1 X182.103 Y204.731 E0.1929
G1 X177.459 Y204.665 E0.20365
G1 X172.715 Y204.504 E0.20819
G1 X159.231 Y203.862 E0.59202
G1 X155.052 Y203.635 E0.18354
G1 X150.33 Y203.286 E0.20768
G1 X145.221 Y202.824 E0.22496
G1 X139.905 Y202.258 E0.23444
G1 X134.515 Y201.591 E0.23821
G1 X131.358 Y201.133 E0.13988
G1 X131.566 Y199.582 E0.06863
G1 X141.642 Y201.069 E0.44666
G1 X144.622 Y201.449 E0.13173
G1 X147.092 Y201.519 E0.10839
G1 X149.487 Y201.188 E0.10602
G1 X151.692 Y200.521 E0.10106
G1 X153.695 Y199.592 E0.0968
G1 X155.493 Y198.477 E0.09281
G1 X157.094 Y197.242 E0.08869
G1 X158.508 Y195.949 E0.084
G1 X159.742 Y194.658 E0.07835
G1 X160.803 Y193.423 E0.07138
G1 X161.691 Y192.308 E0.06253
G1 X162.895 Y190.736 E0.08685
G1 X163.341 Y190.253 E0.02881
G1 X163.837 Y189.841 E0.02832
G1 X164.408 Y189.47 E0.02984
G1 X165.02 Y189.164 E0.03
G1 X165.634 Y188.937 E0.02871
G1 X166.207 Y188.799 E0.02587
G1 X166.692 Y188.749 E0.02135
G1 X166.889 Y188.761 E0.00866
G1 X167.035 Y188.769 E0.00642
G1 X167.161 Y188.803 E0.00573
G1 X167.217 Y188.922 E0.00577
G1 X167.657 Y190.261 E0.06183
G1 E-0.8 F3000
; acceleration to travel
M204 S3000
G1 X190.102 Y199.497 F9000
; decel to extrusion
M204 S1000
G1 X197.584 Y202.576
; end travel
G1 E0.8 F1800
G1 X198.238 Y201.964 E0.03931
G1 X198.779 Y201.251 E0.03923
G1 X199.041 Y201.373 E0.0127
G1 X198.896 Y202.013 E0.02877
G1 X198.321 Y202.573 E0.03522
G1 X197.753 Y202.829 E0.02732
G1 X197.584 Y202.576 E0.01334
G1 E-0.8 F3000
; acceleration to travel
M204 S3000
G1 X175.579 Y193.6 F9000
; decel to extrusion
M204 S1000
G1 X168.243 Y190.608
; end travel
G1 E0.8 F1800
G1 X167.935 Y190.616 E0.01353
G1 X166.55 Y191.92 E0.08343
G1 X166.165 Y193.416 E0.06776
G1 X166.208 Y194.722 E0.0573
G1 X166.458 Y195.982 E0.05632
G1 X166.857 Y197.236 E0.05772
G1 X167.383 Y198.465 E0.05867
G1 X168.025 Y199.635 E0.05851
G1 X168.794 Y200.71 E0.05798
G1 X169.763 Y201.664 E0.05961
G1 X170.894 Y202.263 E0.05616
G1 X172.289 Y202.595 E0.06288
G1 X173.522 Y202.812 E0.0549
G1 X174.77 Y202.968 E0.05516
G1 X176.027 Y203.074 E0.05531
G1 X177.286 Y203.137 E0.05527
G1 X178.547 Y203.166 E0.05534
G1 X180.995 Y203.154 E0.10734
G1 X185.531 Y203.05 E0.199
M73 P1 R41
G1 X190.272 Y203.031 E0.20791
G1 X195.598 Y202.881 E0.23367
G1 X196.457 Y202.706 E0.03848
G1 X197.29 Y202.237 E0.0419
G1 X197.904 Y201.662 E0.03689
G1 X198.361 Y201.059 E0.03318
G1 X198.718 Y200.451 E0.03092
G1 X199.042 Y199.775 E0.0329
G1 X199.301 Y199.81 E0.01147
G1 X199.372 Y200.213 E0.01794
G1 X199.497 Y201.393 E0.05204
G1 X199.304 Y202.242 E0.03816
G1 X198.577 Y202.95 E0.0445
G1 X196.782 Y203.759 E0.08634
G1 X194.029 Y204.42 E0.12415
G1 X190.546 Y204.867 E0.15402
G1 X186.518 Y205.11 E0.17699
G1 X182.103 Y205.179 E0.19363
G1 X177.449 Y205.113 E0.20414
G1 X172.697 Y204.952 E0.20851
G1 X159.208 Y204.31 E0.59223
G1 X155.024 Y204.083 E0.18379
G1 X150.293 Y203.733 E0.20804
G1 X145.177 Y203.27 E0.22528
G1 X139.854 Y202.703 E0.23476
G1 X134.455 Y202.035 E0.23858
G1 X130.855 Y201.513 E0.15955
G1 X131.182 Y199.072 E0.10802
G1 X141.703 Y200.625 E0.46639
G1 X144.656 Y201.001 E0.13057
G1 X147.068 Y201.07 E0.10579
G1 X149.391 Y200.749 E0.10285
G1 X151.532 Y200.101 E0.09814
G1 X153.482 Y199.197 E0.09422
G1 X155.237 Y198.108 E0.09062
G1 X156.806 Y196.898 E0.08686
G1 X158.194 Y195.629 E0.08251
G1 X159.41 Y194.356 E0.07717
G1 X160.457 Y193.137 E0.07049
G1 X161.337 Y192.032 E0.06198
G1 X162.551 Y190.446 E0.08758
G1 X163.031 Y189.927 E0.03101
G1 X163.571 Y189.479 E0.03077
G1 X164.185 Y189.081 E0.03209
G1 X164.841 Y188.752 E0.03218
G1 X165.503 Y188.507 E0.03096
G1 X166.131 Y188.356 E0.02834
G1 X166.681 Y188.3 E0.02424
G1 X166.914 Y188.313 E0.01024
G1 X167.106 Y188.324 E0.00841
G1 X167.368 Y188.393 E0.01189
G1 X167.499 Y188.467 E0.00661
G1 X167.635 Y188.756 E0.01399
G1 X168.243 Y190.608 E0.08551
G1 X168.882 Y191.042 F9000
G1 F1800
G1 X168.117 Y191.06 E0.03355
G1 X166.952 Y192.158 E0.07021
G1 X166.615 Y193.466 E0.05924
G1 X166.655 Y194.671 E0.05288
G1 X166.893 Y195.87 E0.05361
G1 X167.278 Y197.079 E0.05566
G1 X167.787 Y198.269 E0.05676
G1 X168.405 Y199.396 E0.05638
G1 X169.136 Y200.418 E0.05511
G1 X170.031 Y201.298 E0.05503
G1 X171.054 Y201.84 E0.05078
G1 X172.38 Y202.155 E0.05979
G1 X173.589 Y202.368 E0.05384
G1 X174.817 Y202.522 E0.05428
G1 X176.057 Y202.626 E0.05458
G1 X177.302 Y202.689 E0.05467
G1 X178.551 Y202.718 E0.0548
G1 X180.988 Y202.706 E0.10688
G1 X185.525 Y202.602 E0.19901
G1 X190.265 Y202.583 E0.20786
G1 X195.546 Y202.434 E0.23172
G1 X196.299 Y202.28 E0.03368
G1 X197.023 Y201.873 E0.03644
G1 X197.57 Y201.361 E0.03285
G1 X197.988 Y200.81 E0.03034
G1 X198.322 Y200.241 E0.02893
G1 X198.598 Y199.663 E0.02809
G1 X198.834 Y199.086 E0.02732
G1 X199.04 Y198.516 E0.02658
G1 X199.139 Y198.208 E0.01421
G1 X199.407 Y198.214 E0.01177
G1 X199.606 Y198.957 E0.03371
G1 X199.817 Y200.151 E0.05316
G1 X199.951 Y201.42 E0.05599
G1 X199.712 Y202.47 E0.04724
G1 X198.833 Y203.326 E0.05378
G1 X196.928 Y204.185 E0.09166
G1 X194.111 Y204.862 E0.12706
G1 X190.588 Y205.314 E0.15575
G1 X186.535 Y205.558 E0.1781
G1 X182.103 Y205.628 E0.19436
G1 X177.438 Y205.562 E0.20462
G1 X172.679 Y205.401 E0.20884
G1 X159.185 Y204.758 E0.59243
G1 X154.995 Y204.53 E0.18404
G1 X150.256 Y204.18 E0.20839
G1 X145.133 Y203.716 E0.2256
G1 X139.803 Y203.149 E0.23509
G1 X134.395 Y202.48 E0.23895
G1 X130.351 Y201.894 E0.17921
G1 X130.798 Y198.562 E0.14741
G1 X141.764 Y200.18 E0.48613
G1 X144.691 Y200.553 E0.12941
G1 X147.043 Y200.621 E0.10319
G1 X149.294 Y200.309 E0.09967
G1 X151.372 Y199.68 E0.09521
G1 X153.268 Y198.801 E0.09165
G1 X154.982 Y197.739 E0.08842
G1 X156.517 Y196.555 E0.08503
G1 X157.88 Y195.308 E0.08102
G1 X159.077 Y194.055 E0.07599
G1 X160.111 Y192.851 E0.0696
G1 X160.984 Y191.756 E0.06143
G1 X162.208 Y190.157 E0.0883
G1 X162.722 Y189.601 E0.03322
G1 X163.305 Y189.117 E0.03322
G1 X163.962 Y188.691 E0.03434
G1 X164.662 Y188.34 E0.03436
G1 X165.373 Y188.077 E0.0332
G1 X166.056 Y187.913 E0.03081
G1 X166.671 Y187.85 E0.02714
G1 X166.94 Y187.865 E0.01182
G1 X167.177 Y187.879 E0.01039
G1 X167.538 Y187.974 E0.01638
G1 X167.755 Y188.096 E0.01092
G1 X167.886 Y188.235 E0.00839
G1 X168.052 Y188.59 E0.01719
G1 X168.615 Y190.303 E0.07906
G1 X168.882 Y191.042 E0.03447
G1 X169.516 Y191.476 F9000
G1 F1800
G1 X168.3 Y191.504 E0.05334
G1 X167.354 Y192.395 E0.05698
G1 X167.065 Y193.515 E0.05072
G1 X167.102 Y194.619 E0.04845
G1 X167.328 Y195.758 E0.0509
G1 X167.699 Y196.922 E0.05361
G1 X168.191 Y198.072 E0.05486
G1 X168.786 Y199.157 E0.05425
G1 X169.479 Y200.125 E0.05223
G1 X170.298 Y200.933 E0.05045
G1 X171.213 Y201.417 E0.04539
G1 X172.471 Y201.716 E0.0567
G1 X173.656 Y201.924 E0.05277
G1 X174.864 Y202.076 E0.05339
G1 X176.087 Y202.178 E0.05385
G1 X177.319 Y202.24 E0.05408
G1 X178.556 Y202.269 E0.05425
G1 X180.982 Y202.257 E0.10642
G1 X185.519 Y202.153 E0.19902
G1 X190.257 Y202.134 E0.20781
G1 X195.495 Y201.987 E0.22978
G1 X196.14 Y201.855 E0.02889
G1 X196.756 Y201.508 E0.03099
G1 X197.235 Y201.06 E0.02881
G1 X197.614 Y200.56 E0.0275
G1 X197.925 Y200.03 E0.02695
G1 X198.188 Y199.481 E0.02669
G1 X198.415 Y198.925 E0.02633
G1 X198.615 Y198.371 E0.02582
G1 X199.179 Y196.616 E0.08086
G1 X199.518 Y197.212 E0.03007
G1 X199.789 Y197.905 E0.03264
G1 X200.044 Y198.86 E0.04333
G1 X200.261 Y200.088 E0.0547
G1 X200.405 Y201.447 E0.05994
G1 X200.119 Y202.699 E0.05631
G1 X199.09 Y203.703 E0.06306
G1 X197.073 Y204.611 E0.09698
G1 X194.192 Y205.303 E0.12998
G1 X190.63 Y205.76 E0.15748
G1 X186.552 Y206.006 E0.1792
G1 X182.104 Y206.076 E0.19509
G1 X177.427 Y206.01 E0.20511
G1 X172.66 Y205.849 E0.20917
G1 X159.162 Y205.206 E0.59264
G1 X154.966 Y204.978 E0.18429
G1 X150.22 Y204.627 E0.20874
G1 X145.089 Y204.163 E0.22592
G1 X139.752 Y203.594 E0.23541
G1 X134.336 Y202.925 E0.23933
G1 X129.848 Y202.274 E0.19888
G1 X130.414 Y198.052 E0.1868
G1 X141.825 Y199.736 E0.50587
G1 X144.726 Y200.106 E0.12825
G1 X147.019 Y200.171 E0.10059
G1 X149.198 Y199.87 E0.09649
G1 X151.212 Y199.26 E0.09229
G1 X153.055 Y198.406 E0.08907
G1 X154.726 Y197.37 E0.08623
G1 X156.228 Y196.211 E0.08321
G1 X157.566 Y194.987 E0.07953
G1 X158.745 Y193.754 E0.07481
G1 X159.766 Y192.566 E0.06871
G1 X160.63 Y191.479 E0.06088
G1 X161.865 Y189.868 E0.08903
G1 X162.413 Y189.275 E0.03542
G1 X163.039 Y188.755 E0.03568
G1 X163.739 Y188.301 E0.03659
G1 X164.484 Y187.928 E0.03654
G1 X165.242 Y187.648 E0.03545
G1 X165.98 Y187.47 E0.03328
G1 X166.661 Y187.4 E0.03003
G1 X166.966 Y187.418 E0.0134
G1 X167.248 Y187.434 E0.01237
G1 X167.708 Y187.555 E0.02087
G1 X168.034 Y187.739 E0.01642
G1 X168.262 Y187.98 E0.01455
G1 X168.47 Y188.425 E0.02153
G1 X169.039 Y190.157 E0.07996
G1 X169.516 Y191.476 E0.06151
; acceleration to travel
M204 S3000
G1 X170.083 Y192.058 F9000
; decel to extrusion
M204 S1000
G1 X170.273 Y192.252
; end travel
G1 F1800
G1 X169.537 Y191.924 E0.03532
G1 X168.482 Y191.949 E0.04628
G1 X167.756 Y192.633 E0.04375
G1 X167.516 Y193.565 E0.04221
G1 X167.549 Y194.568 E0.04403
G1 X167.763 Y195.646 E0.04819
G1 X168.12 Y196.766 E0.05156
G1 X168.594 Y197.876 E0.05295
G1 X169.166 Y198.918 E0.05211
G1 X169.821 Y199.833 E0.04936
G1 X170.566 Y200.567 E0.04588
G1 X171.372 Y200.994 E0.04
G1 X172.562 Y201.276 E0.05361
G1 X173.723 Y201.481 E0.0517
G1 X174.91 Y201.63 E0.0525
G1 X176.117 Y201.731 E0.05311
G1 X177.335 Y201.792 E0.05349
G1 X178.56 Y201.821 E0.05371
G1 X180.976 Y201.809 E0.10597
G1 X185.513 Y201.705 E0.19903
G1 X190.25 Y201.686 E0.20776
G1 X195.443 Y201.54 E0.22784
G1 X195.982 Y201.43 E0.02409
G1 X196.489 Y201.144 E0.02553
G1 X196.901 Y200.758 E0.02477
G1 X197.241 Y200.31 E0.02466
G1 X197.529 Y199.819 E0.02496
G1 X197.778 Y199.299 E0.02529
G1 X197.997 Y198.764 E0.02534
G1 X198.191 Y198.227 E0.02507
G1 X198.758 Y196.462 E0.08127
G1 X198.867 Y196.237 E0.01099
G1 X198.97 Y196.119 E0.00684
G1 X199.072 Y196.058 E0.00522
G1 X199.194 Y196.088 E0.0055
G1 X199.377 Y196.21 E0.00966
G1 X199.633 Y196.507 E0.01721
G1 X199.924 Y197.019 E0.02581
G1 X200.216 Y197.765 E0.03515
G1 X200.482 Y198.763 E0.04527
G1 X200.706 Y200.025 E0.05624
G1 X200.858 Y201.474 E0.06389
G1 X200.527 Y202.928 E0.06539
G1 X199.346 Y204.079 E0.07234
G1 X197.219 Y205.037 E0.1023
G1 X194.273 Y205.745 E0.13289
G1 X190.672 Y206.207 E0.15921
G1 X186.569 Y206.454 E0.1803
G1 X182.104 Y206.525 E0.19583
G1 X177.416 Y206.458 E0.2056
G1 X172.642 Y206.297 E0.2095
G1 X159.139 Y205.654 E0.59285
G1 X154.938 Y205.425 E0.18454
G1 X150.183 Y205.074 E0.2091
G1 X145.045 Y204.609 E0.22624
G1 X139.7 Y204.04 E0.23573
G1 X134.276 Y203.369 E0.2397
G1 X129.344 Y202.654 E0.21855
G1 X130.03 Y197.542 E0.22619
