; generated by SuperSlicer 2.4 on 2022-07-09 at 01:10:35 UTC


;
;

;
;
; 

; external perimeters extrusion width = 0.40mm
; perimeters extrusion width = 0.48mm
; infill extrusion width = 0.72mm
; solid infill extrusion width = 0.56mm
; top infill extrusion width = 0.40mm
; first layer extrusion width = 0.48mm

; object:{"name":"(Unsaved)","id":"(Unsaved).stl id:0 copy 0","object_center":[165.000000,165.000000,0.000000],"boundingbox_center":[165.000000,165.000000,13.567880],"boundingbox_size":[99.199997,95.000000,27.135759]}
; plater:{"center":[165.000000,165.000000,0.000000],"boundingbox_center":[165.000000,165.000000,13.567880],"boundingbox_size":[99.199997,95.000000,27.135759]}

M73 P0 R109
;TYPE:Custom
START_PRINT T_BED=110 T_EXTRUDER=245
M107
G21 ; set units to millimeters
G90 ; use absolute coordinates
M83 ; use relative distances for extrusion
; Filament gcode
M104 S245 ; set temperature
M109 S245 ; set temperature and wait for it to be reached
M190 S110 ; set bed temperature and wait for it to be reached
M107
;LAYER_CHANGE
;Z:0.24
;HEIGHT:0.24
G1 Z0.24 F9000
G92 E0
G1 E-0.5 F3000
M204 S1000
G1 X115.457 Y117.277 F9000
G1 E0.5 F1800
;TYPE:Skirt
;WIDTH:0.52
G1 X115.177 Y117.557 E0.01849
G1 X114.202 Y119.285 E0.09278
G1 X114.01 Y120.512 E0.05806
G1 X114.01 Y209.491 E4.15945
G1 X114.125 Y210.447 E0.04502
G1 X115.11 Y212.345 E0.09998
G1 X115.531 Y212.776 E0.02815
G1 X116.518 Y213.5 E0.05724
G1 X118.181 Y213.894 E0.07988
G1 X210.636 Y213.888 E4.32199
G1 X211.89 Y213.669 E0.05948
G1 X213.32 Y212.735 E0.07988
G1 X213.724 Y212.309 E0.0274
G1 X214.675 Y210.447 E0.09777
G1 X214.79 Y209.491 E0.04503
G1 X214.79 Y120.512 E4.15945
G1 X214.598 Y119.285 E0.05806
G1 X213.623 Y117.557 E0.09277
G1 X213.343 Y117.277 E0.01849
G1 X211.615 Y116.302 E0.09278
G1 X210.388 Y116.11 E0.05804
G1 X118.412 Y116.11 E4.29958
G1 X117.185 Y116.302 E0.05804
G1 X115.457 Y117.277 E0.09278
G1 X115.787 Y117.607 F9000
G1 F1800
G1 X115.507 Y117.887 E0.01849
G1 X114.654 Y119.397 E0.08108
G1 X114.476 Y120.512 E0.05279
G1 X114.476 Y209.491 E4.15945
G1 X114.583 Y210.361 E0.04098
G1 X115.415 Y211.988 E0.08545
G1 X115.818 Y212.414 E0.0274
G1 X117.054 Y213.225 E0.06913
G1 X118.181 Y213.428 E0.05351
G1 X210.619 Y213.428 E4.3212
G1 X211.746 Y213.225 E0.05351
G1 X212.982 Y212.414 E0.06913
G1 X213.385 Y211.988 E0.0274
G1 X214.217 Y210.361 E0.08545
G1 X214.324 Y209.491 E0.04098
G1 X214.324 Y120.512 E4.15945
G1 X214.146 Y119.397 E0.05279
G1 X213.293 Y117.887 E0.08108
G1 X213.014 Y117.607 E0.01849
G1 X211.503 Y116.754 E0.08108
G1 X210.388 Y116.576 E0.05278
G1 X118.412 Y116.576 E4.29958
G1 X117.297 Y116.754 E0.05278
G1 X115.787 Y117.607 E0.08108
G1 E-0.5 F3000
; printing object (Unsaved).stl id:0 copy 0
; acceleration to travel
M204 S3000
G1 X118.373 Y120.403 F9000
; decel to extrusion
M204 S1000
G1 X119.235 Y121.335
; end travel
G1 E0.5 F1800
;TYPE:Internal perimeter
;WIDTH:0.48
G1 X156.565 Y121.337 E1.59609
G1 X156.565 Y208.665 E3.73377
M73 P0 R108
G1 X119.235 Y208.663 E1.59609
G1 X119.235 Y121.335 E3.73377
G1 X118.806 Y120.906 F9000
G1 F1800
G1 X156.994 Y120.908 E1.63273
G1 X156.994 Y209.094 E3.77041
G1 X118.806 Y209.092 E1.63273
G1 X118.806 Y120.906 E3.77041
G1 X118.378 Y120.478 F9000
G1 F1800
G1 X157.422 Y120.48 E1.66937
G1 X157.422 Y209.522 E3.80705
M73 P1 R108
G1 X118.378 Y209.52 E1.66937
G1 X118.378 Y120.478 E3.80705
G1 X118.195 Y120.11 F9000
;TYPE:External perimeter
G1 F1800
G1 X118.441 Y120.049 E0.01084
G1 X157.531 Y120.051 E1.67129
G1 X157.817 Y120.35 E0.01768
G1 X157.851 Y120.532 E0.00789
G1 X157.851 Y209.459 E3.80211
G1 X157.79 Y209.705 E0.01084
G1 X157.605 Y209.89 E0.01119
G1 X157.359 Y209.951 E0.01084
G1 X118.267 Y209.949 E1.67138
G1 X117.983 Y209.65 E0.01762
G1 X117.949 Y209.468 E0.00789
G1 X117.949 Y120.541 E3.80211
G1 X118.01 Y120.295 E0.01084
G1 X118.195 Y120.11 E0.01119
;WIPE_START
M204 S4000
G1 X118.52 Y120.344 F9000
;WIPE_END
; acceleration to travel
M204 S3000
G1 X146.024 Y121.737
; decel to extrusion
M204 S1000
G1 X156.501 Y122.267
; end travel
;TYPE:Solid infill
;WIDTH:0.477357
G1 F3600
G1 X155.819 Y121.585 E0.04101
G1 X155.213 Y121.585 E0.02577
G1 X156.317 Y122.689 E0.06637
G1 X156.317 Y123.295 E0.02577
G1 X154.607 Y121.585 E0.10281
G1 X154.001 Y121.585 E0.02577
G1 X156.317 Y123.901 E0.13925
G1 X156.317 Y124.507 E0.02577
G1 X153.395 Y121.585 E0.1757
G1 X152.789 Y121.585 E0.02577
G1 X156.317 Y125.113 E0.21214
G1 X156.317 Y125.719 E0.02577
G1 X152.183 Y121.585 E0.24858
G1 X151.577 Y121.585 E0.02577
G1 X156.317 Y126.325 E0.28502
G1 X156.317 Y126.931 E0.02577
G1 X150.971 Y121.585 E0.32146
G1 X150.365 Y121.585 E0.02577
G1 X156.317 Y127.537 E0.3579
G1 X156.317 Y128.143 E0.02577
G1 X149.759 Y121.585 E0.39434
G1 X149.153 Y121.585 E0.02577
G1 X156.317 Y128.749 E0.43078
G1 X156.317 Y129.355 E0.02577
G1 X148.547 Y121.585 E0.46723
G1 X147.941 Y121.585 E0.02577
G1 X156.317 Y129.961 E0.50367
G1 X156.317 Y130.567 E0.02577
G1 X147.335 Y121.585 E0.54011
G1 X146.729 Y121.585 E0.02577
G1 X156.317 Y131.173 E0.57655
G1 X156.317 Y131.779 E0.02577
G1 X146.123 Y121.585 E0.61299
G1 X145.517 Y121.585 E0.02577
G1 X156.317 Y132.385 E0.64943
G1 X156.317 Y132.991 E0.02577
G1 X144.911 Y121.585 E0.68587
G1 X144.305 Y121.585 E0.02577
G1 X156.317 Y133.597 E0.72232
G1 X156.317 Y134.203 E0.02577
G1 X143.699 Y121.585 E0.75876
G1 X143.093 Y121.585 E0.02577
G1 X156.317 Y134.809 E0.7952
G1 X156.317 Y135.415 E0.02577
G1 X142.487 Y121.585 E0.83164
G1 X141.881 Y121.585 E0.02577
G1 X156.317 Y136.021 E0.86808
G1 X156.317 Y136.627 E0.02577
G1 X141.275 Y121.584 E0.90452
G1 X140.669 Y121.584 E0.02577
G1 X156.317 Y137.233 E0.94096
G1 X156.317 Y137.839 E0.02577
G1 X140.063 Y121.584 E0.97741
G1 X139.457 Y121.584 E0.02577
G1 X156.317 Y138.445 E1.01385
G1 X156.317 Y139.051 E0.02577
G1 X138.851 Y121.584 E1.05029
G1 X138.245 Y121.584 E0.02577
G1 X156.317 Y139.657 E1.08673
G1 X156.317 Y140.263 E0.02577
G1 X137.639 Y121.584 E1.12317
G1 X137.033 Y121.584 E0.02577
G1 X156.317 Y140.869 E1.15961
G1 X156.317 Y141.475 E0.02577
G1 X136.427 Y121.584 E1.19605
G1 X135.82 Y121.584 E0.02577
G1 X156.317 Y142.081 E1.23249
G1 X156.317 Y142.687 E0.02577
G1 X135.214 Y121.584 E1.26894
G1 X134.608 Y121.584 E0.02577
G1 X156.317 Y143.292 E1.30538
G1 X156.317 Y143.898 E0.02577
G1 X134.002 Y121.584 E1.34182
G1 X133.396 Y121.584 E0.02577
G1 X156.317 Y144.504 E1.37826
G1 X156.317 Y145.11 E0.02577
G1 X132.79 Y121.584 E1.4147
G1 X132.184 Y121.584 E0.02577
G1 X156.317 Y145.716 E1.45114
G1 X156.317 Y146.322 E0.02577
G1 X131.578 Y121.584 E1.48758
G1 X130.972 Y121.584 E0.02577
G1 X156.317 Y146.928 E1.52403
G1 X156.317 Y147.534 E0.02577
G1 X130.366 Y121.584 E1.56047
G1 X129.76 Y121.584 E0.02577
G1 X156.317 Y148.14 E1.59691
G1 X156.317 Y148.746 E0.02577
G1 X129.154 Y121.584 E1.63335
G1 X128.548 Y121.584 E0.02577
G1 X156.317 Y149.352 E1.66979
G1 X156.317 Y149.958 E0.02577
G1 X127.942 Y121.584 E1.70623
G1 X127.336 Y121.584 E0.02577
G1 X156.317 Y150.564 E1.74267
G1 X156.317 Y151.17 E0.02577
G1 X126.73 Y121.584 E1.77912
G1 X126.124 Y121.584 E0.02577
G1 X156.317 Y151.776 E1.81556
G1 X156.317 Y152.382 E0.02577
G1 X125.518 Y121.584 E1.852
G1 X124.912 Y121.584 E0.02577
G1 X156.317 Y152.988 E1.88844
G1 X156.317 Y153.594 E0.02577
G1 X124.306 Y121.583 E1.92488
G1 X123.7 Y121.583 E0.02577
G1 X156.317 Y154.2 E1.96132
G1 X156.317 Y154.806 E0.02577
G1 X123.094 Y121.583 E1.99776
G1 X122.488 Y121.583 E0.02577
G1 X156.317 Y155.412 E2.03421
G1 X156.317 Y156.018 E0.02577
G1 X121.882 Y121.583 E2.07065
G1 X121.276 Y121.583 E0.02577
G1 X156.317 Y156.624 E2.10709
M73 P1 R107
G1 X156.317 Y157.23 E0.02577
G1 X120.67 Y121.583 E2.14353
G1 X120.064 Y121.583 E0.02577
G1 X156.317 Y157.836 E2.17997
G1 X156.317 Y158.442 E0.02577
G1 X119.483 Y121.608 E2.2149
G1 X119.483 Y122.214 E0.02577
G1 X156.317 Y159.048 E2.2149
G1 X156.317 Y159.654 E0.02577
G1 X119.483 Y122.82 E2.2149
G1 X119.483 Y123.426 E0.02577
G1 X156.317 Y160.26 E2.2149
G1 X156.317 Y160.866 E0.02577
G1 X119.483 Y124.032 E2.2149
G1 X119.483 Y124.638 E0.02577
G1 X156.317 Y161.472 E2.2149
G1 X156.317 Y162.078 E0.02577
G1 X119.483 Y125.244 E2.2149
G1 X119.483 Y125.85 E0.02577
G1 X156.317 Y162.684 E2.2149
G1 X156.317 Y163.29 E0.02577
G1 X119.483 Y126.456 E2.2149
G1 X119.483 Y127.062 E0.02577
G1 X156.317 Y163.896 E2.2149
G1 X156.317 Y164.502 E0.02577
G1 X119.483 Y127.668 E2.2149
G1 X119.483 Y128.274 E0.02577
G1 X156.317 Y165.108 E2.2149
G1 X156.317 Y165.714 E0.02577
G1 X119.483 Y128.88 E2.2149
G1 X119.483 Y129.486 E0.02577
G1 X156.317 Y166.32 E2.2149
G1 X156.317 Y166.926 E0.02577
G1 X119.483 Y130.092 E2.2149
G1 X119.483 Y130.698 E0.02577
G1 X156.317 Y167.532 E2.2149
G1 X156.317 Y168.138 E0.02577
G1 X119.483 Y131.304 E2.2149
G1 X119.483 Y131.91 E0.02577
G1 X156.317 Y168.744 E2.2149
G1 X156.317 Y169.35 E0.02577
G1 X119.483 Y132.516 E2.2149
G1 X119.483 Y133.122 E0.02577
G1 X156.317 Y169.956 E2.2149
G1 X156.317 Y170.562 E0.02577
G1 X119.483 Y133.728 E2.2149
G1 X119.483 Y134.334 E0.02577
M73 P2 R107
G1 X156.317 Y171.168 E2.2149
G1 X156.317 Y171.774 E0.02577
G1 X119.483 Y134.94 E2.2149
G1 X119.483 Y135.546 E0.02577
G1 X156.317 Y172.38 E2.2149
G1 X156.317 Y172.986 E0.02577
G1 X119.483 Y136.152 E2.2149
G1 X119.483 Y136.758 E0.02577
G1 X156.317 Y173.592 E2.2149
G1 X156.317 Y174.198 E0.02577
G1 X119.483 Y137.364 E2.2149
G1 X119.483 Y137.97 E0.02577
G1 X156.317 Y174.804 E2.2149
G1 X156.317 Y175.41 E0.02577
G1 X119.483 Y138.576 E2.2149
G1 X119.483 Y139.182 E0.02577
G1 X156.317 Y176.016 E2.2149
G1 X156.317 Y176.622 E0.02577
G1 X119.483 Y139.788 E2.2149
G1 X119.483 Y140.394 E0.02577
G1 X156.317 Y177.228 E2.2149
G1 X156.317 Y177.834 E0.02577
G1 X119.483 Y141 E2.2149
G1 X119.483 Y141.606 E0.02577
G1 X156.317 Y178.44 E2.2149
G1 X156.317 Y179.046 E0.02577
G1 X119.483 Y142.212 E2.2149
G1 X119.483 Y142.818 E0.02577
G1 X156.317 Y179.652 E2.2149
G1 X156.317 Y180.257 E0.02577
G1 X119.483 Y143.424 E2.2149
G1 X119.483 Y144.03 E0.02577
G1 X156.317 Y180.863 E2.2149
G1 X156.317 Y181.469 E0.02577
G1 X119.483 Y144.636 E2.2149
G1 X119.483 Y145.242 E0.02577
G1 X156.317 Y182.075 E2.2149
G1 X156.317 Y182.681 E0.02577
G1 X119.483 Y145.848 E2.2149
G1 X119.483 Y146.454 E0.02577
G1 X156.317 Y183.287 E2.2149
G1 X156.317 Y183.893 E0.02577
G1 X119.483 Y147.06 E2.2149
G1 X119.483 Y147.666 E0.02577
G1 X156.317 Y184.499 E2.2149
G1 X156.317 Y185.105 E0.02577
G1 X119.483 Y148.272 E2.2149
G1 X119.483 Y148.878 E0.02577
G1 X156.317 Y185.711 E2.2149
G1 X156.317 Y186.317 E0.02577
G1 X119.483 Y149.484 E2.2149
G1 X119.483 Y150.09 E0.02577
G1 X156.317 Y186.923 E2.2149
G1 X156.317 Y187.529 E0.02577
G1 X119.483 Y150.696 E2.2149
G1 X119.483 Y151.302 E0.02577
G1 X156.317 Y188.135 E2.2149
G1 X156.317 Y188.741 E0.02577
G1 X119.483 Y151.908 E2.2149
G1 X119.483 Y152.514 E0.02577
G1 X156.317 Y189.347 E2.2149
G1 X156.317 Y189.953 E0.02577
G1 X119.483 Y153.12 E2.2149
G1 X119.483 Y153.726 E0.02577
G1 X156.317 Y190.559 E2.2149
G1 X156.317 Y191.165 E0.02577
G1 X119.483 Y154.331 E2.2149
G1 X119.483 Y154.937 E0.02577
G1 X156.317 Y191.771 E2.2149
G1 X156.317 Y192.377 E0.02577
G1 X119.483 Y155.543 E2.2149
G1 X119.483 Y156.149 E0.02577
G1 X156.317 Y192.983 E2.2149
G1 X156.317 Y193.589 E0.02577
G1 X119.483 Y156.755 E2.2149
G1 X119.483 Y157.361 E0.02577
G1 X156.317 Y194.195 E2.2149
G1 X156.317 Y194.801 E0.02577
G1 X119.483 Y157.967 E2.2149
G1 X119.483 Y158.573 E0.02577
G1 X156.317 Y195.407 E2.2149
M73 P2 R106
G1 X156.317 Y196.013 E0.02577
G1 X119.483 Y159.179 E2.2149
G1 X119.483 Y159.785 E0.02577
G1 X156.317 Y196.619 E2.2149
G1 X156.317 Y197.225 E0.02577
G1 X119.483 Y160.391 E2.2149
G1 X119.483 Y160.997 E0.02577
G1 X156.317 Y197.831 E2.2149
G1 X156.317 Y198.437 E0.02577
G1 X119.483 Y161.603 E2.2149
G1 X119.483 Y162.209 E0.02577
G1 X156.317 Y199.043 E2.2149
G1 X156.317 Y199.649 E0.02577
G1 X119.483 Y162.815 E2.2149
G1 X119.483 Y163.421 E0.02577
G1 X156.317 Y200.255 E2.2149
G1 X156.317 Y200.861 E0.02577
G1 X119.483 Y164.027 E2.2149
G1 X119.483 Y164.633 E0.02577
G1 X156.317 Y201.467 E2.2149
G1 X156.317 Y202.073 E0.02577
G1 X119.483 Y165.239 E2.2149
G1 X119.483 Y165.845 E0.02577
G1 X156.317 Y202.679 E2.2149
G1 X156.317 Y203.285 E0.02577
G1 X119.483 Y166.451 E2.2149
G1 X119.483 Y167.057 E0.02577
G1 X156.317 Y203.891 E2.2149
G1 X156.317 Y204.497 E0.02577
G1 X119.483 Y167.663 E2.2149
G1 X119.483 Y168.269 E0.02577
G1 X156.317 Y205.103 E2.2149
G1 X156.317 Y205.709 E0.02577
G1 X119.483 Y168.875 E2.2149
G1 X119.483 Y169.481 E0.02577
G1 X156.317 Y206.315 E2.2149
G1 X156.317 Y206.921 E0.02577
G1 X119.483 Y170.087 E2.2149
G1 X119.483 Y170.693 E0.02577
G1 X156.317 Y207.527 E2.2149
G1 X156.317 Y208.133 E0.02577
G1 X119.483 Y171.299 E2.2149
G1 X119.483 Y171.905 E0.02577
G1 X155.995 Y208.417 E2.19554
G1 X155.389 Y208.417 E0.02577
G1 X119.483 Y172.511 E2.1591
G1 X119.483 Y173.117 E0.02577
G1 X154.783 Y208.417 E2.12266
G1 X154.177 Y208.417 E0.02577
G1 X119.483 Y173.723 E2.08622
G1 X119.483 Y174.329 E0.02577
G1 X153.571 Y208.417 E2.04977
G1 X152.965 Y208.417 E0.02577
G1 X119.483 Y174.935 E2.01333
G1 X119.483 Y175.541 E0.02577
G1 X152.359 Y208.417 E1.97689
G1 X151.753 Y208.417 E0.02577
G1 X119.483 Y176.147 E1.94045
G1 X119.483 Y176.753 E0.02577
G1 X151.147 Y208.417 E1.90401
M73 P3 R106
G1 X150.541 Y208.416 E0.02577
G1 X119.483 Y177.359 E1.86757
G1 X119.483 Y177.965 E0.02577
G1 X149.935 Y208.416 E1.83113
G1 X149.329 Y208.416 E0.02577
G1 X119.483 Y178.571 E1.79469
G1 X119.483 Y179.177 E0.02577
G1 X148.723 Y208.416 E1.75824
G1 X148.117 Y208.416 E0.02577
G1 X119.483 Y179.783 E1.7218
G1 X119.483 Y180.389 E0.02577
G1 X147.511 Y208.416 E1.68536
G1 X146.905 Y208.416 E0.02577
G1 X119.483 Y180.995 E1.64892
G1 X119.483 Y181.601 E0.02577
G1 X146.299 Y208.416 E1.61248
G1 X145.693 Y208.416 E0.02577
G1 X119.483 Y182.207 E1.57604
G1 X119.483 Y182.813 E0.02577
G1 X145.087 Y208.416 E1.5396
G1 X144.481 Y208.416 E0.02577
G1 X119.483 Y183.419 E1.50316
G1 X119.483 Y184.025 E0.02577
G1 X143.875 Y208.416 E1.46671
G1 X143.269 Y208.416 E0.02577
G1 X119.483 Y184.631 E1.43027
G1 X119.483 Y185.237 E0.02577
G1 X142.663 Y208.416 E1.39383
G1 X142.057 Y208.416 E0.02577
G1 X119.483 Y185.843 E1.35739
G1 X119.483 Y186.449 E0.02577
G1 X141.451 Y208.416 E1.32095
G1 X140.844 Y208.416 E0.02577
G1 X119.483 Y187.055 E1.28451
G1 X119.483 Y187.661 E0.02577
G1 X140.238 Y208.416 E1.24807
G1 X139.632 Y208.416 E0.02577
G1 X119.483 Y188.267 E1.21163
G1 X119.483 Y188.873 E0.02577
G1 X139.026 Y208.416 E1.17518
G1 X138.42 Y208.416 E0.02577
G1 X119.483 Y189.479 E1.13874
G1 X119.483 Y190.085 E0.02577
G1 X137.814 Y208.416 E1.1023
G1 X137.208 Y208.416 E0.02577
G1 X119.483 Y190.69 E1.06586
G1 X119.483 Y191.296 E0.02577
G1 X136.602 Y208.416 E1.02942
G1 X135.996 Y208.416 E0.02577
G1 X119.483 Y191.902 E0.99298
G1 X119.483 Y192.508 E0.02577
G1 X135.39 Y208.416 E0.95654
G1 X134.784 Y208.416 E0.02577
G1 X119.483 Y193.114 E0.9201
G1 X119.483 Y193.72 E0.02577
G1 X134.178 Y208.416 E0.88365
G1 X133.572 Y208.416 E0.02577
G1 X119.483 Y194.326 E0.84721
G1 X119.483 Y194.932 E0.02577
G1 X132.966 Y208.416 E0.81077
G1 X132.36 Y208.415 E0.02577
G1 X119.483 Y195.538 E0.77433
G1 X119.483 Y196.144 E0.02577
G1 X131.754 Y208.415 E0.73789
G1 X131.148 Y208.415 E0.02577
G1 X119.483 Y196.75 E0.70145
G1 X119.483 Y197.356 E0.02577
G1 X130.542 Y208.415 E0.66501
G1 X129.936 Y208.415 E0.02577
G1 X119.483 Y197.962 E0.62857
G1 X119.483 Y198.568 E0.02577
G1 X129.33 Y208.415 E0.59212
G1 X128.724 Y208.415 E0.02577
G1 X119.483 Y199.174 E0.55568
G1 X119.483 Y199.78 E0.02577
G1 X128.118 Y208.415 E0.51924
G1 X127.512 Y208.415 E0.02577
G1 X119.483 Y200.386 E0.4828
G1 X119.483 Y200.992 E0.02577
G1 X126.906 Y208.415 E0.44636
G1 X126.3 Y208.415 E0.02577
G1 X119.483 Y201.598 E0.40992
G1 X119.483 Y202.204 E0.02577
G1 X125.694 Y208.415 E0.37348
G1 X125.088 Y208.415 E0.02577
G1 X119.483 Y202.81 E0.33704
G1 X119.483 Y203.416 E0.02577
G1 X124.482 Y208.415 E0.30059
G1 X123.876 Y208.415 E0.02577
G1 X119.483 Y204.022 E0.26415
G1 X119.483 Y204.628 E0.02577
G1 X123.27 Y208.415 E0.22771
G1 X122.664 Y208.415 E0.02577
G1 X119.483 Y205.234 E0.19127
G1 X119.483 Y205.84 E0.02577
G1 X122.058 Y208.415 E0.15483
G1 X121.452 Y208.415 E0.02577
G1 X119.483 Y206.446 E0.11839
