; generated by SuperSlicer 2.4 on 2022-07-18 at 04:27:45 UTC


;
;

;
;
; 

; external perimeters extrusion width = 0.40mm
; perimeters extrusion width = 0.48mm
; infill extrusion width = 0.72mm
; solid infill extrusion width = 0.56mm
; top infill extrusion width = 0.40mm
; support material extrusion width = 0.40mm
; first layer extrusion width = 0.48mm

; object:{"name":"box2","id":"box2.stl id:0 copy 0","object_center":[165.000001,164.998637,0.000000],"boundingbox_center":[165.000001,164.998637,80.000000],"boundingbox_size":[115.000000,290.450012,160.000000]}
; plater:{"center":[165.000001,164.998637,0.000000],"boundingbox_center":[165.000001,164.998637,80.000000],"boundingbox_size":[115.000000,290.450012,160.000000]}

M73 P0 R740
;TYPE:Custom
START_PRINT T_BED=60 T_EXTRUDER=200
M107
G21 ; set units to millimeters
G90 ; use absolute coordinates
M83 ; use relative distances for extrusion
; Filament gcode
M104 S200 ; set temperature
M109 S200 ; set temperature and wait for it to be reached
M190 S60 ; set bed temperature and wait for it to be reached
M107
;LAYER_CHANGE
;Z:0.24
;HEIGHT:0.24
G1 Z0.24 F9000
G92 E0
M73 P0 R739
G1 E-0.8 F3000
M204 S1000
G1 X103.9 Y19.874 F9000
G1 E0.8 F1800
;TYPE:Skirt
;WIDTH:0.52
G1 X103.9 Y310.046 E13.29328
G1 X104.634 Y312.257 E0.10674
G1 X105.944 Y313.354 E0.07828
G1 X107.608 Y313.745 E0.07828
G1 X221.158 Y313.513 E5.20193
G1 X223.33 Y312.803 E0.10469
G1 X224.44 Y311.505 E0.07828
G1 X224.849 Y309.846 E0.07828
G1 X226.099 Y164.705 E6.64936
G1 X226.1 Y19.874 E6.635
G1 X225.37 Y17.668 E0.10641
G1 X224.063 Y16.569 E0.07828
G1 X222.4 Y16.174 E0.07828
G1 X107.6 Y16.174 E5.25919
G1 X105.395 Y16.903 E0.10641
G1 X104.295 Y18.211 E0.07828
G1 X103.9 Y19.874 E0.07828
G1 X104.367 Y19.874 F9000
G1 F1800
G1 X104.367 Y310.046 E13.29328
G1 X104.887 Y311.805 E0.08406
G1 X106.059 Y312.888 E0.07311
G1 X107.607 Y313.279 E0.07311
G1 X221.157 Y313.047 E5.20193
M73 P0 R738
G1 X222.88 Y312.545 E0.08225
G1 X223.976 Y311.384 E0.07311
G1 X224.383 Y309.841 E0.07311
G1 X225.633 Y164.701 E6.64936
G1 X225.633 Y19.874 E6.63482
G1 X225.116 Y18.12 E0.08377
G1 X223.946 Y17.034 E0.07311
G1 X222.4 Y16.64 E0.07311
G1 X107.6 Y16.64 E5.25919
G1 X105.846 Y17.157 E0.08377
G1 X104.761 Y18.327 E0.07311
G1 X104.367 Y19.874 E0.07311
G1 E-0.8 F3000
; printing object box2.stl id:0 copy 0
; acceleration to travel
M204 S3000
G1 X107.614 Y131.741 F9000
; decel to extrusion
M204 S1000
G1 X108.697 Y169.031
; end travel
G1 E0.8 F1800
;TYPE:Internal perimeter
;WIDTH:0.48
G1 X220.053 Y169.031 E4.66586
G1 X220.053 Y308.717 E5.85289
G1 X108.697 Y308.717 E4.66586
G1 X108.697 Y169.031 E5.85289
G1 X108.268 Y168.602 F9000
G1 F1800
G1 X220.482 Y168.602 E4.70176
G1 X220.482 Y309.145 E5.8888
G1 X108.268 Y309.145 E4.70176
G1 X108.268 Y168.602 E5.8888
G1 X107.84 Y167.985 F9000
;TYPE:External perimeter
G1 F1800
G1 X108.16 Y168.038 E0.01359
G1 X108.16 Y168.174 E0.00567
G1 X220.91 Y168.174 E4.72426
G1 X220.91 Y309.574 E5.92471
G1 X108.16 Y309.574 E4.72426
M73 P0 R737
G1 X108.16 Y309.709 E0.00567
G1 X107.84 Y309.762 E0.01359
G1 X107.84 Y167.985 E5.94052
;WIPE_START
M204 S4000
G1 X108.162 Y168.222 F9000
;WIPE_END
; acceleration to travel
M204 S3000
G1 X188.513 Y168.854
; decel to extrusion
M204 S1000
G1 X219.123 Y169.095
; end travel
;TYPE:Solid infill
;WIDTH:0.478883
G1 F3600
G1 X219.805 Y169.777 E0.04032
G1 X219.805 Y170.383 E0.02533
G1 X218.701 Y169.279 E0.06525
G1 X218.095 Y169.279 E0.02533
G1 X219.805 Y170.989 E0.10107
G1 X219.805 Y171.595 E0.02533
G1 X217.489 Y169.279 E0.1369
G1 X216.883 Y169.279 E0.02533
G1 X219.805 Y172.201 E0.17272
G1 X219.805 Y172.807 E0.02533
G1 X216.277 Y169.279 E0.20855
G1 X215.671 Y169.279 E0.02533
G1 X219.805 Y173.413 E0.24437
G1 X219.805 Y174.019 E0.02533
G1 X215.065 Y169.279 E0.28019
G1 X214.459 Y169.279 E0.02533
G1 X219.805 Y174.625 E0.31602
G1 X219.805 Y175.231 E0.02533
G1 X213.853 Y169.279 E0.35184
G1 X213.247 Y169.279 E0.02533
G1 X219.805 Y175.837 E0.38767
G1 X219.805 Y176.443 E0.02533
G1 X212.641 Y169.279 E0.42349
G1 X212.035 Y169.279 E0.02533
G1 X219.805 Y177.049 E0.45932
G1 X219.805 Y177.655 E0.02533
G1 X211.429 Y169.279 E0.49514
G1 X210.823 Y169.279 E0.02533
G1 X219.805 Y178.261 E0.53097
G1 X219.805 Y178.867 E0.02533
G1 X210.217 Y169.279 E0.56679
G1 X209.611 Y169.279 E0.02533
G1 X219.805 Y179.473 E0.60262
G1 X219.805 Y180.079 E0.02533
G1 X209.005 Y169.279 E0.63844
G1 X208.399 Y169.279 E0.02533
G1 X219.805 Y180.685 E0.67427
G1 X219.805 Y181.29 E0.02533
G1 X207.793 Y169.279 E0.71009
G1 X207.187 Y169.279 E0.02533
G1 X219.805 Y181.896 E0.74591
G1 X219.805 Y182.502 E0.02533
G1 X206.581 Y169.279 E0.78174
G1 X205.975 Y169.279 E0.02533
G1 X219.805 Y183.108 E0.81756
G1 X219.805 Y183.714 E0.02533
G1 X205.369 Y169.279 E0.85339
G1 X204.763 Y169.279 E0.02533
G1 X219.805 Y184.32 E0.88921
G1 X219.805 Y184.926 E0.02533
G1 X204.157 Y169.279 E0.92504
G1 X203.551 Y169.279 E0.02533
G1 X219.805 Y185.532 E0.96086
G1 X219.805 Y186.138 E0.02533
G1 X202.945 Y169.279 E0.99669
G1 X202.339 Y169.279 E0.02533
G1 X219.805 Y186.744 E1.03251
G1 X219.805 Y187.35 E0.02533
G1 X201.733 Y169.279 E1.06834
G1 X201.127 Y169.279 E0.02533
G1 X219.805 Y187.956 E1.10416
G1 X219.805 Y188.562 E0.02533
G1 X200.521 Y169.279 E1.13999
G1 X199.915 Y169.279 E0.02533
G1 X219.805 Y189.168 E1.17581
G1 X219.805 Y189.774 E0.02533
G1 X199.309 Y169.279 E1.21164
G1 X198.703 Y169.279 E0.02533
G1 X219.805 Y190.38 E1.24746
G1 X219.805 Y190.986 E0.02533
G1 X198.097 Y169.279 E1.28328
G1 X197.491 Y169.279 E0.02533
G1 X219.805 Y191.592 E1.31911
G1 X219.805 Y192.198 E0.02533
G1 X196.885 Y169.279 E1.35493
G1 X196.279 Y169.279 E0.02533
G1 X219.805 Y192.804 E1.39076
G1 X219.805 Y193.41 E0.02533
G1 X195.673 Y169.279 E1.42658
G1 X195.067 Y169.279 E0.02533
G1 X219.805 Y194.016 E1.46241
G1 X219.805 Y194.622 E0.02533
G1 X194.462 Y169.279 E1.49823
G1 X193.856 Y169.279 E0.02533
G1 X219.805 Y195.228 E1.53406
G1 X219.805 Y195.834 E0.02533
G1 X193.25 Y169.279 E1.56988
G1 X192.644 Y169.279 E0.02533
G1 X219.805 Y196.44 E1.60571
G1 X219.805 Y197.046 E0.02533
G1 X192.038 Y169.279 E1.64153
G1 X191.432 Y169.279 E0.02533
G1 X219.805 Y197.652 E1.67736
G1 X219.805 Y198.258 E0.02533
G1 X190.826 Y169.279 E1.71318
G1 X190.22 Y169.279 E0.02533
G1 X219.805 Y198.864 E1.749
G1 X219.805 Y199.47 E0.02533
G1 X189.614 Y169.279 E1.78483
G1 X189.008 Y169.279 E0.02533
G1 X219.805 Y200.076 E1.82065
G1 X219.805 Y200.682 E0.02533
G1 X188.402 Y169.279 E1.85648
G1 X187.796 Y169.279 E0.02533
G1 X219.805 Y201.288 E1.8923
G1 X219.805 Y201.894 E0.02533
G1 X187.19 Y169.279 E1.92813
G1 X186.584 Y169.279 E0.02533
G1 X219.805 Y202.5 E1.96395
G1 X219.805 Y203.106 E0.02533
G1 X185.978 Y169.279 E1.99978
G1 X185.372 Y169.279 E0.02533
G1 X219.805 Y203.712 E2.0356
G1 X219.805 Y204.318 E0.02533
G1 X184.766 Y169.279 E2.07143
G1 X184.16 Y169.279 E0.02533
G1 X219.805 Y204.924 E2.10725
G1 X219.805 Y205.53 E0.02533
G1 X183.554 Y169.279 E2.14308
G1 X182.948 Y169.279 E0.02533
G1 X219.805 Y206.136 E2.1789
G1 X219.805 Y206.742 E0.02533
G1 X182.342 Y169.279 E2.21472
G1 X181.736 Y169.279 E0.02533
G1 X219.805 Y207.348 E2.25055
G1 X219.805 Y207.954 E0.02533
G1 X181.13 Y169.279 E2.28637
G1 X180.524 Y169.279 E0.02533
G1 X219.805 Y208.56 E2.3222
G1 X219.805 Y209.166 E0.02533
G1 X179.918 Y169.279 E2.35802
G1 X179.312 Y169.279 E0.02533
G1 X219.805 Y209.772 E2.39385
G1 X219.805 Y210.378 E0.02533
G1 X178.706 Y169.279 E2.42967
G1 X178.1 Y169.279 E0.02533
G1 X219.805 Y210.984 E2.4655
G1 X219.805 Y211.59 E0.02533
G1 X177.494 Y169.279 E2.50132
G1 X176.888 Y169.279 E0.02533
G1 X219.805 Y212.196 E2.53715
G1 X219.805 Y212.802 E0.02533
G1 X176.282 Y169.279 E2.57297
G1 X175.676 Y169.279 E0.02533
G1 X219.805 Y213.408 E2.6088
G1 X219.805 Y214.014 E0.02533
G1 X175.07 Y169.279 E2.64462
G1 X174.464 Y169.279 E0.02533
G1 X219.805 Y214.62 E2.68044
G1 X219.805 Y215.226 E0.02533
G1 X173.858 Y169.279 E2.71627
G1 X173.252 Y169.279 E0.02533
G1 X219.805 Y215.832 E2.75209
G1 X219.805 Y216.438 E0.02533
G1 X172.646 Y169.279 E2.78792
G1 X172.04 Y169.279 E0.02533
G1 X219.805 Y217.044 E2.82374
G1 X219.805 Y217.649 E0.02533
G1 X171.434 Y169.279 E2.85957
M73 P0 R736
G1 X170.828 Y169.279 E0.02533
G1 X219.805 Y218.255 E2.89539
G1 X219.805 Y218.861 E0.02533
G1 X170.222 Y169.279 E2.93122
G1 X169.616 Y169.279 E0.02533
G1 X219.805 Y219.467 E2.96704
G1 X219.805 Y220.073 E0.02533
G1 X169.01 Y169.279 E3.00287
G1 X168.404 Y169.279 E0.02533
G1 X219.805 Y220.679 E3.03869
G1 X219.805 Y221.285 E0.02533
G1 X167.798 Y169.279 E3.07452
G1 X167.192 Y169.279 E0.02533
G1 X219.805 Y221.891 E3.11034
G1 X219.805 Y222.497 E0.02533
G1 X166.586 Y169.279 E3.14616
G1 X165.98 Y169.279 E0.02533
G1 X219.805 Y223.103 E3.18199
G1 X219.805 Y223.709 E0.02533
G1 X165.374 Y169.279 E3.21781
G1 X164.768 Y169.279 E0.02533
G1 X219.805 Y224.315 E3.25364
G1 X219.805 Y224.921 E0.02533
G1 X164.162 Y169.279 E3.28946
G1 X163.556 Y169.279 E0.02533
G1 X219.805 Y225.527 E3.32529
G1 X219.805 Y226.133 E0.02533
G1 X162.95 Y169.279 E3.36111
G1 X162.344 Y169.279 E0.02533
G1 X219.805 Y226.739 E3.39694
G1 X219.805 Y227.345 E0.02533
G1 X161.738 Y169.279 E3.43276
G1 X161.132 Y169.279 E0.02533
G1 X219.805 Y227.951 E3.46859
G1 X219.805 Y228.557 E0.02533
G1 X160.526 Y169.279 E3.50441
G1 X159.92 Y169.279 E0.02533
G1 X219.805 Y229.163 E3.54024
G1 X219.805 Y229.769 E0.02533
G1 X159.314 Y169.279 E3.57606
G1 X158.708 Y169.279 E0.02533
G1 X219.805 Y230.375 E3.61188
G1 X219.805 Y230.981 E0.02533
G1 X158.102 Y169.279 E3.64771
G1 X157.497 Y169.279 E0.02533
G1 X219.805 Y231.587 E3.68353
G1 X219.805 Y232.193 E0.02533
G1 X156.891 Y169.279 E3.71936
G1 X156.285 Y169.279 E0.02533
G1 X219.805 Y232.799 E3.75518
G1 X219.805 Y233.405 E0.02533
G1 X155.679 Y169.279 E3.79101
G1 X155.073 Y169.279 E0.02533
G1 X219.805 Y234.011 E3.82683
G1 X219.805 Y234.617 E0.02533
G1 X154.467 Y169.279 E3.86266
G1 X153.861 Y169.279 E0.02533
G1 X219.805 Y235.223 E3.89848
G1 X219.805 Y235.829 E0.02533
G1 X153.255 Y169.279 E3.93431
G1 X152.649 Y169.279 E0.02533
G1 X219.805 Y236.435 E3.97013
G1 X219.805 Y237.041 E0.02533
G1 X152.043 Y169.279 E4.00596
G1 X151.437 Y169.279 E0.02533
G1 X219.805 Y237.647 E4.04178
G1 X219.805 Y238.253 E0.02533
G1 X150.831 Y169.279 E4.0776
G1 X150.225 Y169.279 E0.02533
G1 X219.805 Y238.859 E4.11343
G1 X219.805 Y239.465 E0.02533
G1 X149.619 Y169.279 E4.14925
G1 X149.013 Y169.279 E0.02533
G1 X219.805 Y240.071 E4.18508
G1 X219.805 Y240.677 E0.02533
G1 X148.407 Y169.279 E4.2209
G1 X147.801 Y169.279 E0.02533
G1 X219.805 Y241.283 E4.25673
G1 X219.805 Y241.889 E0.02533
G1 X147.195 Y169.279 E4.29255
M73 P0 R735
G1 X146.589 Y169.279 E0.02533
G1 X219.805 Y242.495 E4.32838
G1 X219.805 Y243.101 E0.02533
G1 X145.983 Y169.279 E4.3642
G1 X145.377 Y169.279 E0.02533
G1 X219.805 Y243.707 E4.40003
G1 X219.805 Y244.313 E0.02533
G1 X144.771 Y169.279 E4.43585
G1 X144.165 Y169.279 E0.02533
G1 X219.805 Y244.919 E4.47168
G1 X219.805 Y245.525 E0.02533
G1 X143.559 Y169.279 E4.5075
G1 X142.953 Y169.279 E0.02533
G1 X219.805 Y246.131 E4.54332
G1 X219.805 Y246.737 E0.02533
G1 X142.347 Y169.279 E4.57915
G1 X141.741 Y169.279 E0.02533
G1 X219.805 Y247.343 E4.61497
G1 X219.805 Y247.949 E0.02533
G1 X141.135 Y169.279 E4.6508
G1 X140.529 Y169.279 E0.02533
G1 X219.805 Y248.555 E4.68662
G1 X219.805 Y249.161 E0.02533
G1 X139.923 Y169.279 E4.72245
G1 X139.317 Y169.279 E0.02533
G1 X219.805 Y249.767 E4.75827
G1 X219.805 Y250.373 E0.02533
G1 X138.711 Y169.279 E4.7941
G1 X138.105 Y169.279 E0.02533
G1 X219.805 Y250.979 E4.82992
G1 X219.805 Y251.585 E0.02533
G1 X137.499 Y169.279 E4.86575
G1 X136.893 Y169.279 E0.02533
G1 X219.805 Y252.191 E4.90157
G1 X219.805 Y252.797 E0.02533
G1 X136.287 Y169.279 E4.9374
G1 X135.681 Y169.279 E0.02533
G1 X219.805 Y253.403 E4.97322
G1 X219.805 Y254.009 E0.02533
G1 X135.075 Y169.279 E5.00904
G1 X134.469 Y169.279 E0.02533
G1 X219.805 Y254.614 E5.04487
G1 X219.805 Y255.22 E0.02533
G1 X133.863 Y169.279 E5.08069
G1 X133.257 Y169.279 E0.02533
G1 X219.805 Y255.826 E5.11652
G1 X219.805 Y256.432 E0.02533
G1 X132.651 Y169.279 E5.15234
G1 X132.045 Y169.279 E0.02533
G1 X219.805 Y257.038 E5.18817
G1 X219.805 Y257.644 E0.02533
G1 X131.439 Y169.279 E5.22399
G1 X130.833 Y169.279 E0.02533
G1 X219.805 Y258.25 E5.25982
G1 X219.805 Y258.856 E0.02533
G1 X130.227 Y169.279 E5.29564
G1 X129.621 Y169.279 E0.02533
G1 X219.805 Y259.462 E5.33147
G1 X219.805 Y260.068 E0.02533
G1 X129.015 Y169.279 E5.36729
M73 P0 R734
G1 X128.409 Y169.279 E0.02533
G1 X219.805 Y260.674 E5.40312
G1 X219.805 Y261.28 E0.02533
G1 X127.803 Y169.279 E5.43894
G1 X127.197 Y169.279 E0.02533
G1 X219.805 Y261.886 E5.47476
G1 X219.805 Y262.492 E0.02533
G1 X126.591 Y169.279 E5.51059
G1 X125.985 Y169.279 E0.02533
G1 X219.805 Y263.098 E5.54641
G1 X219.805 Y263.704 E0.02533
G1 X125.379 Y169.279 E5.58224
G1 X124.773 Y169.279 E0.02533
G1 X219.805 Y264.31 E5.61806
G1 X219.805 Y264.916 E0.02533
G1 X124.167 Y169.279 E5.65389
G1 X123.561 Y169.279 E0.02533
G1 X219.805 Y265.522 E5.68971
G1 X219.805 Y266.128 E0.02533
G1 X122.955 Y169.279 E5.72554
G1 X122.349 Y169.279 E0.02533
G1 X219.805 Y266.734 E5.76136
G1 X219.805 Y267.34 E0.02533
G1 X121.743 Y169.279 E5.79719
G1 X121.138 Y169.279 E0.02533
G1 X219.805 Y267.946 E5.83301
G1 X219.805 Y268.552 E0.02533
G1 X120.532 Y169.279 E5.86884
G1 X119.926 Y169.279 E0.02533
G1 X219.805 Y269.158 E5.90466
G1 X219.805 Y269.764 E0.02533
G1 X119.32 Y169.279 E5.94049
G1 X118.714 Y169.279 E0.02533
G1 X219.805 Y270.37 E5.97631
G1 X219.805 Y270.976 E0.02533
G1 X118.108 Y169.279 E6.01213
G1 X117.502 Y169.279 E0.02533
G1 X219.805 Y271.582 E6.04796
G1 X219.805 Y272.188 E0.02533
G1 X116.896 Y169.279 E6.08378
G1 X116.29 Y169.279 E0.02533
G1 X219.805 Y272.794 E6.11961
G1 X219.805 Y273.4 E0.02533
G1 X115.684 Y169.279 E6.15543
G1 X115.078 Y169.279 E0.02533
G1 X219.805 Y274.006 E6.19126
G1 X219.805 Y274.612 E0.02533
G1 X114.472 Y169.279 E6.22708
G1 X113.866 Y169.279 E0.02533
G1 X219.805 Y275.218 E6.26291
M73 P0 R733
G1 X219.805 Y275.824 E0.02533
G1 X113.26 Y169.279 E6.29873
G1 X112.654 Y169.279 E0.02533
G1 X219.805 Y276.43 E6.33456
G1 X219.805 Y277.036 E0.02533
G1 X112.048 Y169.279 E6.37038
G1 X111.442 Y169.279 E0.02533
G1 X219.805 Y277.642 E6.40621
G1 X219.805 Y278.248 E0.02533
G1 X110.836 Y169.279 E6.44203
G1 X110.23 Y169.279 E0.02533
G1 X219.805 Y278.854 E6.47785
G1 X219.805 Y279.46 E0.02533
G1 X109.624 Y169.279 E6.51368
G1 X109.018 Y169.279 E0.02533
G1 X219.805 Y280.066 E6.5495
G1 X219.805 Y280.672 E0.02533
G1 X108.945 Y169.813 E6.55378
G1 X108.945 Y170.419 E0.02533
G1 X219.805 Y281.278 E6.55378
G1 X219.805 Y281.884 E0.02533
G1 X108.945 Y171.025 E6.55378
G1 X108.945 Y171.631 E0.02533
G1 X219.805 Y282.49 E6.55378
G1 X219.805 Y283.096 E0.02533
G1 X108.945 Y172.237 E6.55378
G1 X108.945 Y172.843 E0.02533
G1 X219.805 Y283.702 E6.55378
G1 X219.805 Y284.308 E0.02533
G1 X108.945 Y173.449 E6.55378
G1 X108.945 Y174.055 E0.02533
G1 X219.805 Y284.914 E6.55378
G1 X219.805 Y285.52 E0.02533
G1 X108.945 Y174.661 E6.55378
G1 X108.945 Y175.267 E0.02533
G1 X219.805 Y286.126 E6.55378
G1 X219.805 Y286.732 E0.02533
G1 X108.945 Y175.873 E6.55378
G1 X108.945 Y176.479 E0.02533
G1 X219.805 Y287.338 E6.55378
G1 X219.805 Y287.944 E0.02533
G1 X108.945 Y177.085 E6.55378
G1 X108.945 Y177.691 E0.02533
G1 X219.805 Y288.55 E6.55378
G1 X219.805 Y289.156 E0.02533
G1 X108.945 Y178.297 E6.55378
M73 P0 R732
G1 X108.945 Y178.903 E0.02533
G1 X219.805 Y289.762 E6.55378
G1 X219.805 Y290.368 E0.02533
G1 X108.945 Y179.508 E6.55378
G1 X108.945 Y180.114 E0.02533
G1 X219.805 Y290.973 E6.55378
G1 X219.805 Y291.579 E0.02533
G1 X108.945 Y180.72 E6.55378
G1 X108.945 Y181.326 E0.02533
G1 X219.805 Y292.185 E6.55378
G1 X219.805 Y292.791 E0.02533
G1 X108.945 Y181.932 E6.55378
G1 X108.945 Y182.538 E0.02533
G1 X219.805 Y293.397 E6.55378
G1 X219.805 Y294.003 E0.02533
G1 X108.945 Y183.144 E6.55378
G1 X108.945 Y183.75 E0.02533
G1 X219.805 Y294.609 E6.55378
M73 P1 R732
G1 X219.805 Y295.215 E0.02533
G1 X108.945 Y184.356 E6.55378
G1 X108.945 Y184.962 E0.02533
G1 X219.805 Y295.821 E6.55378
G1 X219.805 Y296.427 E0.02533
G1 X108.945 Y185.568 E6.55378
G1 X108.945 Y186.174 E0.02533
G1 X219.805 Y297.033 E6.55378
G1 X219.805 Y297.639 E0.02533
G1 X108.945 Y186.78 E6.55378
