; generated by SuperSlicer 2.4 on 2022-07-09 at 03:36:32 UTC


;
;

;
;
; 

; external perimeters extrusion width = 0.40mm
; perimeters extrusion width = 0.48mm
; infill extrusion width = 0.72mm
; solid infill extrusion width = 0.56mm
; top infill extrusion width = 0.40mm
; support material extrusion width = 0.40mm
; first layer extrusion width = 0.48mm

; object:{"name":"Untitled","id":"Untitled.stl id:0 copy 0","object_center":[168.872061,157.931282,0.000000],"boundingbox_center":[168.872061,157.931282,13.567880],"boundingbox_size":[99.199997,110.000000,27.135759]}
; plater:{"center":[168.872061,157.931282,0.000000],"boundingbox_center":[168.872061,157.931282,13.567880],"boundingbox_size":[99.199997,110.000000,27.135759]}

M73 P0 R118
;TYPE:Custom
START_PRINT T_BED=110 T_EXTRUDER=245
M107
G21 ; set units to millimeters
G90 ; use absolute coordinates
M83 ; use relative distances for extrusion
; Filament gcode
M109 S245 ; set temperature and wait for it to be reached
M190 S110 ; set bed temperature and wait for it to be reached
M107
;LAYER_CHANGE
;Z:0.24
;HEIGHT:0.24
G1 Z0.24 F9000
G92 E0
G1 E-0.5 F3000
M204 S1000
G1 X119.049 Y102.988 F9000
G1 E0.5 F1800
;TYPE:Skirt
;WIDTH:0.52
G1 X118.074 Y104.716 E0.09278
G1 X117.882 Y105.943 E0.05806
G1 X117.882 Y194.922 E4.15945
G1 X118.038 Y196.07 E0.05416
G1 X119.313 Y201.307 E0.25197
G1 X119.67 Y202.222 E0.0459
G1 X127.989 Y217.267 E0.80366
G1 X129.564 Y218.782 E0.10216
G1 X131.226 Y219.177 E0.07988
G1 X152.318 Y219.177 E0.98596
G1 X153.443 Y219.001 E0.05324
G1 X215.634 Y199.144 E3.0518
G1 X217.192 Y198.166 E0.08603
G1 X217.596 Y197.741 E0.0274
G1 X218.547 Y195.878 E0.09777
G1 X218.662 Y194.922 E0.04503
G1 X218.662 Y105.943 E4.15945
G1 X218.47 Y104.716 E0.05806
G1 X217.495 Y102.988 E0.09277
M73 P0 R117
G1 X217.215 Y102.708 E0.01849
G1 X215.487 Y101.733 E0.09278
G1 X214.26 Y101.541 E0.05804
G1 X122.284 Y101.541 E4.29958
G1 X121.057 Y101.733 E0.05804
G1 X119.329 Y102.708 E0.09278
G1 X119.049 Y102.988 E0.01849
G1 X119.379 Y103.318 F9000
G1 F1800
G1 X118.526 Y104.828 E0.08108
G1 X118.348 Y105.943 E0.05279
G1 X118.348 Y194.922 E4.15945
G1 X118.491 Y195.96 E0.04897
G1 X119.766 Y201.197 E0.25197
G1 X120.078 Y201.996 E0.04012
G1 X128.397 Y217.041 E0.80366
G1 X129.68 Y218.316 E0.08455
G1 X131.226 Y218.71 E0.0746
G1 X152.318 Y218.71 E0.98596
G1 X153.301 Y218.557 E0.04652
G1 X215.475 Y198.706 E3.05095
G1 X216.854 Y197.845 E0.07602
G1 X217.257 Y197.42 E0.0274
G1 X218.089 Y195.792 E0.08545
G1 X218.196 Y194.922 E0.04098
G1 X218.196 Y105.943 E4.15945
G1 X218.018 Y104.828 E0.05279
G1 X217.165 Y103.318 E0.08108
G1 X216.886 Y103.038 E0.01849
G1 X215.375 Y102.186 E0.08108
G1 X214.26 Y102.007 E0.05278
G1 X122.284 Y102.007 E4.29958
G1 X121.169 Y102.186 E0.05278
G1 X119.659 Y103.038 E0.08108
G1 X119.379 Y103.318 E0.01849
G1 E-0.5 F3000
; printing object Untitled.stl id:0 copy 0
; acceleration to travel
M204 S3000
G1 X122.026 Y173.115 F9000
; decel to extrusion
M204 S1000
G1 X122.908 Y196.38
; end travel
G1 E0.5 F1800
;TYPE:Support material
;WIDTH:0.48
G1 X126.505 Y196.38 E0.15381
G1 X127.002 Y196.38 E0.02124
G1 X127.498 Y196.38 E0.02124
G1 X127.995 Y196.38 E0.02124
G1 X131.472 Y196.379 E0.14865
G1 X131.969 Y196.379 E0.02124
G1 X132.962 Y196.379 E0.04247
G1 X133.459 Y196.379 E0.02124
G1 X136.439 Y196.379 E0.12741
G1 X136.935 Y196.379 E0.02124
G1 X138.425 Y196.379 E0.06371
G1 X138.922 Y196.379 E0.02124
G1 X141.405 Y196.378 E0.10618
G1 X141.902 Y196.378 E0.02124
G1 X144.385 Y196.378 E0.10618
G1 X144.882 Y196.378 E0.02124
G1 X146.372 Y196.378 E0.06371
G1 X146.869 Y196.378 E0.02124
G1 X149.849 Y196.378 E0.12741
G1 X150.345 Y196.377 E0.02124
G1 X151.339 Y196.377 E0.04247
G1 X151.835 Y196.377 E0.02124
G1 X155.312 Y196.377 E0.14865
G1 X155.809 Y196.377 E0.02124
G1 X156.305 Y196.377 E0.02124
G1 X156.802 Y196.377 E0.02124
G1 X160.775 Y196.376 E0.16988
G1 X160.999 Y196.376 E0.00956
G1 X160.999 Y200.432 E0.17339
G1 X152.318 Y200.432 E0.37118
G1 X152.318 Y215.477 E0.64327
G1 X131.226 Y215.477 E0.90178
G1 X131.226 Y200.432 E0.64327
G1 X122.908 Y200.432 E0.35566
G1 X122.908 Y197.71 E0.11637
G1 X122.908 Y197.435 E0.01176
G1 X122.908 Y197.287 E0.00633
G1 X122.908 Y196.38 E0.03876
; acceleration to travel
M204 S3000
G1 X135.415 Y202.346 F9000
; decel to extrusion
M204 S1000
G1 X139.585 Y204.334
; end travel
G1 F1800
G1 X139.526 Y204.473 E0.00645
G1 X139.464 Y204.617 E0.00669
G1 X139.423 Y204.761 E0.00643
G1 X139.38 Y204.913 E0.00671
G1 X139.334 Y205.216 E0.01314
G1 X139.327 Y205.524 E0.01315
G1 X139.357 Y205.829 E0.01313
G1 X139.412 Y206.068 E0.01046
G1 X139.426 Y206.129 E0.00268
G1 X139.532 Y206.417 E0.01314
G1 X139.59 Y206.528 E0.00535
G1 X139.674 Y206.69 E0.00779
G1 X139.848 Y206.943 E0.01314
G1 X140.053 Y207.173 E0.01314
G1 X140.149 Y207.257 E0.00548
G1 X140.284 Y207.374 E0.00766
G1 X140.54 Y207.546 E0.01314
G1 X140.814 Y207.683 E0.01314
G1 X140.943 Y207.729 E0.00581
G1 X141.104 Y207.786 E0.00733
G1 X141.138 Y207.793 E0.00149
G1 X141.154 Y207.796 E0.00071
G1 X141.321 Y207.833 E0.00729
G1 X141.405 Y207.851 E0.00365
G1 X141.711 Y207.878 E0.01314
G1 X142.014 Y207.866 E0.01297
G1 X142.321 Y207.816 E0.01333
G1 X142.616 Y207.729 E0.01312
G1 X142.897 Y207.605 E0.01314
G1 X142.996 Y207.546 E0.00492
G1 X143.16 Y207.447 E0.00822
G1 X143.33 Y207.313 E0.00925
G1 X143.402 Y207.257 E0.00389
G1 X143.511 Y207.147 E0.00661
G1 X143.618 Y207.038 E0.00653
G1 X143.805 Y206.794 E0.01314
G1 X143.96 Y206.528 E0.01314
G1 X144.08 Y206.246 E0.01314
G1 X144.164 Y205.95 E0.01314
G1 X144.186 Y205.801 E0.00645
G1 X144.21 Y205.646 E0.00669
G1 X144.218 Y205.339 E0.01314
G1 X144.202 Y205.182 E0.00674
G1 X144.187 Y205.033 E0.0064
G1 X144.143 Y204.844 E0.00832
G1 X144.118 Y204.734 E0.00482
G1 X144.059 Y204.575 E0.00723
G1 X144.012 Y204.445 E0.00591
G1 X143.871 Y204.172 E0.01314
G1 X143.696 Y203.919 E0.01314
G1 X143.492 Y203.69 E0.01314
G1 X143.456 Y203.659 E0.00204
G1 X143.37 Y203.584 E0.00483
G1 X143.26 Y203.488 E0.00627
G1 X143.134 Y203.404 E0.00646
G1 X143.004 Y203.317 E0.00668
G1 X142.857 Y203.243 E0.00704
G1 X142.73 Y203.179 E0.0061
G1 X142.44 Y203.077 E0.01314
G1 X142.424 Y203.073 E0.0007
G1 X142.392 Y203.067 E0.00141
G1 X142.14 Y203.012 E0.01103
G1 X142.059 Y203.005 E0.00347
G1 X141.927 Y202.993 E0.00564
G1 X141.834 Y202.985 E0.00403
G1 X141.526 Y202.996 E0.01314
G1 X141.223 Y203.046 E0.01314
G1 X141.156 Y203.066 E0.00301
G1 X140.929 Y203.134 E0.01013
G1 X140.647 Y203.258 E0.01314
G1 X140.384 Y203.416 E0.01314
G1 X140.242 Y203.528 E0.00773
G1 X140.142 Y203.606 E0.00541
G1 X140.033 Y203.717 E0.00665
G1 X139.926 Y203.824 E0.00649
G1 X139.739 Y204.069 E0.01314
G1 X139.585 Y204.334 E0.01314
G1 E-0.5 F3000
; acceleration to travel
M204 S3000
G1 X155.123 Y201.327 F9000
; decel to extrusion
M204 S1000
G1 X160.302 Y200.325
; end travel
G1 E0.5 F1800
G1 X160.302 Y196.668 E0.15635
G1 X159.826 Y196.668 E0.02036
G1 X159.826 Y200.14 E0.14847
G1 X159.35 Y200.14 E0.02036
G1 X159.35 Y196.668 E0.14847
G1 X158.874 Y196.668 E0.02036
G1 X158.874 Y200.14 E0.14846
G1 X158.398 Y200.14 E0.02036
G1 X158.398 Y196.668 E0.14846
G1 X157.922 Y196.668 E0.02036
G1 X157.922 Y200.14 E0.14846
G1 X157.446 Y200.14 E0.02036
G1 X157.446 Y196.668 E0.14846
G1 X156.969 Y196.668 E0.02036
G1 X156.969 Y200.14 E0.14846
G1 X156.493 Y200.14 E0.02036
G1 X156.493 Y196.668 E0.14845
G1 X156.305 Y196.668 E0.00803
G1 X156.017 Y196.668 E0.01232
G1 X156.017 Y200.14 E0.14845
G1 X155.541 Y200.14 E0.02036
G1 X155.541 Y196.668 E0.14845
G1 X155.312 Y196.668 E0.00979
G1 X155.065 Y196.668 E0.01057
G1 X155.065 Y200.14 E0.14845
G1 X154.589 Y200.14 E0.02036
G1 X154.589 Y196.668 E0.14844
G1 X154.113 Y196.668 E0.02036
G1 X154.113 Y200.14 E0.14844
G1 X153.637 Y200.14 E0.02036
G1 X153.637 Y196.669 E0.14844
G1 X153.161 Y196.669 E0.02036
G1 X153.161 Y200.14 E0.14844
G1 X152.684 Y200.14 E0.02036
G1 X152.684 Y196.669 E0.14844
G1 X152.208 Y196.669 E0.02036
G1 X152.208 Y200.14 E0.14843
G1 X152.026 Y200.14 E0.00778
G1 X152.026 Y215.186 E0.64327
G1 X151.732 Y215.186 E0.01258
G1 X151.732 Y196.669 E0.7917
G1 X151.339 Y196.669 E0.01682
G1 X151.256 Y196.669 E0.00353
G1 X151.256 Y215.186 E0.7917
G1 X150.78 Y215.186 E0.02036
G1 X150.78 Y196.669 E0.7917
G1 X150.345 Y196.669 E0.01858
G1 X150.304 Y196.669 E0.00177
G1 X150.304 Y215.186 E0.79169
G1 X149.828 Y215.186 E0.02036
G1 X149.828 Y196.669 E0.79169
G1 X149.352 Y196.669 E0.02036
G1 X149.352 Y215.186 E0.79169
G1 X148.876 Y215.186 E0.02036
G1 X148.876 Y196.669 E0.79169
G1 X148.399 Y196.669 E0.02036
G1 X148.399 Y215.186 E0.79169
G1 X147.923 Y215.186 E0.02036
G1 X147.923 Y196.669 E0.79168
G1 X147.447 Y196.669 E0.02036
G1 X147.447 Y215.186 E0.79168
G1 X146.971 Y215.186 E0.02036
G1 X146.971 Y196.669 E0.79168
G1 X146.869 Y196.669 E0.00438
G1 X146.495 Y196.669 E0.01597
G1 X146.495 Y215.186 E0.79168
G1 X146.019 Y215.186 E0.02036
G1 X146.019 Y196.669 E0.79168
G1 X145.543 Y196.669 E0.02036
G1 X145.543 Y215.186 E0.79167
G1 X145.067 Y215.186 E0.02036
G1 X145.067 Y196.669 E0.79167
G1 X144.882 Y196.669 E0.0079
G1 X144.591 Y196.669 E0.01246
G1 X144.591 Y215.186 E0.79167
G1 X144.115 Y215.186 E0.02036
G1 X144.115 Y206.841 E0.35677
G1 X144.047 Y206.957 E0.00572
G1 X143.838 Y207.23 E0.01471
G1 X143.718 Y207.351 E0.00731
G1 X143.638 Y207.432 E0.00484
G1 X143.638 Y215.186 E0.33151
G1 X143.162 Y215.186 E0.02036
G1 X143.162 Y207.785 E0.31641
G1 X143.145 Y207.795 E0.00084
G1 X143.031 Y207.864 E0.0057
G1 X142.716 Y208.003 E0.01471
G1 X142.686 Y208.012 E0.00133
G1 X142.686 Y215.186 E0.30673
G1 X142.21 Y215.186 E0.02036
G1 X142.21 Y208.129 E0.30169
G1 X142.043 Y208.157 E0.00725
G1 X141.734 Y208.168 E0.01321
G1 X141.734 Y215.186 E0.30002
G1 X141.258 Y215.186 E0.02036
G1 X141.258 Y208.117 E0.30222
G1 X141.093 Y208.081 E0.00723
G1 X141.076 Y208.078 E0.00071
G1 X141.024 Y208.066 E0.00228
G1 X140.846 Y208.003 E0.00811
G1 X140.782 Y207.981 E0.00289
G1 X140.782 Y215.186 E0.30805
G1 X140.306 Y215.186 E0.02036
G1 X140.306 Y207.739 E0.31836
G1 X140.107 Y207.606 E0.01023
G1 X139.958 Y207.477 E0.00845
G1 X139.847 Y207.38 E0.00626
G1 X139.83 Y207.36 E0.00114
G1 X139.83 Y215.186 E0.33457
G1 X139.353 Y215.186 E0.02036
G1 X139.353 Y206.706 E0.36256
G1 X139.331 Y206.662 E0.00209
G1 X139.265 Y206.535 E0.00614
G1 X139.147 Y206.212 E0.01471
G1 X139.128 Y206.133 E0.00347
G1 X139.069 Y205.877 E0.01124
M73 P1 R117
G1 X139.035 Y205.535 E0.0147
G1 X139.043 Y205.191 E0.01471
G1 X139.095 Y204.851 E0.01471
G1 X139.143 Y204.682 E0.0075
G1 X139.189 Y204.52 E0.00721
G1 X139.257 Y204.359 E0.00747
G1 X139.324 Y204.203 E0.00724
G1 X139.353 Y204.152 E0.00253
G1 X139.353 Y196.67 E0.31989
G1 X138.922 Y196.67 E0.01845
G1 X138.877 Y196.67 E0.00191
G1 X138.877 Y215.186 E0.79164
G1 X138.401 Y215.186 E0.02036
G1 X138.401 Y196.67 E0.79164
G1 X137.925 Y196.67 E0.02036
G1 X137.925 Y215.186 E0.79164
G1 X137.449 Y215.186 E0.02036
G1 X137.449 Y196.67 E0.79164
G1 X136.973 Y196.67 E0.02036
G1 X136.973 Y215.186 E0.79164
G1 X136.497 Y215.186 E0.02036
G1 X136.497 Y196.67 E0.79163
G1 X136.439 Y196.67 E0.00249
G1 X136.021 Y196.67 E0.01787
G1 X136.021 Y215.186 E0.79163
G1 X135.545 Y215.186 E0.02036
G1 X135.545 Y196.67 E0.79163
G1 X135.069 Y196.67 E0.02036
G1 X135.069 Y215.186 E0.79163
G1 X134.592 Y215.186 E0.02036
G1 X134.592 Y196.67 E0.79163
G1 X134.116 Y196.671 E0.02036
G1 X134.116 Y215.186 E0.79162
G1 X133.64 Y215.186 E0.02036
G1 X133.64 Y196.671 E0.79162
G1 X133.459 Y196.671 E0.00777
G1 X133.164 Y196.671 E0.01259
G1 X133.164 Y215.186 E0.79162
G1 X132.688 Y215.186 E0.02036
G1 X132.688 Y196.671 E0.79162
G1 X132.212 Y196.671 E0.02036
G1 X132.212 Y215.186 E0.79162
G1 X131.736 Y215.186 E0.02036
G1 X131.736 Y196.671 E0.79161
G1 X131.472 Y196.671 E0.01128
G1 X131.26 Y196.671 E0.00907
G1 X131.26 Y200.14 E0.14834
G1 X130.784 Y200.14 E0.02036
G1 X130.784 Y196.671 E0.14834
G1 X130.307 Y196.671 E0.02036
G1 X130.307 Y200.14 E0.14834
G1 X129.831 Y200.14 E0.02036
G1 X129.831 Y196.671 E0.14834
G1 X129.355 Y196.671 E0.02036
G1 X129.355 Y200.14 E0.14833
G1 X128.879 Y200.14 E0.02036
G1 X128.879 Y196.671 E0.14833
G1 X128.403 Y196.671 E0.02036
G1 X128.403 Y200.14 E0.14833
G1 X127.927 Y200.14 E0.02036
G1 X127.927 Y196.671 E0.14833
G1 X127.499 Y196.671 E0.01832
G1 X127.451 Y196.671 E0.00204
G1 X127.451 Y200.14 E0.14833
G1 X126.975 Y200.14 E0.02036
G1 X126.975 Y196.671 E0.14832
G1 X126.499 Y196.671 E0.02036
G1 X126.499 Y200.14 E0.14832
G1 X126.023 Y200.14 E0.02036
G1 X126.023 Y196.671 E0.14832
G1 X125.546 Y196.671 E0.02036
G1 X125.546 Y200.14 E0.14832
G1 X125.07 Y200.14 E0.02036
G1 X125.07 Y196.671 E0.14832
G1 X124.594 Y196.671 E0.02036
G1 X124.594 Y200.14 E0.14831
G1 X124.118 Y200.14 E0.02036
G1 X124.118 Y196.672 E0.14831
G1 X123.642 Y196.672 E0.02036
G1 X123.642 Y200.325 E0.15619
G1 E-0.5 F3000
; acceleration to travel
M204 S3000
G1 X138.996 Y203.392 F9000
; decel to extrusion
M204 S1000
G1 X144.115 Y204.414
; end travel
G1 E0.5 F1800
G1 X144.115 Y196.669 E0.33113
G1 X143.638 Y196.67 E0.02036
G1 X143.638 Y203.432 E0.28911
G1 X143.562 Y203.365 E0.00435
G1 X143.437 Y203.256 E0.00705
G1 X143.297 Y203.162 E0.00724
G1 X143.162 Y203.072 E0.00691
G1 X143.162 Y196.67 E0.27374
G1 X142.686 Y196.67 E0.02036
G1 X142.686 Y202.855 E0.26445
G1 X142.52 Y202.796 E0.00755
G1 X142.486 Y202.789 E0.00149
G1 X142.454 Y202.782 E0.00141
G1 X142.21 Y202.729 E0.01065
G1 X142.21 Y196.67 E0.25907
G1 X141.902 Y196.67 E0.01317
G1 X141.734 Y196.67 E0.00718
G1 X141.734 Y202.697 E0.2577
G1 X141.497 Y202.706 E0.01014
G1 X141.258 Y202.745 E0.01036
G1 X141.258 Y196.67 E0.25977
G1 X140.782 Y196.67 E0.02036
G1 X140.782 Y202.88 E0.26553
G1 X140.513 Y202.999 E0.01255
G1 X140.306 Y203.123 E0.01034
G1 X140.306 Y196.67 E0.27591
G1 X139.83 Y196.67 E0.02036
G1 X139.83 Y203.774 E0.30376
G1 E-0.5 F3000
; acceleration to travel
M204 S3000
G1 X126.966 Y196.836 F9000
; decel to extrusion
M204 S1000
G1 X122.678 Y194.523
; end travel
G1 E0.5 F1800
;TYPE:Internal perimeter
G1 X122.678 Y106.337 E3.77041
G1 X160.866 Y106.34 E1.63273
M73 P1 R116
G1 X160.866 Y194.525 E3.77041
G1 X122.678 Y194.523 E1.63273
G1 X122.25 Y194.951 F9000
G1 F1800
G1 X122.25 Y105.909 E3.80705
G1 X161.294 Y105.911 E1.66937
G1 X161.294 Y194.954 E3.80705
G1 X122.25 Y194.951 E1.66937
G1 X122.139 Y195.38 F9000
;TYPE:External perimeter
G1 F1800
G1 X121.855 Y195.081 E0.01762
G1 X121.821 Y194.9 E0.00789
G1 X121.821 Y105.973 E3.80211
G1 X121.882 Y105.726 E0.01084
G1 X122.067 Y105.541 E0.01119
G1 X122.313 Y105.48 E0.01084
G1 X161.403 Y105.483 E1.67129
G1 X161.689 Y105.782 E0.01768
G1 X161.723 Y105.963 E0.00789
G1 X161.723 Y194.89 E3.80211
G1 X161.662 Y195.136 E0.01084
G1 X161.477 Y195.321 E0.01119
G1 X161.231 Y195.382 E0.01084
G1 X122.139 Y195.38 E1.67138
;WIPE_START
M204 S4000
G1 X122.146 Y194.98 F9000
;WIPE_END
; acceleration to travel
M204 S3000
G1 X149.511 Y130.839
; decel to extrusion
M204 S1000
G1 X159.935 Y106.404
; end travel
;TYPE:Solid infill
;WIDTH:0.477404
G1 F3600
G1 X160.617 Y107.086 E0.04101
G1 X160.617 Y107.692 E0.02577
G1 X159.514 Y106.588 E0.06638
G1 X158.908 Y106.588 E0.02577
G1 X160.617 Y108.298 E0.10282
G1 X160.617 Y108.904 E0.02577
G1 X158.302 Y106.588 E0.13927
G1 X157.696 Y106.588 E0.02577
G1 X160.617 Y109.51 E0.17571
G1 X160.617 Y110.116 E0.02577
G1 X157.09 Y106.588 E0.21216
G1 X156.484 Y106.588 E0.02577
G1 X160.617 Y110.722 E0.2486
G1 X160.617 Y111.328 E0.02577
G1 X155.878 Y106.588 E0.28505
G1 X155.272 Y106.588 E0.02577
G1 X160.617 Y111.934 E0.32149
G1 X160.617 Y112.54 E0.02577
G1 X154.666 Y106.588 E0.35794
G1 X154.059 Y106.588 E0.02577
G1 X160.617 Y113.146 E0.39438
G1 X160.617 Y113.752 E0.02577
G1 X153.453 Y106.588 E0.43083
G1 X152.847 Y106.588 E0.02577
G1 X160.617 Y114.358 E0.46727
G1 X160.617 Y114.964 E0.02577
G1 X152.241 Y106.588 E0.50372
G1 X151.635 Y106.588 E0.02577
G1 X160.617 Y115.57 E0.54016
G1 X160.617 Y116.176 E0.02577
G1 X151.029 Y106.588 E0.57661
G1 X150.423 Y106.588 E0.02577
G1 X160.617 Y116.782 E0.61305
G1 X160.617 Y117.388 E0.02577
G1 X149.817 Y106.588 E0.6495
G1 X149.211 Y106.588 E0.02577
G1 X160.617 Y117.994 E0.68594
G1 X160.617 Y118.6 E0.02577
G1 X148.605 Y106.587 E0.72239
G1 X147.999 Y106.587 E0.02577
G1 X160.617 Y119.206 E0.75883
G1 X160.617 Y119.812 E0.02577
G1 X147.393 Y106.587 E0.79528
