; generated by SuperSlicer 2.4 on 2022-05-14 at 04:08:01 UTC


;
;

;
;
; 

; external perimeters extrusion width = 0.40mm
; perimeters extrusion width = 0.40mm
; infill extrusion width = 0.72mm
; solid infill extrusion width = 0.56mm
; top infill extrusion width = 0.40mm
; first layer extrusion width = 0.48mm

; object:{"name":"Untitled","id":"Untitled.stl id:0 copy 0","object_center":[165.000000,165.000000,0.000000],"boundingbox_center":[165.000000,165.000000,9.150002],"boundingbox_size":[25.782898,94.202026,18.300003]}
; plater:{"center":[165.000000,165.000000,0.000000],"boundingbox_center":[165.000000,165.000000,9.150002],"boundingbox_size":[25.782898,94.202026,18.300003]}

M73 P0 R50
;TYPE:Custom
START_PRINT T_BED=110 T_EXTRUDER=245
M107
G21 ; set units to millimeters
G90 ; use absolute coordinates
M83 ; use relative distances for extrusion
; Filament gcode
M109 S245 ; set temperature and wait for it to be reached
M190 S110 ; set bed temperature and wait for it to be reached
M107
;LAYER_CHANGE
;Z:0.24
;HEIGHT:0.24
G1 Z0.24 F9000
G92 E0
G1 E-0.5 F3000
M204 S1000
G1 X149.735 Y116.865 F9000
G1 E0.5 F1800
;TYPE:Skirt
;WIDTH:0.52
G1 X149.227 Y118.497 E0.07988
G1 X149.189 Y119.179 E0.03194
G1 X149.189 Y210.659 E4.2764
G1 X149.265 Y211.511 E0.03996
G1 X150.015 Y213.332 E0.09209
G1 X151.346 Y214.404 E0.07988
G1 X153.017 Y214.763 E0.07988
G1 X154.67 Y214.333 E0.07988
G1 X155.48 Y213.839 E0.04434
G1 X156.207 Y213.234 E0.04423
G1 X178.529 Y190.771 E1.48035
G1 X179.384 Y189.566 E0.06904
G1 X179.928 Y187.635 E0.09383
G1 X179.928 Y142.365 E2.11618
G1 X179.384 Y140.434 E0.09383
G1 X178.529 Y139.229 E0.06904
G1 X155.854 Y116.413 E1.50369
G1 X155.347 Y115.959 E0.03182
G1 X154.228 Y115.29 E0.06093
G1 X152.534 Y115.07 E0.07988
G1 X150.921 Y115.636 E0.07988
G1 X149.735 Y116.865 E0.07988
G1 X150.19 Y117.015 F9000
G1 F1800
G1 X149.692 Y118.529 E0.07448
G1 X149.655 Y119.179 E0.03045
G1 X149.655 Y210.659 E4.2764
G1 X149.728 Y211.454 E0.03733
G1 X150.202 Y212.787 E0.06612
G1 X151.359 Y213.886 E0.0746
G1 X152.901 Y214.297 E0.0746
G1 X154.452 Y213.921 E0.0746
G1 X155.193 Y213.472 E0.04051
G1 X155.877 Y212.905 E0.04151
G1 X178.198 Y190.442 E1.48035
G1 X178.986 Y189.323 E0.06398
G1 X179.462 Y187.635 E0.082
G1 X179.462 Y142.365 E2.11618
G1 X178.986 Y140.677 E0.082
G1 X178.198 Y139.558 E0.06398
G1 X155.041 Y116.311 E1.53388
G1 X152.898 Y115.517 E0.10682
G1 X151.354 Y115.92 E0.0746
G1 X150.19 Y117.015 E0.0747
; INIT printing object Untitled.stl id:0 copy 0
G1 E-0.5 F3000
; printing object Untitled.stl id:0 copy 0
; acceleration to travel
M204 S3000
G1 X155.327 Y156.935 F9000
; decel to extrusion
M204 S1000
G1 X157.039 Y170.242
; end travel
G1 E0.5 F1800
;TYPE:Internal perimeter
;WIDTH:0.48
G1 X156.614 Y170.36 E0.01886
G1 X156.165 Y170.579 E0.02135
G1 X155.804 Y170.841 E0.01909
G1 X155.482 Y171.169 E0.01961
G1 X155.215 Y171.553 E0.02
G1 X155.032 Y171.937 E0.01818
G1 X154.914 Y172.318 E0.01707
G1 X154.855 Y172.665 E0.01505
G1 X154.84 Y172.987 E0.01379
G1 X154.841 Y200.078 E1.15825
G1 X154.861 Y200.353 E0.01179
G1 X154.932 Y200.675 E0.01413
G1 X155.052 Y200.992 E0.0145
G1 X155.222 Y201.294 E0.01481
G1 X155.449 Y201.579 E0.01556
G1 X155.679 Y201.794 E0.01346
G1 X155.929 Y201.969 E0.01306
G1 X156.239 Y202.128 E0.0149
G1 X156.569 Y202.235 E0.01483
G1 X156.871 Y202.288 E0.01311
G1 X157.184 Y202.298 E0.01339
G1 X157.551 Y202.258 E0.01578
G1 X157.904 Y202.156 E0.01572
G1 X158.191 Y202.026 E0.01346
G1 X158.449 Y201.862 E0.01307
G1 X158.691 Y201.656 E0.01358
G1 X171.615 Y188.732 E0.78147
G1 X171.907 Y188.383 E0.01946
G1 X172.161 Y187.936 E0.02195
G1 X172.332 Y187.432 E0.02278
G1 X172.404 Y186.894 E0.02322
G1 X172.369 Y186.352 E0.02322
G1 X172.233 Y185.836 E0.02279
G1 X172.011 Y185.373 E0.02197
G1 X171.742 Y185.004 E0.01949
G1 X159.683 Y171.172 E0.78459
G1 X159.459 Y170.939 E0.01384
G1 X159.185 Y170.715 E0.01511
G1 X158.827 Y170.496 E0.01796
G1 X158.46 Y170.339 E0.01708
G1 X158.029 Y170.228 E0.01902
G1 X157.545 Y170.188 E0.02075
G1 X157.075 Y170.232 E0.02019
G1 X157.039 Y170.242 E0.00162
G1 X157.153 Y170.655 F9000
;TYPE:External perimeter
G1 F1800
G1 X156.984 Y170.702 E0.00749
G1 X156.766 Y170.762 E0.00968
G1 X156.386 Y170.948 E0.01806
G1 X156.084 Y171.167 E0.01596
G1 X155.814 Y171.443 E0.01653
G1 X155.587 Y171.769 E0.01697
G1 X155.432 Y172.093 E0.01535
G1 X155.332 Y172.418 E0.01453
G1 X155.282 Y172.712 E0.01274
G1 X155.269 Y172.998 E0.01224
G1 X155.269 Y200.062 E1.15714
G1 X155.286 Y200.291 E0.00982
G1 X155.343 Y200.553 E0.01148
G1 X155.441 Y200.81 E0.01176
G1 X155.578 Y201.054 E0.01196
G1 X155.764 Y201.287 E0.01276
G1 X155.822 Y201.341 E0.00337
G1 X155.95 Y201.46 E0.00747
G1 X156.151 Y201.601 E0.01051
G1 X156.404 Y201.731 E0.01216
G1 X156.673 Y201.818 E0.01209
G1 X156.916 Y201.861 E0.01055
G1 X157.168 Y201.869 E0.01077
G1 X157.467 Y201.836 E0.01289
G1 X157.756 Y201.753 E0.01283
G1 X157.986 Y201.648 E0.01084
G1 X158.194 Y201.516 E0.01051
G1 X158.26 Y201.46 E0.00369
G1 X158.4 Y201.341 E0.00788
G1 X171.299 Y188.442 E0.77992
G1 X171.554 Y188.137 E0.01699
G1 X171.768 Y187.76 E0.01855
G1 X171.913 Y187.334 E0.01925
G1 X171.974 Y186.879 E0.01963
G1 X171.944 Y186.421 E0.01963
G1 X171.829 Y185.985 E0.01926
G1 X171.641 Y185.594 E0.01857
G1 X171.407 Y185.272 E0.01702
G1 X159.367 Y171.462 E0.78334
G1 X159.168 Y171.254 E0.01229
G1 X158.937 Y171.066 E0.01275
G1 X158.744 Y170.948 E0.00966
G1 X158.63 Y170.878 E0.00572
G1 X158.527 Y170.834 E0.00479
G1 X158.321 Y170.746 E0.00958
G1 X158.197 Y170.714 E0.00547
G1 X157.957 Y170.652 E0.01059
G1 X157.65 Y170.626 E0.01321
G1 X157.548 Y170.618 E0.00436
G1 X157.153 Y170.655 E0.01695
;WIPE_START
M204 S4000
G1 X157.036 Y170.525 F9000
;WIPE_END
; acceleration to travel
M204 S3000
G1 X159.123 Y168.879
; decel to extrusion
M204 S1000
G1 X159.819 Y168.331
; end travel
;TYPE:Internal perimeter
G1 F1800
G1 X169.534 Y179.474 E0.63205
G1 X169.758 Y179.707 E0.01384
G1 X170.032 Y179.931 E0.01512
G1 X170.39 Y180.15 E0.01795
G1 X170.757 Y180.307 E0.01706
G1 X171.16 Y180.412 E0.01783
G1 X171.643 Y180.459 E0.02071
G1 X172.14 Y180.415 E0.02135
G1 X172.601 Y180.287 E0.02046
G1 X173.033 Y180.08 E0.02047
G1 X173.433 Y179.788 E0.02119
G1 X173.752 Y179.456 E0.01969
G1 X174.003 Y179.091 E0.01892
G1 X174.185 Y178.709 E0.01808
G1 X174.303 Y178.326 E0.01716
G1 X174.367 Y177.94 E0.0167
G1 X174.377 Y152.331 E1.09493
G1 X174.362 Y152.009 E0.01379
G1 X174.303 Y151.662 E0.01505
G1 X174.185 Y151.28 E0.01707
G1 X174.002 Y150.897 E0.01818
G1 X173.735 Y150.513 E0.02
G1 X173.414 Y150.185 E0.01961
G1 X173.052 Y149.923 E0.01909
G1 X172.603 Y149.703 E0.02137
G1 X172.136 Y149.574 E0.0207
G1 X171.618 Y149.533 E0.02226
G1 X171.16 Y149.578 E0.01966
G1 X170.757 Y149.683 E0.0178
G1 X170.39 Y149.84 E0.01706
G1 X170.032 Y150.059 E0.01795
G1 X169.758 Y150.283 E0.01511
G1 X169.534 Y150.516 E0.01384
G1 X158.476 Y163.2 E0.71947
G1 X158.217 Y163.553 E0.01872
G1 X157.998 Y163.995 E0.02109
G1 X157.859 Y164.484 E0.02171
G1 X157.812 Y164.997 E0.02205
G1 X157.86 Y165.51 E0.02201
G1 X158 Y165.998 E0.02173
G1 X158.217 Y166.438 E0.02097
G1 X158.476 Y166.79 E0.01866
G1 X159.819 Y168.331 E0.08741
G1 X160.142 Y168.049 F9000
;TYPE:External perimeter
G1 F1800
G1 X164.456 Y172.998 E0.28068
G1 X169.85 Y179.184 E0.35094
G1 X169.977 Y179.317 E0.00783
G1 X170.049 Y179.392 E0.00446
G1 X170.28 Y179.581 E0.01275
G1 X170.587 Y179.768 E0.01538
G1 X170.896 Y179.9 E0.01435
G1 X171.236 Y179.989 E0.01501
G1 X171.313 Y179.996 E0.00331
G1 X171.644 Y180.028 E0.01426
G1 X171.776 Y180.017 E0.00566
G1 X172.063 Y179.991 E0.01231
G1 X172.45 Y179.884 E0.01716
G1 X172.812 Y179.71 E0.01717
G1 X173.15 Y179.464 E0.01791
G1 X173.419 Y179.185 E0.01657
G1 X173.631 Y178.876 E0.01599
G1 X173.785 Y178.553 E0.01531
G1 X173.885 Y178.228 E0.01457
G1 X173.938 Y177.905 E0.01396
G1 X173.949 Y152.341 E1.093
G1 X173.935 Y152.055 E0.01224
G1 X173.885 Y151.761 E0.01274
G1 X173.785 Y151.437 E0.01453
G1 X173.63 Y151.113 E0.01535
G1 X173.404 Y150.787 E0.01697
G1 X173.133 Y150.511 E0.01653
G1 X172.831 Y150.291 E0.01596
G1 X172.579 Y150.169 E0.01196
G1 X172.451 Y150.106 E0.00612
G1 X172.062 Y149.998 E0.01726
G1 X171.622 Y149.963 E0.01887
G1 X171.235 Y150.001 E0.0166
G1 X170.896 Y150.09 E0.015
G1 X170.587 Y150.222 E0.01436
G1 X170.28 Y150.409 E0.01538
G1 X170.049 Y150.598 E0.01275
G1 X169.85 Y150.805 E0.01229
G1 X158.81 Y163.468 E0.71826
G1 X158.584 Y163.776 E0.01634
G1 X158.4 Y164.15 E0.01782
G1 X158.282 Y164.563 E0.01835
G1 X158.242 Y164.997 E0.01864
G1 X158.283 Y165.43 E0.0186
G1 X158.401 Y165.843 E0.01837
G1 X158.585 Y166.214 E0.01772
G1 X158.81 Y166.522 E0.0163
G1 X160.142 Y168.049 E0.08664
;WIPE_START
M204 S4000
G1 X160.012 Y168.428 F9000
;WIPE_END
G1 E-0.5 F3000
; acceleration to travel
M204 S3000
G1 X158.731 Y162.547 F9000
; decel to extrusion
M204 S1000
G1 X158.304 Y160.587
; end travel
G1 E0.5 F1800
;TYPE:Internal perimeter
G1 X158.738 Y160.474 E0.01915
G1 X159.221 Y160.267 E0.02248
G1 X159.682 Y159.985 E0.0231
G1 X159.83 Y159.865 E0.00814
G1 X160.049 Y160.091 E0.01347
G1 X157.806 Y162.664 E0.14595
G1 X157.481 Y163.107 E0.02346
G1 X157.196 Y163.686 E0.02761
G1 X157.013 Y164.326 E0.02844
G1 X156.951 Y164.998 E0.02887
G1 X157.014 Y165.669 E0.02883
G1 X157.197 Y166.309 E0.02844
G1 X157.482 Y166.885 E0.02747
G1 X157.806 Y167.326 E0.02339
G1 X160.08 Y169.934 E0.14794
G1 X159.861 Y170.16 E0.01347
G1 X159.682 Y170.015 E0.00984
G1 X159.221 Y169.733 E0.02311
G1 X158.737 Y169.526 E0.02252
G1 X158.173 Y169.38 E0.02492
G1 X157.54 Y169.328 E0.02712
G1 X156.92 Y169.386 E0.02666
G1 X156.309 Y169.555 E0.0271
G1 X155.722 Y169.842 E0.02792
G1 X155.242 Y170.19 E0.02535
G1 X154.82 Y170.62 E0.02577
G1 X154.749 Y170.723 E0.00534
G1 X154.508 Y170.648 E0.01077
G1 X154.507 Y159.35 E0.48303
G1 X154.747 Y159.275 E0.01077
G1 X154.82 Y159.38 E0.00546
G1 X155.242 Y159.81 E0.02578
G1 X155.722 Y160.158 E0.02535
G1 X156.309 Y160.445 E0.02795
G1 X156.924 Y160.615 E0.02727
G1 X157.578 Y160.673 E0.02809
G1 X158.207 Y160.612 E0.027
G1 X158.304 Y160.587 E0.00431
; acceleration to travel
M204 S3000
G1 X166.452 Y152.086 F9000
; decel to extrusion
M204 S1000
G1 X169.168 Y149.252
; end travel
G1 F1800
G1 X172.413 Y145.53 E0.21112
G1 X172.75 Y145.068 E0.02445
G1 X173.042 Y144.459 E0.02888
G1 X173.22 Y143.783 E0.02986
G1 X173.264 Y143.074 E0.03038
G1 X173.17 Y142.371 E0.03032
G1 X172.946 Y141.71 E0.02987
G1 X172.61 Y141.119 E0.02908
G1 X172.848 Y140.937 E0.01281
G1 X174.703 Y142.792 E0.11218
G1 X174.703 Y149.983 E0.30744
G1 X174.463 Y150.058 E0.01077
G1 X174.397 Y149.964 E0.00491
G1 X173.975 Y149.534 E0.02578
G1 X173.495 Y149.185 E0.02535
G1 X172.908 Y148.899 E0.02795
G1 X172.286 Y148.727 E0.02758
G1 X171.609 Y148.673 E0.02903
G1 X171.009 Y148.732 E0.02578
G1 X170.479 Y148.87 E0.02341
G1 X169.996 Y149.076 E0.02248
G1 X169.535 Y149.358 E0.0231
G1 X169.387 Y149.479 E0.00814
G1 X169.168 Y149.252 E0.01347
G1 E-0.5 F3000
; acceleration to travel
M204 S3000
G1 X161.444 Y132.856 F9000
; decel to extrusion
M204 S1000
G1 X158.869 Y127.391
; end travel
M73 P1 R50
G1 E0.5 F1800
G1 X158.602 Y127.219 E0.01355
G1 X158.169 Y127.025 E0.02028
G1 X157.69 Y126.895 E0.02122
G1 X157.251 Y126.844 E0.01892
G1 X156.816 Y126.855 E0.01857
G1 X156.334 Y126.936 E0.02091
G1 X155.885 Y127.091 E0.02032
G1 X155.511 Y127.279 E0.01789
G1 X155.139 Y127.538 E0.01939
G1 X154.502 Y128.137 E0.03735
G1 X154.502 Y122.591 E0.23712
G1 X159.062 Y127.151 E0.27573
G1 X158.869 Y127.391 E0.01316
G1 E-0.5 F3000
; acceleration to travel
M204 S3000
G1 X166.735 Y167.212 F9000
; decel to extrusion
M204 S1000
G1 X169.357 Y180.486
; end travel
G1 E0.5 F1800
G1 X169.535 Y180.632 E0.00983
M73 P1 R49
G1 X169.996 Y180.914 E0.0231
G1 X170.479 Y181.12 E0.02248
G1 X171.01 Y181.258 E0.02346
G1 X171.639 Y181.319 E0.027
G1 X172.293 Y181.261 E0.02809
G1 X172.903 Y181.093 E0.02705
G1 X173.474 Y180.819 E0.02707
G1 X173.999 Y180.436 E0.02776
G1 X174.703 Y179.704 E0.04345
G1 X174.703 Y187.208 E0.32084
G1 X172.848 Y189.063 E0.11217
G1 X172.61 Y188.881 E0.01281
G1 X172.946 Y188.289 E0.02913
G1 X173.17 Y187.628 E0.02983
G1 X173.265 Y186.923 E0.03041
G1 X173.219 Y186.213 E0.03041
G1 X173.041 Y185.539 E0.02984
G1 X172.749 Y184.932 E0.02877
G1 X172.413 Y184.47 E0.02444
G1 X169.138 Y180.713 E0.21311
G1 X169.357 Y180.486 E0.01347
G1 E-0.5 F3000
; acceleration to travel
M204 S3000
G1 X158.224 Y200.67 F9000
; decel to extrusion
M204 S1000
G1 X154.514 Y207.397
; end travel
G1 E0.5 F1800
G1 X154.513 Y202.148 E0.22446
G1 X154.742 Y202.067 E0.0104
G1 X154.818 Y202.162 E0.00518
G1 X155.138 Y202.461 E0.01872
G1 X155.486 Y202.705 E0.01817
G1 X155.91 Y202.922 E0.02038
G1 X156.362 Y203.068 E0.02032
G1 X156.782 Y203.142 E0.01823
G1 X157.217 Y203.157 E0.01862
G1 X157.718 Y203.101 E0.02155
G1 X158.202 Y202.962 E0.02152
G1 X158.6 Y202.781 E0.01871
G1 X158.869 Y202.61 E0.01362
G1 X159.061 Y202.85 E0.01314
G1 X154.514 Y207.397 E0.27497
G1 E-0.5 F3000
; acceleration to travel
M204 S3000
G1 X156.322 Y179.221 F9000
; decel to extrusion
M204 S1000
G1 X156.925 Y169.829
; end travel
G1 E0.5 F1800
G1 X156.461 Y169.958 E0.02056
G1 X155.943 Y170.21 E0.02463
G1 X155.523 Y170.516 E0.02222
G1 X155.151 Y170.895 E0.02269
G1 X154.844 Y171.337 E0.02304
G1 X154.632 Y171.78 E0.02101
G1 X154.497 Y172.219 E0.01961
G1 X154.429 Y172.619 E0.01736
G1 X154.415 Y172.908 E0.01238
G1 X154.08 Y172.9 E0.01431
G1 X154.078 Y157.054 E0.67754
G1 X154.413 Y157.046 E0.01431
G1 X154.429 Y157.381 E0.01436
G1 X154.497 Y157.781 E0.01736
G1 X154.632 Y158.22 E0.01961
G1 X154.844 Y158.663 E0.02101
G1 X155.151 Y159.105 E0.02303
G1 X155.523 Y159.484 E0.02269
G1 X155.943 Y159.79 E0.02222
G1 X156.462 Y160.043 E0.02466
G1 X157.001 Y160.192 E0.02391
G1 X157.576 Y160.243 E0.02472
G1 X158.132 Y160.189 E0.02385
G1 X158.599 Y160.067 E0.02064
G1 X159.024 Y159.886 E0.01977
G1 X159.434 Y159.635 E0.02053
G1 X159.75 Y159.377 E0.01747
G1 X160 Y159.117 E0.01539
G1 X172.078 Y145.263 E0.78583
G1 X172.38 Y144.847 E0.02198
G1 X172.638 Y144.31 E0.02547
G1 X172.795 Y143.715 E0.02633
G1 X172.834 Y143.089 E0.02679
G1 X172.751 Y142.47 E0.02673
G1 X172.553 Y141.886 E0.02634
G1 X172.26 Y141.371 E0.02534
G1 X171.931 Y140.979 E0.0219
G1 X158.986 Y128.033 E0.78275
G1 X158.728 Y127.81 E0.01457
G1 X158.397 Y127.597 E0.01683
G1 X158.025 Y127.429 E0.01746
G1 X157.609 Y127.317 E0.01841
G1 X157.231 Y127.273 E0.01627
G1 X156.858 Y127.282 E0.01596
G1 X156.44 Y127.353 E0.01811
G1 X156.051 Y127.487 E0.01758
G1 X155.731 Y127.648 E0.01535
G1 X155.409 Y127.872 E0.01674
G1 X155.115 Y128.148 E0.01726
G1 X154.86 Y128.474 E0.01766
G1 X154.65 Y128.854 E0.0186
G1 X154.513 Y129.23 E0.0171
G1 X154.436 Y129.587 E0.01563
G1 X154.404 Y130.015 E0.01833
G1 X154.074 Y130.003 E0.01412
G1 X154.073 Y121.556 E0.36114
G1 X175.037 Y142.52 E1.26761
G1 X175.132 Y142.675 E0.00773
G1 X175.132 Y152.129 E0.40424
G1 X174.797 Y152.137 E0.01431
G1 X174.789 Y151.963 E0.00747
G1 X174.72 Y151.562 E0.01736
G1 X174.585 Y151.124 E0.01961
G1 X174.373 Y150.681 E0.02101
G1 X174.066 Y150.238 E0.02303
G1 X173.694 Y149.859 E0.02269
G1 X173.274 Y149.554 E0.02222
G1 X172.755 Y149.301 E0.02466
G1 X172.211 Y149.15 E0.02414
G1 X171.613 Y149.103 E0.02564
G1 X171.085 Y149.155 E0.02272
G1 X170.618 Y149.276 E0.02061
G1 X170.193 Y149.458 E0.01977
G1 X169.783 Y149.709 E0.02053
G1 X169.467 Y149.967 E0.01747
G1 X169.218 Y150.227 E0.01539
G1 X158.141 Y162.932 E0.72068
G1 X157.849 Y163.33 E0.02109
G1 X157.597 Y163.841 E0.02435
G1 X157.436 Y164.405 E0.02507
G1 X157.381 Y164.998 E0.02546
G1 X157.437 Y165.589 E0.02542
G1 X157.599 Y166.154 E0.02508
G1 X157.85 Y166.661 E0.02422
G1 X158.141 Y167.058 E0.02103
G1 X169.217 Y179.763 E0.72067
G1 X169.467 Y180.023 E0.01539
G1 X169.783 Y180.281 E0.01748
G1 X170.193 Y180.532 E0.02053
G1 X170.618 Y180.714 E0.01977
G1 X171.085 Y180.835 E0.02064
G1 X171.641 Y180.889 E0.02386
G1 X172.217 Y180.838 E0.02472
G1 X172.752 Y180.69 E0.02375
G1 X173.253 Y180.449 E0.02377
G1 X173.716 Y180.112 E0.02448
G1 X174.086 Y179.728 E0.02281
G1 X174.375 Y179.306 E0.02186
G1 X174.585 Y178.866 E0.02086
G1 X174.721 Y178.424 E0.01976
G1 X174.817 Y177.845 E0.0251
G1 X175.132 Y177.871 E0.01351
G1 X175.132 Y187.325 E0.40425
G1 X175.037 Y187.48 E0.00773
