; generated by SuperSlicer 2.4 on 2022-06-27 at 03:53:41 UTC


;
;

;
;
; 

; external perimeters extrusion width = 0.40mm
; perimeters extrusion width = 0.48mm
; infill extrusion width = 0.72mm
; solid infill extrusion width = 0.56mm
; top infill extrusion width = 0.40mm
; support material extrusion width = 0.40mm
; first layer extrusion width = 0.48mm

; object:{"name":"BunkerLDoor","id":"BunkerLDoor.stl id:0 copy 0","object_center":[165.000000,165.000000,0.000000],"boundingbox_center":[165.000000,165.000000,3.028954],"boundingbox_size":[221.904499,232.789089,6.057907]}
; plater:{"center":[165.000000,165.000000,0.000000],"boundingbox_center":[165.000000,165.000000,3.028954],"boundingbox_size":[221.904499,232.789089,6.057907]}

M73 P0 R225
;TYPE:Custom
START_PRINT T_BED=60 T_EXTRUDER=200
M107
G21 ; set units to millimeters
G90 ; use absolute coordinates
M83 ; use relative distances for extrusion
; Filament gcode
M104 S200 ; set temperature
M109 S200 ; set temperature and wait for it to be reached
M190 S60 ; set bed temperature and wait for it to be reached
M107
;LAYER_CHANGE
;Z:0.24
;HEIGHT:0.24
G1 Z0.24 F9000
G92 E0
M73 P0 R224
G1 E-0.8 F3000
M204 S1000
G1 X104.259 Y102.802 F9000
G1 E0.8 F1800
;TYPE:Skirt
;WIDTH:0.52
G1 X51.513 Y156.296 E3.44162
G1 X50.843 Y157.23 E0.05266
G1 X50.448 Y158.893 E0.07828
G1 X50.448 Y262.267 E4.73574
G1 X50.79 Y263.82 E0.07288
G1 X51.847 Y265.163 E0.07828
G1 X53.394 Y265.888 E0.07828
G1 X157.492 Y287.562 E4.87121
G1 X158.246 Y287.64 E0.03473
G1 X177.234 Y287.64 E0.86986
G1 X178.028 Y287.554 E0.03659
G1 X276.646 Y265.88 E4.62569
G1 X278.058 Y265.237 E0.07104
G1 X279.157 Y263.929 E0.07828
G1 X279.552 Y262.267 E0.07828
G1 X279.552 Y79.891 E8.35492
G1 X279.33 Y78.631 E0.05862
G1 X278.393 Y77.202 E0.07828
G1 X276.914 Y76.347 E0.07828
G1 X172.792 Y45.161 E4.97937
G1 X171.73 Y45.006 E0.04915
G1 X162.795 Y45.006 E0.40936
G1 X161.633 Y45.193 E0.05389
G1 X160.179 Y46.089 E0.07828
G1 X104.259 Y102.802 E3.64866
G1 X104.591 Y103.129 F9000
G1 F1800
G1 X51.845 Y156.623 E3.44161
G1 X51.308 Y157.346 E0.04124
G1 X50.915 Y158.893 E0.07311
G1 X50.915 Y262.267 E4.73574
G1 X51.131 Y263.43 E0.05421
G1 X52.055 Y264.731 E0.07311
G1 X53.489 Y265.432 E0.07311
G1 X157.587 Y287.106 E4.87121
G1 X158.246 Y287.173 E0.03035
G1 X177.234 Y287.173 E0.86986
G1 X177.928 Y287.098 E0.03198
G1 X276.546 Y265.424 E4.62569
G1 X277.606 Y264.983 E0.0526
G1 X278.692 Y263.813 E0.07311
G1 X279.085 Y262.267 E0.07311
G1 X279.085 Y79.891 E8.35492
G1 X278.957 Y78.991 E0.04168
G1 X278.148 Y77.615 E0.07311
G1 X276.78 Y76.794 E0.07311
G1 X172.658 Y45.608 E4.97937
G1 X171.73 Y45.472 E0.04295
G1 X162.795 Y45.472 E0.40936
G1 X161.88 Y45.604 E0.04232
G1 X160.508 Y46.419 E0.07311
G1 X104.591 Y103.129 E3.64851
M73 P0 R223
G1 E-0.8 F3000
; printing object BunkerLDoor.stl id:0 copy 0
; acceleration to travel
M204 S3000
G1 X134.763 Y223.048 F9000
; decel to extrusion
M204 S1000
G1 X144.82 Y263.021
; end travel
G1 E0.8 F1800
;TYPE:Support material
;WIDTH:0.48
G1 X150.973 Y263.021 E0.25783
G1 X150.973 Y265.844 E0.11829
G1 X151.131 Y266.001 E0.00933
G1 X151.288 Y266.159 E0.00933
G1 X161.417 Y276.287 E0.60015
G1 X174.064 Y276.287 E0.52993
G1 X184.191 Y266.16 E0.60011
G1 X184.505 Y265.846 E0.01856
G1 X184.506 Y263.021 E0.11839
G1 X190.66 Y263.021 E0.25786
G1 X190.66 Y270.514 E0.31397
G1 X177.234 Y283.94 E0.79559
G1 X158.246 Y283.94 E0.79559
G1 X144.82 Y270.514 E0.79559
G1 X144.82 Y263.021 E0.31397
G1 E-0.8 F3000
; acceleration to travel
M204 S3000
G1 X178.88 Y268.847 F9000
; decel to extrusion
M204 S1000
G1 X190.234 Y270.789
; end travel
G1 E0.8 F1800
G1 X190.234 Y263.312 E0.3133
G1 X189.758 Y263.312 E0.01995
G1 X189.758 Y271.005 E0.32233
G1 X189.281 Y271.481 E0.02821
G1 X189.281 Y263.312 E0.34228
G1 X188.805 Y263.312 E0.01995
G1 X188.805 Y271.957 E0.36222
G1 X188.329 Y272.433 E0.02821
G1 X188.329 Y263.312 E0.38217
G1 X187.853 Y263.312 E0.01995
G1 X187.853 Y272.909 E0.40212
G1 X187.377 Y273.385 E0.02821
G1 X187.377 Y263.312 E0.42207
G1 X186.901 Y263.312 E0.01995
G1 X186.901 Y273.862 E0.44202
G1 X186.425 Y274.338 E0.02821
G1 X186.425 Y263.312 E0.46197
G1 X185.949 Y263.312 E0.01995
G1 X185.949 Y274.814 E0.48192
G1 X185.473 Y275.29 E0.02821
G1 X185.473 Y263.312 E0.50187
G1 X184.996 Y263.312 E0.01995
G1 X184.996 Y275.766 E0.52182
G1 X184.52 Y276.242 E0.02821
G1 X184.52 Y266.243 E0.41897
G1 X184.397 Y266.366 E0.00729
G1 X184.044 Y266.719 E0.02092
G1 X184.044 Y276.718 E0.41898
G1 X183.568 Y277.194 E0.02821
G1 X183.568 Y267.195 E0.41898
G1 X183.092 Y267.671 E0.02821
G1 X183.092 Y277.67 E0.41898
G1 X182.616 Y278.146 E0.02821
G1 X182.616 Y268.147 E0.41898
G1 X182.14 Y268.623 E0.02821
G1 X182.14 Y278.623 E0.41898
G1 X181.664 Y279.099 E0.02821
G1 X181.664 Y269.099 E0.41898
G1 X181.188 Y269.575 E0.02821
G1 X181.188 Y279.575 E0.41898
G1 X180.711 Y280.051 E0.02821
G1 X180.711 Y270.052 E0.41898
G1 X180.235 Y270.528 E0.02821
G1 X180.235 Y280.527 E0.41898
G1 X179.759 Y281.003 E0.02821
G1 X179.759 Y271.004 E0.41898
G1 X179.283 Y271.48 E0.02821
G1 X179.283 Y281.479 E0.41898
G1 X178.807 Y281.955 E0.02821
G1 X178.807 Y271.956 E0.41898
G1 X178.331 Y272.432 E0.02821
G1 X178.331 Y282.431 E0.41898
G1 X177.855 Y282.908 E0.02821
G1 X177.855 Y272.908 E0.41898
G1 X177.379 Y273.384 E0.02821
G1 X177.379 Y283.384 E0.41898
G1 X177.113 Y283.649 E0.01572
G1 X176.903 Y283.649 E0.00883
G1 X176.903 Y273.86 E0.41014
G1 X176.427 Y274.336 E0.02821
G1 X176.427 Y283.649 E0.39019
G1 X175.95 Y283.649 E0.01995
G1 X175.95 Y274.813 E0.37025
G1 X175.474 Y275.289 E0.02821
G1 X175.474 Y283.649 E0.3503
G1 X174.998 Y283.649 E0.01995
G1 X174.998 Y275.765 E0.33035
G1 X174.522 Y276.241 E0.02821
G1 X174.522 Y283.649 E0.3104
G1 X174.046 Y283.649 E0.01995
G1 X174.046 Y276.578 E0.29626
G1 X173.57 Y276.578 E0.01995
G1 X173.57 Y283.649 E0.29626
G1 X173.094 Y283.649 E0.01995
G1 X173.094 Y276.578 E0.29626
G1 X172.618 Y276.578 E0.01995
G1 X172.618 Y283.649 E0.29626
G1 X172.142 Y283.649 E0.01995
G1 X172.142 Y276.578 E0.29626
G1 X171.665 Y276.578 E0.01995
G1 X171.665 Y283.649 E0.29626
G1 X171.189 Y283.649 E0.01995
G1 X171.189 Y276.578 E0.29626
G1 X170.713 Y276.578 E0.01995
G1 X170.713 Y283.649 E0.29626
G1 X170.237 Y283.649 E0.01995
G1 X170.237 Y276.578 E0.29626
G1 X169.761 Y276.578 E0.01995
G1 X169.761 Y283.649 E0.29626
G1 X169.285 Y283.649 E0.01995
G1 X169.285 Y276.578 E0.29626
G1 X168.809 Y276.578 E0.01995
G1 X168.809 Y283.649 E0.29626
G1 X168.333 Y283.649 E0.01995
G1 X168.333 Y276.578 E0.29626
G1 X167.857 Y276.578 E0.01995
G1 X167.857 Y283.649 E0.29626
G1 X167.381 Y283.649 E0.01995
G1 X167.381 Y276.578 E0.29626
G1 X166.904 Y276.578 E0.01995
G1 X166.904 Y283.649 E0.29626
G1 X166.428 Y283.649 E0.01995
G1 X166.428 Y276.578 E0.29626
G1 X165.952 Y276.578 E0.01995
G1 X165.952 Y283.649 E0.29626
G1 X165.476 Y283.649 E0.01995
G1 X165.476 Y276.578 E0.29626
G1 X165 Y276.578 E0.01995
G1 X165 Y283.649 E0.29626
G1 X164.524 Y283.649 E0.01995
G1 X164.524 Y276.578 E0.29626
G1 X164.048 Y276.578 E0.01995
G1 X164.048 Y283.649 E0.29626
G1 X163.572 Y283.649 E0.01995
G1 X163.572 Y276.578 E0.29626
G1 X163.096 Y276.578 E0.01995
G1 X163.096 Y283.649 E0.29626
G1 X162.619 Y283.649 E0.01995
G1 X162.619 Y276.578 E0.29626
G1 X162.143 Y276.578 E0.01995
G1 X162.143 Y283.649 E0.29626
G1 X161.667 Y283.649 E0.01995
G1 X161.667 Y276.578 E0.29626
G1 X161.296 Y276.578 E0.01556
G1 X161.191 Y276.474 E0.0062
G1 X161.191 Y283.649 E0.30065
G1 X160.715 Y283.649 E0.01995
G1 X160.715 Y275.998 E0.3206
G1 X160.239 Y275.521 E0.02821
G1 X160.239 Y283.649 E0.34055
G1 X159.763 Y283.649 E0.01995
G1 X159.763 Y275.045 E0.36049
G1 X159.287 Y274.569 E0.02821
G1 X159.287 Y283.649 E0.38044
G1 X158.811 Y283.649 E0.01995
G1 X158.811 Y274.093 E0.40039
G1 X158.335 Y273.617 E0.02821
G1 X158.335 Y283.616 E0.41897
G1 X157.858 Y283.14 E0.02821
G1 X157.858 Y273.141 E0.41897
G1 X157.382 Y272.665 E0.02821
G1 X157.382 Y282.664 E0.41897
G1 X156.906 Y282.188 E0.02821
G1 X156.906 Y272.189 E0.41897
G1 X156.43 Y271.713 E0.02821
G1 X156.43 Y281.712 E0.41897
G1 X155.954 Y281.236 E0.02821
G1 X155.954 Y271.237 E0.41897
G1 X155.478 Y270.76 E0.02821
G1 X155.478 Y280.76 E0.41897
G1 X155.002 Y280.284 E0.02821
G1 X155.002 Y270.284 E0.41897
G1 X154.526 Y269.808 E0.02821
G1 X154.526 Y279.807 E0.41897
G1 X154.05 Y279.331 E0.02821
G1 X154.05 Y269.332 E0.41897
G1 X153.573 Y268.856 E0.02821
G1 X153.573 Y278.855 E0.41897
G1 X153.097 Y278.379 E0.02821
G1 X153.097 Y268.38 E0.41897
G1 X152.621 Y267.904 E0.02821
G1 X152.621 Y277.903 E0.41897
G1 X152.145 Y277.427 E0.02821
G1 X152.145 Y267.428 E0.41897
G1 X151.669 Y266.952 E0.02821
G1 X151.669 Y276.951 E0.41897
G1 X151.193 Y276.475 E0.02821
G1 X151.193 Y266.476 E0.41897
G1 X151.082 Y266.365 E0.00655
G1 X150.925 Y266.207 E0.00933
G1 X150.717 Y265.999 E0.01233
G1 X150.717 Y275.999 E0.41897
G1 X150.241 Y275.523 E0.02821
G1 X150.241 Y263.312 E0.51162
G1 X149.765 Y263.312 E0.01995
G1 X149.765 Y275.046 E0.49167
G1 X149.288 Y274.57 E0.02821
G1 X149.288 Y263.312 E0.47172
G1 X148.812 Y263.312 E0.01995
G1 X148.812 Y274.094 E0.45177
G1 X148.336 Y273.618 E0.02821
G1 X148.336 Y263.312 E0.43182
G1 X147.86 Y263.312 E0.01995
G1 X147.86 Y273.142 E0.41187
G1 X147.384 Y272.666 E0.02821
G1 X147.384 Y263.312 E0.39192
G1 X146.908 Y263.312 E0.01995
G1 X146.908 Y272.19 E0.37197
G1 X146.432 Y271.714 E0.02821
G1 X146.432 Y263.312 E0.35203
G1 X145.956 Y263.312 E0.01995
G1 X145.956 Y271.238 E0.33208
G1 X145.48 Y270.761 E0.02821
G1 X145.48 Y263.128 E0.31985
G1 E-0.8 F3000
; acceleration to travel
M204 S3000
G1 X167.916 Y152.51 F9000
; decel to extrusion
M204 S1000
G1 X175.394 Y115.638
; end travel
G1 E0.8 F1800
;TYPE:Internal perimeter
G1 X175.394 Y116.853 E0.05092
G1 X274.755 Y81.447 E4.41968
G1 X274.755 Y261.17 E7.53044
G1 X55.245 Y261.17 E9.19757
G1 X55.245 Y159.666 E4.25303
M73 P1 R222
G1 X159.13 Y122.648 E4.62094
G1 X159.13 Y53.921 E2.87969
G1 X163.249 Y49.802 E0.24404
G1 X171.276 Y49.802 E0.33633
G1 X175.394 Y53.921 E0.24405
G1 X175.394 Y115.638 E2.58595
G1 X175.823 Y115.638 F9000
G1 F1800
G1 X175.823 Y116.245 E0.02546
G1 X275.184 Y80.839 E4.41968
G1 X275.184 Y261.598 E7.57386
G1 X54.816 Y261.598 E9.23348
G1 X54.816 Y159.364 E4.28364
G1 X158.702 Y122.346 E4.62094
G1 X158.702 Y53.743 E2.87447
G1 X163.071 Y49.374 E0.25892
G1 X171.453 Y49.374 E0.3512
G1 X171.572 Y49.493 E0.00706
G1 X175.823 Y53.743 E0.25186
G1 X175.823 Y115.638 E2.59338
G1 X176.251 Y115.638 F9000
;TYPE:External perimeter
G1 F1800
G1 X275.612 Y80.232 E4.41968
G1 X275.612 Y262.027 E7.61727
G1 X54.388 Y262.027 E9.26938
G1 X54.388 Y159.062 E4.31426
M73 P1 R221
G1 X158.273 Y122.044 E4.62094
G1 X158.273 Y53.566 E2.86924
G1 X162.894 Y48.945 E0.27379
G1 X171.631 Y48.945 E0.36608
G1 X171.875 Y49.19 E0.0145
G1 X176.251 Y53.566 E0.25929
G1 X176.251 Y115.638 E2.60082
;WIPE_START
M204 S4000
G1 X176.342 Y116.027 F9000
;WIPE_END
; acceleration to travel
M204 S3000
G1 X247.56 Y91.673
; decel to extrusion
M204 S1000
G1 X274.691 Y82.395
; end travel
;TYPE:Solid infill
;WIDTH:0.479077
G1 F3600
G1 X274.203 Y81.907 E0.02885
G1 X273.756 Y82.067 E0.01984
G1 X274.507 Y82.817 E0.04438
G1 X274.507 Y83.423 E0.02534
G1 X273.31 Y82.226 E0.0708
G1 X272.863 Y82.385 E0.01983
G1 X274.507 Y84.029 E0.09722
G1 X274.507 Y84.635 E0.02534
G1 X272.416 Y82.544 E0.12365
G1 X271.969 Y82.703 E0.01983
G1 X274.507 Y85.241 E0.15007
G1 X274.507 Y85.847 E0.02534
G1 X271.523 Y82.863 E0.17649
G1 X271.076 Y83.022 E0.01984
G1 X274.507 Y86.453 E0.20292
G1 X274.507 Y87.059 E0.02534
G1 X270.629 Y83.181 E0.22934
G1 X270.182 Y83.34 E0.01983
G1 X274.507 Y87.665 E0.25576
G1 X274.507 Y88.271 E0.02534
G1 X269.735 Y83.499 E0.28219
G1 X269.289 Y83.659 E0.01984
G1 X274.507 Y88.877 E0.30861
G1 X274.507 Y89.483 E0.02534
G1 X268.842 Y83.818 E0.33504
G1 X268.395 Y83.977 E0.01983
G1 X274.507 Y90.089 E0.36146
G1 X274.507 Y90.695 E0.02534
G1 X267.948 Y84.136 E0.38788
G1 X267.501 Y84.295 E0.01983
G1 X274.507 Y91.301 E0.41431
G1 X274.507 Y91.907 E0.02534
G1 X267.055 Y84.455 E0.44073
G1 X266.608 Y84.614 E0.01983
G1 X274.507 Y92.513 E0.46715
G1 X274.507 Y93.119 E0.02534
G1 X266.161 Y84.773 E0.49358
G1 X265.714 Y84.932 E0.01984
G1 X274.507 Y93.725 E0.52
G1 X274.507 Y94.331 E0.02534
G1 X265.268 Y85.091 E0.54642
G1 X264.821 Y85.251 E0.01984
G1 X274.507 Y94.937 E0.57285
G1 X274.507 Y95.543 E0.02534
G1 X264.374 Y85.41 E0.59927
G1 X263.927 Y85.569 E0.01983
G1 X274.507 Y96.149 E0.62569
G1 X274.507 Y96.755 E0.02534
G1 X263.48 Y85.728 E0.65212
G1 X263.034 Y85.888 E0.01984
G1 X274.507 Y97.361 E0.67854
G1 X274.507 Y97.967 E0.02534
G1 X262.587 Y86.047 E0.70496
G1 X262.14 Y86.206 E0.01983
G1 X274.507 Y98.573 E0.73139
G1 X274.507 Y99.179 E0.02534
G1 X261.693 Y86.365 E0.75781
G1 X261.247 Y86.524 E0.01983
G1 X274.507 Y99.785 E0.78423
G1 X274.507 Y100.39 E0.02534
G1 X260.8 Y86.684 E0.81066
G1 X260.353 Y86.843 E0.01983
G1 X274.507 Y100.996 E0.83708
G1 X274.507 Y101.602 E0.02534
G1 X259.906 Y87.002 E0.8635
G1 X259.459 Y87.161 E0.01984
G1 X274.507 Y102.208 E0.88993
G1 X274.507 Y102.814 E0.02534
G1 X259.013 Y87.32 E0.91635
G1 X258.566 Y87.48 E0.01983
G1 X274.507 Y103.42 E0.94278
G1 X274.507 Y104.026 E0.02534
G1 X258.119 Y87.639 E0.9692
G1 X257.672 Y87.798 E0.01984
G1 X274.507 Y104.632 E0.99562
G1 X274.507 Y105.238 E0.02534
G1 X257.226 Y87.957 E1.02205
G1 X256.779 Y88.116 E0.01984
G1 X274.507 Y105.844 E1.04847
G1 X274.507 Y106.45 E0.02534
G1 X256.332 Y88.276 E1.07489
G1 X255.885 Y88.435 E0.01983
G1 X274.507 Y107.056 E1.10132
G1 X274.507 Y107.662 E0.02534
G1 X255.438 Y88.594 E1.12774
G1 X254.992 Y88.753 E0.01984
G1 X274.507 Y108.268 E1.15416
G1 X274.507 Y108.874 E0.02534
G1 X254.545 Y88.912 E1.18059
G1 X254.098 Y89.072 E0.01983
G1 X274.507 Y109.48 E1.20701
G1 X274.507 Y110.086 E0.02534
G1 X253.651 Y89.231 E1.23343
G1 X253.205 Y89.39 E0.01983
G1 X274.507 Y110.692 E1.25986
G1 X274.507 Y111.298 E0.02534
G1 X252.758 Y89.549 E1.28628
G1 X252.311 Y89.708 E0.01984
G1 X274.507 Y111.904 E1.3127
G1 X274.507 Y112.51 E0.02534
G1 X251.864 Y89.868 E1.33913
G1 X251.417 Y90.027 E0.01984
G1 X274.507 Y113.116 E1.36555
G1 X274.507 Y113.722 E0.02534
G1 X250.971 Y90.186 E1.39197
G1 X250.524 Y90.345 E0.01983
G1 X274.507 Y114.328 E1.4184
G1 X274.507 Y114.934 E0.02534
G1 X250.077 Y90.504 E1.44482
G1 X249.63 Y90.664 E0.01983
G1 X274.507 Y115.54 E1.47124
G1 X274.507 Y116.146 E0.02534
G1 X249.184 Y90.823 E1.49767
G1 X248.737 Y90.982 E0.01984
G1 X274.507 Y116.752 E1.52409
G1 X274.507 Y117.358 E0.02534
G1 X248.29 Y91.141 E1.55052
G1 X247.843 Y91.3 E0.01983
G1 X274.507 Y117.964 E1.57694
G1 X274.507 Y118.57 E0.02534
G1 X247.396 Y91.46 E1.60336
G1 X246.95 Y91.619 E0.01984
G1 X274.507 Y119.176 E1.62979
G1 X274.507 Y119.782 E0.02534
G1 X246.503 Y91.778 E1.65621
G1 X246.056 Y91.937 E0.01984
G1 X274.507 Y120.388 E1.68263
G1 X274.507 Y120.994 E0.02534
G1 X245.609 Y92.096 E1.70906
G1 X245.162 Y92.256 E0.01983
G1 X274.507 Y121.6 E1.73548
G1 X274.507 Y122.206 E0.02534
G1 X244.716 Y92.415 E1.7619
G1 X244.269 Y92.574 E0.01983
G1 X274.507 Y122.812 E1.78833
G1 X274.507 Y123.418 E0.02534
G1 X243.822 Y92.733 E1.81475
G1 X243.375 Y92.892 E0.01984
G1 X274.507 Y124.024 E1.84117
G1 X274.507 Y124.63 E0.02534
G1 X242.929 Y93.052 E1.8676
G1 X242.482 Y93.211 E0.01983
G1 X274.507 Y125.236 E1.89402
G1 X274.507 Y125.842 E0.02534
G1 X242.035 Y93.37 E1.92044
G1 X241.588 Y93.529 E0.01984
G1 X274.507 Y126.448 E1.94687
G1 X274.507 Y127.054 E0.02534
G1 X241.141 Y93.688 E1.97329
G1 X240.695 Y93.848 E0.01984
G1 X274.507 Y127.66 E1.99971
G1 X274.507 Y128.266 E0.02534
G1 X240.248 Y94.007 E2.02614
G1 X239.801 Y94.166 E0.01983
G1 X274.507 Y128.872 E2.05256
G1 X274.507 Y129.478 E0.02534
G1 X239.354 Y94.325 E2.07899
G1 X238.908 Y94.484 E0.01984
G1 X274.507 Y130.084 E2.10541
G1 X274.507 Y130.69 E0.02534
G1 X238.461 Y94.644 E2.13183
G1 X238.014 Y94.803 E0.01983
G1 X274.507 Y131.296 E2.15826
G1 X274.507 Y131.902 E0.02534
G1 X237.567 Y94.962 E2.18468
G1 X237.12 Y95.121 E0.01984
G1 X274.507 Y132.508 E2.2111
G1 X274.507 Y133.114 E0.02534
G1 X236.674 Y95.281 E2.23753
G1 X236.227 Y95.44 E0.01983
G1 X274.507 Y133.72 E2.26395
G1 X274.507 Y134.326 E0.02534
G1 X235.78 Y95.599 E2.29037
G1 X235.333 Y95.758 E0.01984
G1 X274.507 Y134.932 E2.3168
G1 X274.507 Y135.538 E0.02534
