; generated by SuperSlicer 2.4 on 2022-06-27 at 13:57:07 UTC


;
;

;
;
; 

; external perimeters extrusion width = 0.40mm
; perimeters extrusion width = 0.48mm
; infill extrusion width = 0.72mm
; solid infill extrusion width = 0.56mm
; top infill extrusion width = 0.40mm
; support material extrusion width = 0.40mm
; first layer extrusion width = 0.48mm

; object:{"name":"BunkerTop","id":"BunkerTop.stl id:0 copy 0","object_center":[164.899801,164.884064,0.000000],"boundingbox_center":[164.899801,164.884064,52.463425],"boundingbox_size":[224.939130,224.939082,104.926849]}
; plater:{"center":[164.899801,164.884064,0.000000],"boundingbox_center":[164.899801,164.884064,52.463425],"boundingbox_size":[224.939130,224.939082,104.926849]}

M73 P0 R638
;TYPE:Custom
START_PRINT T_BED=60 T_EXTRUDER=200
M107
G21 ; set units to millimeters
G90 ; use absolute coordinates
M83 ; use relative distances for extrusion
; Filament gcode
M104 S200 ; set temperature
M109 S200 ; set temperature and wait for it to be reached
M190 S60 ; set bed temperature and wait for it to be reached
M107
;LAYER_CHANGE
;Z:0.24
;HEIGHT:0.24
G1 Z0.24 F9000
G92 E0
G1 E-0.8 F3000
M204 S1000
G1 X119.783 Y119.737 F9000
G1 E0.8 F1800
;TYPE:Skirt
;WIDTH:0.52
G1 X101.281 Y138.247 E1.19898
G1 X49.673 Y201.901 E3.75407
G1 X48.863 Y203.9 E0.09883
G1 X49.107 Y205.591 E0.07828
G1 X77.964 Y278.536 E3.59374
G1 X78.93 Y279.925 E0.07752
G1 X80.43 Y280.744 E0.07828
G1 X82.137 Y280.801 E0.07828
G1 X83.689 Y280.085 E0.07828
G1 X125.55 Y247.186 E2.43909
G1 X247.202 Y125.534 E7.88157
M73 P0 R637
G1 X280.101 Y83.673 E2.43909
G1 X280.814 Y82.138 E0.07752
G1 X280.764 Y80.43 E0.07828
G1 X279.953 Y78.927 E0.07828
G1 X278.552 Y77.948 E0.07828
G1 X205.607 Y49.092 E3.59374
G1 X203.846 Y48.854 E0.08138
G1 X202.236 Y49.426 E0.07828
G1 X172.063 Y68.947 E1.64637
G1 X171.512 Y69.383 E0.03216
G1 X138.065 Y101.449 E2.12271
G1 X119.783 Y119.737 E1.18463
G1 X120.113 Y120.067 F9000
G1 F1800
G1 X101.634 Y138.552 E1.19741
G1 X50.036 Y202.194 E3.75341
G1 X49.338 Y203.836 E0.08173
G1 X49.541 Y205.419 E0.07311
G1 X78.398 Y278.365 E3.59374
G1 X79.017 Y279.356 E0.05355
G1 X80.351 Y280.232 E0.07311
G1 X81.941 Y280.363 E0.07311
G1 X83.401 Y279.718 E0.07311
G1 X125.22 Y246.857 E2.43653
G1 X246.872 Y125.204 E7.88157
G1 X279.734 Y83.385 E2.43654
G1 X280.278 Y82.35 E0.05355
G1 X280.362 Y80.757 E0.07311
G1 X279.673 Y79.317 E0.07311
G1 X278.38 Y78.382 E0.07311
G1 X205.435 Y49.525 E3.59374
G1 X204.002 Y49.308 E0.06641
G1 X202.489 Y49.817 E0.07311
G1 X172.316 Y69.339 E1.64637
G1 X171.835 Y69.719 E0.02811
G1 X138.394 Y101.779 E2.12226
G1 X120.113 Y120.067 E1.18462
G1 E-0.8 F3000
; printing object BunkerTop.stl id:0 copy 0
; acceleration to travel
M204 S3000
G1 X139.543 Y108.942 F9000
; decel to extrusion
M204 S1000
G1 X146.019 Y105.234
; end travel
G1 E0.8 F1800
;TYPE:Internal perimeter
;WIDTH:0.48
G1 X145.413 Y105.84 E0.03591
G1 X148.951 Y109.378 E0.20963
G1 X169.658 Y88.671 E1.22702
G1 X166.12 Y85.133 E0.20963
G1 X164.922 Y86.331 E0.07102
G1 X146.019 Y105.234 E1.12009
G1 X146.322 Y105.537 F9000
G1 F1800
G1 X146.019 Y105.84 E0.01795
G1 X148.951 Y108.772 E0.17372
G1 X169.052 Y88.671 E1.19111
G1 X166.12 Y85.739 E0.17372
G1 X165.225 Y86.634 E0.05307
G1 X146.322 Y105.537 E1.12009
G1 X146.625 Y105.84 F9000
;TYPE:External perimeter
G1 F1800
G1 X148.951 Y108.166 E0.13781
G1 X168.446 Y88.671 E1.1552
G1 X166.12 Y86.345 E0.13781
G1 X165.528 Y86.937 E0.03511
G1 X146.625 Y105.84 E1.12009
;WIPE_START
M204 S4000
G1 X146.342 Y106.123 F9000
;WIPE_END
; acceleration to travel
M204 S3000
G1 X118.176 Y138.687
; decel to extrusion
M204 S1000
G1 X108.787 Y149.541
; end travel
;TYPE:Internal perimeter
G1 F1800
G1 X109.393 Y148.936 E0.03588
G1 X104.796 Y144.332 E0.2726
G1 X104.598 Y144.078 E0.0135
G1 X104.446 Y143.811 E0.01286
G1 X104.331 Y143.511 E0.01348
G1 X104.288 Y143.341 E0.00735
G1 X104.249 Y143.022 E0.01347
G1 X104.257 Y142.7 E0.01348
G1 X104.282 Y142.527 E0.00735
G1 X104.368 Y142.217 E0.01347
G1 X104.493 Y141.936 E0.01286
G1 X104.657 Y141.677 E0.01286
G1 X104.886 Y141.411 E0.0147
G1 X141.43 Y104.867 E2.16547
G1 X141.773 Y104.584 E0.01864
G1 X142.056 Y104.423 E0.01363
G1 X142.222 Y104.355 E0.00752
G1 X142.639 Y104.25 E0.01802
G1 X142.833 Y104.231 E0.00815
G1 X143.592 Y104.231 E0.0318
G1 X164.405 Y83.418 E1.23332
G1 X164.332 Y83.345 E0.00432
G1 X174.072 Y73.605 E0.57716
G1 X179.398 Y78.93 E0.31559
G1 X204.512 Y53.817 E1.48814
G1 X275.234 Y81.794 E3.18673
G1 X236.658 Y120.37 E2.28586
G1 X242.711 Y123.242 E0.28071
G1 X123.258 Y242.695 E7.07829
G1 X120.386 Y236.642 E0.28071
G1 X81.81 Y275.218 E2.28585
G1 X53.832 Y204.496 E3.18672
G1 X108.787 Y149.541 E3.2564
M73 P0 R636
G1 X108.484 Y148.633 F9000
G1 F1800
G1 X104.474 Y144.616 E0.23782
G1 X104.24 Y144.317 E0.01592
G1 X104.058 Y143.995 E0.01551
G1 X103.921 Y143.641 E0.01591
G1 X103.866 Y143.419 E0.00956
G1 X103.82 Y143.043 E0.0159
G1 X103.829 Y142.663 E0.0159
G1 X103.862 Y142.438 E0.00956
G1 X103.964 Y142.072 E0.0159
G1 X104.114 Y141.734 E0.01551
G1 X104.312 Y141.421 E0.01551
G1 X104.572 Y141.119 E0.01668
G1 X141.142 Y104.549 E2.16699
G1 X141.339 Y104.371 E0.01114
G1 X141.53 Y104.229 E0.00995
G1 X141.868 Y104.038 E0.0163
G1 X142.087 Y103.947 E0.00995
G1 X142.324 Y103.875 E0.01035
G1 X142.566 Y103.827 E0.01035
G1 X142.812 Y103.803 E0.01035
G1 X143.414 Y103.803 E0.02524
G1 X163.799 Y83.418 E1.20793
G1 X163.726 Y83.345 E0.00432
G1 X174.072 Y72.999 E0.61307
G1 X179.398 Y78.325 E0.31559
G1 X204.408 Y53.315 E1.48198
G1 X275.998 Y81.636 E3.22586
G1 X237.391 Y120.243 E2.28774
G1 X243.443 Y123.116 E0.28071
G1 X123.131 Y243.427 E7.12921
G1 X120.259 Y237.375 E0.28071
G1 X81.651 Y275.983 E2.28774
G1 X53.33 Y204.392 E3.22586
G1 X108.787 Y148.936 E3.28613
G1 X108.484 Y148.633 E0.01794
G1 X108.181 Y148.936 F9000
;TYPE:External perimeter
G1 F1800
G1 X104.152 Y144.901 E0.23891
G1 X103.883 Y144.556 E0.01834
G1 X103.669 Y144.179 E0.01816
G1 X103.512 Y143.77 E0.01833
G1 X103.444 Y143.498 E0.01176
G1 X103.39 Y143.064 E0.01833
G1 X103.401 Y142.626 E0.01833
G1 X103.442 Y142.349 E0.01176
G1 X103.559 Y141.927 E0.01833
G1 X103.735 Y141.531 E0.01815
G1 X103.967 Y141.165 E0.01816
G1 X104.258 Y140.828 E0.01867
G1 X140.846 Y104.239 E2.16809
G1 X141.067 Y104.039 E0.01246
G1 X141.295 Y103.87 E0.01194
G1 X141.68 Y103.652 E0.01851
G1 X141.943 Y103.543 E0.01194
G1 X142.22 Y103.459 E0.01211
G1 X142.503 Y103.402 E0.01211
G1 X142.791 Y103.374 E0.01211
G1 X143.237 Y103.374 E0.01869
G1 X163.193 Y83.418 E1.18254
G1 X163.12 Y83.345 E0.00432
G1 X174.072 Y72.393 E0.64897
G1 X179.398 Y77.719 E0.31559
G1 X204.304 Y52.813 E1.47581
G1 X204.559 Y52.914 E0.01151
G1 X276.763 Y81.477 E3.25348
G1 X238.123 Y120.117 E2.28962
G1 X244.176 Y122.989 E0.28071
G1 X123.005 Y244.16 E7.18012
G1 X120.132 Y238.108 E0.28071
G1 X81.493 Y276.747 E2.28962
G1 X52.829 Y204.288 E3.26499
G1 X108.181 Y148.936 E3.27998
;WIPE_START
M204 S4000
G1 X108.464 Y148.653 F9000
;WIPE_END
; acceleration to travel
M204 S3000
G1 X228.833 Y100.567
; decel to extrusion
M204 S1000
G1 X274.688 Y82.249
; end travel
;TYPE:Solid infill
;WIDTH:0.478451
G1 F3600
G1 X274.02 Y81.581 E0.03948
G1 X273.017 Y81.184 E0.04503
G1 X274.255 Y82.422 E0.07311
G1 X273.952 Y82.725 E0.0179
G1 X272.014 Y80.788 E0.11443
G1 X271.012 Y80.391 E0.04503
G1 X273.649 Y83.028 E0.15575
G1 X273.346 Y83.331 E0.0179
G1 X270.009 Y79.994 E0.19708
G1 X269.006 Y79.598 E0.04503
G1 X273.043 Y83.634 E0.2384
G1 X272.74 Y83.937 E0.0179
G1 X268.004 Y79.201 E0.27972
G1 X267.001 Y78.804 E0.04503
G1 X272.437 Y84.24 E0.32104
G1 X272.134 Y84.543 E0.0179
G1 X265.999 Y78.408 E0.36237
G1 X264.996 Y78.011 E0.04503
G1 X271.831 Y84.846 E0.40369
G1 X271.528 Y85.149 E0.0179
G1 X263.993 Y77.615 E0.44501
G1 X262.991 Y77.218 E0.04503
G1 X271.225 Y85.452 E0.48634
G1 X270.922 Y85.755 E0.0179
G1 X261.988 Y76.821 E0.52766
G1 X260.986 Y76.425 E0.04503
G1 X270.619 Y86.058 E0.56898
G1 X270.316 Y86.361 E0.0179
G1 X259.983 Y76.028 E0.6103
G1 X258.98 Y75.631 E0.04503
G1 X270.013 Y86.664 E0.65163
G1 X269.71 Y86.967 E0.0179
G1 X257.978 Y75.235 E0.69295
G1 X256.975 Y74.838 E0.04503
G1 X269.407 Y87.27 E0.73427
G1 X269.104 Y87.573 E0.0179
G1 X255.973 Y74.442 E0.7756
G1 X254.97 Y74.045 E0.04503
G1 X268.801 Y87.876 E0.81692
G1 X268.498 Y88.179 E0.0179
G1 X253.967 Y73.648 E0.85824
G1 X252.965 Y73.252 E0.04503
G1 X268.195 Y88.482 E0.89956
G1 X267.892 Y88.785 E0.0179
G1 X251.962 Y72.855 E0.94089
G1 X250.96 Y72.458 E0.04503
G1 X267.589 Y89.088 E0.98221
G1 X267.286 Y89.391 E0.0179
G1 X249.957 Y72.062 E1.02353
G1 X248.954 Y71.665 E0.04503
G1 X266.983 Y89.694 E1.06486
G1 X266.68 Y89.997 E0.0179
G1 X247.952 Y71.269 E1.10618
G1 X246.949 Y70.872 E0.04503
G1 X266.377 Y90.3 E1.1475
G1 X266.074 Y90.603 E0.0179
G1 X245.946 Y70.475 E1.18882
G1 X244.944 Y70.079 E0.04503
G1 X265.771 Y90.906 E1.23015
G1 X265.468 Y91.209 E0.0179
G1 X243.941 Y69.682 E1.27147
G1 X242.939 Y69.285 E0.04503
G1 X265.165 Y91.512 E1.31279
G1 X264.862 Y91.815 E0.0179
G1 X241.936 Y68.889 E1.35412
G1 X240.933 Y68.492 E0.04503
G1 X264.559 Y92.118 E1.39544
M73 P0 R635
G1 X264.256 Y92.421 E0.0179
G1 X239.931 Y68.095 E1.43676
G1 X238.928 Y67.699 E0.04503
G1 X263.953 Y92.724 E1.47809
G1 X263.65 Y93.027 E0.0179
G1 X237.926 Y67.302 E1.51941
G1 X236.923 Y66.906 E0.04503
G1 X263.347 Y93.33 E1.56073
G1 X263.044 Y93.633 E0.0179
G1 X235.92 Y66.509 E1.60205
G1 X234.918 Y66.112 E0.04503
G1 X262.741 Y93.936 E1.64338
G1 X262.438 Y94.239 E0.0179
G1 X233.915 Y65.716 E1.6847
G1 X232.913 Y65.319 E0.04503
G1 X262.135 Y94.542 E1.72602
G1 X261.832 Y94.845 E0.0179
G1 X231.91 Y64.922 E1.76735
G1 X230.907 Y64.526 E0.04503
G1 X261.529 Y95.148 E1.80867
G1 X261.226 Y95.451 E0.0179
G1 X229.905 Y64.129 E1.84999
G1 X228.902 Y63.733 E0.04503
G1 X260.923 Y95.754 E1.89131
G1 X260.62 Y96.057 E0.0179
G1 X227.899 Y63.336 E1.93264
G1 X226.897 Y62.939 E0.04503
G1 X260.317 Y96.36 E1.97396
G1 X260.014 Y96.663 E0.0179
G1 X225.894 Y62.543 E2.01528
G1 X224.892 Y62.146 E0.04503
G1 X259.711 Y96.966 E2.05661
G1 X259.408 Y97.269 E0.0179
G1 X223.889 Y61.749 E2.09793
G1 X222.886 Y61.353 E0.04503
G1 X259.105 Y97.572 E2.13925
G1 X258.802 Y97.875 E0.0179
G1 X221.884 Y60.956 E2.18057
G1 X220.881 Y60.56 E0.04503
G1 X258.499 Y98.177 E2.2219
G1 X258.196 Y98.48 E0.0179
G1 X219.879 Y60.163 E2.26322
G1 X218.876 Y59.766 E0.04503
G1 X257.893 Y98.783 E2.30454
G1 X257.59 Y99.086 E0.0179
G1 X217.873 Y59.37 E2.34587
G1 X216.871 Y58.973 E0.04503
G1 X257.287 Y99.389 E2.38719
G1 X256.984 Y99.692 E0.0179
G1 X215.868 Y58.576 E2.42851
G1 X214.866 Y58.18 E0.04503
G1 X256.681 Y99.995 E2.46983
G1 X256.378 Y100.298 E0.0179
G1 X213.863 Y57.783 E2.51116
G1 X212.86 Y57.387 E0.04503
G1 X256.075 Y100.601 E2.55248
G1 X255.772 Y100.904 E0.0179
G1 X211.858 Y56.99 E2.5938
G1 X210.855 Y56.593 E0.04503
G1 X255.469 Y101.207 E2.63513
G1 X255.166 Y101.51 E0.0179
G1 X209.852 Y56.197 E2.67645
G1 X208.85 Y55.8 E0.04503
G1 X254.863 Y101.813 E2.71777
G1 X254.56 Y102.116 E0.0179
G1 X207.847 Y55.403 E2.75909
G1 X206.845 Y55.007 E0.04503
G1 X254.257 Y102.419 E2.80042
G1 X253.954 Y102.722 E0.0179
G1 X205.842 Y54.61 E2.84174
G1 X204.839 Y54.214 E0.04503
G1 X253.651 Y103.025 E2.88306
G1 X253.348 Y103.328 E0.0179
G1 X204.35 Y54.33 E2.89407
G1 X204.047 Y54.633 E0.0179
G1 X253.045 Y103.631 E2.89407
G1 X252.742 Y103.934 E0.0179
G1 X203.744 Y54.936 E2.89407
G1 X203.441 Y55.239 E0.0179
G1 X252.439 Y104.237 E2.89407
G1 X252.136 Y104.54 E0.0179
G1 X203.138 Y55.542 E2.89407
G1 X202.835 Y55.845 E0.0179
G1 X251.833 Y104.843 E2.89407
G1 X251.53 Y105.146 E0.0179
G1 X202.532 Y56.148 E2.89407
G1 X202.229 Y56.451 E0.0179
G1 X251.227 Y105.449 E2.89407
G1 X250.924 Y105.752 E0.0179
G1 X201.926 Y56.754 E2.89407
G1 X201.623 Y57.057 E0.0179
G1 X250.621 Y106.055 E2.89407
G1 X250.318 Y106.358 E0.0179
G1 X201.32 Y57.36 E2.89407
G1 X201.017 Y57.663 E0.0179
G1 X250.015 Y106.661 E2.89407
G1 X249.712 Y106.964 E0.0179
G1 X200.714 Y57.966 E2.89407
G1 X200.411 Y58.269 E0.0179
G1 X249.409 Y107.267 E2.89407
G1 X249.106 Y107.57 E0.0179
G1 X200.108 Y58.572 E2.89407
G1 X199.805 Y58.875 E0.0179
G1 X248.803 Y107.873 E2.89407
G1 X248.5 Y108.176 E0.0179
G1 X199.502 Y59.178 E2.89407
G1 X199.199 Y59.481 E0.0179
G1 X248.197 Y108.479 E2.89407
G1 X247.894 Y108.782 E0.0179
G1 X198.896 Y59.784 E2.89407
G1 X198.593 Y60.087 E0.0179
G1 X247.591 Y109.085 E2.89407
G1 X247.288 Y109.388 E0.0179
G1 X198.29 Y60.39 E2.89407
G1 X197.987 Y60.693 E0.0179
G1 X246.985 Y109.691 E2.89407
M73 P0 R634
G1 X246.682 Y109.994 E0.0179
G1 X197.684 Y60.996 E2.89407
G1 X197.381 Y61.299 E0.0179
G1 X246.379 Y110.297 E2.89407
G1 X246.076 Y110.6 E0.0179
G1 X197.078 Y61.602 E2.89407
G1 X196.775 Y61.905 E0.0179
G1 X245.773 Y110.903 E2.89407
G1 X245.47 Y111.206 E0.0179
G1 X196.472 Y62.208 E2.89407
G1 X196.169 Y62.511 E0.0179
G1 X245.167 Y111.509 E2.89407
G1 X244.864 Y111.812 E0.0179
G1 X195.866 Y62.814 E2.89407
G1 X195.563 Y63.117 E0.0179
G1 X244.561 Y112.115 E2.89407
G1 X244.259 Y112.418 E0.0179
G1 X195.26 Y63.42 E2.89407
G1 X194.957 Y63.723 E0.0179
G1 X243.956 Y112.721 E2.89407
G1 X243.653 Y113.024 E0.0179
G1 X194.654 Y64.026 E2.89407
G1 X194.351 Y64.329 E0.0179
G1 X243.35 Y113.327 E2.89407
G1 X243.047 Y113.63 E0.0179
G1 X194.048 Y64.632 E2.89407
G1 X193.745 Y64.935 E0.0179
G1 X242.744 Y113.933 E2.89407
G1 X242.441 Y114.236 E0.0179
G1 X193.442 Y65.238 E2.89407
G1 X193.139 Y65.541 E0.0179
G1 X242.138 Y114.539 E2.89407
G1 X241.835 Y114.842 E0.0179
G1 X192.836 Y65.844 E2.89407
G1 X192.533 Y66.147 E0.0179
G1 X241.532 Y115.145 E2.89407
G1 X241.229 Y115.448 E0.0179
G1 X192.23 Y66.45 E2.89407
G1 X191.927 Y66.753 E0.0179
G1 X240.926 Y115.751 E2.89407
G1 X240.623 Y116.054 E0.0179
G1 X191.624 Y67.056 E2.89407
G1 X191.321 Y67.359 E0.0179
G1 X240.32 Y116.357 E2.89407
G1 X240.017 Y116.66 E0.0179
G1 X191.018 Y67.662 E2.89407
G1 X190.715 Y67.965 E0.0179
G1 X239.714 Y116.963 E2.89407
G1 X239.411 Y117.266 E0.0179
G1 X190.412 Y68.268 E2.89407
G1 X190.109 Y68.571 E0.0179
G1 X239.108 Y117.569 E2.89407
G1 X238.805 Y117.872 E0.0179
G1 X189.806 Y68.874 E2.89407
G1 X189.503 Y69.177 E0.0179
G1 X238.502 Y118.175 E2.89407
G1 X238.199 Y118.478 E0.0179
G1 X189.2 Y69.48 E2.89407
G1 X188.897 Y69.783 E0.0179
G1 X237.896 Y118.781 E2.89407
G1 X237.593 Y119.084 E0.0179
G1 X188.594 Y70.086 E2.89407
G1 X188.291 Y70.389 E0.0179
G1 X237.29 Y119.387 E2.89407
G1 X236.987 Y119.69 E0.0179
G1 X187.988 Y70.692 E2.89407
G1 X187.685 Y70.995 E0.0179
G1 X236.814 Y120.123 E2.90177
; acceleration to travel
M204 S3000
G1 X240.842 Y122.788 F9000
; decel to extrusion
M204 S1000
G1 X242.185 Y123.677
; end travel
G1 F3600
G1 X241.408 Y122.899 E0.04593
G1 X240.254 Y122.352 E0.05332
G1 X241.752 Y123.849 E0.08845
G1 X241.449 Y124.152 E0.0179
G1 X239.101 Y121.804 E0.13868
G1 X237.948 Y121.257 E0.05332
G1 X241.146 Y124.455 E0.1889
G1 X240.843 Y124.758 E0.0179
G1 X187.382 Y71.298 E3.15764
G1 X187.079 Y71.601 E0.0179
G1 X240.54 Y125.061 E3.15764
G1 X240.237 Y125.364 E0.0179
G1 X186.776 Y71.904 E3.15764
G1 X186.473 Y72.207 E0.0179
G1 X239.934 Y125.667 E3.15764
G1 X239.631 Y125.97 E0.0179
G1 X186.171 Y72.51 E3.15764
G1 X185.868 Y72.813 E0.0179
G1 X239.328 Y126.273 E3.15764
G1 X239.025 Y126.576 E0.0179
G1 X185.565 Y73.116 E3.15764
G1 X185.262 Y73.419 E0.0179
G1 X238.722 Y126.879 E3.15764
G1 X238.419 Y127.182 E0.0179
G1 X184.959 Y73.722 E3.15764
G1 X184.656 Y74.025 E0.0179
G1 X238.116 Y127.485 E3.15764
G1 X237.813 Y127.788 E0.0179
G1 X184.353 Y74.328 E3.15764
G1 X184.05 Y74.631 E0.0179
G1 X237.51 Y128.091 E3.15764
G1 X237.207 Y128.394 E0.0179
G1 X183.747 Y74.934 E3.15764
G1 X183.444 Y75.237 E0.0179
G1 X236.904 Y128.697 E3.15764
M73 P0 R633
G1 X236.601 Y129 E0.0179
G1 X183.141 Y75.54 E3.15764
G1 X182.838 Y75.843 E0.0179
G1 X236.298 Y129.303 E3.15764
G1 X235.995 Y129.606 E0.0179
G1 X182.535 Y76.146 E3.15764
G1 X182.232 Y76.448 E0.0179
G1 X235.692 Y129.909 E3.15764
G1 X235.389 Y130.212 E0.0179
G1 X181.929 Y76.751 E3.15764
G1 X181.626 Y77.054 E0.0179
G1 X235.086 Y130.515 E3.15764
G1 X234.783 Y130.818 E0.0179
G1 X181.323 Y77.357 E3.15764
G1 X181.02 Y77.66 E0.0179
G1 X234.48 Y131.121 E3.15764
G1 X234.177 Y131.424 E0.0179
G1 X180.717 Y77.963 E3.15764
G1 X180.414 Y78.266 E0.0179
G1 X233.874 Y131.727 E3.15764
