; generated by SuperSlicer 2.4 on 2022-06-26 at 20:48:39 UTC


;
;

;
;
; 

; external perimeters extrusion width = 0.40mm
; perimeters extrusion width = 0.48mm
; infill extrusion width = 0.72mm
; solid infill extrusion width = 0.56mm
; top infill extrusion width = 0.40mm
; support material extrusion width = 0.40mm
; first layer extrusion width = 0.48mm

; object:{"name":"BunkerRDoor","id":"BunkerRDoor.stl id:0 copy 0","object_center":[165.000001,165.000000,0.000000],"boundingbox_center":[165.000001,165.000000,3.028954],"boundingbox_size":[221.904499,213.761124,6.057907]}
; plater:{"center":[165.000001,165.000000,0.000000],"boundingbox_center":[165.000001,165.000000,3.028954],"boundingbox_size":[221.904499,213.761124,6.057907]}

M73 P0 R222
;TYPE:Custom
START_PRINT T_BED=60 T_EXTRUDER=200
M107
G21 ; set units to millimeters
G90 ; use absolute coordinates
M83 ; use relative distances for extrusion
; Filament gcode
M104 S200 ; set temperature
M109 S200 ; set temperature and wait for it to be reached
M190 S60 ; set bed temperature and wait for it to be reached
M107
;LAYER_CHANGE
;Z:0.24
;HEIGHT:0.24
G1 Z0.24 F9000
G92 E0
M73 P0 R221
G1 E-0.8 F3000
M204 S1000
G1 X51.942 Y55.249 F9000
G1 E0.8 F1800
;TYPE:Skirt
;WIDTH:0.52
G1 X50.843 Y56.557 E0.07828
G1 X50.448 Y58.219 E0.07828
G1 X50.448 Y161.594 E4.73575
G1 X50.627 Y162.729 E0.05266
G1 X51.513 Y164.19 E0.07828
G1 X155.398 Y269.616 E6.78058
G1 X160.179 Y274.397 E0.30971
G1 X161.132 Y275.085 E0.05389
G1 X162.795 Y275.48 E0.07828
G1 X171.73 Y275.48 E0.40936
G1 X172.792 Y275.325 E0.04915
G1 X276.914 Y244.139 E4.97937
G1 X278.058 Y243.565 E0.05862
G1 X279.157 Y242.257 E0.07828
G1 X279.552 Y240.595 E0.07828
G1 X279.552 Y58.219 E8.35492
G1 X278.823 Y56.014 E0.10641
G1 X277.515 Y54.915 E0.07828
G1 X275.852 Y54.52 E0.07828
G1 X54.148 Y54.52 E10.15667
G1 X51.942 Y55.249 E0.10641
G1 X52.312 Y55.592 F9000
G1 F1800
G1 X51.308 Y56.673 E0.06757
G1 X50.915 Y58.219 E0.07311
G1 X50.915 Y161.594 E4.73575
G1 X51.04 Y162.485 E0.04124
G1 X51.845 Y163.863 E0.07311
G1 X155.731 Y269.289 E6.78058
G1 X160.508 Y274.067 E0.30955
G1 X161.248 Y274.62 E0.04232
G1 X162.795 Y275.014 E0.07311
G1 X171.73 Y275.014 E0.40936
G1 X172.658 Y274.878 E0.04295
G1 X276.78 Y243.692 E4.97937
G1 X277.606 Y243.311 E0.04168
G1 X278.692 Y242.141 E0.07311
G1 X279.085 Y240.595 E0.07311
G1 X279.085 Y58.219 E8.35492
M73 P0 R220
G1 X278.568 Y56.466 E0.08377
G1 X277.399 Y55.38 E0.07311
G1 X275.852 Y54.986 E0.07311
G1 X54.148 Y54.986 E10.15667
G1 X52.394 Y55.503 E0.08377
G1 X52.312 Y55.592 E0.00553
G1 E-0.8 F3000
; printing object BunkerRDoor.stl id:0 copy 0
; acceleration to travel
M204 S3000
G1 X54.511 Y58.385 F9000
; decel to extrusion
M204 S1000
G1 X55.245 Y59.316
; end travel
G1 E0.8 F1800
;TYPE:Internal perimeter
;WIDTH:0.48
G1 X274.755 Y59.316 E9.19757
G1 X274.755 Y239.039 E7.53044
G1 X175.394 Y203.633 E4.41968
G1 X175.394 Y266.565 E2.63686
G1 X171.276 Y270.684 E0.24405
G1 X163.249 Y270.684 E0.33633
G1 X159.13 Y266.565 E0.24404
G1 X159.13 Y197.838 E2.87969
G1 X55.245 Y160.82 E4.62094
G1 X55.245 Y59.316 E4.25303
G1 X54.816 Y58.888 F9000
G1 F1800
G1 X275.184 Y58.888 E9.23348
G1 X275.184 Y239.647 E7.57386
G1 X175.823 Y204.241 E4.41968
G1 X175.823 Y266.743 E2.61884
M73 P0 R219
G1 X171.453 Y271.112 E0.25892
G1 X163.071 Y271.112 E0.3512
G1 X158.702 Y266.743 E0.25892
G1 X158.702 Y198.14 E2.87447
G1 X54.816 Y161.122 E4.62094
G1 X54.816 Y58.888 E4.28364
G1 X54.388 Y58.459 F9000
;TYPE:External perimeter
G1 F1800
G1 X275.612 Y58.459 E9.26938
M73 P1 R219
G1 X275.612 Y240.254 E7.61727
G1 X176.251 Y204.848 E4.41968
G1 X176.251 Y266.92 E2.60082
G1 X171.631 Y271.541 E0.27379
G1 X162.894 Y271.541 E0.36608
G1 X158.273 Y266.92 E0.27379
G1 X158.273 Y198.442 E2.86924
G1 X54.388 Y161.424 E4.62094
G1 X54.388 Y58.459 E4.31426
;WIPE_START
M204 S4000
G1 X54.734 Y58.659 F9000
;WIPE_END
; acceleration to travel
M204 S3000
G1 X213.386 Y59.182
; decel to extrusion
M204 S1000
G1 X273.825 Y59.381
; end travel
;TYPE:Solid infill
;WIDTH:0.479075
G1 F3600
G1 X274.507 Y60.063 E0.04033
G1 X274.507 Y60.669 E0.02534
G1 X273.403 Y59.565 E0.06527
G1 X272.797 Y59.565 E0.02534
G1 X274.507 Y61.275 E0.10111
G1 X274.507 Y61.881 E0.02534
G1 X272.191 Y59.565 E0.13695
G1 X271.585 Y59.565 E0.02534
G1 X274.507 Y62.487 E0.17279
G1 X274.507 Y63.093 E0.02534
G1 X270.979 Y59.565 E0.20863
G1 X270.373 Y59.565 E0.02534
G1 X274.507 Y63.699 E0.24447
G1 X274.507 Y64.305 E0.02534
G1 X269.767 Y59.565 E0.28031
G1 X269.161 Y59.565 E0.02534
G1 X274.507 Y64.91 E0.31615
G1 X274.507 Y65.516 E0.02534
G1 X268.555 Y59.565 E0.35199
G1 X267.949 Y59.565 E0.02534
G1 X274.507 Y66.122 E0.38782
G1 X274.507 Y66.728 E0.02534
G1 X267.343 Y59.565 E0.42366
G1 X266.737 Y59.565 E0.02534
G1 X274.507 Y67.334 E0.4595
G1 X274.507 Y67.94 E0.02534
G1 X266.131 Y59.565 E0.49534
G1 X265.525 Y59.565 E0.02534
G1 X274.507 Y68.546 E0.53118
G1 X274.507 Y69.152 E0.02534
G1 X264.919 Y59.565 E0.56702
G1 X264.313 Y59.565 E0.02534
G1 X274.507 Y69.758 E0.60286
G1 X274.507 Y70.364 E0.02534
G1 X263.707 Y59.565 E0.6387
G1 X263.101 Y59.565 E0.02534
G1 X274.507 Y70.97 E0.67454
G1 X274.507 Y71.576 E0.02534
G1 X262.495 Y59.565 E0.71038
G1 X261.889 Y59.565 E0.02534
G1 X274.507 Y72.182 E0.74621
G1 X274.507 Y72.788 E0.02534
G1 X261.283 Y59.565 E0.78205
G1 X260.677 Y59.565 E0.02534
G1 X274.507 Y73.394 E0.81789
G1 X274.507 Y74 E0.02534
G1 X260.071 Y59.565 E0.85373
G1 X259.465 Y59.565 E0.02534
G1 X274.507 Y74.606 E0.88957
G1 X274.507 Y75.212 E0.02534
G1 X258.859 Y59.565 E0.92541
G1 X258.253 Y59.565 E0.02534
G1 X274.507 Y75.818 E0.96125
G1 X274.507 Y76.424 E0.02534
G1 X257.648 Y59.565 E0.99709
G1 X257.042 Y59.565 E0.02534
G1 X274.507 Y77.03 E1.03293
G1 X274.507 Y77.636 E0.02534
G1 X256.436 Y59.565 E1.06877
G1 X255.83 Y59.565 E0.02534
G1 X274.507 Y78.242 E1.1046
G1 X274.507 Y78.848 E0.02534
G1 X255.224 Y59.565 E1.14044
G1 X254.618 Y59.565 E0.02534
G1 X274.507 Y79.454 E1.17628
G1 X274.507 Y80.06 E0.02534
G1 X254.012 Y59.565 E1.21212
G1 X253.406 Y59.565 E0.02534
G1 X274.507 Y80.666 E1.24796
G1 X274.507 Y81.272 E0.02534
G1 X252.8 Y59.565 E1.2838
G1 X252.194 Y59.565 E0.02534
G1 X274.507 Y81.878 E1.31964
G1 X274.507 Y82.484 E0.02534
G1 X251.588 Y59.565 E1.35548
G1 X250.982 Y59.565 E0.02534
G1 X274.507 Y83.09 E1.39132
G1 X274.507 Y83.696 E0.02534
G1 X250.376 Y59.565 E1.42716
G1 X249.77 Y59.565 E0.02534
G1 X274.507 Y84.302 E1.46299
G1 X274.507 Y84.908 E0.02534
G1 X249.164 Y59.565 E1.49883
G1 X248.558 Y59.565 E0.02534
G1 X274.507 Y85.514 E1.53467
G1 X274.507 Y86.12 E0.02534
G1 X247.952 Y59.565 E1.57051
G1 X247.346 Y59.565 E0.02534
G1 X274.507 Y86.726 E1.60635
G1 X274.507 Y87.332 E0.02534
G1 X246.74 Y59.565 E1.64219
M73 P1 R218
G1 X246.134 Y59.565 E0.02534
G1 X274.507 Y87.938 E1.67803
G1 X274.507 Y88.544 E0.02534
G1 X245.528 Y59.565 E1.71387
G1 X244.922 Y59.565 E0.02534
G1 X274.507 Y89.15 E1.74971
G1 X274.507 Y89.756 E0.02534
G1 X244.316 Y59.565 E1.78555
G1 X243.71 Y59.565 E0.02534
G1 X274.507 Y90.362 E1.82138
G1 X274.507 Y90.968 E0.02534
G1 X243.104 Y59.565 E1.85722
G1 X242.498 Y59.565 E0.02534
G1 X274.507 Y91.574 E1.89306
G1 X274.507 Y92.18 E0.02534
G1 X241.892 Y59.565 E1.9289
G1 X241.286 Y59.565 E0.02534
G1 X274.507 Y92.786 E1.96474
G1 X274.507 Y93.392 E0.02534
G1 X240.68 Y59.565 E2.00058
G1 X240.074 Y59.565 E0.02534
G1 X274.507 Y93.998 E2.03642
G1 X274.507 Y94.604 E0.02534
G1 X239.468 Y59.565 E2.07226
G1 X238.862 Y59.565 E0.02534
G1 X274.507 Y95.21 E2.1081
G1 X274.507 Y95.816 E0.02534
G1 X238.256 Y59.565 E2.14394
G1 X237.65 Y59.565 E0.02534
G1 X274.507 Y96.422 E2.17977
G1 X274.507 Y97.028 E0.02534
G1 X237.044 Y59.565 E2.21561
G1 X236.438 Y59.565 E0.02534
G1 X274.507 Y97.634 E2.25145
G1 X274.507 Y98.24 E0.02534
G1 X235.832 Y59.565 E2.28729
G1 X235.226 Y59.565 E0.02534
G1 X274.507 Y98.846 E2.32313
G1 X274.507 Y99.452 E0.02534
G1 X234.62 Y59.565 E2.35897
G1 X234.014 Y59.565 E0.02534
G1 X274.507 Y100.058 E2.39481
G1 X274.507 Y100.664 E0.02534
G1 X233.408 Y59.565 E2.43065
G1 X232.802 Y59.565 E0.02534
G1 X274.507 Y101.269 E2.46649
G1 X274.507 Y101.875 E0.02534
G1 X232.196 Y59.565 E2.50233
G1 X231.59 Y59.565 E0.02534
G1 X274.507 Y102.481 E2.53816
G1 X274.507 Y103.087 E0.02534
G1 X230.984 Y59.565 E2.574
G1 X230.378 Y59.565 E0.02534
G1 X274.507 Y103.693 E2.60984
G1 X274.507 Y104.299 E0.02534
G1 X229.772 Y59.565 E2.64568
G1 X229.166 Y59.565 E0.02534
G1 X274.507 Y104.905 E2.68152
G1 X274.507 Y105.511 E0.02534
G1 X228.56 Y59.565 E2.71736
G1 X227.954 Y59.565 E0.02534
G1 X274.507 Y106.117 E2.7532
G1 X274.507 Y106.723 E0.02534
G1 X227.348 Y59.565 E2.78904
G1 X226.742 Y59.565 E0.02534
G1 X274.507 Y107.329 E2.82488
G1 X274.507 Y107.935 E0.02534
G1 X226.136 Y59.565 E2.86072
G1 X225.53 Y59.565 E0.02534
G1 X274.507 Y108.541 E2.89655
G1 X274.507 Y109.147 E0.02534
G1 X224.924 Y59.565 E2.93239
G1 X224.318 Y59.565 E0.02534
G1 X274.507 Y109.753 E2.96823
G1 X274.507 Y110.359 E0.02534
G1 X223.712 Y59.565 E3.00407
G1 X223.106 Y59.565 E0.02534
G1 X274.507 Y110.965 E3.03991
G1 X274.507 Y111.571 E0.02534
G1 X222.5 Y59.565 E3.07575
G1 X221.894 Y59.565 E0.02534
G1 X274.507 Y112.177 E3.11159
G1 X274.507 Y112.783 E0.02534
G1 X221.289 Y59.565 E3.14743
G1 X220.683 Y59.565 E0.02534
G1 X274.507 Y113.389 E3.18327
G1 X274.507 Y113.995 E0.02534
G1 X220.077 Y59.565 E3.21911
G1 X219.471 Y59.565 E0.02534
G1 X274.507 Y114.601 E3.25494
G1 X274.507 Y115.207 E0.02534
G1 X218.865 Y59.565 E3.29078
G1 X218.259 Y59.565 E0.02534
G1 X274.507 Y115.813 E3.32662
G1 X274.507 Y116.419 E0.02534
G1 X217.653 Y59.565 E3.36246
G1 X217.047 Y59.565 E0.02534
G1 X274.507 Y117.025 E3.3983
G1 X274.507 Y117.631 E0.02534
G1 X216.441 Y59.565 E3.43414
G1 X215.835 Y59.565 E0.02534
G1 X274.507 Y118.237 E3.46998
G1 X274.507 Y118.843 E0.02534
G1 X215.229 Y59.565 E3.50582
G1 X214.623 Y59.565 E0.02534
G1 X274.507 Y119.449 E3.54166
G1 X274.507 Y120.055 E0.02534
G1 X214.017 Y59.565 E3.5775
M73 P1 R217
G1 X213.411 Y59.565 E0.02534
G1 X274.507 Y120.661 E3.61333
G1 X274.507 Y121.267 E0.02534
G1 X212.805 Y59.565 E3.64917
G1 X212.199 Y59.565 E0.02534
G1 X274.507 Y121.873 E3.68501
G1 X274.507 Y122.479 E0.02534
G1 X211.593 Y59.565 E3.72085
G1 X210.987 Y59.565 E0.02534
G1 X274.507 Y123.085 E3.75669
G1 X274.507 Y123.691 E0.02534
G1 X210.381 Y59.565 E3.79253
G1 X209.775 Y59.565 E0.02534
G1 X274.507 Y124.297 E3.82837
G1 X274.507 Y124.903 E0.02534
G1 X209.169 Y59.565 E3.86421
G1 X208.563 Y59.565 E0.02534
G1 X274.507 Y125.509 E3.90005
G1 X274.507 Y126.115 E0.02534
G1 X207.957 Y59.565 E3.93589
G1 X207.351 Y59.565 E0.02534
G1 X274.507 Y126.721 E3.97173
G1 X274.507 Y127.327 E0.02534
G1 X206.745 Y59.565 E4.00756
G1 X206.139 Y59.565 E0.02534
G1 X274.507 Y127.933 E4.0434
G1 X274.507 Y128.539 E0.02534
G1 X205.533 Y59.565 E4.07924
G1 X204.927 Y59.565 E0.02534
G1 X274.507 Y129.145 E4.11508
G1 X274.507 Y129.751 E0.02534
M73 P2 R217
G1 X204.321 Y59.565 E4.15092
G1 X203.715 Y59.565 E0.02534
G1 X274.507 Y130.357 E4.18676
G1 X274.507 Y130.963 E0.02534
G1 X203.109 Y59.565 E4.2226
G1 X202.503 Y59.565 E0.02534
G1 X274.507 Y131.569 E4.25844
G1 X274.507 Y132.175 E0.02534
G1 X201.897 Y59.565 E4.29428
G1 X201.291 Y59.565 E0.02534
G1 X274.507 Y132.781 E4.33012
G1 X274.507 Y133.387 E0.02534
G1 X200.685 Y59.565 E4.36595
G1 X200.079 Y59.565 E0.02534
G1 X274.507 Y133.993 E4.40179
G1 X274.507 Y134.599 E0.02534
G1 X199.473 Y59.565 E4.43763
G1 X198.867 Y59.565 E0.02534
G1 X274.507 Y135.205 E4.47347
G1 X274.507 Y135.811 E0.02534
G1 X198.261 Y59.565 E4.50931
G1 X197.655 Y59.565 E0.02534
G1 X274.507 Y136.417 E4.54515
G1 X274.507 Y137.023 E0.02534
G1 X197.049 Y59.565 E4.58099
G1 X196.443 Y59.565 E0.02534
G1 X274.507 Y137.629 E4.61683
G1 X274.507 Y138.234 E0.02534
G1 X195.837 Y59.565 E4.65267
G1 X195.231 Y59.565 E0.02534
G1 X274.507 Y138.84 E4.68851
G1 X274.507 Y139.446 E0.02534
G1 X194.625 Y59.565 E4.72434
G1 X194.019 Y59.565 E0.02534
G1 X274.507 Y140.052 E4.76018
G1 X274.507 Y140.658 E0.02534
G1 X193.413 Y59.565 E4.79602
G1 X192.807 Y59.565 E0.02534
G1 X274.507 Y141.264 E4.83186
M73 P2 R216
G1 X274.507 Y141.87 E0.02534
G1 X192.201 Y59.565 E4.8677
G1 X191.595 Y59.565 E0.02534
G1 X274.507 Y142.476 E4.90354
G1 X274.507 Y143.082 E0.02534
G1 X190.989 Y59.565 E4.93938
G1 X190.383 Y59.565 E0.02534
G1 X274.507 Y143.688 E4.97522
G1 X274.507 Y144.294 E0.02534
G1 X189.777 Y59.565 E5.01106
G1 X189.171 Y59.565 E0.02534
G1 X274.507 Y144.9 E5.0469
G1 X274.507 Y145.506 E0.02534
G1 X188.565 Y59.565 E5.08273
G1 X187.959 Y59.565 E0.02534
G1 X274.507 Y146.112 E5.11857
G1 X274.507 Y146.718 E0.02534
G1 X187.353 Y59.565 E5.15441
G1 X186.747 Y59.565 E0.02534
G1 X274.507 Y147.324 E5.19025
G1 X274.507 Y147.93 E0.02534
G1 X186.141 Y59.565 E5.22609
G1 X185.535 Y59.565 E0.02534
G1 X274.507 Y148.536 E5.26193
G1 X274.507 Y149.142 E0.02534
G1 X184.929 Y59.565 E5.29777
G1 X184.324 Y59.565 E0.02534
G1 X274.507 Y149.748 E5.33361
G1 X274.507 Y150.354 E0.02534
G1 X183.718 Y59.565 E5.36945
G1 X183.112 Y59.565 E0.02534
G1 X274.507 Y150.96 E5.40529
G1 X274.507 Y151.566 E0.02534
G1 X182.506 Y59.565 E5.44112
G1 X181.9 Y59.565 E0.02534
G1 X274.507 Y152.172 E5.47696
G1 X274.507 Y152.778 E0.02534
G1 X181.294 Y59.565 E5.5128
G1 X180.688 Y59.565 E0.02534
G1 X274.507 Y153.384 E5.54864
G1 X274.507 Y153.99 E0.02534
G1 X180.082 Y59.565 E5.58448
G1 X179.476 Y59.565 E0.02534
G1 X274.507 Y154.596 E5.62032
G1 X274.507 Y155.202 E0.02534
G1 X178.87 Y59.565 E5.65616
G1 X178.264 Y59.565 E0.02534
G1 X274.507 Y155.808 E5.692
G1 X274.507 Y156.414 E0.02534
G1 X177.658 Y59.565 E5.72784
G1 X177.052 Y59.565 E0.02534
G1 X274.507 Y157.02 E5.76368
G1 X274.507 Y157.626 E0.02534
G1 X176.446 Y59.565 E5.79951
M73 P2 R215
G1 X175.84 Y59.565 E0.02534
G1 X274.507 Y158.232 E5.83535
G1 X274.507 Y158.838 E0.02534
G1 X175.234 Y59.565 E5.87119
G1 X174.628 Y59.565 E0.02534
G1 X274.507 Y159.444 E5.90703
G1 X274.507 Y160.05 E0.02534
G1 X174.022 Y59.565 E5.94287
G1 X173.416 Y59.565 E0.02534
G1 X274.507 Y160.656 E5.97871
G1 X274.507 Y161.262 E0.02534
G1 X172.81 Y59.565 E6.01455
G1 X172.204 Y59.565 E0.02534
G1 X274.507 Y161.868 E6.05039
G1 X274.507 Y162.474 E0.02534
G1 X171.598 Y59.565 E6.08623
G1 X170.992 Y59.565 E0.02534
G1 X274.507 Y163.08 E6.12207
G1 X274.507 Y163.686 E0.02534
G1 X170.386 Y59.565 E6.1579
G1 X169.78 Y59.565 E0.02534
G1 X274.507 Y164.292 E6.19374
G1 X274.507 Y164.898 E0.02534
G1 X169.174 Y59.565 E6.22958
G1 X168.568 Y59.565 E0.02534
G1 X274.507 Y165.504 E6.26542
G1 X274.507 Y166.11 E0.02534
G1 X167.962 Y59.565 E6.30126
G1 X167.356 Y59.565 E0.02534
G1 X274.507 Y166.716 E6.3371
M73 P3 R215
G1 X274.507 Y167.322 E0.02534
G1 X166.75 Y59.565 E6.37294
G1 X166.144 Y59.565 E0.02534
G1 X274.507 Y167.928 E6.40878
G1 X274.507 Y168.534 E0.02534
G1 X165.538 Y59.565 E6.44462
G1 X164.932 Y59.565 E0.02534
G1 X274.507 Y169.14 E6.48046
G1 X274.507 Y169.746 E0.02534
G1 X164.326 Y59.565 E6.51629
G1 X163.72 Y59.565 E0.02534
G1 X274.507 Y170.352 E6.55213
G1 X274.507 Y170.958 E0.02534
G1 X163.114 Y59.565 E6.58797
G1 X162.508 Y59.565 E0.02534
G1 X274.507 Y171.564 E6.62381
G1 X274.507 Y172.17 E0.02534
G1 X161.902 Y59.565 E6.65965
M73 P3 R214
G1 X161.296 Y59.565 E0.02534
G1 X274.507 Y172.776 E6.69549
G1 X274.507 Y173.382 E0.02534
G1 X160.69 Y59.565 E6.73133
G1 X160.084 Y59.565 E0.02534
G1 X274.507 Y173.988 E6.76717
G1 X274.507 Y174.593 E0.02534
G1 X159.478 Y59.565 E6.80301
G1 X158.872 Y59.565 E0.02534
G1 X274.507 Y175.199 E6.83885
G1 X274.507 Y175.805 E0.02534
G1 X158.266 Y59.565 E6.87468
G1 X157.66 Y59.565 E0.02534
G1 X274.507 Y176.411 E6.91052
G1 X274.507 Y177.017 E0.02534
G1 X157.054 Y59.565 E6.94636
G1 X156.448 Y59.565 E0.02534
G1 X274.507 Y177.623 E6.9822
G1 X274.507 Y178.229 E0.02534
G1 X155.842 Y59.565 E7.01804
G1 X155.236 Y59.565 E0.02534
G1 X274.507 Y178.835 E7.05388
G1 X274.507 Y179.441 E0.02534
G1 X154.63 Y59.565 E7.08972
G1 X154.024 Y59.565 E0.02534
G1 X274.507 Y180.047 E7.12556
G1 X274.507 Y180.653 E0.02534
G1 X153.418 Y59.565 E7.1614
G1 X152.812 Y59.565 E0.02534
G1 X274.507 Y181.259 E7.19724
G1 X274.507 Y181.865 E0.02534
G1 X152.206 Y59.565 E7.23307
G1 X151.6 Y59.565 E0.02534
G1 X274.507 Y182.471 E7.26891
G1 X274.507 Y183.077 E0.02534
G1 X150.994 Y59.565 E7.30475
G1 X150.388 Y59.565 E0.02534
G1 X274.507 Y183.683 E7.34059
