; generated by SuperSlicer 2.4 on 2022-06-28 at 01:36:24 UTC


;
;

;
;
; 

; external perimeters extrusion width = 0.40mm
; perimeters extrusion width = 0.48mm
; infill extrusion width = 0.72mm
; solid infill extrusion width = 0.56mm
; top infill extrusion width = 0.40mm
; support material extrusion width = 0.40mm
; first layer extrusion width = 0.48mm

; object:{"name":"BunkerLTop","id":"BunkerLTop.stl id:0 copy 0","object_center":[164.972906,164.996125,0.000000],"boundingbox_center":[164.972906,164.996125,53.118622],"boundingbox_size":[215.846595,208.990207,106.237244]}
; plater:{"center":[164.972906,164.996125,0.000000],"boundingbox_center":[164.972906,164.996125,53.118622],"boundingbox_size":[215.846595,208.990207,106.237244]}

M73 P0 R423
;TYPE:Custom
START_PRINT T_BED=60 T_EXTRUDER=200
M107
G21 ; set units to millimeters
G90 ; use absolute coordinates
M83 ; use relative distances for extrusion
; Filament gcode
M104 S200 ; set temperature
M109 S200 ; set temperature and wait for it to be reached
M190 S60 ; set bed temperature and wait for it to be reached
M107
;LAYER_CHANGE
;Z:0.24
;HEIGHT:0.24
G1 Z0.24 F9000
G92 E0
M73 P0 R422
G1 E-0.8 F3000
M204 S1000
G1 X132.548 Y132.548 F9000
G1 E0.8 F1800
;TYPE:Skirt
;WIDTH:0.52
G1 X74.526 Y190.571 E3.75911
G1 X73.483 Y192.646 E0.10641
G1 X73.63 Y194.348 E0.07828
G1 X74.526 Y195.803 E0.07828
G1 X137.595 Y258.871 E4.08605
G1 X139.67 Y259.915 E0.10641
G1 X141.372 Y259.767 E0.07828
G1 X142.827 Y258.871 E0.07828
G1 X275.334 Y126.364 E8.58483
G1 X276.378 Y124.289 E0.10641
G1 X276.231 Y122.586 E0.07828
G1 X275.334 Y121.132 E0.07828
G1 X212.266 Y58.063 E4.08605
G1 X210.191 Y57.019 E0.10641
G1 X208.488 Y57.167 E0.07828
G1 X207.034 Y58.063 E0.07828
G1 X132.548 Y132.548 E4.82572
G1 X132.878 Y132.878 F9000
G1 F1800
G1 X74.856 Y190.9 E3.75911
G1 X73.982 Y192.506 E0.08377
G1 X74.041 Y194.101 E0.07311
G1 X74.856 Y195.473 E0.07311
G1 X137.924 Y258.541 E4.08605
G1 X139.53 Y259.416 E0.08377
G1 X141.125 Y259.356 E0.07311
G1 X142.497 Y258.541 E0.07311
G1 X275.004 Y126.034 E8.58483
G1 X275.879 Y124.428 E0.08377
G1 X275.819 Y122.833 E0.07311
G1 X275.004 Y121.461 E0.07311
G1 X211.936 Y58.393 E4.08605
G1 X210.33 Y57.518 E0.08377
G1 X208.735 Y57.578 E0.07311
G1 X207.363 Y58.393 E0.07311
G1 X132.878 Y132.878 E4.82572
G1 E-0.8 F3000
; printing object BunkerLTop.stl id:0 copy 0
; acceleration to travel
M204 S3000
G1 X92.24 Y178.109 F9000
; decel to extrusion
M204 S1000
G1 X78.694 Y193.187
; end travel
G1 E0.8 F1800
;TYPE:Internal perimeter
;WIDTH:0.48
G1 X209.65 Y62.231 E7.75993
M73 P0 R421
G1 X271.167 Y123.748 E3.64526
G1 X140.211 Y254.704 E7.75993
G1 X78.694 Y193.187 E3.64525
G1 X78.088 Y193.187 F9000
G1 F1800
G1 X209.65 Y61.625 E7.79584
G1 X271.773 Y123.748 E3.68116
G1 X140.211 Y255.31 E7.79584
G1 X78.088 Y193.187 E3.68116
G1 X77.482 Y193.187 F9000
;TYPE:External perimeter
G1 F1800
G1 X209.65 Y61.019 E7.83175
G1 X209.762 Y61.131 E0.00668
G1 X272.379 Y123.748 E3.71039
G1 X140.211 Y255.916 E7.83175
G1 X77.482 Y193.187 E3.71707
;WIPE_START
M204 S4000
G1 X77.868 Y193.083 F9000
;WIPE_END
; acceleration to travel
M204 S3000
G1 X173.197 Y98.492
; decel to extrusion
M204 S1000
G1 X209.513 Y62.458
; end travel
;TYPE:Solid infill
;WIDTH:0.478875
G1 F3600
G1 X270.809 Y123.754 E3.62364
G1 X270.506 Y124.057 E0.01791
G1 X209.341 Y62.891 E3.61594
G1 X209.038 Y63.194 E0.01791
G1 X270.203 Y124.36 E3.61594
G1 X269.9 Y124.663 E0.01791
G1 X208.735 Y63.497 E3.61594
G1 X208.432 Y63.8 E0.01791
G1 X269.597 Y124.966 E3.61594
G1 X269.294 Y125.269 E0.01791
G1 X208.129 Y64.103 E3.61594
M73 P0 R420
G1 X207.826 Y64.406 E0.01791
G1 X268.991 Y125.572 E3.61594
G1 X268.688 Y125.875 E0.01791
G1 X207.523 Y64.709 E3.61594
G1 X207.22 Y65.012 E0.01791
G1 X268.385 Y126.178 E3.61594
G1 X268.082 Y126.481 E0.01791
G1 X206.917 Y65.315 E3.61594
G1 X206.614 Y65.618 E0.01791
G1 X267.779 Y126.784 E3.61594
G1 X267.476 Y127.087 E0.01791
G1 X206.311 Y65.921 E3.61594
G1 X206.008 Y66.224 E0.01791
G1 X267.173 Y127.39 E3.61594
G1 X266.87 Y127.693 E0.01791
G1 X205.705 Y66.527 E3.61594
G1 X205.402 Y66.83 E0.01791
G1 X266.567 Y127.996 E3.61594
G1 X266.264 Y128.299 E0.01791
G1 X205.099 Y67.133 E3.61594
G1 X204.796 Y67.436 E0.01791
G1 X265.961 Y128.602 E3.61594
G1 X265.658 Y128.905 E0.01791
G1 X204.493 Y67.739 E3.61594
G1 X204.19 Y68.042 E0.01791
G1 X265.355 Y129.208 E3.61594
G1 X265.052 Y129.511 E0.01791
G1 X203.887 Y68.345 E3.61594
G1 X203.584 Y68.648 E0.01791
G1 X264.749 Y129.814 E3.61594
G1 X264.446 Y130.117 E0.01791
G1 X203.281 Y68.951 E3.61594
G1 X202.978 Y69.254 E0.01791
G1 X264.143 Y130.42 E3.61594
G1 X263.84 Y130.722 E0.01791
G1 X202.675 Y69.557 E3.61594
G1 X202.372 Y69.86 E0.01791
G1 X263.537 Y131.025 E3.61594
G1 X263.234 Y131.328 E0.01791
G1 X202.069 Y70.163 E3.61594
G1 X201.766 Y70.466 E0.01791
G1 X262.931 Y131.631 E3.61594
G1 X262.628 Y131.934 E0.01791
G1 X201.463 Y70.769 E3.61594
G1 X201.16 Y71.072 E0.01791
G1 X262.325 Y132.237 E3.61594
G1 X262.022 Y132.54 E0.01791
G1 X200.857 Y71.375 E3.61594
G1 X200.554 Y71.678 E0.01791
G1 X261.719 Y132.843 E3.61594
G1 X261.416 Y133.146 E0.01791
G1 X200.251 Y71.981 E3.61594
G1 X199.948 Y72.284 E0.01791
G1 X261.113 Y133.449 E3.61594
G1 X260.81 Y133.752 E0.01791
G1 X199.645 Y72.587 E3.61594
G1 X199.342 Y72.89 E0.01791
G1 X260.507 Y134.055 E3.61594
G1 X260.204 Y134.358 E0.01791
G1 X199.039 Y73.193 E3.61594
G1 X198.736 Y73.496 E0.01791
G1 X259.901 Y134.661 E3.61594
G1 X259.598 Y134.964 E0.01791
G1 X198.433 Y73.799 E3.61594
G1 X198.13 Y74.102 E0.01791
G1 X259.295 Y135.267 E3.61594
G1 X258.992 Y135.57 E0.01791
G1 X197.827 Y74.405 E3.61594
G1 X197.524 Y74.708 E0.01791
G1 X258.689 Y135.873 E3.61594
G1 X258.386 Y136.176 E0.01791
G1 X197.221 Y75.011 E3.61594
G1 X196.918 Y75.314 E0.01791
G1 X258.083 Y136.479 E3.61594
G1 X257.78 Y136.782 E0.01791
G1 X196.615 Y75.617 E3.61594
G1 X196.312 Y75.92 E0.01791
G1 X257.477 Y137.085 E3.61594
G1 X257.174 Y137.388 E0.01791
G1 X196.009 Y76.223 E3.61594
M73 P0 R419
G1 X195.706 Y76.526 E0.01791
G1 X256.871 Y137.691 E3.61594
G1 X256.569 Y137.994 E0.01791
G1 X195.403 Y76.829 E3.61594
G1 X195.1 Y77.132 E0.01791
G1 X256.266 Y138.297 E3.61594
G1 X255.963 Y138.6 E0.01791
G1 X194.797 Y77.435 E3.61594
G1 X194.494 Y77.738 E0.01791
G1 X255.66 Y138.903 E3.61594
G1 X255.357 Y139.206 E0.01791
G1 X194.191 Y78.041 E3.61594
G1 X193.888 Y78.344 E0.01791
G1 X255.054 Y139.509 E3.61594
G1 X254.751 Y139.812 E0.01791
G1 X193.585 Y78.647 E3.61594
G1 X193.282 Y78.95 E0.01791
G1 X254.448 Y140.115 E3.61594
G1 X254.145 Y140.418 E0.01791
G1 X192.979 Y79.253 E3.61594
G1 X192.676 Y79.556 E0.01791
G1 X253.842 Y140.721 E3.61594
G1 X253.539 Y141.024 E0.01791
G1 X192.373 Y79.859 E3.61594
G1 X192.07 Y80.162 E0.01791
G1 X253.236 Y141.327 E3.61594
G1 X252.933 Y141.63 E0.01791
G1 X191.767 Y80.465 E3.61594
G1 X191.464 Y80.768 E0.01791
G1 X252.63 Y141.933 E3.61594
G1 X252.327 Y142.236 E0.01791
G1 X191.161 Y81.071 E3.61594
G1 X190.858 Y81.374 E0.01791
G1 X252.024 Y142.539 E3.61594
G1 X251.721 Y142.842 E0.01791
G1 X190.555 Y81.677 E3.61594
G1 X190.252 Y81.98 E0.01791
G1 X251.418 Y143.145 E3.61594
G1 X251.115 Y143.448 E0.01791
G1 X189.949 Y82.283 E3.61594
G1 X189.646 Y82.586 E0.01791
G1 X250.812 Y143.751 E3.61594
G1 X250.509 Y144.054 E0.01791
G1 X189.343 Y82.889 E3.61594
G1 X189.04 Y83.192 E0.01791
G1 X250.206 Y144.357 E3.61594
G1 X249.903 Y144.66 E0.01791
G1 X188.737 Y83.495 E3.61594
G1 X188.434 Y83.798 E0.01791
G1 X249.6 Y144.963 E3.61594
G1 X249.297 Y145.266 E0.01791
G1 X188.131 Y84.101 E3.61594
G1 X187.828 Y84.404 E0.01791
G1 X248.994 Y145.569 E3.61594
G1 X248.691 Y145.872 E0.01791
G1 X187.525 Y84.707 E3.61594
G1 X187.222 Y85.01 E0.01791
G1 X248.388 Y146.175 E3.61594
G1 X248.085 Y146.478 E0.01791
G1 X186.919 Y85.312 E3.61594
G1 X186.616 Y85.615 E0.01791
G1 X247.782 Y146.781 E3.61594
G1 X247.479 Y147.084 E0.01791
G1 X186.313 Y85.918 E3.61594
G1 X186.01 Y86.221 E0.01791
G1 X247.176 Y147.387 E3.61594
G1 X246.873 Y147.69 E0.01791
G1 X185.707 Y86.524 E3.61594
G1 X185.404 Y86.827 E0.01791
G1 X246.57 Y147.993 E3.61594
G1 X246.267 Y148.296 E0.01791
G1 X185.101 Y87.13 E3.61594
G1 X184.798 Y87.433 E0.01791
G1 X245.964 Y148.599 E3.61594
G1 X245.661 Y148.902 E0.01791
G1 X184.495 Y87.736 E3.61594
G1 X184.192 Y88.039 E0.01791
G1 X245.358 Y149.205 E3.61594
G1 X245.055 Y149.508 E0.01791
G1 X183.889 Y88.342 E3.61594
M73 P0 R418
G1 X183.586 Y88.645 E0.01791
G1 X244.752 Y149.811 E3.61594
G1 X244.449 Y150.114 E0.01791
G1 X183.283 Y88.948 E3.61594
G1 X182.98 Y89.251 E0.01791
G1 X244.146 Y150.417 E3.61594
G1 X243.843 Y150.72 E0.01791
G1 X182.677 Y89.554 E3.61594
G1 X182.374 Y89.857 E0.01791
G1 X243.54 Y151.023 E3.61594
G1 X243.237 Y151.326 E0.01791
G1 X182.071 Y90.16 E3.61594
M73 P1 R418
G1 X181.768 Y90.463 E0.01791
G1 X242.934 Y151.629 E3.61594
G1 X242.631 Y151.932 E0.01791
G1 X181.465 Y90.766 E3.61594
G1 X181.162 Y91.069 E0.01791
G1 X242.328 Y152.235 E3.61594
G1 X242.025 Y152.538 E0.01791
G1 X180.859 Y91.372 E3.61594
G1 X180.556 Y91.675 E0.01791
G1 X241.722 Y152.841 E3.61594
G1 X241.419 Y153.144 E0.01791
G1 X180.253 Y91.978 E3.61594
G1 X179.95 Y92.281 E0.01791
G1 X241.116 Y153.447 E3.61594
G1 X240.813 Y153.75 E0.01791
G1 X179.647 Y92.584 E3.61594
G1 X179.344 Y92.887 E0.01791
G1 X240.51 Y154.053 E3.61594
G1 X240.207 Y154.356 E0.01791
G1 X179.041 Y93.19 E3.61594
G1 X178.738 Y93.493 E0.01791
G1 X239.904 Y154.659 E3.61594
G1 X239.601 Y154.962 E0.01791
G1 X178.435 Y93.796 E3.61594
G1 X178.132 Y94.099 E0.01791
G1 X239.298 Y155.265 E3.61594
G1 X238.995 Y155.568 E0.01791
G1 X177.829 Y94.402 E3.61594
G1 X177.526 Y94.705 E0.01791
G1 X238.692 Y155.871 E3.61594
G1 X238.389 Y156.174 E0.01791
G1 X177.223 Y95.008 E3.61594
G1 X176.92 Y95.311 E0.01791
G1 X238.086 Y156.477 E3.61594
G1 X237.783 Y156.78 E0.01791
G1 X176.617 Y95.614 E3.61594
G1 X176.314 Y95.917 E0.01791
G1 X237.48 Y157.083 E3.61594
G1 X237.177 Y157.386 E0.01791
G1 X176.011 Y96.22 E3.61594
G1 X175.708 Y96.523 E0.01791
G1 X236.874 Y157.689 E3.61594
G1 X236.571 Y157.992 E0.01791
G1 X175.405 Y96.826 E3.61594
G1 X175.102 Y97.129 E0.01791
G1 X236.268 Y158.295 E3.61594
G1 X235.965 Y158.598 E0.01791
G1 X174.799 Y97.432 E3.61594
G1 X174.497 Y97.735 E0.01791
G1 X235.662 Y158.901 E3.61594
G1 X235.359 Y159.204 E0.01791
G1 X174.194 Y98.038 E3.61594
G1 X173.891 Y98.341 E0.01791
G1 X235.056 Y159.507 E3.61594
G1 X234.753 Y159.81 E0.01791
G1 X173.588 Y98.644 E3.61594
G1 X173.285 Y98.947 E0.01791
G1 X234.45 Y160.113 E3.61594
G1 X234.147 Y160.416 E0.01791
G1 X172.982 Y99.25 E3.61594
G1 X172.679 Y99.553 E0.01791
G1 X233.844 Y160.719 E3.61594
G1 X233.541 Y161.022 E0.01791
G1 X172.376 Y99.856 E3.61594
G1 X172.073 Y100.159 E0.01791
G1 X233.238 Y161.325 E3.61594
G1 X232.935 Y161.628 E0.01791
G1 X171.77 Y100.462 E3.61594
G1 X171.467 Y100.765 E0.01791
G1 X232.632 Y161.931 E3.61594
M73 P1 R417
G1 X232.329 Y162.234 E0.01791
G1 X171.164 Y101.068 E3.61594
G1 X170.861 Y101.371 E0.01791
G1 X232.026 Y162.537 E3.61594
G1 X231.723 Y162.84 E0.01791
G1 X170.558 Y101.674 E3.61594
G1 X170.255 Y101.977 E0.01791
G1 X231.42 Y163.143 E3.61594
G1 X231.117 Y163.446 E0.01791
G1 X169.952 Y102.28 E3.61594
G1 X169.649 Y102.583 E0.01791
G1 X230.814 Y163.749 E3.61594
G1 X230.511 Y164.052 E0.01791
G1 X169.346 Y102.886 E3.61594
G1 X169.043 Y103.189 E0.01791
G1 X230.208 Y164.355 E3.61594
G1 X229.905 Y164.658 E0.01791
G1 X168.74 Y103.492 E3.61594
G1 X168.437 Y103.795 E0.01791
G1 X229.602 Y164.961 E3.61594
G1 X229.299 Y165.264 E0.01791
G1 X168.134 Y104.098 E3.61594
G1 X167.831 Y104.401 E0.01791
G1 X228.996 Y165.567 E3.61594
G1 X228.693 Y165.87 E0.01791
G1 X167.528 Y104.704 E3.61594
G1 X167.225 Y105.007 E0.01791
G1 X228.39 Y166.173 E3.61594
G1 X228.087 Y166.476 E0.01791
G1 X166.922 Y105.31 E3.61594
G1 X166.619 Y105.613 E0.01791
G1 X227.784 Y166.779 E3.61594
G1 X227.481 Y167.082 E0.01791
G1 X166.316 Y105.916 E3.61594
G1 X166.013 Y106.219 E0.01791
G1 X227.178 Y167.384 E3.61594
G1 X226.875 Y167.687 E0.01791
G1 X165.71 Y106.522 E3.61594
G1 X165.407 Y106.825 E0.01791
G1 X226.572 Y167.99 E3.61594
G1 X226.269 Y168.293 E0.01791
G1 X165.104 Y107.128 E3.61594
G1 X164.801 Y107.431 E0.01791
G1 X225.966 Y168.596 E3.61594
G1 X225.663 Y168.899 E0.01791
G1 X164.498 Y107.734 E3.61594
G1 X164.195 Y108.037 E0.01791
G1 X225.36 Y169.202 E3.61594
G1 X225.057 Y169.505 E0.01791
G1 X163.892 Y108.34 E3.61594
G1 X163.589 Y108.643 E0.01791
G1 X224.754 Y169.808 E3.61594
G1 X224.451 Y170.111 E0.01791
G1 X163.286 Y108.946 E3.61594
G1 X162.983 Y109.249 E0.01791
G1 X224.148 Y170.414 E3.61594
G1 X223.845 Y170.717 E0.01791
G1 X162.68 Y109.552 E3.61594
G1 X162.377 Y109.855 E0.01791
G1 X223.542 Y171.02 E3.61594
G1 X223.239 Y171.323 E0.01791
G1 X162.074 Y110.158 E3.61594
G1 X161.771 Y110.461 E0.01791
G1 X222.936 Y171.626 E3.61594
G1 X222.633 Y171.929 E0.01791
G1 X161.468 Y110.764 E3.61594
G1 X161.165 Y111.067 E0.01791
G1 X222.33 Y172.232 E3.61594
G1 X222.027 Y172.535 E0.01791
G1 X160.862 Y111.37 E3.61594
G1 X160.559 Y111.673 E0.01791
G1 X221.724 Y172.838 E3.61594
G1 X221.421 Y173.141 E0.01791
G1 X160.256 Y111.976 E3.61594
G1 X159.953 Y112.279 E0.01791
G1 X221.118 Y173.444 E3.61594
G1 X220.815 Y173.747 E0.01791
G1 X159.65 Y112.582 E3.61594
G1 X159.347 Y112.885 E0.01791
G1 X220.512 Y174.05 E3.61594
M73 P1 R416
G1 X220.209 Y174.353 E0.01791
G1 X159.044 Y113.188 E3.61594
G1 X158.741 Y113.491 E0.01791
G1 X219.907 Y174.656 E3.61594
G1 X219.604 Y174.959 E0.01791
G1 X158.438 Y113.794 E3.61594
G1 X158.135 Y114.097 E0.01791
G1 X219.301 Y175.262 E3.61594
G1 X218.998 Y175.565 E0.01791
G1 X157.832 Y114.4 E3.61594
G1 X157.529 Y114.703 E0.01791
G1 X218.695 Y175.868 E3.61594
G1 X218.392 Y176.171 E0.01791
G1 X157.226 Y115.006 E3.61594
G1 X156.923 Y115.309 E0.01791
G1 X218.089 Y176.474 E3.61594
G1 X217.786 Y176.777 E0.01791
G1 X156.62 Y115.612 E3.61594
G1 X156.317 Y115.915 E0.01791
G1 X217.483 Y177.08 E3.61594
G1 X217.18 Y177.383 E0.01791
G1 X156.014 Y116.218 E3.61594
G1 X155.711 Y116.521 E0.01791
G1 X216.877 Y177.686 E3.61594
G1 X216.574 Y177.989 E0.01791
G1 X155.408 Y116.824 E3.61594
G1 X155.105 Y117.127 E0.01791
G1 X216.271 Y178.292 E3.61594
G1 X215.968 Y178.595 E0.01791
G1 X154.802 Y117.43 E3.61594
G1 X154.499 Y117.733 E0.01791
G1 X215.665 Y178.898 E3.61594
G1 X215.362 Y179.201 E0.01791
G1 X154.196 Y118.036 E3.61594
G1 X153.893 Y118.339 E0.01791
G1 X215.059 Y179.504 E3.61594
G1 X214.756 Y179.807 E0.01791
G1 X153.59 Y118.642 E3.61594
G1 X153.287 Y118.945 E0.01791
G1 X214.453 Y180.11 E3.61594
G1 X214.15 Y180.413 E0.01791
G1 X152.984 Y119.248 E3.61594
G1 X152.681 Y119.551 E0.01791
G1 X213.847 Y180.716 E3.61594
G1 X213.544 Y181.019 E0.01791
G1 X152.378 Y119.854 E3.61594
G1 X152.075 Y120.157 E0.01791
G1 X213.241 Y181.322 E3.61594
G1 X212.938 Y181.625 E0.01791
G1 X151.772 Y120.46 E3.61594
G1 X151.469 Y120.763 E0.01791
G1 X212.635 Y181.928 E3.61594
G1 X212.332 Y182.231 E0.01791
G1 X151.166 Y121.066 E3.61594
G1 X150.863 Y121.369 E0.01791
G1 X212.029 Y182.534 E3.61594
G1 X211.726 Y182.837 E0.01791
G1 X150.56 Y121.671 E3.61594
G1 X150.257 Y121.974 E0.01791
G1 X211.423 Y183.14 E3.61594
G1 X211.12 Y183.443 E0.01791
G1 X149.954 Y122.277 E3.61594
G1 X149.651 Y122.58 E0.01791
G1 X210.817 Y183.746 E3.61594
G1 X210.514 Y184.049 E0.01791
G1 X149.348 Y122.883 E3.61594
G1 X149.045 Y123.186 E0.01791
G1 X210.211 Y184.352 E3.61594
G1 X209.908 Y184.655 E0.01791
G1 X148.742 Y123.489 E3.61594
G1 X148.439 Y123.792 E0.01791
G1 X209.605 Y184.958 E3.61594
G1 X209.302 Y185.261 E0.01791
G1 X148.136 Y124.095 E3.61594
G1 X147.833 Y124.398 E0.01791
G1 X208.999 Y185.564 E3.61594
G1 X208.696 Y185.867 E0.01791
G1 X147.53 Y124.701 E3.61594
G1 X147.227 Y125.004 E0.01791
G1 X208.393 Y186.17 E3.61594
M73 P1 R415
G1 X208.09 Y186.473 E0.01791
G1 X146.924 Y125.307 E3.61594
G1 X146.621 Y125.61 E0.01791
G1 X207.787 Y186.776 E3.61594
G1 X207.484 Y187.079 E0.01791
G1 X146.318 Y125.913 E3.61594
G1 X146.015 Y126.216 E0.01791
G1 X207.181 Y187.382 E3.61594
G1 X206.878 Y187.685 E0.01791
G1 X145.712 Y126.519 E3.61594
G1 X145.409 Y126.822 E0.01791
G1 X206.575 Y187.988 E3.61594
G1 X206.272 Y188.291 E0.01791
G1 X145.106 Y127.125 E3.61594
G1 X144.803 Y127.428 E0.01791
G1 X205.969 Y188.594 E3.61594
G1 X205.666 Y188.897 E0.01791
