; generated by SuperSlicer 2.4 on 2022-08-25 at 04:47:51 UTC


;
;

;
;
; 

; external perimeters extrusion width = 0.48mm
; perimeters extrusion width = 0.48mm
; infill extrusion width = 0.72mm
; solid infill extrusion width = 0.56mm
; top infill extrusion width = 0.40mm
; support material extrusion width = 0.42mm
; first layer extrusion width = 0.48mm

; external perimeters extrusion width = 0.48mm
; perimeters extrusion width = 0.48mm
; infill extrusion width = 0.72mm
; solid infill extrusion width = 0.56mm
; top infill extrusion width = 0.40mm
; support material extrusion width = 0.42mm
; first layer extrusion width = 0.48mm

; external perimeters extrusion width = 0.48mm
; perimeters extrusion width = 0.48mm
; infill extrusion width = 0.72mm
; solid infill extrusion width = 0.56mm
; top infill extrusion width = 0.40mm
; support material extrusion width = 0.42mm
; first layer extrusion width = 0.48mm

; external perimeters extrusion width = 0.48mm
; perimeters extrusion width = 0.48mm
; infill extrusion width = 0.72mm
; solid infill extrusion width = 0.56mm
; top infill extrusion width = 0.40mm
; support material extrusion width = 0.42mm
; first layer extrusion width = 0.48mm

; external perimeters extrusion width = 0.48mm
; perimeters extrusion width = 0.48mm
; infill extrusion width = 0.72mm
; solid infill extrusion width = 0.56mm
; top infill extrusion width = 0.40mm
; support material extrusion width = 0.42mm
; first layer extrusion width = 0.48mm

; external perimeters extrusion width = 0.48mm
; perimeters extrusion width = 0.48mm
; infill extrusion width = 0.72mm
; solid infill extrusion width = 0.56mm
; top infill extrusion width = 0.40mm
; support material extrusion width = 0.42mm
; first layer extrusion width = 0.48mm

; object:{"name":"Zip-75mm","id":"Zip-75mm.stl id:0 copy 0","object_center":[165.890264,157.035534,0.000000],"boundingbox_center":[165.890264,157.035534,1.000000],"boundingbox_size":[80.200001,10.000000,2.000000]}
; object:{"name":"zmedium_ziptie_final_v1","id":"zmedium_ziptie_final_v1.stl id:1 copy 0","object_center":[109.790264,205.000000,0.000000],"boundingbox_center":[109.790264,205.000000,0.200000],"boundingbox_size":[20.000000,74.000000,0.400000]}
; object:{"name":"Zip-75mm","id":"Zip-75mm.stl id:2 copy 0","object_center":[165.890264,141.035534,0.000000],"boundingbox_center":[165.890264,141.035534,1.000000],"boundingbox_size":[80.200001,10.000000,2.000000]}
; object:{"name":"zmedium_ziptie_final_v1","id":"zmedium_ziptie_final_v1.stl id:3 copy 0","object_center":[135.790264,205.000000,0.000000],"boundingbox_center":[135.790264,205.000000,0.200000],"boundingbox_size":[20.000000,74.000000,0.400000]}
; object:{"name":"Zip-75mm","id":"Zip-75mm.stl id:4 copy 0","object_center":[190.109736,172.444639,0.000000],"boundingbox_center":[190.109736,172.444639,1.000000],"boundingbox_size":[80.200001,10.000000,2.000000]}
; object:{"name":"zmedium_ziptie_final_v1","id":"zmedium_ziptie_final_v1.stl id:5 copy 0","object_center":[109.790264,125.000000,0.000000],"boundingbox_center":[109.790264,125.000000,0.200000],"boundingbox_size":[20.000000,74.000000,0.400000]}
; plater:{"center":[165.000000,165.000000,0.000000],"boundingbox_center":[165.000000,165.000000,1.000000],"boundingbox_size":[130.419472,154.000000,2.000000]}

M73 P0 R14
;TYPE:Custom
START_PRINT T_BED=60 T_EXTRUDER=200
M107
G21 ; set units to millimeters
G90 ; use absolute coordinates
M83 ; use relative distances for extrusion
; Filament gcode
M104 S200 ; set temperature
M109 S200 ; set temperature and wait for it to be reached
M190 S60 ; set bed temperature and wait for it to be reached
M107
;LAYER_CHANGE
;Z:0.24
;HEIGHT:0.24
G1 Z0.24 F9000
G92 E0
M73 P0 R14
G1 E-0.8 F3000
M204 S1000
G1 X99.274 Y89.425 F9000
G1 E0.8 F1800
;TYPE:Skirt
;WIDTH:0.52
G1 X98.642 Y90.271 E0.04835
G1 X98.193 Y91.919 E0.07828
G1 X96.191 Y152.517 E2.7776
G1 X96.191 Y239.995 E4.00753
M73 P1 R14
G1 X96.246 Y240.733 E0.03391
G1 X96.387 Y241.445 E0.03323
G1 X96.773 Y242.471 E0.05023
G1 X97.351 Y243.402 E0.05023
G1 X98.1 Y244.203 E0.05023
G1 X99.319 Y245.018 E0.06718
G1 X100.346 Y245.403 E0.05023
G1 X101.057 Y245.545 E0.03323
G1 X101.795 Y245.6 E0.03391
G1 X143.785 Y245.6 E1.92364
G1 X144.523 Y245.545 E0.03391
G1 X145.591 Y245.295 E0.05023
G1 X146.261 Y245.018 E0.03322
G1 X147.126 Y244.493 E0.04634
G1 X232.39 Y177.758 E4.96027
G1 X233.415 Y176.507 E0.07408
G1 X233.809 Y174.845 E0.07828
G1 X233.809 Y170.045 E0.2199
G1 X233.039 Y167.786 E0.10934
G1 X208.82 Y136.376 E1.81701
M73 P2 R14
G1 X207.667 Y135.391 E0.06949
G1 X115.602 Y84.976 E4.80859
G1 X115.024 Y84.714 E0.02909
G1 X113.852 Y84.432 E0.05522
G1 X106.211 Y84.4 E0.35007
G1 X105.489 Y84.464 E0.03321
G1 X104.339 Y84.803 E0.05492
G1 X103.503 Y85.286 E0.04424
G1 X102.947 Y85.752 E0.03321
G1 X99.274 Y89.425 E0.23798
G1 X99.604 Y89.755 F9000
G1 F1800
G1 X99.104 Y90.402 E0.03746
G1 X98.659 Y91.935 E0.07311
G1 X96.657 Y152.517 E2.77689
G1 X96.657 Y239.995 E4.00753
M73 P3 R14
G1 X96.71 Y240.687 E0.03181
G1 X96.833 Y241.309 E0.02904
G1 X97.184 Y242.251 E0.04604
G1 X97.712 Y243.106 E0.04604
G1 X98.396 Y243.842 E0.04605
G1 X99.211 Y244.431 E0.04604
G1 X100.125 Y244.849 E0.04604
G1 X101.478 Y245.118 E0.06322
G1 X144.478 Y245.081 E1.96988
G1 X145.456 Y244.849 E0.04605
G1 X146.041 Y244.606 E0.02903
G1 X146.838 Y244.125 E0.04265
G1 X232.102 Y177.391 E4.96027
G1 X232.949 Y176.391 E0.06001
G1 X233.343 Y174.845 E0.07311
G1 X233.343 Y170.045 E0.2199
G1 X232.67 Y168.07 E0.09555
G1 X208.451 Y136.661 E1.81701
M73 P4 R14
G1 X207.443 Y135.8 E0.06073
G1 X115.379 Y85.385 E4.80859
G1 X114.846 Y85.144 E0.02678
G1 X113.792 Y84.894 E0.04965
G1 X106.211 Y84.867 E0.34728
G1 X105.55 Y84.926 E0.03042
G1 X104.518 Y85.234 E0.04935
G1 X103.787 Y85.656 E0.03867
G1 X103.277 Y86.082 E0.03042
G1 X99.604 Y89.755 E0.23798
G1 E-0.8 F3000
; printing object Zip-75mm.stl id:0 copy 0
; acceleration to travel
M204 S3000
G1 X122.541 Y139.238 F9000
; decel to extrusion
M204 S1000
G1 X130.187 Y155.733
; end travel
G1 E0.8 F1800
;TYPE:Internal perimeter
;WIDTH:0.48
G1 X204.793 Y155.733 E3.12602
M73 P4 R14
G1 X204.793 Y158.339 E0.10919
G1 X130.187 Y158.339 E3.12602
G1 X130.187 Y155.733 E0.10919
G1 E-0.8 F3000
; acceleration to travel
M204 S3000
G1 X127.466 Y153.536 F9000
; decel to extrusion
M204 S1000
G1 X126.559 Y152.804
; end travel
G1 E0.8 F1800
G1 X130.222 Y152.804 E0.15348
G1 X130.222 Y155.304 E0.10475
G1 X205.222 Y155.304 E3.14253
G1 X205.222 Y158.767 E0.1451
G1 X130.222 Y158.767 E3.14253
M73 P5 R13
G1 X130.222 Y161.267 E0.10475
G1 X129.759 Y161.267 E0.0194
G1 X129.759 Y153.267 E0.3352
G1 X127.022 Y153.267 E0.11468
G1 X127.022 Y161.267 E0.3352
G1 X126.559 Y161.267 E0.0194
G1 X126.559 Y152.804 E0.3546
G1 X126.13 Y152.376 F9000
;TYPE:External perimeter
G1 F1800
G1 X130.65 Y152.376 E0.18939
G1 X130.65 Y154.876 E0.10475
G1 X205.65 Y154.876 E3.14253
G1 X205.65 Y159.196 E0.18101
G1 X130.65 Y159.196 E3.14253
G1 X130.65 Y161.696 E0.10475
G1 X129.33 Y161.696 E0.05531
G1 X129.33 Y153.696 E0.3352
G1 X127.45 Y153.696 E0.07877
G1 X127.45 Y161.696 E0.3352
G1 X126.13 Y161.696 E0.05531
G1 X126.13 Y152.376 E0.39051
;WIPE_START
M204 S4000
G1 X126.477 Y152.576 F9000
;WIPE_END
G1 E-0.8 F3000
; acceleration to travel
M204 S3000
G1 X182.515 Y154.908 F9000
; decel to extrusion
M204 S1000
M73 P6 R13
G1 X203.863 Y155.797
; end travel
G1 E0.8 F1800
;TYPE:Solid infill
;WIDTH:0.452634
G1 F3600
G1 X204.545 Y156.479 E0.03811
G1 X204.545 Y157.085 E0.02394
G1 X203.441 Y155.981 E0.06167
G1 X202.835 Y155.981 E0.02394
G1 X204.545 Y157.691 E0.09553
G1 X204.545 Y158.09 E0.01578
G1 X204.338 Y158.09 E0.00816
G1 X202.229 Y155.981 E0.11785
G1 X201.623 Y155.981 E0.02394
G1 X203.732 Y158.09 E0.11785
G1 X203.126 Y158.09 E0.02394
G1 X201.017 Y155.981 E0.11785
G1 X200.411 Y155.981 E0.02394
G1 X202.52 Y158.09 E0.11785
G1 X201.914 Y158.09 E0.02394
G1 X199.805 Y155.981 E0.11785
G1 X199.199 Y155.981 E0.02394
G1 X201.308 Y158.09 E0.11785
G1 X200.702 Y158.09 E0.02394
G1 X198.593 Y155.981 E0.11785
G1 X197.987 Y155.981 E0.02394
G1 X200.096 Y158.09 E0.11785
G1 X199.49 Y158.09 E0.02394
G1 X197.381 Y155.981 E0.11785
G1 X196.775 Y155.981 E0.02394
G1 X198.884 Y158.09 E0.11785
G1 X198.278 Y158.09 E0.02394
G1 X196.169 Y155.981 E0.11785
G1 X195.563 Y155.981 E0.02394
G1 X197.672 Y158.09 E0.11785
G1 X197.066 Y158.09 E0.02394
G1 X194.957 Y155.981 E0.11785
G1 X194.351 Y155.981 E0.02394
G1 X196.46 Y158.09 E0.11785
G1 X195.854 Y158.09 E0.02394
G1 X193.745 Y155.981 E0.11785
G1 X193.139 Y155.981 E0.02394
G1 X195.248 Y158.09 E0.11785
G1 X194.642 Y158.09 E0.02394
G1 X192.533 Y155.981 E0.11785
G1 X191.927 Y155.981 E0.02394
G1 X194.036 Y158.09 E0.11785
G1 X193.43 Y158.09 E0.02394
G1 X191.321 Y155.981 E0.11785
G1 X190.715 Y155.981 E0.02394
G1 X192.824 Y158.09 E0.11785
G1 X192.218 Y158.09 E0.02394
G1 X190.109 Y155.981 E0.11785
G1 X189.503 Y155.981 E0.02394
G1 X191.612 Y158.09 E0.11785
G1 X191.006 Y158.09 E0.02394
G1 X188.897 Y155.981 E0.11785
G1 X188.292 Y155.981 E0.02394
G1 X190.401 Y158.09 E0.11785
G1 X189.795 Y158.09 E0.02394
G1 X187.686 Y155.981 E0.11785
G1 X187.08 Y155.981 E0.02394
G1 X189.189 Y158.09 E0.11785
G1 X188.583 Y158.09 E0.02394
G1 X186.474 Y155.981 E0.11785
G1 X185.868 Y155.981 E0.02394
G1 X187.977 Y158.09 E0.11785
G1 X187.371 Y158.09 E0.02394
G1 X185.262 Y155.981 E0.11785
G1 X184.656 Y155.981 E0.02394
G1 X186.765 Y158.09 E0.11785
G1 X186.159 Y158.09 E0.02394
G1 X184.05 Y155.981 E0.11785
G1 X183.444 Y155.981 E0.02394
G1 X185.553 Y158.09 E0.11785
G1 X184.947 Y158.09 E0.02394
G1 X182.838 Y155.981 E0.11785
G1 X182.232 Y155.981 E0.02394
G1 X184.341 Y158.09 E0.11785
G1 X183.735 Y158.09 E0.02394
G1 X181.626 Y155.981 E0.11785
G1 X181.02 Y155.981 E0.02394
G1 X183.129 Y158.09 E0.11785
G1 X182.523 Y158.09 E0.02394
G1 X180.414 Y155.981 E0.11785
G1 X179.808 Y155.981 E0.02394
G1 X181.917 Y158.09 E0.11785
G1 X181.311 Y158.09 E0.02394
G1 X179.202 Y155.981 E0.11785
G1 X178.596 Y155.981 E0.02394
G1 X180.705 Y158.09 E0.11785
G1 X180.099 Y158.09 E0.02394
G1 X177.99 Y155.981 E0.11785
G1 X177.384 Y155.981 E0.02394
G1 X179.493 Y158.09 E0.11785
G1 X178.887 Y158.09 E0.02394
G1 X176.778 Y155.981 E0.11785
G1 X176.172 Y155.981 E0.02394
G1 X178.281 Y158.09 E0.11785
G1 X177.675 Y158.09 E0.02394
G1 X175.566 Y155.981 E0.11785
G1 X174.96 Y155.981 E0.02394
G1 X177.069 Y158.09 E0.11785
G1 X176.463 Y158.09 E0.02394
G1 X174.354 Y155.981 E0.11785
G1 X173.748 Y155.981 E0.02394
G1 X175.857 Y158.09 E0.11785
G1 X175.251 Y158.09 E0.02394
G1 X173.142 Y155.981 E0.11785
G1 X172.536 Y155.981 E0.02394
G1 X174.645 Y158.09 E0.11785
G1 X174.039 Y158.09 E0.02394
G1 X171.93 Y155.981 E0.11785
G1 X171.324 Y155.981 E0.02394
G1 X173.433 Y158.09 E0.11785
G1 X172.827 Y158.09 E0.02394
G1 X170.718 Y155.981 E0.11785
G1 X170.112 Y155.981 E0.02394
G1 X172.221 Y158.09 E0.11785
G1 X171.615 Y158.09 E0.02394
G1 X169.506 Y155.981 E0.11785
G1 X168.9 Y155.981 E0.02394
G1 X171.009 Y158.09 E0.11785
G1 X170.403 Y158.09 E0.02394
G1 X168.294 Y155.981 E0.11785
G1 X167.688 Y155.981 E0.02394
G1 X169.797 Y158.09 E0.11785
G1 X169.191 Y158.09 E0.02394
G1 X167.082 Y155.981 E0.11785
G1 X166.476 Y155.981 E0.02394
G1 X168.585 Y158.09 E0.11785
G1 X167.979 Y158.09 E0.02394
G1 X165.87 Y155.981 E0.11785
G1 X165.264 Y155.981 E0.02394
G1 X167.373 Y158.09 E0.11785
M73 P7 R13
G1 X166.767 Y158.09 E0.02394
G1 X164.658 Y155.981 E0.11785
G1 X164.052 Y155.981 E0.02394
G1 X166.161 Y158.09 E0.11785
G1 X165.555 Y158.09 E0.02394
G1 X163.446 Y155.981 E0.11785
G1 X162.84 Y155.981 E0.02394
G1 X164.949 Y158.09 E0.11785
G1 X164.343 Y158.09 E0.02394
G1 X162.234 Y155.981 E0.11785
G1 X161.628 Y155.981 E0.02394
G1 X163.737 Y158.09 E0.11785
G1 X163.131 Y158.09 E0.02394
G1 X161.022 Y155.981 E0.11785
G1 X160.416 Y155.981 E0.02394
G1 X162.525 Y158.09 E0.11785
G1 X161.919 Y158.09 E0.02394
G1 X159.81 Y155.981 E0.11785
G1 X159.204 Y155.981 E0.02394
G1 X161.313 Y158.09 E0.11785
G1 X160.707 Y158.09 E0.02394
G1 X158.598 Y155.981 E0.11785
G1 X157.992 Y155.981 E0.02394
G1 X160.101 Y158.09 E0.11785
G1 X159.495 Y158.09 E0.02394
G1 X157.386 Y155.981 E0.11785
G1 X156.78 Y155.981 E0.02394
G1 X158.889 Y158.09 E0.11785
G1 X158.283 Y158.09 E0.02394
G1 X156.174 Y155.981 E0.11785
G1 X155.568 Y155.981 E0.02394
G1 X157.677 Y158.09 E0.11785
G1 X157.071 Y158.09 E0.02394
G1 X154.962 Y155.981 E0.11785
G1 X154.356 Y155.981 E0.02394
G1 X156.465 Y158.09 E0.11785
G1 X155.859 Y158.09 E0.02394
G1 X153.75 Y155.981 E0.11785
G1 X153.144 Y155.981 E0.02394
G1 X155.253 Y158.09 E0.11785
G1 X154.647 Y158.09 E0.02394
G1 X152.538 Y155.981 E0.11785
G1 X151.933 Y155.981 E0.02394
G1 X154.042 Y158.09 E0.11785
G1 X153.436 Y158.09 E0.02394
G1 X151.327 Y155.981 E0.11785
G1 X150.721 Y155.981 E0.02394
G1 X152.83 Y158.09 E0.11785
G1 X152.224 Y158.09 E0.02394
G1 X150.115 Y155.981 E0.11785
G1 X149.509 Y155.981 E0.02394
G1 X151.618 Y158.09 E0.11785
G1 X151.012 Y158.09 E0.02394
G1 X148.903 Y155.981 E0.11785
G1 X148.297 Y155.981 E0.02394
G1 X150.406 Y158.09 E0.11785
G1 X149.8 Y158.09 E0.02394
G1 X147.691 Y155.981 E0.11785
G1 X147.085 Y155.981 E0.02394
G1 X149.194 Y158.09 E0.11785
G1 X148.588 Y158.09 E0.02394
G1 X146.479 Y155.981 E0.11785
G1 X145.873 Y155.981 E0.02394
G1 X147.982 Y158.09 E0.11785
G1 X147.376 Y158.09 E0.02394
G1 X145.267 Y155.981 E0.11785
G1 X144.661 Y155.981 E0.02394
G1 X146.77 Y158.09 E0.11785
G1 X146.164 Y158.09 E0.02394
G1 X144.055 Y155.981 E0.11785
G1 X143.449 Y155.981 E0.02394
G1 X145.558 Y158.09 E0.11785
G1 X144.952 Y158.09 E0.02394
G1 X142.843 Y155.981 E0.11785
G1 X142.237 Y155.981 E0.02394
G1 X144.346 Y158.09 E0.11785
G1 X143.74 Y158.09 E0.02394
G1 X141.631 Y155.981 E0.11785
G1 X141.025 Y155.981 E0.02394
G1 X143.134 Y158.09 E0.11785
G1 X142.528 Y158.09 E0.02394
G1 X140.419 Y155.981 E0.11785
G1 X139.813 Y155.981 E0.02394
G1 X141.922 Y158.09 E0.11785
G1 X141.316 Y158.09 E0.02394
G1 X139.207 Y155.981 E0.11785
G1 X138.601 Y155.981 E0.02394
G1 X140.71 Y158.09 E0.11785
G1 X140.104 Y158.09 E0.02394
G1 X137.995 Y155.981 E0.11785
G1 X137.389 Y155.981 E0.02394
G1 X139.498 Y158.09 E0.11785
G1 X138.892 Y158.09 E0.02394
G1 X136.783 Y155.981 E0.11785
G1 X136.177 Y155.981 E0.02394
G1 X138.286 Y158.09 E0.11785
G1 X137.68 Y158.09 E0.02394
G1 X135.571 Y155.981 E0.11785
G1 X134.965 Y155.981 E0.02394
G1 X137.074 Y158.09 E0.11785
G1 X136.468 Y158.09 E0.02394
G1 X134.359 Y155.981 E0.11785
G1 X133.753 Y155.981 E0.02394
G1 X135.862 Y158.09 E0.11785
G1 X135.256 Y158.09 E0.02394
G1 X133.147 Y155.981 E0.11785
G1 X132.541 Y155.981 E0.02394
G1 X134.65 Y158.09 E0.11785
G1 X134.044 Y158.09 E0.02394
G1 X131.935 Y155.981 E0.11785
G1 X131.329 Y155.981 E0.02394
G1 X133.438 Y158.09 E0.11785
G1 X132.832 Y158.09 E0.02394
G1 X130.723 Y155.981 E0.11785
G1 X130.436 Y155.981 E0.01135
G1 X130.436 Y156.3 E0.01259
G1 X132.226 Y158.09 E0.10004
G1 X131.62 Y158.09 E0.02394
G1 X130.436 Y156.906 E0.06618
G1 X130.436 Y157.512 E0.02394
G1 X131.198 Y158.274 E0.04261
G1 E-0.8 F3000
; stop printing object Zip-75mm.stl id:0 copy 0
; printing object Zip-75mm.stl id:2 copy 0
; acceleration to travel
M204 S3000
G1 X130.774 Y145.937 F9000
; decel to extrusion
M204 S1000
G1 X130.65 Y142.339
; end travel
G1 E0.8 F1800
;TYPE:Internal perimeter
;WIDTH:0.48
G1 X130.187 Y142.339 E0.0194
G1 X130.187 Y139.733 E0.10919
G1 X204.793 Y139.733 E3.12602
M73 P9 R13
G1 X204.793 Y142.339 E0.10919
G1 X130.65 Y142.339 E3.10662
M73 P9 R13
G1 E-0.8 F3000
; acceleration to travel
M204 S3000
G1 X130.329 Y144.535 F9000
; decel to extrusion
M204 S1000
G1 X130.222 Y145.267
; end travel
G1 E0.8 F1800
G1 X129.759 Y145.267 E0.0194
G1 X129.759 Y137.267 E0.3352
G1 X127.022 Y137.267 E0.11468
G1 X127.022 Y145.267 E0.3352
G1 X126.559 Y145.267 E0.0194
G1 X126.559 Y136.804 E0.3546
G1 X130.222 Y136.804 E0.15348
G1 X130.222 Y139.304 E0.10475
G1 X205.222 Y139.304 E3.14253
M73 P9 R13
G1 X205.222 Y142.767 E0.1451
G1 X130.222 Y142.767 E3.14253
G1 X130.222 Y145.267 E0.10475
G1 X130.65 Y145.696 F9000
;TYPE:External perimeter
G1 F1800
G1 X129.33 Y145.696 E0.05531
G1 X129.33 Y137.696 E0.3352
G1 X127.45 Y137.696 E0.07877
G1 X127.45 Y145.696 E0.3352
G1 X126.13 Y145.696 E0.05531
G1 X126.13 Y136.376 E0.39051
G1 X130.65 Y136.376 E0.18939
