; generated by SuperSlicer 2.4 on 2022-05-14 at 04:26:15 UTC


;
;

;
;
; 

; external perimeters extrusion width = 0.40mm
; perimeters extrusion width = 0.40mm
; infill extrusion width = 0.72mm
; solid infill extrusion width = 0.56mm
; top infill extrusion width = 0.40mm
; first layer extrusion width = 0.48mm

; external perimeters extrusion width = 0.40mm
; perimeters extrusion width = 0.40mm
; infill extrusion width = 0.72mm
; solid infill extrusion width = 0.56mm
; top infill extrusion width = 0.40mm
; first layer extrusion width = 0.48mm

; external perimeters extrusion width = 0.40mm
; perimeters extrusion width = 0.40mm
; infill extrusion width = 0.72mm
; solid infill extrusion width = 0.56mm
; top infill extrusion width = 0.40mm
; first layer extrusion width = 0.48mm

; external perimeters extrusion width = 0.40mm
; perimeters extrusion width = 0.40mm
; infill extrusion width = 0.72mm
; solid infill extrusion width = 0.56mm
; top infill extrusion width = 0.40mm
; first layer extrusion width = 0.48mm

; external perimeters extrusion width = 0.40mm
; perimeters extrusion width = 0.40mm
; infill extrusion width = 0.72mm
; solid infill extrusion width = 0.56mm
; top infill extrusion width = 0.40mm
; first layer extrusion width = 0.48mm

; external perimeters extrusion width = 0.40mm
; perimeters extrusion width = 0.40mm
; infill extrusion width = 0.72mm
; solid infill extrusion width = 0.56mm
; top infill extrusion width = 0.40mm
; first layer extrusion width = 0.48mm

; object:{"name":"Ribbon_Cable_Clip_-_2020_V_Slot_Extrusion","id":"Ribbon_Cable_Clip_-_2020_V_Slot_Extrusion.stl id:0 copy 0","object_center":[165.000001,178.546000,0.000000],"boundingbox_center":[165.000001,178.546000,5.001500],"boundingbox_size":[8.605000,21.091999,10.003000]}
; object:{"name":"Ribbon_Cable_Clip_-_2020_V_Slot_Extrusion","id":"Ribbon_Cable_Clip_-_2020_V_Slot_Extrusion.stl id:1 copy 0","object_center":[179.605001,178.546000,0.000000],"boundingbox_center":[179.605001,178.546000,5.001500],"boundingbox_size":[8.605000,21.091999,10.003000]}
; object:{"name":"Ribbon_Cable_Clip_-_2020_V_Slot_Extrusion","id":"Ribbon_Cable_Clip_-_2020_V_Slot_Extrusion.stl id:2 copy 0","object_center":[165.000001,151.454000,0.000000],"boundingbox_center":[165.000001,151.454000,5.001500],"boundingbox_size":[8.605000,21.091999,10.003000]}
; object:{"name":"Ribbon_Cable_Clip_-_2020_V_Slot_Extrusion","id":"Ribbon_Cable_Clip_-_2020_V_Slot_Extrusion.stl id:3 copy 0","object_center":[179.605001,151.454000,0.000000],"boundingbox_center":[179.605001,151.454000,5.001500],"boundingbox_size":[8.605000,21.091999,10.003000]}
; object:{"name":"Ribbon_Cable_Clip_-_2020_V_Slot_Extrusion","id":"Ribbon_Cable_Clip_-_2020_V_Slot_Extrusion.stl id:4 copy 0","object_center":[150.395001,178.546000,0.000000],"boundingbox_center":[150.395001,178.546000,5.001500],"boundingbox_size":[8.605000,21.091999,10.003000]}
; object:{"name":"Ribbon_Cable_Clip_-_2020_V_Slot_Extrusion","id":"Ribbon_Cable_Clip_-_2020_V_Slot_Extrusion.stl id:5 copy 0","object_center":[150.395001,151.454000,0.000000],"boundingbox_center":[150.395001,151.454000,5.001500],"boundingbox_size":[8.605000,21.091999,10.003000]}
; plater:{"center":[165.000001,165.000000,0.000000],"boundingbox_center":[165.000001,165.000000,5.001500],"boundingbox_size":[37.815000,48.183999,10.003000]}

M73 P0 R40
;TYPE:Custom
START_PRINT T_BED=110 T_EXTRUDER=245
M107
G21 ; set units to millimeters
G90 ; use absolute coordinates
M83 ; use relative distances for extrusion
; Filament gcode
M104 S245 ; set temperature
M109 S245 ; set temperature and wait for it to be reached
M190 S110 ; set bed temperature and wait for it to be reached
M107
;LAYER_CHANGE
;Z:0.24
;HEIGHT:0.24
G1 Z0.24 F9000
G92 E0
G1 E-0.5 F3000
M204 S1000
G1 X148.014 Y138.356 F9000
G1 E0.5 F1800
;TYPE:Skirt
;WIDTH:0.52
G1 X147.519 Y138.921 E0.03511
G1 X142.824 Y145.371 E0.37296
G1 X142.027 Y147.823 E0.1205
G1 X142.027 Y181.128 E1.5569
G1 X142.687 Y183.379 E0.10968
G1 X147.379 Y190.683 E0.40579
G1 X148.279 Y191.806 E0.06727
G1 X149.601 Y192.763 E0.07628
G1 X151.372 Y193.158 E0.08483
G1 X180.997 Y193.158 E1.38489
G1 X183.316 Y192.453 E0.11331
G1 X184.22 Y191.847 E0.05084
G1 X185.374 Y190.686 E0.07655
G1 X187.282 Y187.804 E0.16157
G1 X187.972 Y185.659 E0.10534
G1 X188.027 Y184.081 E0.07382
G1 X187.973 Y141.197 E2.00465
G1 X187.625 Y139.606 E0.07615
G1 X186.553 Y138.142 E0.08483
G1 X185.744 Y137.531 E0.04738
G1 X183.449 Y136.842 E0.112
G1 X151.341 Y136.842 E1.50095
G1 X149.003 Y137.56 E0.11433
G1 X148.014 Y138.356 E0.05936
G1 X148.335 Y138.693 F9000
G1 F1800
G1 X147.896 Y139.195 E0.03118
G1 X143.201 Y145.646 E0.37296
G1 X142.493 Y147.823 E0.10701
G1 X142.493 Y181.128 E1.5569
G1 X143.08 Y183.127 E0.09741
G1 X147.771 Y190.431 E0.40579
G1 X148.596 Y191.464 E0.06178
G1 X149.709 Y192.297 E0.06501
G1 X151.372 Y192.692 E0.07988
G1 X180.997 Y192.692 E1.38489
G1 X183.056 Y192.065 E0.10062
G1 X183.96 Y191.46 E0.05084
G1 X184.985 Y190.429 E0.06798
G1 X186.893 Y187.547 E0.16157
G1 X187.505 Y185.642 E0.09355
G1 X187.561 Y184.081 E0.07302
G1 X187.506 Y141.206 E2.00424
G1 X187.236 Y139.885 E0.06304
G1 X186.246 Y138.492 E0.07988
G1 X185.487 Y137.92 E0.04441
G1 X183.449 Y137.308 E0.09946
G1 X151.341 Y137.308 E1.50095
G1 X149.265 Y137.946 E0.10153
G1 X148.335 Y138.693 E0.05576
G1 X148.657 Y139.031 F9000
G1 F1800
G1 X143.578 Y145.92 E0.4001
G1 X142.959 Y147.823 E0.09352
G1 X142.959 Y181.128 E1.5569
G1 X143.472 Y182.875 E0.08513
G1 X148.163 Y190.179 E0.40579
G1 X149.174 Y191.364 E0.0728
G1 X151.372 Y192.225 E0.11034
G1 X180.997 Y192.225 E1.38489
G1 X182.797 Y191.678 E0.08794
G1 X183.7 Y191.073 E0.05084
G1 X184.596 Y190.171 E0.05941
G1 X186.504 Y187.289 E0.16157
G1 X187.039 Y185.624 E0.08176
G1 X187.094 Y184.081 E0.07221
G1 X187.04 Y141.215 E2.00384
G1 X186.842 Y140.158 E0.05024
G1 X185.939 Y138.843 E0.0746
G1 X185.23 Y138.31 E0.04144
G1 X183.449 Y137.775 E0.08693
G1 X151.341 Y137.775 E1.50095
G1 X149.527 Y138.332 E0.08873
G1 X148.657 Y139.031 E0.05216
; INIT printing object Ribbon_Cable_Clip_-_2020_V_Slot_Extrusion.stl id:0 copy 0
G1 E-0.5 F3000
; printing object Ribbon_Cable_Clip_-_2020_V_Slot_Extrusion.stl id:0 copy 0
; acceleration to travel
M204 S3000
G1 X160.741 Y167.822 F9000
; decel to extrusion
M204 S1000
G1 X164.769 Y177.419
; end travel
G1 E0.5 F1800
;TYPE:Internal perimeter
;WIDTH:0.48
G1 X164.769 Y177.883 E0.01987
G1 X162.323 Y177.881 E0.10458
G1 X162.323 Y177.422 E0.01961
G1 X164.769 Y177.419 E0.10458
G1 X165.198 Y176.99 F9000
G1 F1800
G1 X165.198 Y177.464 E0.02029
G1 X165.533 Y177.689 E0.01728
G1 X165.198 Y177.914 E0.01727
G1 X165.198 Y178.312 E0.01702
G1 X162.251 Y178.309 E0.126
G1 X162.251 Y181.135 E0.12083
G1 X161.894 Y180.721 E0.02334
G1 X161.894 Y175.395 E0.22771
G1 X162.251 Y175.067 E0.02071
G1 X162.251 Y176.993 E0.08237
G1 X165.198 Y176.99 E0.126
G1 E-0.5 F3000
; acceleration to travel
M204 S3000
G1 X163.309 Y174.814 F9000
; decel to extrusion
M204 S1000
G1 X162.679 Y174.088
; end travel
G1 E0.5 F1800
G1 X162.679 Y176.564 E0.10586
G1 X165.626 Y176.561 E0.126
G1 X165.626 Y177.236 E0.02887
G1 X166.302 Y177.69 E0.03482
G1 X165.626 Y178.143 E0.03481
G1 X165.626 Y178.741 E0.02559
G1 X162.679 Y178.738 E0.126
G1 X162.679 Y182.29 E0.15188
G1 X161.466 Y180.88 E0.07953
G1 X161.466 Y175.208 E0.24253
G1 X162.679 Y174.088 E0.07057
G1 E-0.5 F3000
; acceleration to travel
M204 S3000
G1 X167.072 Y170.098 F9000
; decel to extrusion
M204 S1000
G1 X168.536 Y168.768
; end travel
G1 E0.5 F1800
G1 X168.545 Y170.346 E0.06743
G1 X168.067 Y170.009 E0.02498
G1 X168.066 Y169.216 E0.03392
G1 X166.139 Y169.254 E0.08242
G1 X166.153 Y168.768 E0.02078
G1 X168.536 Y168.768 E0.10192
G1 X168.918 Y168.436 F9000
;TYPE:External perimeter
G1 F1800
G1 X168.963 Y168.476 E0.00257
G1 X168.973 Y170.297 E0.07787
G1 X169.016 Y171.276 E0.04192
G1 X168.977 Y172.261 E0.04212
G1 X169.016 Y173.246 E0.04216
G1 X168.982 Y174.191 E0.0404
G1 X168.981 Y174.229 E0.00166
G1 X168.986 Y174.425 E0.00838
G1 X169.001 Y175.083 E0.02811
G1 X169.016 Y175.703 E0.02654
G1 X169.007 Y175.828 E0.00536
G1 X168.992 Y176.058 E0.00987
G1 X168.983 Y176.192 E0.00571
G1 X168.979 Y176.697 E0.0216
G1 X169.016 Y177.678 E0.04198
G1 X168.977 Y178.663 E0.04215
G1 X169.016 Y179.648 E0.04215
G1 X168.979 Y180.629 E0.04198
G1 X168.983 Y181.135 E0.0216
G1 X169.016 Y181.623 E0.02095
G1 X169.001 Y182.244 E0.02654
G1 X168.981 Y183.097 E0.03649
G1 X169.016 Y184.077 E0.04192
G1 X168.994 Y184.404 E0.01401
G1 X168.984 Y184.562 E0.0068
G1 X168.966 Y185.375 E0.03473
G1 X168.852 Y185.451 E0.00585
G1 X168.747 Y185.502 E0.00502
G1 X168.375 Y185.502 E0.01591
G1 X167.621 Y184.996 E0.03882
G1 X167.713 Y184.931 E0.00481
G1 X168.157 Y184.618 E0.02325
G1 X168.588 Y184.274 E0.02356
G1 X168.588 Y183.61 E0.02839
G1 X168.342 Y183.413 E0.01346
G1 X168.157 Y183.266 E0.0101
G1 X167.618 Y182.886 E0.02819
G1 X168.157 Y182.506 E0.02819
G1 X168.588 Y182.162 E0.02356
G1 X168.588 Y181.498 E0.02839
G1 X168.201 Y181.188 E0.02119
G1 X168.157 Y181.154 E0.00236
G1 X167.618 Y180.774 E0.02819
G1 X168.157 Y180.394 E0.02819
G1 X168.444 Y180.165 E0.0157
G1 X168.588 Y180.05 E0.00786
G1 X168.588 Y179.386 E0.02839
G1 X168.157 Y179.042 E0.02356
M73 P1 R40
G1 X167.62 Y178.663 E0.02812
G1 X168.157 Y178.284 E0.02812
G1 X168.588 Y177.94 E0.02356
G1 X168.588 Y177.276 E0.02839
G1 X168.157 Y176.932 E0.02356
G1 X167.618 Y176.552 E0.02819
G1 X168.157 Y176.172 E0.02819
G1 X168.342 Y176.025 E0.0101
G1 X168.588 Y175.828 E0.01346
G1 X168.588 Y175.164 E0.02839
G1 X168.157 Y174.82 E0.02356
G1 X167.618 Y174.44 E0.02819
G1 X168.157 Y174.06 E0.02819
G1 X168.436 Y173.838 E0.01523
G1 X168.588 Y173.716 E0.00833
G1 X168.588 Y173.053 E0.02835
G1 X168.157 Y172.709 E0.02356
G1 X167.618 Y172.329 E0.02819
G1 X168.157 Y171.949 E0.02819
G1 X168.426 Y171.735 E0.01469
G1 X168.588 Y171.605 E0.00887
G1 X168.588 Y170.941 E0.02839
G1 X168.157 Y170.597 E0.02356
G1 X167.639 Y170.232 E0.02711
G1 X167.639 Y169.942 E0.01236
G1 X167.638 Y169.653 E0.01238
G1 X166.44 Y169.677 E0.05127
G1 X166.108 Y169.975 E0.01907
G1 X166.108 Y170.631 E0.02806
G1 X166.538 Y170.975 E0.02356
G1 X167.077 Y171.355 E0.02817
G1 X166.538 Y171.735 E0.02817
G1 X166.108 Y172.079 E0.02356
G1 X166.108 Y172.743 E0.02842
G1 X166.538 Y173.087 E0.02356
G1 X167.077 Y173.467 E0.02817
G1 X166.538 Y173.847 E0.02817
G1 X166.108 Y174.191 E0.02356
G1 X166.108 Y174.855 E0.02842
G1 X166.538 Y175.199 E0.02356
G1 X167.073 Y175.577 E0.028
G1 X167.056 Y175.589 E0.00092
G1 X166.055 Y176.261 E0.05155
G1 X166.055 Y177.007 E0.03192
G1 X167.071 Y177.69 E0.05237
G1 X166.055 Y178.372 E0.05234
G1 X166.055 Y179.118 E0.03192
G1 X167.074 Y179.803 E0.05251
G1 X166.538 Y180.181 E0.02804
G1 X166.108 Y180.525 E0.02356
G1 X166.108 Y181.188 E0.02837
G1 X166.538 Y181.532 E0.02356
G1 X167.077 Y181.912 E0.02817
G1 X166.538 Y182.292 E0.02817
G1 X166.108 Y182.636 E0.02356
G1 X166.108 Y183.3 E0.02842
G1 X166.538 Y183.644 E0.02356
G1 X167.077 Y184.024 E0.02817
G1 X166.538 Y184.404 E0.02817
G1 X166.108 Y184.748 E0.02356
G1 X166.108 Y185.412 E0.02842
G1 X166.538 Y185.756 E0.02356
G1 X167.077 Y186.136 E0.02817
G1 X166.538 Y186.516 E0.02817
G1 X166.108 Y186.86 E0.02356
G1 X166.108 Y187.524 E0.02842
G1 X166.538 Y187.868 E0.02356
G1 X167.074 Y188.246 E0.02804
G1 X167.056 Y188.259 E0.00095
G1 X166.319 Y188.752 E0.0379
G1 X166.071 Y188.752 E0.01062
G1 X165.897 Y188.591 E0.01016
G1 X165.725 Y188.35 E0.01265
G1 X165.719 Y188.233 E0.00498
G1 X165.681 Y187.462 E0.03299
G1 X165.679 Y186.979 E0.02068
G1 X165.713 Y186.482 E0.02128
G1 X165.715 Y185.972 E0.0218
G1 X165.679 Y184.981 E0.04241
G1 X165.714 Y184.077 E0.03869
G1 X165.718 Y183.986 E0.0039
G1 X165.679 Y182.99 E0.04258
G1 X165.717 Y181.998 E0.04245
G1 X165.711 Y181.488 E0.0218
G1 X165.679 Y180.996 E0.02109
G1 X165.726 Y179.535 E0.06249
G1 X165.738 Y179.17 E0.01562
G1 X163.108 Y179.167 E0.11246
G1 X163.107 Y183.34 E0.17841
G1 X162.498 Y182.737 E0.03664
G1 X161.038 Y181.039 E0.09577
G1 X161.038 Y175.02 E0.25735
G1 X162.114 Y174.027 E0.06263
G1 X163.108 Y173.11 E0.05779
G1 X163.108 Y176.135 E0.12935
G1 X165.741 Y176.132 E0.11258
G1 X165.713 Y175.518 E0.02629
G1 X165.682 Y174.806 E0.03047
G1 X165.679 Y174.328 E0.02044
G1 X165.713 Y173.838 E0.021
G1 X165.717 Y173.333 E0.02156
G1 X165.679 Y172.354 E0.04191
G1 X165.718 Y171.371 E0.04207
G1 X165.679 Y170.386 E0.04213
G1 X165.7 Y169.623 E0.03265
G1 X165.729 Y168.569 E0.04504
G1 X165.848 Y168.457 E0.00698
G1 X166.02 Y168.34 E0.0089
G1 X168.772 Y168.34 E0.11769
G1 X168.918 Y168.436 E0.00745
;WIPE_START
M204 S4000
G1 X168.909 Y168.495 F9000
;WIPE_END
; acceleration to travel
M204 S3000
G1 X168.472 Y171.173
; decel to extrusion
M204 S1000
G1 X168.327 Y172.066
; end travel
;TYPE:Gap fill
;WIDTH:0.627024
G1 F1800
G1 X168.461 Y172.295 E0.01525
G1 X168.481 Y172.329 E0.00225
G1 X168.557 Y172.479 E0.00962
;WIDTH:0.472928
G1 X168.632 Y172.628 E0.00705
;WIDTH:0.336494
G1 X168.708 Y172.778 E0.00477
;WIDTH:0.20006
G1 X168.783 Y172.927 E0.00248
;WIDTH:0.109104
G1 X168.808 Y172.977 E0.00032
; acceleration to travel
M204 S3000
G1 X168.451 Y173.874 F9000
; decel to extrusion
M204 S1000
G1 X168.332 Y174.173
; end travel
;WIDTH:0.726958
G1 F1800
G1 X168.43 Y174.344 E0.01329
;WIDTH:0.656292
G1 X168.485 Y174.44 E0.00667
;WIDTH:0.613695
G1 X168.558 Y174.589 E0.00932
;WIDTH:0.476079
G1 X168.632 Y174.738 E0.00704
;WIDTH:0.338464
G1 X168.706 Y174.886 E0.00476
;WIDTH:0.200848
G1 X168.78 Y175.035 E0.00247
;WIDTH:0.109104
G1 X168.804 Y175.085 E0.00032
G1 X168.805 Y175.907 F9000
;WIDTH:0.13245
G1 F1800
G1 X168.748 Y176.014 E0.00098
;WIDTH:0.249182
G1 X168.664 Y176.176 E0.0036
;WIDTH:0.302252
G1 X168.64 Y176.224 E0.00135
;WIDTH:0.412876
G1 X168.561 Y176.388 E0.00657
;WIDTH:0.589029
G1 X168.481 Y176.552 E0.00977
;WIDTH:0.628937
G1 X168.443 Y176.621 E0.00452
;WIDTH:0.674873
G1 X168.334 Y176.821 E0.01418
; acceleration to travel
M204 S3000
G1 X168.688 Y177.719 F9000
; decel to extrusion
M204 S1000
G1 X168.806 Y178.018
; end travel
;WIDTH:0.109104
G1 F1800
G1 X168.781 Y178.067 E0.00031
;WIDTH:0.197819
G1 X168.707 Y178.213 E0.00239
;WIDTH:0.330891
G1 X168.633 Y178.359 E0.00457
;WIDTH:0.463963
G1 X168.559 Y178.505 E0.00674
;WIDTH:0.616463
G1 X168.486 Y178.652 E0.00923
G1 X168.465 Y178.689 E0.00239
G1 X168.33 Y178.928 E0.01547
; acceleration to travel
M204 S3000
G1 X168.333 Y180.111 F9000
; decel to extrusion
M204 S1000
G1 X168.334 Y180.505
; end travel
;WIDTH:0.674592
G1 F1800
G1 X168.444 Y180.705 E0.01418
;WIDTH:0.628817
G1 X168.481 Y180.774 E0.00451
;WIDTH:0.588946
G1 X168.561 Y180.938 E0.00978
;WIDTH:0.412599
G1 X168.64 Y181.102 E0.00657
;WIDTH:0.301856
G1 X168.664 Y181.15 E0.00135
;WIDTH:0.248893
G1 X168.748 Y181.312 E0.00358
;WIDTH:0.132402
G1 X168.805 Y181.419 E0.00098
G1 X168.804 Y182.241 F9000
;WIDTH:0.109104
G1 F1800
G1 X168.78 Y182.291 E0.00032
;WIDTH:0.20085
G1 X168.706 Y182.44 E0.00247
;WIDTH:0.338469
G1 X168.632 Y182.588 E0.00476
;WIDTH:0.476088
G1 X168.558 Y182.737 E0.00704
;WIDTH:0.613707
G1 X168.485 Y182.886 E0.00932
;WIDTH:0.656426
G1 X168.43 Y182.982 E0.00668
;WIDTH:0.727234
G1 X168.332 Y183.153 E0.01328
; acceleration to travel
M204 S3000
G1 X168.676 Y184.061 F9000
; decel to extrusion
M204 S1000
G1 X168.791 Y184.364
; end travel
;WIDTH:0.229356
G1 F1800
G1 X168.698 Y184.552 E0.00372
G1 X168.484 Y184.985 E0.00857
;WIDTH:0.455729
G1 X168.533 Y185.063 E0.00371
;WIDTH:0.399717
G1 X168.665 Y185.197 E0.00653
;WIDTH:0.268256
G1 X168.743 Y185.277 E0.00242
G1 E-0.5 F3000
; acceleration to travel
M204 S3000
G1 X166.956 Y185.719 F9000
; decel to extrusion
M204 S1000
G1 X166.36 Y185.867
; end travel
G1 E0.5 F1800
;WIDTH:0.687928
G1 X166.256 Y186.059 E0.01392
;WIDTH:0.634956
G1 X166.214 Y186.136 E0.0051
;WIDTH:0.59224
G1 X166.137 Y186.293 E0.00944
;WIDTH:0.422731
G1 X166.061 Y186.451 E0.00648
;WIDTH:0.316185
G1 X166.038 Y186.498 E0.00139
;WIDTH:0.269421
G1 X165.964 Y186.64 E0.00348
;WIDTH:0.149183
G1 X165.89 Y186.782 E0.00156
G1 X165.896 Y187.811 F9000
;WIDTH:0.330554
G1 F1800
G1 X165.937 Y187.865 E0.0019
;WIDTH:0.397123
G1 X166.021 Y187.973 E0.0047
;WIDTH:0.485881
G1 X166.104 Y188.081 E0.00591
;WIDTH:0.574639
G1 X166.187 Y188.189 E0.00712
