; generated by SuperSlicer 2.4 on 2022-06-08 at 03:22:18 UTC


;
;

;
;
; 

; external perimeters extrusion width = 0.40mm
; perimeters extrusion width = 0.48mm
; infill extrusion width = 0.72mm
; solid infill extrusion width = 0.56mm
; top infill extrusion width = 0.40mm
; first layer extrusion width = 0.48mm

; object:{"name":"Voron_Design_Cube_v7","id":"Voron_Design_Cube_v7.stl id:0 copy 0","object_center":[165.000000,165.000000,0.000000],"boundingbox_center":[165.000000,165.000000,15.000000],"boundingbox_size":[30.000000,30.000000,30.000000]}
; plater:{"center":[165.000000,165.000000,0.000000],"boundingbox_center":[165.000000,165.000000,15.000000],"boundingbox_size":[30.000000,30.000000,30.000000]}

M73 P0 R42
;TYPE:Custom
START_PRINT T_BED=60 T_EXTRUDER=200
M107
G21 ; set units to millimeters
G90 ; use absolute coordinates
M83 ; use relative distances for extrusion
; Filament gcode
M109 S200 ; set temperature and wait for it to be reached
M190 S60 ; set bed temperature and wait for it to be reached
M107
;LAYER_CHANGE
;Z:0.24
;HEIGHT:0.24
G1 Z0.24 F9000
G92 E0
M73 P0 R41
G1 E-0.8 F3000
M204 S1000
G1 X149.773 Y149.773 F9000
G1 E0.8 F1800
;TYPE:Skirt
;WIDTH:0.52
G1 X146.905 Y152.641 E0.18582
G1 X145.943 Y154.043 E0.07788
G1 X145.548 Y155.916 E0.08771
G1 X145.548 Y174.084 E0.83227
G1 X145.86 Y175.755 E0.07788
G1 X146.905 Y177.359 E0.08771
G1 X152.641 Y183.095 E0.37165
G1 X154.043 Y184.057 E0.07788
G1 X155.916 Y184.452 E0.08771
G1 X174.084 Y184.452 E0.83227
G1 X175.755 Y184.14 E0.07788
G1 X177.359 Y183.095 E0.08771
G1 X183.095 Y177.359 E0.37165
G1 X184.057 Y175.957 E0.07788
G1 X184.452 Y174.084 E0.08771
G1 X184.452 Y155.916 E0.83227
G1 X184.14 Y154.245 E0.07788
G1 X183.095 Y152.641 E0.08771
G1 X177.359 Y146.905 E0.37165
G1 X175.957 Y145.943 E0.07788
G1 X174.084 Y145.548 E0.08771
G1 X155.916 Y145.548 E0.83227
M73 P1 R41
G1 X154.245 Y145.86 E0.07788
G1 X152.641 Y146.905 E0.08771
G1 X149.773 Y149.773 E0.18582
G1 X150.102 Y150.102 F9000
G1 F1800
G1 X147.234 Y152.971 E0.18582
G1 X146.409 Y154.145 E0.06576
G1 X146.014 Y155.916 E0.08313
G1 X146.014 Y174.084 E0.83227
G1 X146.261 Y175.498 E0.06576
G1 X147.234 Y177.029 E0.08313
G1 X152.971 Y182.766 E0.37165
G1 X154.145 Y183.591 E0.06576
G1 X155.916 Y183.986 E0.08313
G1 X174.084 Y183.986 E0.83227
G1 X175.498 Y183.739 E0.06576
G1 X177.029 Y182.766 E0.08313
G1 X182.766 Y177.029 E0.37165
G1 X183.591 Y175.855 E0.06576
G1 X183.986 Y174.084 E0.08313
G1 X183.986 Y155.916 E0.83227
G1 X183.739 Y154.502 E0.06576
G1 X182.766 Y152.971 E0.08313
G1 X177.029 Y147.234 E0.37165
G1 X175.855 Y146.409 E0.06576
G1 X174.084 Y146.014 E0.08313
G1 X155.916 Y146.014 E0.83227
G1 X154.502 Y146.261 E0.06576
G1 X152.971 Y147.234 E0.08313
G1 X150.102 Y150.102 E0.18582
G1 X150.432 Y150.432 F9000
G1 F1800
G1 X147.564 Y153.3 E0.18582
G1 X146.875 Y154.254 E0.05389
G1 X146.48 Y155.916 E0.07828
G1 X146.48 Y174.084 E0.83227
G1 X146.667 Y175.245 E0.05389
G1 X147.564 Y176.7 E0.07828
G1 X153.3 Y182.436 E0.37165
G1 X154.254 Y183.125 E0.05389
G1 X155.916 Y183.52 E0.07828
G1 X174.084 Y183.52 E0.83227
G1 X175.245 Y183.333 E0.05389
G1 X176.7 Y182.436 E0.07828
G1 X182.436 Y176.7 E0.37165
G1 X183.125 Y175.746 E0.05389
G1 X183.52 Y174.084 E0.07828
G1 X183.52 Y155.916 E0.83227
G1 X183.333 Y154.755 E0.05389
G1 X182.436 Y153.3 E0.07828
G1 X176.7 Y147.564 E0.37165
G1 X175.746 Y146.875 E0.05389
G1 X174.084 Y146.48 E0.07828
G1 X155.916 Y146.48 E0.83227
G1 X154.755 Y146.667 E0.05389
G1 X153.3 Y147.564 E0.07828
G1 X150.432 Y150.432 E0.18582
G1 X150.762 Y150.762 F9000
G1 F1800
G1 X147.894 Y153.63 E0.18582
G1 X147.341 Y154.37 E0.04232
G1 X146.947 Y155.916 E0.07311
G1 X146.947 Y174.084 E0.83227
G1 X147.079 Y174.998 E0.04232
G1 X147.894 Y176.37 E0.07311
G1 X153.63 Y182.106 E0.37165
G1 X154.37 Y182.659 E0.04232
G1 X155.916 Y183.053 E0.07311
G1 X174.084 Y183.053 E0.83227
G1 X174.998 Y182.921 E0.04232
G1 X176.37 Y182.106 E0.07311
G1 X182.106 Y176.37 E0.37165
G1 X182.659 Y175.63 E0.04232
G1 X183.053 Y174.084 E0.07311
G1 X183.053 Y155.916 E0.83227
G1 X182.921 Y155.002 E0.04232
G1 X182.106 Y153.63 E0.07311
G1 X176.37 Y147.894 E0.37165
G1 X175.63 Y147.341 E0.04232
G1 X174.084 Y146.947 E0.07311
G1 X155.916 Y146.947 E0.83227
G1 X155.002 Y147.079 E0.04232
G1 X153.63 Y147.894 E0.07311
G1 X150.762 Y150.762 E0.18582
G1 E-0.8 F3000
; printing object Voron_Design_Cube_v7.stl id:0 copy 0
; acceleration to travel
M204 S3000
G1 X156.72 Y156.701 F9000
; decel to extrusion
M204 S1000
G1 X158.706 Y158.68
; end travel
G1 E0.8 F1800
;TYPE:Internal perimeter
;WIDTH:0.48
G1 X158.444 Y158.943 E0.01553
G1 X158.013 Y159.442 E0.02761
G1 X157.48 Y160.187 E0.0384
G1 X157.023 Y160.99 E0.03871
G1 X156.651 Y161.836 E0.03871
G1 X156.369 Y162.715 E0.03871
G1 X156.179 Y163.619 E0.03871
G1 X156.083 Y164.538 E0.03871
G1 X156.083 Y165.462 E0.03871
G1 X156.179 Y166.381 E0.03871
G1 X156.369 Y167.285 E0.03871
G1 X156.649 Y168.158 E0.03841
G1 X156.907 Y168.764 E0.02761
G1 X157.243 Y169.421 E0.03092
G1 X157.739 Y170.195 E0.03853
G1 X158.314 Y170.918 E0.03871
G1 X158.962 Y171.577 E0.03871
G1 X159.674 Y172.166 E0.03871
G1 X160.442 Y172.678 E0.03871
G1 X161.253 Y173.104 E0.03839
G1 X161.862 Y173.357 E0.02763
G1 X162.564 Y173.589 E0.03095
G1 X163.459 Y173.795 E0.0385
G1 X164.376 Y173.907 E0.03871
G1 X165.3 Y173.923 E0.03871
G1 X166.22 Y173.845 E0.03871
G1 X167.128 Y173.671 E0.03871
G1 X168.004 Y173.407 E0.03836
G1 X168.617 Y173.161 E0.02766
G1 X169.28 Y172.835 E0.03098
G1 X170.063 Y172.354 E0.03848
G1 X170.795 Y171.792 E0.0387
G1 X171.466 Y171.157 E0.03871
G1 X172.068 Y170.456 E0.0387
G1 X172.593 Y169.696 E0.03871
G1 X173.038 Y168.886 E0.03871
G1 X173.396 Y168.035 E0.0387
G1 X173.665 Y167.151 E0.0387
G1 X173.841 Y166.244 E0.0387
G1 X173.921 Y165.334 E0.03831
G1 X173.921 Y164.666 E0.02795
G1 X173.841 Y163.756 E0.03831
G1 X173.665 Y162.849 E0.0387
G1 X173.398 Y161.971 E0.03845
G1 X173.118 Y161.286 E0.03101
G1 X172.821 Y160.695 E0.02767
G1 X172.34 Y159.917 E0.03833
G1 X171.776 Y159.186 E0.03871
G1 X171.139 Y158.517 E0.03871
G1 X170.436 Y157.917 E0.0387
G1 X169.675 Y157.394 E0.0387
G1 X168.869 Y156.954 E0.03848
G1 X168.19 Y156.663 E0.03098
G1 X167.565 Y156.449 E0.02765
G1 X166.676 Y156.23 E0.03836
G1 X165.761 Y156.104 E0.0387
G1 X164.838 Y156.073 E0.03871
G1 X164.377 Y156.105 E0.01935
G1 X163.916 Y156.138 E0.01935
G1 X163.006 Y156.297 E0.03871
G1 X162.118 Y156.549 E0.03871
G1 X161.26 Y156.893 E0.03871
G1 X160.442 Y157.322 E0.03871
G1 X159.674 Y157.834 E0.03871
G1 X158.965 Y158.42 E0.03852
G1 X158.706 Y158.68 E0.0154
G1 X159.009 Y158.983 F9000
G1 F1800
G1 X158.758 Y159.235 E0.01489
G1 X158.35 Y159.707 E0.02615
G1 X157.841 Y160.418 E0.03665
G1 X157.406 Y161.183 E0.03685
G1 X157.052 Y161.988 E0.03685
G1 X156.783 Y162.825 E0.03685
G1 X156.603 Y163.686 E0.03685
G1 X156.512 Y164.56 E0.03685
G1 X156.512 Y165.44 E0.03685
G1 X156.603 Y166.314 E0.03685
G1 X156.783 Y167.175 E0.03685
G1 X157.051 Y168.008 E0.03666
G1 X157.295 Y168.582 E0.02615
G1 X157.615 Y169.207 E0.02942
G1 X158.088 Y169.946 E0.03673
G1 X158.636 Y170.634 E0.03685
G1 X159.252 Y171.261 E0.03685
G1 X159.929 Y171.821 E0.03685
G1 X160.661 Y172.309 E0.03685
G1 X161.435 Y172.716 E0.03664
G1 X162.012 Y172.955 E0.02616
G1 X162.679 Y173.176 E0.02945
G1 X163.533 Y173.372 E0.03672
G1 X164.406 Y173.479 E0.03685
G1 X165.285 Y173.495 E0.03685
G1 X166.162 Y173.42 E0.03685
G1 X167.025 Y173.254 E0.03685
G1 X167.862 Y173.003 E0.03662
G1 X168.442 Y172.77 E0.02618
G1 X169.073 Y172.46 E0.02946
G1 X169.819 Y172.001 E0.0367
G1 X170.517 Y171.465 E0.03684
G1 X171.155 Y170.861 E0.03685
G1 X171.728 Y170.193 E0.03684
G1 X172.228 Y169.47 E0.03685
G1 X172.652 Y168.7 E0.03685
G1 X172.993 Y167.889 E0.03684
G1 X173.249 Y167.048 E0.03684
G1 X173.416 Y166.185 E0.03684
G1 X173.493 Y165.315 E0.03659
G1 X173.493 Y164.685 E0.02637
G1 X173.416 Y163.815 E0.03659
G1 X173.249 Y162.952 E0.03684
G1 X172.994 Y162.114 E0.03668
G1 X172.727 Y161.463 E0.02948
G1 X172.447 Y160.905 E0.02619
G1 X171.988 Y160.162 E0.03661
G1 X171.45 Y159.466 E0.03685
G1 X170.844 Y158.829 E0.03685
G1 X170.175 Y158.258 E0.03684
G1 X169.451 Y157.759 E0.03684
G1 X168.682 Y157.34 E0.0367
G1 X168.035 Y157.063 E0.02946
G1 X167.444 Y156.86 E0.02618
G1 X166.596 Y156.652 E0.03662
G1 X165.724 Y156.532 E0.03684
G1 X164.846 Y156.502 E0.03685
G1 X164.407 Y156.533 E0.01842
G1 X163.968 Y156.563 E0.01842
G1 X163.102 Y156.715 E0.03685
G1 X162.256 Y156.956 E0.03685
G1 X161.44 Y157.282 E0.03685
G1 X160.661 Y157.691 E0.03684
G1 X159.929 Y158.179 E0.03685
G1 X159.254 Y158.737 E0.03673
G1 X159.009 Y158.983 E0.01454
G1 X159.313 Y159.285 F9000
;TYPE:External perimeter
G1 F1800
G1 X159.072 Y159.526 E0.01425
G1 X158.687 Y159.972 E0.02469
G1 X158.202 Y160.65 E0.0349
G1 X157.789 Y161.375 E0.03499
G1 X157.453 Y162.14 E0.03499
G1 X157.198 Y162.935 E0.03499
G1 X157.027 Y163.752 E0.03499
G1 X156.94 Y164.582 E0.03499
G1 X156.94 Y165.418 E0.03499
G1 X157.027 Y166.248 E0.03499
G1 X157.198 Y167.065 E0.03499
G1 X157.453 Y167.858 E0.0349
G1 X157.684 Y168.401 E0.02469
G1 X157.987 Y168.994 E0.02792
G1 X158.437 Y169.696 E0.03494
G1 X158.957 Y170.349 E0.03499
G1 X159.542 Y170.945 E0.03499
G1 X160.185 Y171.477 E0.03499
G1 X160.88 Y171.94 E0.03499
G1 X161.618 Y172.327 E0.0349
G1 X162.162 Y172.553 E0.02469
G1 X162.795 Y172.763 E0.02794
G1 X163.607 Y172.949 E0.03493
G1 X164.436 Y173.051 E0.03499
G1 X165.271 Y173.066 E0.03499
G1 X166.103 Y172.995 E0.03499
G1 X166.923 Y172.838 E0.03499
G1 X167.72 Y172.598 E0.03489
G1 X168.267 Y172.378 E0.0247
G1 X168.866 Y172.084 E0.02794
G1 X169.576 Y171.647 E0.03492
G1 X170.238 Y171.139 E0.03498
G1 X170.845 Y170.565 E0.03499
G1 X171.388 Y169.931 E0.03498
G1 X171.863 Y169.245 E0.03499
G1 X172.265 Y168.513 E0.03498
G1 X172.589 Y167.743 E0.03498
G1 X172.832 Y166.944 E0.03498
G1 X172.991 Y166.125 E0.03498
G1 X173.064 Y165.296 E0.03487
G1 X173.064 Y164.704 E0.02479
G1 X172.991 Y163.875 E0.03487
G1 X172.832 Y163.056 E0.03498
G1 X172.59 Y162.258 E0.03491
G1 X172.337 Y161.641 E0.02795
G1 X172.073 Y161.114 E0.02471
G1 X171.635 Y160.406 E0.03488
G1 X171.125 Y159.745 E0.03499
G1 X170.549 Y159.14 E0.03499
G1 X169.914 Y158.598 E0.03498
G1 X169.226 Y158.125 E0.03498
G1 X168.494 Y157.726 E0.03492
G1 X167.881 Y157.463 E0.02795
G1 X167.324 Y157.272 E0.0247
G1 X166.515 Y157.073 E0.03489
G1 X165.688 Y156.959 E0.03498
G1 X164.853 Y156.931 E0.03499
G1 X164.437 Y156.96 E0.01749
G1 X164.02 Y156.989 E0.01749
G1 X163.198 Y157.133 E0.03499
G1 X162.395 Y157.362 E0.03499
G1 X161.62 Y157.672 E0.03499
G1 X160.88 Y158.06 E0.03499
G1 X160.185 Y158.523 E0.03499
G1 X159.543 Y159.054 E0.03493
G1 X159.313 Y159.285 E0.01368
;WIPE_START
M204 S4000
G1 X158.926 Y159.183 F9000
;WIPE_END
; acceleration to travel
M204 S3000
G1 X157.01 Y153.253
; decel to extrusion
M204 S1000
G1 X156.371 Y151.277
; end travel
;TYPE:Internal perimeter
G1 F1800
G1 X173.629 Y151.277 E0.72313
G1 X178.723 Y156.371 E0.30184
G1 X178.723 Y173.629 E0.72313
G1 X173.629 Y178.723 E0.30184
G1 X156.371 Y178.723 E0.72313
G1 X151.277 Y173.629 E0.30184
G1 X151.277 Y156.371 E0.72313
G1 X156.371 Y151.277 E0.30184
G1 X156.193 Y150.848 F9000
G1 F1800
G1 X173.807 Y150.848 E0.73801
G1 X173.922 Y150.964 E0.00686
G1 X179.152 Y156.193 E0.30985
G1 X179.152 Y173.807 E0.73801
G1 X173.807 Y179.152 E0.31671
G1 X156.193 Y179.152 E0.73801
G1 X150.848 Y173.807 E0.31671
M73 P2 R41
G1 X150.848 Y156.193 E0.73801
G1 X156.193 Y150.848 E0.31671
G1 X156.016 Y150.42 F9000
;TYPE:External perimeter
G1 F1800
G1 X173.984 Y150.42 E0.75288
G1 X174.225 Y150.661 E0.0143
G1 X179.58 Y156.016 E0.31729
G1 X179.58 Y173.984 E0.75288
G1 X173.984 Y179.58 E0.33159
G1 X156.016 Y179.58 E0.75288
G1 X150.42 Y173.984 E0.33159
G1 X150.42 Y156.016 E0.75288
G1 X156.016 Y150.42 E0.33159
;WIPE_START
M204 S4000
G1 X156.299 Y150.703 F9000
;WIPE_END
; acceleration to travel
M204 S3000
G1 X172.49 Y155.024
; decel to extrusion
M204 S1000
G1 X178.659 Y156.67
; end travel
;TYPE:Solid infill
;WIDTH:0.470414
G1 F3600
G1 X173.514 Y151.525 E0.29877
G1 X172.908 Y151.525 E0.02488
G1 X178.475 Y157.092 E0.32326
G1 X178.475 Y157.698 E0.02488
G1 X172.302 Y151.525 E0.35845
G1 X171.696 Y151.525 E0.02488
G1 X178.475 Y158.304 E0.39364
G1 X178.475 Y158.91 E0.02488
G1 X171.09 Y151.525 E0.42883
G1 X170.484 Y151.525 E0.02488
G1 X178.475 Y159.516 E0.46402
G1 X178.475 Y160.122 E0.02488
G1 X169.878 Y151.525 E0.49921
G1 X169.272 Y151.525 E0.02488
G1 X178.475 Y160.728 E0.5344
G1 X178.475 Y161.334 E0.02488
G1 X168.666 Y151.525 E0.56959
G1 X168.06 Y151.525 E0.02488
G1 X178.475 Y161.94 E0.60479
G1 X178.475 Y162.546 E0.02488
G1 X167.454 Y151.525 E0.63998
G1 X166.848 Y151.525 E0.02488
G1 X178.475 Y163.152 E0.67517
G1 X178.475 Y163.758 E0.02488
G1 X166.242 Y151.525 E0.71036
G1 X165.636 Y151.525 E0.02488
G1 X178.475 Y164.364 E0.74555
G1 X178.475 Y164.97 E0.02488
G1 X165.03 Y151.525 E0.78074
G1 X164.424 Y151.525 E0.02488
G1 X178.475 Y165.576 E0.81593
G1 X178.475 Y166.182 E0.02488
G1 X173.034 Y160.741 E0.31596
G1 X173.348 Y161.181 E0.02221
G1 X173.498 Y161.811 E0.0266
G1 X178.475 Y166.788 E0.289
G1 X178.475 Y167.394 E0.02488
G1 X173.687 Y162.606 E0.27802
G1 X173.876 Y163.401 E0.03355
G1 X178.475 Y168 E0.26705
G1 X178.475 Y168.606 E0.02488
G1 X174.065 Y164.196 E0.25608
G1 X174.174 Y164.656 E0.01944
G1 X174.14 Y164.877 E0.00917
G1 X178.475 Y169.212 E0.25172
G1 X178.475 Y169.818 E0.02488
G1 X174.058 Y165.401 E0.25646
G1 X173.977 Y165.926 E0.02179
G1 X178.475 Y170.424 E0.26121
G1 X178.475 Y171.03 E0.02488
G1 X173.895 Y166.45 E0.26595
G1 X173.813 Y166.974 E0.02179
G1 X178.475 Y171.636 E0.27069
G1 X178.475 Y172.242 E0.02488
G1 X173.732 Y167.499 E0.27544
G1 X173.65 Y168.023 E0.02179
G1 X178.475 Y172.847 E0.28018
G1 X178.475 Y173.453 E0.02488
G1 X173.447 Y168.426 E0.29197
G1 X173.215 Y168.8 E0.01808
G1 X178.208 Y173.793 E0.28993
G1 X177.905 Y174.096 E0.0176
G1 X172.984 Y169.175 E0.28578
G1 X172.752 Y169.549 E0.01808
G1 X177.602 Y174.399 E0.28163
G1 X177.299 Y174.702 E0.0176
G1 X172.521 Y169.924 E0.27748
G1 X172.289 Y170.298 E0.01808
G1 X176.996 Y175.005 E0.27334
G1 X176.693 Y175.308 E0.0176
G1 X172.058 Y170.672 E0.26919
G1 X171.826 Y171.047 E0.01808
G1 X176.39 Y175.611 E0.26504
G1 X176.087 Y175.914 E0.0176
G1 X171.564 Y171.391 E0.26264
G1 X171.209 Y171.642 E0.01786
G1 X175.784 Y176.217 E0.2657
G1 X175.481 Y176.52 E0.0176
G1 X170.853 Y171.892 E0.26876
G1 X170.497 Y172.142 E0.01786
G1 X175.178 Y176.823 E0.27182
G1 X174.875 Y177.126 E0.0176
G1 X170.142 Y172.392 E0.27489
G1 X169.786 Y172.643 E0.01786
G1 X174.572 Y177.429 E0.27795
G1 X174.269 Y177.732 E0.0176
G1 X169.43 Y172.893 E0.28101
G1 X169.074 Y173.143 E0.01786
G1 X173.966 Y178.035 E0.28407
G1 X173.663 Y178.338 E0.0176
G1 X168.718 Y173.393 E0.28716
G1 X168.225 Y173.506 E0.02076
G1 X173.194 Y178.475 E0.28853
G1 X172.588 Y178.475 E0.02488
G1 X167.733 Y173.619 E0.28195
G1 X167.24 Y173.733 E0.02076
G1 X171.982 Y178.475 E0.27538
G1 X171.376 Y178.475 E0.02488
G1 X166.747 Y173.846 E0.2688
G1 X166.254 Y173.959 E0.02076
G1 X170.77 Y178.475 E0.26223
G1 X170.164 Y178.475 E0.02488
G1 X165.762 Y174.072 E0.25565
G1 X165.308 Y174.177 E0.01912
G1 X165.251 Y174.167 E0.00238
G1 X169.558 Y178.475 E0.25014
G1 X168.952 Y178.475 E0.02488
G1 X164.525 Y174.047 E0.25709
G1 X163.799 Y173.928 E0.0302
G1 X168.346 Y178.475 E0.26404
G1 X167.74 Y178.475 E0.02488
G1 X163.074 Y173.808 E0.27099
G1 X162.348 Y173.688 E0.0302
G1 X167.134 Y178.475 E0.27794
G1 X166.528 Y178.475 E0.02488
G1 X160.887 Y172.834 E0.32758
G1 E-0.8 F3000
; acceleration to travel
M204 S3000
G1 X167.758 Y161.525 F9000
; decel to extrusion
M204 S1000
G1 X170.048 Y157.756
; end travel
G1 E0.8 F1800
G1 F3600
G1 X163.818 Y151.525 E0.36179
G1 X163.212 Y151.525 E0.02488
G1 X168.052 Y156.365 E0.28103
G1 X167.203 Y156.123 E0.03623
G1 X162.606 Y151.525 E0.26696
G1 X162 Y151.525 E0.02488
G1 X166.444 Y155.969 E0.25804
G1 X165.803 Y155.934 E0.02635
G1 X161.394 Y151.525 E0.25601
G1 X160.788 Y151.525 E0.02488
G1 X165.162 Y155.899 E0.25399
G1 X164.521 Y155.864 E0.02635
G1 X160.182 Y151.525 E0.25196
G1 X159.576 Y151.525 E0.02488
G1 X163.996 Y155.945 E0.25666
G1 X163.512 Y156.067 E0.02049
G1 X158.97 Y151.525 E0.26376
G1 X158.364 Y151.525 E0.02488
G1 X163.029 Y156.19 E0.27085
