; generated by SuperSlicer 2.4 on 2022-08-01 at 23:38:06 UTC


;
;

;
;
; 

; external perimeters extrusion width = 0.48mm
; perimeters extrusion width = 0.48mm
; infill extrusion width = 0.72mm
; solid infill extrusion width = 0.56mm
; top infill extrusion width = 0.40mm
; first layer extrusion width = 0.48mm

; external perimeters extrusion width = 0.48mm
; perimeters extrusion width = 0.48mm
; infill extrusion width = 0.72mm
; solid infill extrusion width = 0.56mm
; top infill extrusion width = 0.40mm
; first layer extrusion width = 0.48mm

; external perimeters extrusion width = 0.48mm
; perimeters extrusion width = 0.48mm
; infill extrusion width = 0.72mm
; solid infill extrusion width = 0.56mm
; top infill extrusion width = 0.40mm
; first layer extrusion width = 0.48mm

; external perimeters extrusion width = 0.48mm
; perimeters extrusion width = 0.48mm
; infill extrusion width = 0.72mm
; solid infill extrusion width = 0.56mm
; top infill extrusion width = 0.40mm
; first layer extrusion width = 0.48mm

; object:{"name":"DD007(1)","id":"DD007(1).STL id:0 copy 0","object_center":[163.733602,213.439419,0.000000],"boundingbox_center":[163.733602,213.439419,3.149300],"boundingbox_size":[8.820000,41.444201,6.298600]}
; object:{"name":"DH010(1)","id":"DH010(1).STL id:1 copy 0","object_center":[189.113675,166.714091,0.000000],"boundingbox_center":[189.113675,166.714091,4.145400],"boundingbox_size":[44.181201,67.404400,8.290800]}
; object:{"name":"DD007(1)","id":"DD007(1).STL id:2 copy 0","object_center":[161.051870,116.560581,0.000000],"boundingbox_center":[161.051870,116.560581,3.149300],"boundingbox_size":[8.820000,41.444201,6.298600]}
; object:{"name":"DH010(1)","id":"DH010(1).STL id:3 copy 0","object_center":[140.887090,166.714091,0.000000],"boundingbox_center":[140.887090,166.714091,4.145400],"boundingbox_size":[44.181201,67.404400,8.290800]}
; plater:{"center":[165.000383,165.000000,0.000000],"boundingbox_center":[165.000383,165.000000,4.145400],"boundingbox_size":[92.407786,138.323039,8.290800]}

M73 P0 R44
;TYPE:Custom
START_PRINT T_BED=110 T_EXTRUDER=245
M107
G21 ; set units to millimeters
G90 ; use absolute coordinates
M83 ; use relative distances for extrusion
; Filament gcode
M104 S245 ; set temperature
M109 S245 ; set temperature and wait for it to be reached
M190 S110 ; set bed temperature and wait for it to be reached
M107
;LAYER_CHANGE
;Z:0.24
;HEIGHT:0.24
G1 Z0.24 F9000
G92 E0
G1 E-0.5 F3000
M204 S1000
G1 X139.028 Y116.075 F9000
G1 E0.5 F1800
;TYPE:Skirt
;WIDTH:0.52
G1 X119.326 Y139.673 E1.43704
G1 X118.752 Y140.767 E0.05777
G1 X116.27 Y147.501 E0.33551
G1 X116.019 Y148.468 E0.04669
G1 X115.958 Y149.156 E0.0323
G1 X118.32 Y182.148 E1.54621
G1 X118.673 Y185.309 E0.14865
G1 X119.14 Y186.631 E0.06556
G1 X119.661 Y187.441 E0.04501
G1 X157.135 Y235.008 E2.83075
M73 P0 R44
G1 X158.144 Y235.895 E0.0628
G1 X160.084 Y236.445 E0.09427
G1 X167.387 Y236.447 E0.34138
G1 X168.268 Y236.34 E0.04151
G1 X169.789 Y235.561 E0.07988
G1 X170.273 Y235.08 E0.03193
G1 X205.396 Y192.988 E2.56269
G1 X205.84 Y192.261 E0.03982
G1 X212.94 Y178.26 E0.73384
G1 X213.357 Y177.07 E0.05895
G1 X213.52 Y175.729 E0.06313
G1 X213.451 Y174.816 E0.04285
G1 X213.249 Y173.966 E0.04081
G1 X201.979 Y139.196 E1.70864
G1 X201.51 Y138.153 E0.05349
G1 X201.13 Y137.583 E0.03201
G1 X167.632 Y95.157 E2.52696
G1 X166.647 Y94.287 E0.06141
G1 X164.71 Y93.73 E0.09421
G1 X163.545 Y93.726 E0.05446
G1 X162.173 Y93.984 E0.06526
G1 X156.039 Y96.405 E0.30829
G1 X154.613 Y97.408 E0.0815
G1 X139.028 Y116.075 E1.13678
G1 X139.385 Y116.373 F9000
G1 F1800
G1 X119.713 Y139.933 E1.43478
G1 X119.189 Y140.928 E0.05258
G1 X116.707 Y147.663 E0.33551
G1 X116.481 Y148.532 E0.04198
G1 X116.425 Y149.157 E0.02937
G1 X118.785 Y182.115 E1.54459
G1 X119.093 Y185.011 E0.13615
G1 X119.243 Y185.661 E0.0312
G1 X119.558 Y186.425 E0.03859
G1 X120.027 Y187.152 E0.04048
G1 X157.501 Y234.719 E2.83075
G1 X158.388 Y235.498 E0.05519
G1 X160.084 Y235.979 E0.08238
G1 X167.387 Y235.98 E0.34138
G1 X169.486 Y235.207 E0.1046
G1 X169.915 Y234.781 E0.02826
G1 X205.003 Y192.737 E2.55993
M73 P1 R44
G1 X205.424 Y192.049 E0.03768
G1 X212.514 Y178.069 E0.73276
G1 X212.901 Y176.971 E0.05444
G1 X213.054 Y175.737 E0.05811
G1 X212.989 Y174.879 E0.04026
G1 X212.806 Y174.11 E0.03693
G1 X201.536 Y139.34 E1.70864
G1 X201.113 Y138.397 E0.04831
G1 X167.266 Y95.446 E2.55633
G1 X166.401 Y94.683 E0.05389
G1 X164.709 Y94.197 E0.08233
G1 X163.544 Y94.192 E0.05446
G1 X162.344 Y94.418 E0.05704
G1 X156.21 Y96.838 E0.30829
G1 X154.957 Y97.722 E0.07165
G1 X139.385 Y116.373 E1.13583
G1 E-0.5 F3000
; printing object DD007(1).STL id:0 copy 0
; acceleration to travel
M204 S3000
G1 X159.352 Y199.347 F9000
; decel to extrusion
M204 S1000
G1 X166.008 Y227.005
; end travel
G1 E0.5 F1800
;TYPE:Internal perimeter
;WIDTH:0.48
G1 X166.008 Y231.224 E0.18039
G1 X161.458 Y231.221 E0.19456
G1 X161.458 Y226.997 E0.1806
G1 X161.757 Y227.188 E0.01519
G1 X162.367 Y227.45 E0.02839
G1 X162.822 Y227.576 E0.02019
G1 X163.255 Y227.65 E0.01874
G1 X163.956 Y227.674 E0.03001
G1 X164.619 Y227.583 E0.0286
G1 X165.079 Y227.456 E0.02042
G1 X165.523 Y227.278 E0.02044
G1 X166.008 Y227.005 E0.02382
G1 X166.437 Y226.133 F9000
G1 F1800
G1 X166.437 Y231.653 E0.236
G1 X161.029 Y231.649 E0.2312
G1 X161.029 Y226.125 E0.23617
G1 X161.454 Y226.486 E0.02381
G1 X161.958 Y226.808 E0.0256
G1 X162.509 Y227.045 E0.02564
G1 X162.916 Y227.157 E0.01803
G1 X163.298 Y227.223 E0.01659
G1 X163.934 Y227.245 E0.0272
G1 X164.532 Y227.162 E0.0258
G1 X164.942 Y227.049 E0.01819
G1 X165.337 Y226.891 E0.01821
G1 X165.859 Y226.597 E0.02558
G1 X166.437 Y226.133 E0.0317
G1 X166.618 Y225.163 F9000
G1 F1800
G1 X166.865 Y225.235 E0.01099
G1 X166.865 Y232.081 E0.29274
G1 X160.601 Y232.077 E0.26784
G1 X160.601 Y225.246 E0.29207
G1 X160.838 Y225.17 E0.01067
G1 X161.167 Y225.625 E0.02401
G1 X161.423 Y225.898 E0.01599
G1 X161.709 Y226.141 E0.01605
G1 X162.16 Y226.428 E0.02286
G1 X162.652 Y226.64 E0.0229
G1 X163.009 Y226.738 E0.01586
G1 X163.342 Y226.795 E0.01444
G1 X163.912 Y226.815 E0.0244
G1 X164.445 Y226.742 E0.023
G1 X164.805 Y226.642 E0.01596
G1 X165.152 Y226.504 E0.01597
G1 X165.618 Y226.241 E0.02286
G1 X166.043 Y225.9 E0.02332
G1 X166.407 Y225.493 E0.02334
G1 X166.618 Y225.163 E0.01678
G1 E-0.5 F3000
; acceleration to travel
M204 S3000
G1 X166.599 Y204.337 F9000
; decel to extrusion
M204 S1000
G1 X166.593 Y197.396
; end travel
G1 E0.5 F1800
G1 X166.862 Y197.455 E0.01178
G1 X166.861 Y198.018 E0.02408
G1 X166.304 Y198.019 E0.02382
G1 X166.593 Y197.396 E0.02936
G1 E-0.5 F3000
; acceleration to travel
M204 S3000
G1 X167.084 Y195.26 F9000
; decel to extrusion
M204 S1000
G1 X167.247 Y194.548
; end travel
G1 E0.5 F1800
;TYPE:External perimeter
G1 X167.294 Y194.932 E0.01652
G1 X167.289 Y198.172 E0.13856
G1 X167.244 Y198.447 E0.01188
G1 X161.272 Y198.449 E0.25535
G1 X161.05 Y198.585 E0.01111
G1 X160.946 Y198.78 E0.00946
G1 X160.845 Y199.126 E0.0154
G1 X160.805 Y199.458 E0.01429
G1 X160.805 Y223.469 E1.02662
M73 P1 R44
G1 X160.821 Y223.778 E0.01322
G1 X160.874 Y224.095 E0.01377
G1 X161.012 Y224.544 E0.02004
G1 X161.223 Y224.971 E0.02039
G1 X161.498 Y225.352 E0.02007
G1 X161.719 Y225.587 E0.01377
G1 X161.964 Y225.795 E0.01378
G1 X162.361 Y226.049 E0.02012
G1 X162.794 Y226.234 E0.02015
G1 X163.102 Y226.32 E0.01369
G1 X163.386 Y226.368 E0.01228
G1 X163.89 Y226.386 E0.02159
G1 X164.358 Y226.321 E0.02021
G1 X164.668 Y226.236 E0.01372
G1 X164.966 Y226.116 E0.01374
G1 X165.377 Y225.885 E0.02014
G1 X165.747 Y225.587 E0.02032
G1 X166.065 Y225.233 E0.02034
G1 X166.318 Y224.836 E0.02013
G1 X166.454 Y224.543 E0.01381
G1 X166.555 Y224.239 E0.01371
G1 X166.644 Y223.782 E0.01991
G1 X166.66 Y223.469 E0.01342
G1 X166.655 Y204.373 E0.81645
G1 X166.614 Y204.135 E0.01032
G1 X166.529 Y203.845 E0.01292
G1 X166.389 Y203.59 E0.01244
G1 X166.17 Y203.489 E0.01031
G1 X164.565 Y203.486 E0.06863
G1 X164.751 Y203.2 E0.01459
G1 X165.064 Y202.795 E0.02188
G1 X165.137 Y202.737 E0.00399
G1 X167.249 Y202.745 E0.0903
G1 X167.294 Y203.122 E0.01622
G1 X167.294 Y232.231 E1.24456
G1 X167.263 Y232.51 E0.01202
G1 X160.208 Y232.506 E0.30167
G1 X160.172 Y232.237 E0.01159
G1 X160.172 Y197.346 E1.49178
G1 X160.202 Y197.022 E0.01389
G1 X160.221 Y196.962 E0.0027
G1 X160.797 Y196.953 E0.02461
G1 X160.969 Y197.41 E0.02088
G1 X161.087 Y197.587 E0.00909
G1 X161.282 Y197.692 E0.00946
G1 X165.875 Y197.687 E0.19639
G1 X166.069 Y197.508 E0.01128
G1 X166.157 Y197.316 E0.00901
G1 X166.239 Y197.032 E0.01265
G1 X166.278 Y196.79 E0.01046
G1 X166.285 Y194.813 E0.08455
G1 X166.33 Y194.545 E0.01162
G1 X167 Y194.547 E0.02866
G1 X167.247 Y194.548 E0.01058
;WIPE_START
M204 S4000
G1 X167.075 Y194.909 F9000
;WIPE_END
M204 S1000
G1 X166.791 Y194.743
;TYPE:Gap fill
;WIDTH:0.649799
G1 F1800
G1 X166.789 Y194.836 E0.00556
;WIDTH:0.682515
G1 X166.79 Y194.955 E0.00745
G1 X166.789 Y195.051 E0.00605
G1 X166.784 Y196.808 E0.11061
G1 X166.782 Y196.856 E0.00304
G1 X166.764 Y197.025 E0.01069
;WIDTH:0.71131
G1 X166.751 Y197.139 E0.00754
G1 X166.738 Y197.226 E0.00582
G1 X166.124 Y197.937 F9000
;WIDTH:0.426004
G1 F1800
G1 X165.968 Y198.037 E0.00693
;WIDTH:0.375539
G1 X165.862 Y198.067 E0.00355
;WIDTH:0.414944
G1 X163.547 Y198.069 E0.08396
G1 X161.232 Y198.07 E0.08396
;WIDTH:0.442416
G1 X161.103 Y198.067 E0.00504
;WIDTH:0.558494
G1 X160.935 Y198.071 E0.00849
;WIDTH:0.749596
G1 X160.768 Y198.076 E0.01169
;WIDTH:0.82581
G1 X160.759 Y198.076 E0.0007
G1 X160.512 Y197.155 F9000
;WIDTH:0.341398
G1 F1800
G1 X160.544 Y197.325 E0.00502
;WIDTH:0.408752
G1 X160.568 Y197.47 E0.00525
;WIDTH:0.488916
G1 X160.588 Y197.578 E0.00475
;WIDTH:0.525069
G1 X160.635 Y197.743 E0.00811
;WIDTH:0.643094
G1 X160.687 Y197.913 E0.01052
;WIDTH:0.68618
G1 X160.759 Y198.076 E0.01127
;WIDTH:0.718756
G1 X160.719 Y198.146 E0.00538
;WIDTH:0.684144
G1 X160.652 Y198.312 E0.0113
;WIDTH:0.598575
G1 X160.622 Y198.43 E0.00664
;WIDTH:0.506673
G1 X160.578 Y198.607 E0.00829
;WIDTH:0.456167
G1 X160.556 Y198.748 E0.00575
;WIDTH:0.415571
G1 X160.542 Y198.847 E0.00364
;WIDTH:0.377494
G1 X160.527 Y198.946 E0.00326
;WIDTH:0.334599
G1 X160.513 Y199.045 E0.00283
G1 X160.511 Y199.069 E0.00067
G1 X160.5 Y199.25 E0.00513
;WIDTH:0.309365
G1 X160.489 Y199.431 E0.00467
G1 X160.488 Y199.446 E0.00037
G1 X160.488 Y211.46 E0.30912
G1 X160.489 Y223.474 E0.30912
G1 X160.493 Y223.643 E0.00435
G1 X160.497 Y223.806 E0.00419
G1 X160.512 Y223.994 E0.00484
;WIDTH:0.371224
G1 X160.527 Y224.167 E0.00554
G1 X160.544 Y224.287 E0.00388
;WIDTH:0.408837
G1 X160.559 Y224.387 E0.00359
;WIDTH:0.446056
G1 X160.574 Y224.486 E0.00396
;WIDTH:0.483275
G1 X160.589 Y224.586 E0.00434
;WIDTH:0.527934
G1 X160.604 Y224.685 E0.00479
G1 X160.611 Y224.724 E0.00188
;WIDTH:0.553224
G1 X160.656 Y224.889 E0.00856
;WIDTH:0.606218
G1 X160.69 Y225.01 E0.00698
G1 E-0.5 F3000
; acceleration to travel
M204 S3000
G1 X164.495 Y227.147 F9000
; decel to extrusion
M204 S1000
G1 X165.944 Y227.961
; end travel
G1 E0.5 F1800
;TYPE:Solid infill
;WIDTH:0.456445
G1 F3600
G1 X165.507 Y227.524 E0.02511
G1 X165.158 Y227.693 E0.01576
G1 X165.085 Y227.708 E0.00305
G1 X165.76 Y228.382 E0.0388
G1 X165.76 Y228.988 E0.02464
G1 X164.578 Y227.806 E0.06797
G1 X164.07 Y227.905 E0.02101
G1 X165.76 Y229.594 E0.09713
G1 X165.76 Y230.2 E0.02464
G1 X163.438 Y227.879 E0.13349
G1 X162.774 Y227.821 E0.02708
G1 X165.76 Y230.806 E0.17164
G1 X165.76 Y230.975 E0.00686
G1 X165.322 Y230.975 E0.01779
G1 X161.824 Y227.477 E0.20111
G1 X161.706 Y227.434 E0.00512
G1 X161.706 Y227.965 E0.02158
G1 X164.716 Y230.975 E0.17305
G1 X164.109 Y230.974 E0.02465
G1 X161.706 Y228.571 E0.13818
G1 X161.706 Y229.177 E0.02464
G1 X163.503 Y230.974 E0.10332
G1 X162.897 Y230.973 E0.02465
G1 X161.706 Y229.783 E0.06845
G1 X161.706 Y230.389 E0.02464
G1 X162.475 Y231.157 E0.04419
G1 E-0.5 F3000
; acceleration to travel
M204 S3000
G1 X165.81 Y226.394 F9000
; decel to extrusion
M204 S1000
G1 X166.782 Y225.005
; end travel
G1 E0.5 F1800
;TYPE:Gap fill
;WIDTH:0.603368
G1 X166.814 Y224.884 E0.00691
;WIDTH:0.547628
G1 X166.861 Y224.691 E0.00985
;WIDTH:0.504443
G1 X166.889 Y224.518 E0.00788
;WIDTH:0.427325
G1 X166.92 Y224.323 E0.00742
G1 X166.944 Y224.077 E0.00927
;WIDTH:0.310334
G1 X166.967 Y223.831 E0.00639
G1 X166.968 Y223.813 E0.00047
G1 X166.973 Y223.646 E0.0043
G1 X166.977 Y223.474 E0.00446
G1 X166.976 Y213.915 E0.24687
G1 X166.974 Y204.356 E0.24687
G1 X166.973 Y204.335 E0.00053
G1 X166.962 Y204.201 E0.00349
;WIDTH:0.344148
G1 X166.948 Y204.048 E0.00446
G1 X166.924 Y203.881 E0.00494
;WIDTH:0.428449
G1 X166.9 Y203.714 E0.00636
;WIDTH:0.453103
G1 X166.892 Y203.671 E0.00175
;WIDTH:0.500198
G1 X166.843 Y203.482 E0.00872
;WIDTH:0.615854
G1 X166.795 Y203.293 E0.01097
;WIDTH:0.678834
G1 X166.64 Y203.201 E0.01134
;WIDTH:0.554633
G1 X166.5 Y203.17 E0.00717
;WIDTH:0.479041
G1 X166.36 Y203.139 E0.0061
;WIDTH:0.418541
G1 X166.214 Y203.115 E0.00545
G1 X165.753 Y203.114 E0.01685
G1 X165.293 Y203.112 E0.01685
G1 X165.171 Y203.125 E0.00451
;WIDTH:0.320874
G1 X165.048 Y203.138 E0.00331
G1 E-0.5 F3000
; stop printing object DD007(1).STL id:0 copy 0
; printing object DH010(1).STL id:3 copy 0
; acceleration to travel
M204 S3000
G1 X134.243 Y188.316 F9000
; decel to extrusion
M204 S1000
G1 X123.975 Y183.375
; end travel
G1 E0.5 F1800
;TYPE:Internal perimeter
;WIDTH:0.48
G1 X124.272 Y183.917 E0.0264
G1 X124.493 Y184.211 E0.01574
G1 X124.848 Y184.558 E0.02122
G1 X125.148 Y184.778 E0.01589
G1 X125.627 Y185.025 E0.02308
G1 X126.168 Y185.181 E0.02407
G1 X126.538 Y185.219 E0.01589
G1 X133.118 Y193.764 E0.46112
G1 X133.605 Y194.282 E0.03038
G1 X133.963 Y194.563 E0.01949
G1 X134.318 Y194.784 E0.01785
G1 X134.72 Y194.981 E0.01917
G1 X135.394 Y195.196 E0.03024
G1 X141.582 Y196.443 E0.26992
G1 X142.181 Y196.478 E0.02564
G1 X142.87 Y196.297 E0.03044
G1 X143.336 Y196.014 E0.02331
G1 X149.587 Y191.001 E0.34258
G1 X149.916 Y190.69 E0.01936
G1 X150.27 Y190.243 E0.02442
G1 X150.474 Y189.904 E0.0169
G1 X152.138 Y186.645 E0.15643
G1 X153.494 Y186.574 E0.05806
G1 X153.998 Y186.429 E0.02243
G1 X154.653 Y185.992 E0.03368
G1 X154.851 Y186.168 E0.01132
G1 X152.99 Y189.825 E0.17545
G1 X152.849 Y190.046 E0.01124
G1 X152.709 Y190.189 E0.00852
G1 X143.596 Y197.498 E0.49949
G1 X133.82 Y195.68 E0.42513
G1 X133.703 Y195.64 E0.00527
G1 X123.797 Y184.242 E0.64568
G1 X123.782 Y184.179 E0.00275
G1 X123.707 Y183.459 E0.03095
G1 X123.975 Y183.375 E0.012
G1 E-0.5 F3000
; acceleration to travel
M204 S3000
G1 X124.357 Y181.655 F9000
; decel to extrusion
M204 S1000
G1 X124.484 Y181.082
; end travel
G1 E0.5 F1800
G1 X124.259 Y181.824 E0.03316
G1 X124.213 Y182.317 E0.02115
G1 X124.264 Y182.806 E0.02104
G1 X124.41 Y183.278 E0.0211
G1 X124.633 Y183.684 E0.01982
G1 X124.815 Y183.928 E0.01302
G1 X125.125 Y184.23 E0.01851
G1 X125.373 Y184.412 E0.01315
G1 X125.787 Y184.625 E0.01987
G1 X126.25 Y184.759 E0.02063
G1 X126.765 Y184.811 E0.02213
G1 X133.444 Y193.486 E0.4681
G1 X133.895 Y193.964 E0.0281
G1 X134.209 Y194.212 E0.01712
G1 X134.526 Y194.409 E0.01592
G1 X134.88 Y194.583 E0.01689
G1 X135.502 Y194.781 E0.02788
G1 X141.638 Y196.017 E0.26762
G1 X142.138 Y196.047 E0.02143
G1 X142.7 Y195.898 E0.02487
G1 X143.09 Y195.662 E0.01946
G1 X149.305 Y190.678 E0.34064
G1 X149.599 Y190.4 E0.0173
G1 X149.918 Y189.998 E0.02193
G1 X150.1 Y189.696 E0.01508
G1 X151.868 Y186.23 E0.16635
G1 X153.423 Y186.148 E0.06655
G1 X153.816 Y186.036 E0.01748
G1 X154.326 Y185.694 E0.02627
G1 X154.871 Y184.633 E0.05101
G1 X155.008 Y185.114 E0.02138
G1 X155.489 Y185.858 E0.03791
G1 X153.362 Y190.038 E0.2005
G1 X153.186 Y190.315 E0.01404
G1 X152.997 Y190.507 E0.01151
G1 X143.779 Y197.9 E0.50522
G1 X143.713 Y197.941 E0.00332
G1 X143.615 Y197.937 E0.00419
G1 X133.711 Y196.095 E0.43073
G1 X133.521 Y196.03 E0.00857
G1 X133.411 Y195.957 E0.00564
G1 X123.455 Y184.501 E0.64896
G1 X123.394 Y184.399 E0.00505
G1 X123.359 Y184.252 E0.00646
G1 X123.11 Y181.85 E0.10325
G1 X123.121 Y181.611 E0.01025
G1 X123.162 Y181.45 E0.00709
G1 X124.484 Y181.082 E0.05867
G1 E-0.5 F3000
; acceleration to travel
M204 S3000
G1 X128.33 Y153.733 F9000
; decel to extrusion
M204 S1000
G1 X129.612 Y144.617
; end travel
G1 E0.5 F1800
G1 X129.289 Y144.259 E0.02065
