; generated by SuperSlicer 2.4 on 2022-06-25 at 03:26:54 UTC


;
;

;
;
; 

; external perimeters extrusion width = 0.40mm
; perimeters extrusion width = 0.48mm
; infill extrusion width = 0.72mm
; solid infill extrusion width = 0.56mm
; top infill extrusion width = 0.40mm
; first layer extrusion width = 0.48mm

; external perimeters extrusion width = 0.40mm
; perimeters extrusion width = 0.48mm
; infill extrusion width = 0.72mm
; solid infill extrusion width = 0.56mm
; top infill extrusion width = 0.40mm
; first layer extrusion width = 0.48mm

; object:{"name":"DD005","id":"DD005.STL id:0 copy 0","object_center":[131.345969,165.600871,0.000000],"boundingbox_center":[131.345969,165.600871,5.450169],"boundingbox_size":[12.230402,57.471325,10.900339]}
; object:{"name":"DH002","id":"DH002.STL id:1 copy 0","object_center":[173.730272,164.999980,0.000000],"boundingbox_center":[173.730272,164.999980,3.057600],"boundingbox_size":[62.077734,98.807804,6.115201]}
; plater:{"center":[164.999954,164.999980,0.000000],"boundingbox_center":[164.999954,164.999980,5.450169],"boundingbox_size":[79.538370,98.807804,10.900339]}

M73 P0 R41
;TYPE:Custom
START_PRINT T_BED=110 T_EXTRUDER=245
M107
G21 ; set units to millimeters
G90 ; use absolute coordinates
M83 ; use relative distances for extrusion
; Filament gcode
M104 S245 ; set temperature
M109 S245 ; set temperature and wait for it to be reached
M190 S110 ; set bed temperature and wait for it to be reached
M107
;LAYER_CHANGE
;Z:0.24
;HEIGHT:0.24
G1 Z0.24 F9000
G92 E0
G1 E-0.5 F3000
M204 S1000
G1 X123.632 Y139.612 F9000
G1 E0.5 F1800
;TYPE:Skirt
;WIDTH:0.52
G1 X123.086 Y140.096 E0.03411
G1 X122.292 Y141.609 E0.07988
G1 X122.079 Y143.268 E0.07819
G1 X122.125 Y194.034 E2.37313
G1 X122.457 Y195.24 E0.0585
G1 X123.154 Y196.317 E0.05998
G1 X124.574 Y197.267 E0.07988
G1 X173.431 Y215.449 E2.43693
M73 P1 R41
G1 X176.015 Y216.194 E0.12571
G1 X178.731 Y216.656 E0.12877
G1 X180.638 Y216.794 E0.08938
G1 X182.268 Y216.792 E0.0762
G1 X184.387 Y216.629 E0.09934
G1 X187.565 Y216.025 E0.15124
G1 X189.525 Y215.426 E0.09581
G1 X191.269 Y214.732 E0.08771
G1 X194.146 Y213.215 E0.15207
G1 X195.721 Y212.157 E0.08867
G1 X196.857 Y211.272 E0.06736
G1 X197.79 Y210.459 E0.05784
G1 X199.279 Y208.965 E0.09859
G1 X200.259 Y207.822 E0.0704
G1 X201.389 Y206.295 E0.08878
G1 X202.979 Y203.596 E0.14644
G1 X204.206 Y200.722 E0.14607
G1 X206.009 Y195.113 E0.27543
G1 X206.523 Y193.285 E0.08877
G1 X206.66 Y192.336 E0.04484
G1 X207.194 Y152.497 E1.86247
G1 X207.118 Y151.297 E0.05622
G1 X206.907 Y150.014 E0.06077
G1 X206.163 Y147.05 E0.14287
G1 X204.622 Y141.75 E0.25802
G1 X203.012 Y136.969 E0.23582
G1 X201.389 Y132.652 E0.21562
G1 X200.306 Y130.264 E0.12258
G1 X199.12 Y128.135 E0.11394
G1 X197.496 Y125.744 E0.13509
G1 X195.887 Y123.772 E0.11897
G1 X193.607 Y121.454 E0.152
G1 X191.224 Y119.478 E0.14473
G1 X188.597 Y117.712 E0.14798
G1 X185.542 Y116.101 E0.16142
G1 X182.876 Y115.025 E0.13439
G1 X179.537 Y114.054 E0.16255
G1 X176.204 Y113.465 E0.15823
G1 X172.741 Y113.228 E0.16227
G1 X170.791 Y113.261 E0.09116
G1 X168.794 Y113.424 E0.09368
G1 X167.065 Y113.668 E0.08163
G1 X164.387 Y114.239 E0.128
G1 X161.629 Y115.084 E0.13484
G1 X159.983 Y115.721 E0.08252
G1 X158.012 Y116.626 E0.10138
G1 X156.524 Y117.425 E0.07891
G1 X154.484 Y118.696 E0.11237
G1 X123.803 Y139.461 E1.73187
G1 X123.632 Y139.612 E0.01065
G1 X124.032 Y139.893 F9000
G1 F1800
G1 X122.744 Y141.724 E0.10466
G1 X122.545 Y143.268 E0.07275
G1 X122.585 Y193.961 E2.36972
G1 X122.887 Y195.059 E0.05322
G1 X123.425 Y195.922 E0.04755
G1 X124.737 Y196.83 E0.0746
G1 X173.593 Y215.012 E2.43687
G1 X176.128 Y215.741 E0.12331
G1 X178.775 Y216.192 E0.12551
G1 X180.662 Y216.329 E0.08845
G1 X182.266 Y216.326 E0.07498
G1 X184.339 Y216.165 E0.09719
G1 X187.44 Y215.576 E0.14757
G1 X189.362 Y214.989 E0.09396
G1 X191.087 Y214.303 E0.08678
G1 X193.894 Y212.823 E0.14835
G1 X195.452 Y211.776 E0.08774
G1 X196.7 Y210.796 E0.07416
G1 X198.926 Y208.66 E0.1442
G1 X200.422 Y206.848 E0.10985
G1 X201.559 Y205.177 E0.09451
G1 X202.998 Y202.476 E0.14306
G1 X204.372 Y198.816 E0.18274
G1 X205.577 Y194.929 E0.19022
G1 X206.073 Y193.159 E0.08594
G1 X206.193 Y192.329 E0.03919
G1 X206.728 Y152.491 E1.86247
G1 X206.653 Y151.332 E0.0543
G1 X206.455 Y150.128 E0.05703
G1 X205.71 Y147.164 E0.14287
G1 X204.176 Y141.887 E0.25692
G1 X202.571 Y137.122 E0.23502
G1 X200.954 Y132.82 E0.21486
G1 X199.887 Y130.468 E0.12075
G1 X198.726 Y128.384 E0.11148
G1 X197.128 Y126.03 E0.13302
G1 X195.546 Y124.09 E0.11702
G1 X193.284 Y121.79 E0.1508
G1 X190.954 Y119.858 E0.1415
G1 X188.366 Y118.117 E0.14577
G1 X185.358 Y116.53 E0.159
G1 X182.732 Y115.469 E0.13239
G1 X179.444 Y114.511 E0.16013
G1 X176.136 Y113.926 E0.15702
G1 X172.739 Y113.694 E0.15917
G1 X170.819 Y113.726 E0.08976
G1 X168.858 Y113.886 E0.092
G1 X167.154 Y114.126 E0.08044
G1 X164.496 Y114.693 E0.12701
G1 X161.775 Y115.527 E0.13308
G1 X160.152 Y116.156 E0.08133
G1 X158.215 Y117.046 E0.09964
G1 X156.746 Y117.835 E0.07798
G1 X154.746 Y119.082 E0.11018
G1 X124.064 Y139.847 E1.73187
G1 X124.032 Y139.893 E0.00263
G1 E-0.5 F3000
; printing object DD005.STL id:0 copy 0
; acceleration to travel
M204 S3000
G1 X132.321 Y143.246 F9000
; decel to extrusion
M204 S1000
G1 X135.085 Y144.364
; end travel
G1 E0.5 F1800
;TYPE:Internal perimeter
;WIDTH:0.48
G1 X135.085 Y139.85 E0.19302
G1 X135.808 Y139.85 E0.03093
G1 X135.808 Y144.364 E0.19301
G1 X135.085 Y144.364 E0.03093
G1 E-0.5 F3000
; acceleration to travel
M204 S3000
G1 X129.123 Y176.473 F9000
; decel to extrusion
M204 S1000
G1 X127.136 Y187.176
; end travel
G1 E0.5 F1800
G1 X126.876 Y187.111 E0.01146
G1 X126.876 Y181.706 E0.23111
G1 X127.136 Y181.642 E0.01148
G1 X127.341 Y182.031 E0.0188
G1 X127.799 Y182.641 E0.03261
G1 X128.331 Y183.152 E0.03157
G1 X128.675 Y183.41 E0.01837
G1 X129.314 Y183.78 E0.03157
G1 X130.028 Y184.05 E0.03261
G1 X130.775 Y184.203 E0.03261
G1 X131.537 Y184.233 E0.03261
G1 X132.27 Y184.144 E0.03157
G1 X132.687 Y184.041 E0.01837
G1 X133.378 Y183.78 E0.03157
G1 X134.038 Y183.398 E0.03261
G1 X134.629 Y182.916 E0.03261
G1 X135.135 Y182.345 E0.03261
G1 X135.562 Y181.669 E0.03421
G1 X135.81 Y181.74 E0.01101
G1 X135.808 Y187.106 E0.2294
G1 X135.557 Y187.176 E0.01114
G1 X135.344 Y186.821 E0.01769
G1 X135.018 Y186.392 E0.02306
G1 X134.475 Y185.849 E0.03284
G1 X133.851 Y185.4 E0.03284
G1 X133.374 Y185.148 E0.02306
G1 X132.888 Y184.954 E0.02236
G1 X132.384 Y184.814 E0.02236
G1 X131.852 Y184.727 E0.02306
G1 X131.101 Y184.707 E0.03214
G1 X130.548 Y184.767 E0.02375
G1 X129.819 Y184.948 E0.03215
G1 X129.318 Y185.148 E0.02306
G1 X128.856 Y185.393 E0.02236
G1 X128.423 Y185.686 E0.02236
G1 X128.012 Y186.035 E0.02306
G1 X127.51 Y186.595 E0.03215
G1 X127.207 Y187.041 E0.02306
G1 X127.136 Y187.176 E0.00651
; acceleration to travel
M204 S3000
G1 X127.314 Y191.157 F9000
; decel to extrusion
M204 S1000
G1 X127.373 Y192.484
; end travel
G1 F1800
G1 X135.747 Y192.484 E0.35804
G1 X135.746 Y189.5 E0.12758
G1 X135.691 Y188.83 E0.02876
G1 X135.587 Y188.354 E0.02082
G1 X135.435 Y187.903 E0.02037
G1 X135.235 Y187.47 E0.02038
G1 X134.989 Y187.062 E0.02038
G1 X134.694 Y186.674 E0.02082
G1 X134.196 Y186.176 E0.03011
G1 X133.624 Y185.765 E0.03011
G1 X133.194 Y185.537 E0.02082
G1 X132.751 Y185.361 E0.02037
G1 X132.292 Y185.233 E0.02038
G1 X131.812 Y185.155 E0.02082
G1 X131.118 Y185.136 E0.02966
G1 X130.624 Y185.19 E0.02127
G1 X129.95 Y185.357 E0.02966
G1 X129.498 Y185.537 E0.02082
G1 X129.077 Y185.76 E0.02038
G1 X128.682 Y186.028 E0.02037
G1 X128.311 Y186.343 E0.02082
G1 X127.848 Y186.86 E0.02966
G1 X127.575 Y187.263 E0.02082
G1 X127.352 Y187.684 E0.02037
G1 X127.175 Y188.126 E0.02038
G1 X127.048 Y188.586 E0.02038
G1 X126.971 Y189.056 E0.02037
G1 X126.946 Y189.511 E0.01948
G1 X126.944 Y192.484 E0.12713
G1 X127.373 Y192.484 E0.01833
G1 X127.373 Y192.056 F9000
;TYPE:External perimeter
G1 F1800
G1 X135.319 Y192.056 E0.33972
G1 X135.318 Y189.518 E0.10851
G1 X135.267 Y188.894 E0.02678
G1 X135.173 Y188.469 E0.01859
G1 X135.036 Y188.062 E0.01839
G1 X134.855 Y187.671 E0.01839
G1 X134.634 Y187.303 E0.01839
G1 X134.371 Y186.957 E0.01859
G1 X133.918 Y186.504 E0.02737
G1 X133.398 Y186.13 E0.02737
G1 X133.014 Y185.927 E0.01859
G1 X132.614 Y185.768 E0.01839
G1 X132.2 Y185.652 E0.01839
G1 X131.771 Y185.582 E0.01859
G1 X131.136 Y185.565 E0.02718
G1 X130.699 Y185.612 E0.01878
G1 X130.082 Y185.766 E0.02718
G1 X129.678 Y185.927 E0.01859
G1 X129.298 Y186.128 E0.01839
G1 X128.942 Y186.37 E0.01839
G1 X128.611 Y186.651 E0.01859
G1 X128.186 Y187.124 E0.02718
G1 X127.942 Y187.484 E0.01859
G1 X127.741 Y187.864 E0.01839
G1 X127.582 Y188.263 E0.01839
G1 X127.467 Y188.678 E0.01839
G1 X127.397 Y189.102 E0.01839
G1 X127.374 Y189.522 E0.01799
G1 X127.373 Y192.056 E0.10831
;WIPE_START
M204 S4000
G1 X127.373 Y192.456 F9000
;WIPE_END
; acceleration to travel
M204 S3000
G1 X126.679 Y192.963
; decel to extrusion
M204 S1000
G1 X126.447 Y193.131
; end travel
;TYPE:Internal perimeter
G1 F1800
G1 X126.447 Y143.193 E2.13514
G1 X127.039 Y143.193 E0.02532
G1 X127.039 Y144.195 E0.04287
G1 X127.039 Y179.514 E1.51006
G1 X127.053 Y179.86 E0.01483
G1 X127.162 Y180.529 E0.02899
G1 X127.382 Y181.187 E0.02965
G1 X127.704 Y181.801 E0.02965
G1 X128.121 Y182.356 E0.02965
G1 X128.609 Y182.825 E0.02898
G1 X128.912 Y183.052 E0.01616
G1 X129.499 Y183.391 E0.02898
G1 X130.147 Y183.637 E0.02965
G1 X130.827 Y183.776 E0.02965
G1 X131.519 Y183.804 E0.02965
G1 X132.192 Y183.722 E0.02899
G1 X132.559 Y183.632 E0.01616
G1 X133.193 Y183.391 E0.02898
G1 X133.794 Y183.044 E0.02965
G1 X134.331 Y182.606 E0.02965
G1 X134.791 Y182.087 E0.02965
G1 X135.161 Y181.501 E0.02965
G1 X135.433 Y180.863 E0.02965
G1 X135.599 Y180.189 E0.02965
G1 X135.653 Y179.529 E0.02832
G1 X135.653 Y151.214 E1.21064
M73 P2 R41
G1 X136.245 Y151.212 E0.02532
G1 X136.236 Y193.131 E1.79228
G1 X126.447 Y193.131 E0.41851
G1 X126.038 Y193.56 F9000
;TYPE:External perimeter
G1 F1800
G1 X126.019 Y193.436 E0.00536
G1 X126.019 Y143.276 E2.14464
G1 X126.069 Y142.765 E0.02195
G1 X127.468 Y142.764 E0.05983
G1 X127.468 Y143.791 E0.04393
G1 X134.656 Y143.791 E0.30734
G1 X134.656 Y139.421 E0.18684
G1 X136.191 Y139.421 E0.06564
G1 X136.22 Y139.748 E0.01404
G1 X136.237 Y139.938 E0.00812
G1 X136.237 Y144.276 E0.18549
G1 X136.186 Y144.792 E0.02219
G1 X127.468 Y144.795 E0.37275
M73 P2 R40
G1 X127.468 Y179.505 E1.48405
G1 X127.48 Y179.817 E0.01335
G1 X127.58 Y180.426 E0.0264
G1 X127.777 Y181.019 E0.02669
G1 X128.067 Y181.571 E0.02669
G1 X128.442 Y182.071 E0.02669
G1 X128.888 Y182.498 E0.0264
G1 X129.148 Y182.694 E0.01394
G1 X129.683 Y183.003 E0.0264
G1 X130.267 Y183.224 E0.02669
G1 X130.878 Y183.349 E0.02669
G1 X131.502 Y183.374 E0.02669
G1 X132.115 Y183.3 E0.0264
G1 X132.432 Y183.222 E0.01394
G1 X133.009 Y183.003 E0.0264
G1 X133.55 Y182.691 E0.02669
G1 X134.033 Y182.296 E0.02669
G1 X134.447 Y181.829 E0.02669
G1 X134.781 Y181.301 E0.02669
G1 X135.026 Y180.727 E0.02669
G1 X135.175 Y180.12 E0.02669
G1 X135.224 Y179.512 E0.0261
G1 X135.224 Y151.784 E1.18552
G1 X132.306 Y151.78 E0.12476
G1 X132.348 Y151.631 E0.00663
G1 X132.456 Y151.43 E0.00977
G1 X132.599 Y151.236 E0.01028
G1 X132.762 Y151.057 E0.01037
G1 X132.944 Y150.903 E0.01017
G1 X133.146 Y150.792 E0.00987
G1 X136.619 Y150.783 E0.14849
G1 X136.646 Y150.906 E0.0054
G1 X136.673 Y151.292 E0.01653
G1 X136.664 Y193.56 E1.8072
G1 X126.038 Y193.56 E0.45431
;WIPE_START
M204 S4000
G1 X126.201 Y193.195 F9000
;WIPE_END
; acceleration to travel
M204 S3000
G1 X126.763 Y188.798
; decel to extrusion
M204 S1000
G1 X126.951 Y187.333
; end travel
;TYPE:Gap fill
;WIDTH:0.593838
G1 F1800
G1 X126.914 Y187.513 E0.00994
;WIDTH:0.568833
G1 X126.901 Y187.586 E0.00382
G1 X126.87 Y187.751 E0.00865
;WIDTH:0.467502
G1 X126.838 Y187.915 E0.00696
;WIDTH:0.407719
G1 X126.819 Y188.017 E0.00367
G1 X126.802 Y188.141 E0.00447
;WIDTH:0.356778
G1 X126.785 Y188.265 E0.00383
;WIDTH:0.311549
G1 X126.768 Y188.39 E0.00326
;WIDTH:0.26622
G1 X126.75 Y188.526 E0.00294
G1 X126.73 Y188.775 E0.00535
;WIDTH:0.182714
G1 X126.71 Y189.024 E0.00327
G1 X126.703 Y189.267 E0.00318
;WIDTH:0.156401
G1 X126.696 Y189.505 E0.0025
G1 X126.696 Y191.093 E0.01662
G1 X126.696 Y192.681 E0.01662
;WIDTH:0.224728
G1 X126.771 Y192.808 E0.00254
;WIDTH:0.304822
G1 X135.912 Y192.808 E0.23106
;WIDTH:0.218761
G1 X135.992 Y192.681 E0.0025
;WIDTH:0.145686
G1 X135.991 Y189.492 E0.02997
G1 X135.977 Y189.141 E0.0033
;WIDTH:0.204568
G1 X135.963 Y188.794 E0.0053
G1 X135.962 Y188.784 E0.00016
G1 X135.948 Y188.656 E0.00196
;WIDTH:0.243222
G1 X135.934 Y188.528 E0.00246
;WIDTH:0.280315
G1 X135.921 Y188.401 E0.00293
;WIDTH:0.31762
G1 X135.905 Y188.258 E0.0038
G1 X135.888 Y188.159 E0.00268
;WIDTH:0.362206
G1 X135.872 Y188.059 E0.00313
;WIDTH:0.403047
G1 X135.856 Y187.96 E0.00354
;WIDTH:0.443889
G1 X135.839 Y187.86 E0.00395
;WIDTH:0.485635
G1 X135.819 Y187.737 E0.00542
;WIDTH:0.527967
G1 X135.785 Y187.582 E0.00754
;WIDTH:0.562096
G1 X135.753 Y187.458 E0.0065
;WIDTH:0.613155
G1 X135.722 Y187.334 E0.00716
; acceleration to travel
M204 S3000
G1 X135.457 Y183.471 F9000
; decel to extrusion
M204 S1000
G1 X135.356 Y182
; end travel
;TYPE:Solid infill
;WIDTH:0.472663
G1 F3600
G1 X135.561 Y182.205 E0.0122
G1 X135.561 Y182.81 E0.02551
G1 X135.203 Y182.452 E0.02132
G1 X134.919 Y182.774 E0.01808
G1 X135.561 Y183.416 E0.03821
G1 X135.561 Y184.022 E0.02551
G1 X134.635 Y183.097 E0.0551
G1 X134.351 Y183.419 E0.01808
G1 X135.56 Y184.628 E0.072
G1 X135.56 Y185.234 E0.02551
G1 X134 Y183.673 E0.09293
G1 X133.545 Y183.825 E0.02017
G1 X135.56 Y185.84 E0.11997
G1 X135.56 Y186.445 E0.02551
G1 X133.091 Y183.976 E0.14701
G1 X132.637 Y184.128 E0.02017
G1 X133.41 Y184.902 E0.04606
G1 X132.658 Y184.756 E0.03224
G1 X132.037 Y184.134 E0.03701
; acceleration to travel
M204 S3000
G1 X130.897 Y184.647 F9000
; decel to extrusion
M204 S1000
G1 X130.518 Y184.818
; end travel
G1 F3600
G1 X129.84 Y184.141 E0.04032
G1 X129.199 Y184.01 E0.02755
G1 X128.359 Y183.266 E0.04725
G1 X129.906 Y184.812 E0.09208
G1 X129.442 Y184.954 E0.02043
G1 X127.124 Y182.636 E0.13799
G1 X127.124 Y183.242 E0.02551
G1 X128.978 Y185.096 E0.11036
G1 X128.721 Y185.174 E0.01128
G1 X128.588 Y185.312 E0.00809
G1 X127.124 Y183.848 E0.08717
G1 X127.124 Y184.454 E0.02551
G1 X128.291 Y185.621 E0.06946
G1 X127.993 Y185.929 E0.01804
G1 X127.124 Y185.06 E0.05174
G1 X127.124 Y185.666 E0.02551
G1 X127.696 Y186.238 E0.03403
G1 X127.398 Y186.546 E0.01804
G1 X126.94 Y186.088 E0.02728
; acceleration to travel
M204 S3000
G1 X127.871 Y183.843 F9000
; decel to extrusion
M204 S1000
G1 X128.143 Y183.188
; end travel
;TYPE:Gap fill
;WIDTH:0.287495
G1 F1800
G1 X128.059 Y183.108 E0.00274
G1 X127.645 Y182.719 E0.01337
;WIDTH:0.215318
G1 X127.231 Y182.33 E0.00928
G1 X127.153 Y182.259 E0.00172
; acceleration to travel
M204 S3000
G1 X129.54 Y183.818 F9000
; decel to extrusion
M204 S1000
G1 X130.335 Y184.337
; end travel
;WIDTH:0.276959
G1 F1800
G1 X130.414 Y184.362 E0.00187
G1 X130.543 Y184.402 E0.00303
;WIDTH:0.361736
G1 X130.672 Y184.442 E0.00417
G1 X130.871 Y184.433 E0.00617
;WIDTH:0.221887
G1 X131.07 Y184.424 E0.00339
;WIDTH:0.178621
G1 X131.101 Y184.426 E0.00039
G1 X131.32 Y184.469 E0.00283
G1 X131.538 Y184.513 E0.00283
G1 X131.57 Y184.515 E0.00041
;WIDTH:0.219541
G1 X131.764 Y184.502 E0.00325
;WIDTH:0.322161
G1 X131.893 Y184.494 E0.00349
G1 X131.999 Y184.524 E0.00298
;WIDTH:0.254909
G1 X132.181 Y184.577 E0.00385
; acceleration to travel
M204 S3000
G1 X128.258 Y182.258 F9000
; decel to extrusion
M204 S1000
G1 X126.951 Y181.485
; end travel
;WIDTH:0.620782
G1 F1800
G1 X126.925 Y181.341 E0.00828
;WIDTH:0.584074
G1 X126.908 Y181.223 E0.00632
G1 X126.892 Y181.124 E0.00533
;WIDTH:0.540665
G1 X126.876 Y181.025 E0.00489
;WIDTH:0.502072
G1 X126.86 Y180.927 E0.00451
;WIDTH:0.463479
G1 X126.844 Y180.828 E0.00412
;WIDTH:0.424886
G1 X126.828 Y180.729 E0.00373
;WIDTH:0.385651
G1 X126.808 Y180.603 E0.00424
G1 X126.794 Y180.427 E0.0059
;WIDTH:0.341819
G1 X126.78 Y180.25 E0.00513
;WIDTH:0.303836
G1 X126.765 Y180.074 E0.00446
;WIDTH:0.265814
G1 X126.751 Y179.884 E0.00406
G1 X126.747 Y179.703 E0.00388
G1 X126.743 Y179.518 E0.00396
G1 X126.743 Y143.489 E0.77044
