; generated by SuperSlicer 2.4 on 2022-08-03 at 02:37:33 UTC


;
;

;
;
; 

; external perimeters extrusion width = 0.48mm
; perimeters extrusion width = 0.48mm
; infill extrusion width = 0.72mm
; solid infill extrusion width = 0.56mm
; top infill extrusion width = 0.40mm
; support material extrusion width = 0.42mm
; first layer extrusion width = 0.48mm

; object:{"name":"BusC_-_BusC","id":"BusC_-_BusC.stl id:0 copy 0","object_center":[165.000000,165.000000,0.000000],"boundingbox_center":[165.000000,165.000000,48.259998],"boundingbox_size":[8.000000,59.000000,96.519997]}
; plater:{"center":[165.000000,165.000000,0.000000],"boundingbox_center":[165.000000,165.000000,48.259998],"boundingbox_size":[8.000000,59.000000,96.519997]}

M73 P0 R87
;TYPE:Custom
START_PRINT T_BED=70 T_EXTRUDER=235
M107
G21 ; set units to millimeters
G90 ; use absolute coordinates
M83 ; use relative distances for extrusion
; Filament gcode
M104 S235 ; set temperature
M109 S235 ; set temperature and wait for it to be reached
M190 S70 ; set bed temperature and wait for it to be reached
M107
;LAYER_CHANGE
;Z:0.2
;HEIGHT:0.2
G1 Z0.2 F9000
G92 E0
G1 E-1 F3000
M204 S1000
G1 X157.946 Y132.156 F9000
G1 E1 F1800
;TYPE:Skirt
;WIDTH:0.52
G1 X156.826 Y133.719 E0.07626
G1 X156.43 Y135.6 E0.07626
G1 X156.43 Y194.4 E2.33256
G1 X156.677 Y195.899 E0.06028
G1 X157.656 Y197.554 E0.07626
G1 X159.219 Y198.674 E0.07626
G1 X161.1 Y199.07 E0.07626
G1 X168.9 Y199.07 E0.30942
G1 X170.399 Y198.823 E0.06028
G1 X172.054 Y197.844 E0.07626
G1 X173.174 Y196.281 E0.07626
G1 X173.57 Y194.4 E0.07626
G1 X173.57 Y135.6 E2.33256
G1 X173.323 Y134.101 E0.06028
G1 X172.344 Y132.446 E0.07626
G1 X170.781 Y131.326 E0.07626
G1 X168.9 Y130.93 E0.07626
G1 X161.1 Y130.93 E0.30942
G1 X159.601 Y131.177 E0.06028
G1 X157.946 Y132.156 E0.07626
G1 X158.348 Y132.466 F9000
G1 F1800
G1 X157.303 Y133.823 E0.06795
G1 X156.907 Y135.6 E0.07222
G1 X156.907 Y194.4 E2.33256
M73 P0 R87
G1 X157.046 Y195.469 E0.04275
G1 X157.881 Y197.086 E0.07222
G1 X159.323 Y198.197 E0.07222
G1 X161.1 Y198.593 E0.07222
G1 X168.9 Y198.593 E0.30942
G1 X169.969 Y198.454 E0.04275
G1 X171.586 Y197.619 E0.07222
G1 X172.697 Y196.177 E0.07222
G1 X173.093 Y194.4 E0.07222
G1 X173.093 Y135.6 E2.33256
G1 X172.954 Y134.531 E0.04275
G1 X172.119 Y132.914 E0.07222
G1 X170.677 Y131.803 E0.07222
G1 X168.9 Y131.407 E0.07222
G1 X161.1 Y131.407 E0.30942
G1 X160.031 Y131.546 E0.04275
G1 X158.414 Y132.381 E0.07222
G1 X158.348 Y132.466 E0.00427
G1 X158.736 Y132.791 F9000
G1 F1800
G1 X157.779 Y133.934 E0.05912
G1 X157.384 Y135.6 E0.06793
G1 X157.384 Y194.4 E2.33256
G1 X158.121 Y196.621 E0.09283
G1 X159.434 Y197.721 E0.06793
G1 X161.1 Y198.116 E0.06793
G1 X168.9 Y198.116 E0.30942
G1 X171.121 Y197.379 E0.09283
G1 X172.221 Y196.066 E0.06793
G1 X172.616 Y194.4 E0.06793
G1 X172.616 Y135.6 E2.33256
G1 X171.879 Y133.379 E0.09283
G1 X170.566 Y132.279 E0.06793
G1 X168.9 Y131.884 E0.06793
G1 X161.1 Y131.884 E0.30942
G1 X158.879 Y132.621 E0.09283
G1 X158.736 Y132.791 E0.00881
G1 X159.106 Y133.134 F9000
G1 F1800
G1 X158.255 Y134.052 E0.04965
G1 X157.861 Y135.6 E0.06336
G1 X157.861 Y194.4 E2.33256
G1 X158.381 Y196.159 E0.07276
G1 X159.552 Y197.245 E0.06336
G1 X161.1 Y197.639 E0.06336
G1 X168.9 Y197.639 E0.30942
G1 X170.659 Y197.119 E0.07276
G1 X171.745 Y195.948 E0.06336
G1 X172.139 Y194.4 E0.06336
G1 X172.139 Y135.6 E2.33256
G1 X171.619 Y133.841 E0.07276
G1 X170.448 Y132.755 E0.06336
G1 X168.9 Y132.361 E0.06336
G1 X161.1 Y132.361 E0.30942
G1 X159.341 Y132.881 E0.07276
G1 X159.106 Y133.134 E0.01371
G1 E-1 F3000
; printing object BusC_-_BusC.stl id:0 copy 0
; acceleration to travel
M204 S3000
G1 X161.765 Y136.147 F9000
; decel to extrusion
M204 S1000
G1 X162.651 Y137.151
; end travel
G1 E1 F1800
;TYPE:Internal perimeter
;WIDTH:0.48
G1 X167.349 Y137.151 E0.17072
G1 X167.349 Y192.849 E2.02423
G1 X162.651 Y192.849 E0.17072
G1 X162.651 Y137.151 E2.02423
G1 X162.214 Y136.714 F9000
G1 F1800
G1 X167.786 Y136.714 E0.20249
G1 X167.786 Y193.286 E2.056
G1 X162.214 Y193.286 E0.20249
G1 X162.214 Y136.714 E2.056
G1 X161.777 Y136.277 F9000
G1 F1800
G1 X168.223 Y136.277 E0.23426
G1 X168.223 Y193.723 E2.08777
M73 P1 R87
G1 X161.777 Y193.723 E0.23426
G1 X161.777 Y136.277 E2.08777
G1 X161.34 Y135.84 F9000
;TYPE:External perimeter
G1 F1800
G1 X168.66 Y135.84 E0.26603
G1 X168.66 Y194.16 E2.11954
G1 X161.34 Y194.16 E0.26603
G1 X161.34 Y135.84 E2.11954
;WIPE_START
M204 S4000
G1 X161.686 Y136.04 F9000
;WIPE_END
G1 E-1 F3000
; acceleration to travel
M204 S3000
G1 X165.099 Y136.892 F9000
; decel to extrusion
M204 S1000
G1 X166.4 Y137.217
; end travel
G1 E1 F1800
;TYPE:Solid infill
;WIDTH:0.463243
G1 F3600
G1 X167.095 Y137.912 E0.0345
G1 X167.095 Y138.531 E0.02168
G1 X165.969 Y137.405 E0.05584
G1 X165.351 Y137.405 E0.02168
G1 X167.095 Y139.149 E0.0865
G1 X167.095 Y139.767 E0.02168
G1 X164.733 Y137.405 E0.11716
G1 X164.115 Y137.405 E0.02168
G1 X167.095 Y140.385 E0.14782
G1 X167.095 Y141.003 E0.02168
G1 X163.497 Y137.405 E0.17848
G1 X162.905 Y137.405 E0.02077
G1 X162.905 Y137.431 E0.00091
G1 X167.095 Y141.621 E0.20786
G1 X167.095 Y142.239 E0.02168
G1 X162.905 Y138.049 E0.20786
G1 X162.905 Y138.667 E0.02168
G1 X167.095 Y142.857 E0.20786
G1 X167.095 Y143.475 E0.02168
G1 X162.905 Y139.285 E0.20786
G1 X162.905 Y139.903 E0.02168
G1 X167.095 Y144.094 E0.20786
G1 X167.095 Y144.712 E0.02168
G1 X162.905 Y140.521 E0.20786
G1 X162.905 Y141.139 E0.02168
G1 X167.095 Y145.33 E0.20786
G1 X167.095 Y145.948 E0.02168
G1 X162.905 Y141.757 E0.20786
G1 X162.905 Y142.376 E0.02168
G1 X167.095 Y146.566 E0.20786
G1 X167.095 Y147.184 E0.02168
G1 X162.905 Y142.994 E0.20786
G1 X162.905 Y143.612 E0.02168
G1 X167.095 Y147.802 E0.20786
G1 X167.095 Y148.42 E0.02168
G1 X162.905 Y144.23 E0.20786
G1 X162.905 Y144.848 E0.02168
G1 X167.095 Y149.039 E0.20786
G1 X167.095 Y149.657 E0.02168
G1 X162.905 Y145.466 E0.20786
G1 X162.905 Y146.084 E0.02168
G1 X167.095 Y150.275 E0.20786
G1 X167.095 Y150.893 E0.02168
G1 X162.905 Y146.702 E0.20786
G1 X162.905 Y147.321 E0.02168
G1 X167.095 Y151.511 E0.20786
G1 X167.095 Y152.129 E0.02168
G1 X162.905 Y147.939 E0.20786
G1 X162.905 Y148.557 E0.02168
G1 X167.095 Y152.747 E0.20786
G1 X167.095 Y153.365 E0.02168
G1 X162.905 Y149.175 E0.20786
G1 X162.905 Y149.793 E0.02168
G1 X167.095 Y153.984 E0.20786
G1 X167.095 Y154.602 E0.02168
G1 X162.905 Y150.411 E0.20786
G1 X162.905 Y151.029 E0.02168
G1 X167.095 Y155.22 E0.20786
G1 X167.095 Y155.838 E0.02168
G1 X162.905 Y151.647 E0.20786
G1 X162.905 Y152.266 E0.02168
G1 X167.095 Y156.456 E0.20786
G1 X167.095 Y157.074 E0.02168
G1 X162.905 Y152.884 E0.20786
G1 X162.905 Y153.502 E0.02168
G1 X167.095 Y157.692 E0.20786
G1 X167.095 Y158.31 E0.02168
G1 X162.905 Y154.12 E0.20786
G1 X162.905 Y154.738 E0.02168
G1 X167.095 Y158.929 E0.20786
G1 X167.095 Y159.547 E0.02168
G1 X162.905 Y155.356 E0.20786
G1 X162.905 Y155.974 E0.02168
G1 X167.095 Y160.165 E0.20786
G1 X167.095 Y160.783 E0.02168
G1 X162.905 Y156.592 E0.20786
G1 X162.905 Y157.21 E0.02168
G1 X167.095 Y161.401 E0.20786
G1 X167.095 Y162.019 E0.02168
G1 X162.905 Y157.829 E0.20786
G1 X162.905 Y158.447 E0.02168
G1 X167.095 Y162.637 E0.20786
G1 X167.095 Y163.255 E0.02168
G1 X162.905 Y159.065 E0.20786
G1 X162.905 Y159.683 E0.02168
G1 X167.095 Y163.874 E0.20786
G1 X167.095 Y164.492 E0.02168
G1 X162.905 Y160.301 E0.20786
G1 X162.905 Y160.919 E0.02168
G1 X167.095 Y165.11 E0.20786
G1 X167.095 Y165.728 E0.02168
G1 X162.905 Y161.537 E0.20786
G1 X162.905 Y162.155 E0.02168
G1 X167.095 Y166.346 E0.20786
G1 X167.095 Y166.964 E0.02168
G1 X162.905 Y162.774 E0.20786
G1 X162.905 Y163.392 E0.02168
G1 X167.095 Y167.582 E0.20786
G1 X167.095 Y168.2 E0.02168
G1 X162.905 Y164.01 E0.20786
G1 X162.905 Y164.628 E0.02168
G1 X167.095 Y168.819 E0.20786
G1 X167.095 Y169.437 E0.02168
G1 X162.905 Y165.246 E0.20786
G1 X162.905 Y165.864 E0.02168
G1 X167.095 Y170.055 E0.20786
G1 X167.095 Y170.673 E0.02168
G1 X162.905 Y166.482 E0.20786
G1 X162.905 Y167.1 E0.02168
G1 X167.095 Y171.291 E0.20786
G1 X167.095 Y171.909 E0.02168
G1 X162.905 Y167.719 E0.20786
G1 X162.905 Y168.337 E0.02168
G1 X167.095 Y172.527 E0.20786
G1 X167.095 Y173.145 E0.02168
G1 X162.905 Y168.955 E0.20786
G1 X162.905 Y169.573 E0.02168
G1 X167.095 Y173.764 E0.20786
G1 X167.095 Y174.382 E0.02168
G1 X162.905 Y170.191 E0.20786
G1 X162.905 Y170.809 E0.02168
G1 X167.095 Y175 E0.20786
G1 X167.095 Y175.618 E0.02168
G1 X162.905 Y171.427 E0.20786
G1 X162.905 Y172.045 E0.02168
G1 X167.095 Y176.236 E0.20786
G1 X167.095 Y176.854 E0.02168
G1 X162.905 Y172.664 E0.20786
G1 X162.905 Y173.282 E0.02168
G1 X167.095 Y177.472 E0.20786
G1 X167.095 Y178.09 E0.02168
G1 X162.905 Y173.9 E0.20786
G1 X162.905 Y174.518 E0.02168
G1 X167.095 Y178.709 E0.20786
G1 X167.095 Y179.327 E0.02168
G1 X162.905 Y175.136 E0.20786
G1 X162.905 Y175.754 E0.02168
G1 X167.095 Y179.945 E0.20786
G1 X167.095 Y180.563 E0.02168
G1 X162.905 Y176.372 E0.20786
G1 X162.905 Y176.99 E0.02168
G1 X167.095 Y181.181 E0.20786
G1 X167.095 Y181.799 E0.02168
G1 X162.905 Y177.609 E0.20786
G1 X162.905 Y178.227 E0.02168
G1 X167.095 Y182.417 E0.20786
G1 X167.095 Y183.035 E0.02168
G1 X162.905 Y178.845 E0.20786
G1 X162.905 Y179.463 E0.02168
G1 X167.095 Y183.653 E0.20786
G1 X167.095 Y184.272 E0.02168
G1 X162.905 Y180.081 E0.20786
G1 X162.905 Y180.699 E0.02168
G1 X167.095 Y184.89 E0.20786
G1 X167.095 Y185.508 E0.02168
G1 X162.905 Y181.317 E0.20786
G1 X162.905 Y181.935 E0.02168
G1 X167.095 Y186.126 E0.20786
G1 X167.095 Y186.744 E0.02168
G1 X162.905 Y182.554 E0.20786
G1 X162.905 Y183.172 E0.02168
G1 X167.095 Y187.362 E0.20786
G1 X167.095 Y187.98 E0.02168
G1 X162.905 Y183.79 E0.20786
G1 X162.905 Y184.408 E0.02168
G1 X167.095 Y188.598 E0.20786
G1 X167.095 Y189.217 E0.02168
G1 X162.905 Y185.026 E0.20786
G1 X162.905 Y185.644 E0.02168
G1 X167.095 Y189.835 E0.20786
G1 X167.095 Y190.453 E0.02168
G1 X162.905 Y186.262 E0.20786
G1 X162.905 Y186.88 E0.02168
G1 X167.095 Y191.071 E0.20786
G1 X167.095 Y191.689 E0.02168
G1 X162.905 Y187.499 E0.20786
G1 X162.905 Y188.117 E0.02168
G1 X167.095 Y192.307 E0.20786
G1 X167.095 Y192.595 E0.0101
G1 X166.765 Y192.595 E0.01158
G1 X162.905 Y188.735 E0.19149
G1 X162.905 Y189.353 E0.02168
G1 X166.147 Y192.595 E0.16083
G1 X165.529 Y192.595 E0.02168
G1 X162.905 Y189.971 E0.13017
G1 X162.905 Y190.589 E0.02168
G1 X164.911 Y192.595 E0.09951
G1 X164.293 Y192.595 E0.02168
G1 X162.905 Y191.207 E0.06885
G1 X162.905 Y191.825 E0.02168
G1 X163.675 Y192.595 E0.03819
G1 X163.056 Y192.595 E0.02168
G1 X162.717 Y192.256 E0.01685
;LAYER_CHANGE
;Z:0.4
;HEIGHT:0.2
; stop printing object BusC_-_BusC.stl id:0 copy 0
M204 S4000
G1 Z0.4 F9000
G92 E0
; printing object BusC_-_BusC.stl id:0 copy 0
M204 S3000
G1 X162.618 Y192.882
;TYPE:Internal perimeter
;WIDTH:0.48
G1 F4800
G1 X162.618 Y137.118 E2.02666
G1 X167.382 Y137.118 E0.17315
G1 X167.382 Y192.882 E2.02666
G1 X162.618 Y192.882 E0.17315
G1 X162.181 Y193.319 F9000
G1 F4800
G1 X162.181 Y136.681 E2.05843
G1 X167.819 Y136.681 E0.20492
G1 X167.819 Y193.319 E2.05843
G1 X162.181 Y193.319 E0.20492
G1 X161.744 Y193.756 F9000
G1 F4800
G1 X161.744 Y136.244 E2.0902
G1 X168.256 Y136.244 E0.23669
G1 X168.256 Y193.756 E2.0902
G1 X161.744 Y193.756 E0.23669
; acceleration to travel
G1 X161.488 Y194.012 F9000
; decel to extrusion
M204 S2500
G1 X161.307 Y194.193
; end travel
;TYPE:External perimeter
G1 F3600
G1 X161.307 Y135.807 E2.12197
G1 X168.693 Y135.807 E0.26846
G1 X168.693 Y194.193 E2.12197
G1 X161.307 Y194.193 E0.26846
;WIPE_START
M204 S4000
G1 X161.507 Y193.847 F9000
;WIPE_END
M204 S3000
G1 X166.283 Y192.829
;TYPE:Solid infill
;WIDTH:0.536648
G1 F4800
G1 X167.106 Y192.006 E0.04795
G1 X167.106 Y191.274 E0.03013
G1 X165.774 Y192.606 E0.0776
G1 X165.043 Y192.606 E0.03013
G1 X167.106 Y190.543 E0.12021
G1 X167.106 Y189.812 E0.03013
G1 X164.312 Y192.606 E0.16282
G1 X163.581 Y192.606 E0.03013
G1 X167.106 Y189.081 E0.20543
G1 X167.106 Y188.349 E0.03013
G1 X162.894 Y192.562 E0.24545
G1 X162.894 Y191.83 E0.03013
G1 X167.106 Y187.618 E0.24545
G1 X167.106 Y186.887 E0.03013
G1 X162.894 Y191.099 E0.24545
G1 X162.894 Y190.368 E0.03013
G1 X167.106 Y186.156 E0.24545
G1 X167.106 Y185.424 E0.03013
G1 X162.894 Y189.637 E0.24545
G1 X162.894 Y188.905 E0.03013
G1 X167.106 Y184.693 E0.24545
G1 X167.106 Y183.962 E0.03013
G1 X162.894 Y188.174 E0.24545
G1 X162.894 Y187.443 E0.03013
G1 X167.106 Y183.231 E0.24545
G1 X167.106 Y182.499 E0.03013
G1 X162.894 Y186.712 E0.24545
G1 X162.894 Y185.98 E0.03013
G1 X167.106 Y181.768 E0.24545
G1 X167.106 Y181.037 E0.03013
G1 X162.894 Y185.249 E0.24545
G1 X162.894 Y184.518 E0.03013
G1 X167.106 Y180.305 E0.24545
G1 X167.106 Y179.574 E0.03013
G1 X162.894 Y183.787 E0.24545
G1 X162.894 Y183.055 E0.03013
G1 X167.106 Y178.843 E0.24545
G1 X167.106 Y178.112 E0.03013
G1 X162.894 Y182.324 E0.24545
G1 X162.894 Y181.593 E0.03013
G1 X167.106 Y177.38 E0.24545
G1 X167.106 Y176.649 E0.03013
G1 X162.894 Y180.862 E0.24545
G1 X162.894 Y180.13 E0.03013
G1 X167.106 Y175.918 E0.24545
G1 X167.106 Y175.187 E0.03013
G1 X162.894 Y179.399 E0.24545
G1 X162.894 Y178.668 E0.03013
G1 X167.106 Y174.455 E0.24545
G1 X167.106 Y173.724 E0.03013
G1 X162.894 Y177.937 E0.24545
G1 X162.894 Y177.205 E0.03013
G1 X167.106 Y172.993 E0.24545
G1 X167.106 Y172.262 E0.03013
G1 X162.894 Y176.474 E0.24545
G1 X162.894 Y175.743 E0.03013
G1 X167.106 Y171.53 E0.24545
G1 X167.106 Y170.799 E0.03013
G1 X162.894 Y175.011 E0.24545
G1 X162.894 Y174.28 E0.03013
G1 X167.106 Y170.068 E0.24545
G1 X167.106 Y169.337 E0.03013
G1 X162.894 Y173.549 E0.24545
G1 X162.894 Y172.818 E0.03013
G1 X167.106 Y168.605 E0.24545
G1 X167.106 Y167.874 E0.03013
G1 X162.894 Y172.086 E0.24545
G1 X162.894 Y171.355 E0.03013
G1 X167.106 Y167.143 E0.24545
G1 X167.106 Y166.412 E0.03013
G1 X162.894 Y170.624 E0.24545
G1 X162.894 Y169.893 E0.03013
G1 X167.106 Y165.68 E0.24545
G1 X167.106 Y164.949 E0.03013
G1 X162.894 Y169.161 E0.24545
G1 X162.894 Y168.43 E0.03013
G1 X167.106 Y164.218 E0.24545
G1 X167.106 Y163.486 E0.03013
G1 X162.894 Y167.699 E0.24545
G1 X162.894 Y166.968 E0.03013
G1 X167.106 Y162.755 E0.24545
G1 X167.106 Y162.024 E0.03013
G1 X162.894 Y166.236 E0.24545
G1 X162.894 Y165.505 E0.03013
G1 X167.106 Y161.293 E0.24545
G1 X167.106 Y160.561 E0.03013
G1 X162.894 Y164.774 E0.24545
G1 X162.894 Y164.043 E0.03013
G1 X167.106 Y159.83 E0.24545
G1 X167.106 Y159.099 E0.03013
G1 X162.894 Y163.311 E0.24545
G1 X162.894 Y162.58 E0.03013
G1 X167.106 Y158.368 E0.24545
G1 X167.106 Y157.636 E0.03013
G1 X162.894 Y161.849 E0.24545
G1 X162.894 Y161.118 E0.03013
G1 X167.106 Y156.905 E0.24545
G1 X167.106 Y156.174 E0.03013
G1 X162.894 Y160.386 E0.24545
G1 X162.894 Y159.655 E0.03013
G1 X167.106 Y155.443 E0.24545
G1 X167.106 Y154.711 E0.03013
G1 X162.894 Y158.924 E0.24545
G1 X162.894 Y158.193 E0.03013
M73 P1 R86
G1 X167.106 Y153.98 E0.24545
G1 X167.106 Y153.249 E0.03013
G1 X162.894 Y157.461 E0.24545
G1 X162.894 Y156.73 E0.03013
G1 X167.106 Y152.518 E0.24545
G1 X167.106 Y151.786 E0.03013
G1 X162.894 Y155.999 E0.24545
G1 X162.894 Y155.267 E0.03013
G1 X167.106 Y151.055 E0.24545
G1 X167.106 Y150.324 E0.03013
G1 X162.894 Y154.536 E0.24545
G1 X162.894 Y153.805 E0.03013
G1 X167.106 Y149.593 E0.24545
G1 X167.106 Y148.861 E0.03013
G1 X162.894 Y153.074 E0.24545
G1 X162.894 Y152.342 E0.03013
G1 X167.106 Y148.13 E0.24545
G1 X167.106 Y147.399 E0.03013
G1 X162.894 Y151.611 E0.24545
G1 X162.894 Y150.88 E0.03013
G1 X167.106 Y146.668 E0.24545
G1 X167.106 Y145.936 E0.03013
G1 X162.894 Y150.149 E0.24545
G1 X162.894 Y149.417 E0.03013
G1 X167.106 Y145.205 E0.24545
G1 X167.106 Y144.474 E0.03013
G1 X162.894 Y148.686 E0.24545
G1 X162.894 Y147.955 E0.03013
G1 X167.106 Y143.742 E0.24545
G1 X167.106 Y143.011 E0.03013
G1 X162.894 Y147.224 E0.24545
G1 X162.894 Y146.492 E0.03013
G1 X167.106 Y142.28 E0.24545
G1 X167.106 Y141.549 E0.03013
G1 X162.894 Y145.761 E0.24545
G1 X162.894 Y145.03 E0.03013
G1 X167.106 Y140.817 E0.24545
G1 X167.106 Y140.086 E0.03013
G1 X162.894 Y144.299 E0.24545
G1 X162.894 Y143.567 E0.03013
G1 X167.106 Y139.355 E0.24545
G1 X167.106 Y138.624 E0.03013
G1 X162.894 Y142.836 E0.24545
G1 X162.894 Y142.105 E0.03013
G1 X167.106 Y137.892 E0.24545
G1 X167.106 Y137.394 E0.02054
G1 X166.874 Y137.394 E0.00959
