; generated by SuperSlicer 2.4 on 2022-07-18 at 17:36:15 UTC


;
;

;
;
; 

; external perimeters extrusion width = 0.40mm
; perimeters extrusion width = 0.48mm
; infill extrusion width = 0.72mm
; solid infill extrusion width = 0.56mm
; top infill extrusion width = 0.40mm
; support material extrusion width = 0.40mm
; first layer extrusion width = 0.48mm

; object:{"name":"ICT","id":"ICT.stl id:0 copy 0","object_center":[165.000000,165.000000,0.000000],"boundingbox_center":[165.000000,165.000000,3.175000],"boundingbox_size":[66.000000,98.000000,6.349999]}
; plater:{"center":[165.000000,165.000000,0.000000],"boundingbox_center":[165.000000,165.000000,3.175000],"boundingbox_size":[66.000000,98.000000,6.349999]}

M73 P0 R23
;TYPE:Custom
START_PRINT T_BED=60 T_EXTRUDER=200
M107
G21 ; set units to millimeters
G90 ; use absolute coordinates
M83 ; use relative distances for extrusion
; Filament gcode
M104 S200 ; set temperature
M109 S200 ; set temperature and wait for it to be reached
M190 S60 ; set bed temperature and wait for it to be reached
M107
;LAYER_CHANGE
;Z:0.24
;HEIGHT:0.24
G1 Z0.24 F9000
G92 E0
M73 P1 R23
G1 E-0.8 F3000
M204 S1000
G1 X131.895 Y115.13 F9000
G1 E0.8 F1800
;TYPE:Skirt
;WIDTH:0.52
G1 X130.795 Y116.437 E0.07828
G1 X130.4 Y118.1 E0.07828
G1 X130.4 Y211.9 E4.29714
G1 X131.13 Y214.105 E0.10641
G1 X132.437 Y215.205 E0.07828
G1 X134.1 Y215.6 E0.07828
G1 X195.9 Y215.6 E2.83117
G1 X198.105 Y214.87 E0.10641
G1 X199.205 Y213.563 E0.07828
G1 X199.6 Y211.9 E0.07828
G1 X199.6 Y118.1 E4.29714
M73 P2 R23
G1 X198.87 Y115.895 E0.10641
G1 X197.563 Y114.795 E0.07828
G1 X195.9 Y114.4 E0.07828
G1 X134.1 Y114.4 E2.83117
G1 X131.895 Y115.13 E0.10641
G1 X132.264 Y115.472 F9000
G1 F1800
G1 X131.261 Y116.554 E0.06757
G1 X130.867 Y118.1 E0.07311
G1 X130.867 Y211.9 E4.29714
G1 X131.384 Y213.654 E0.08377
G1 X132.554 Y214.739 E0.07311
G1 X134.1 Y215.133 E0.07311
G1 X195.9 Y215.133 E2.83117
G1 X197.654 Y214.616 E0.08377
G1 X198.739 Y213.446 E0.07311
G1 X199.133 Y211.9 E0.07311
G1 X199.133 Y118.1 E4.29714
G1 X198.616 Y116.346 E0.08377
G1 X197.446 Y115.261 E0.07311
G1 X195.9 Y114.867 E0.07311
G1 X134.1 Y114.867 E2.83117
M73 P3 R23
G1 X132.346 Y115.384 E0.08377
G1 X132.264 Y115.472 E0.00553
G1 E-0.8 F3000
; printing object ICT.stl id:0 copy 0
; acceleration to travel
M204 S3000
G1 X142.476 Y125.72 F9000
; decel to extrusion
M204 S1000
G1 X145.88 Y129.136
; end travel
G1 E0.8 F1800
;TYPE:Internal perimeter
;WIDTH:0.48
G1 X145.845 Y129.164 E0.00188
G1 X145.164 Y129.845 E0.04034
G1 X144.558 Y130.593 E0.04034
G1 X144.034 Y131.401 E0.04034
G1 X143.597 Y132.259 E0.04034
G1 X143.252 Y133.157 E0.04034
G1 X143.002 Y134.087 E0.04034
G1 X142.852 Y135.038 E0.04034
G1 X142.803 Y135.969 E0.03903
G1 X142.803 Y194.031 E2.43285
G1 X142.852 Y194.962 E0.03903
G1 X143.002 Y195.913 E0.04034
G1 X143.252 Y196.843 E0.04034
G1 X143.597 Y197.741 E0.04034
G1 X144.034 Y198.599 E0.04034
G1 X144.558 Y199.407 E0.04034
G1 X145.164 Y200.155 E0.04034
G1 X145.845 Y200.836 E0.04034
G1 X146.593 Y201.442 E0.04034
G1 X147.401 Y201.966 E0.04034
G1 X148.259 Y202.403 E0.04034
G1 X149.157 Y202.748 E0.04034
G1 X150.087 Y202.998 E0.04034
G1 X151.039 Y203.148 E0.04035
G1 X151.974 Y203.197 E0.03924
G1 X178.031 Y203.197 E1.09182
G1 X178.962 Y203.148 E0.03903
G1 X179.913 Y202.998 E0.04034
G1 X180.843 Y202.748 E0.04034
G1 X181.741 Y202.403 E0.04034
G1 X182.599 Y201.966 E0.04034
G1 X183.407 Y201.442 E0.04034
G1 X184.155 Y200.836 E0.04034
G1 X184.836 Y200.155 E0.04034
G1 X185.442 Y199.407 E0.04034
G1 X185.966 Y198.599 E0.04034
G1 X186.403 Y197.741 E0.04034
G1 X186.748 Y196.843 E0.04034
G1 X186.998 Y195.913 E0.04034
G1 X187.148 Y194.962 E0.04034
G1 X187.197 Y194.031 E0.03903
G1 X187.197 Y135.969 E2.43285
M73 P3 R22
G1 X187.148 Y135.038 E0.03903
G1 X186.998 Y134.087 E0.04034
G1 X186.748 Y133.157 E0.04034
G1 X186.403 Y132.259 E0.04034
G1 X185.966 Y131.401 E0.04034
G1 X185.442 Y130.593 E0.04034
G1 X184.836 Y129.845 E0.04034
G1 X184.155 Y129.164 E0.04034
G1 X183.407 Y128.558 E0.04034
G1 X182.599 Y128.034 E0.04034
G1 X181.741 Y127.597 E0.04034
G1 X180.843 Y127.252 E0.04034
G1 X179.913 Y127.002 E0.04034
G1 X178.961 Y126.852 E0.04035
G1 X178.026 Y126.803 E0.03924
G1 X151.974 Y126.803 E1.0916
G1 X151.039 Y126.852 E0.03924
G1 X150.087 Y127.002 E0.04035
G1 X149.157 Y127.252 E0.04034
G1 X148.259 Y127.597 E0.04034
G1 X147.401 Y128.034 E0.04034
G1 X146.593 Y128.558 E0.04034
G1 X145.88 Y129.136 E0.03846
G1 X146.149 Y129.469 F9000
G1 F1800
G1 X146.132 Y129.483 E0.00094
G1 X145.483 Y130.132 E0.03846
G1 X144.905 Y130.845 E0.03846
G1 X144.405 Y131.615 E0.03846
G1 X143.989 Y132.433 E0.03846
G1 X143.66 Y133.29 E0.03846
G1 X143.422 Y134.177 E0.03846
G1 X143.278 Y135.083 E0.03846
G1 X143.232 Y135.98 E0.03762
G1 X143.232 Y194.02 E2.43191
G1 X143.278 Y194.917 E0.03762
G1 X143.422 Y195.823 E0.03846
G1 X143.66 Y196.71 E0.03846
G1 X143.989 Y197.567 E0.03846
G1 X144.405 Y198.385 E0.03846
G1 X144.905 Y199.155 E0.03846
G1 X145.483 Y199.868 E0.03846
G1 X146.132 Y200.517 E0.03846
G1 X146.845 Y201.095 E0.03846
G1 X147.615 Y201.595 E0.03846
G1 X148.433 Y202.011 E0.03846
G1 X149.29 Y202.34 E0.03846
G1 X150.177 Y202.578 E0.03846
G1 X151.083 Y202.722 E0.03847
G1 X151.985 Y202.768 E0.03783
G1 X178.02 Y202.768 E1.09088
G1 X178.917 Y202.722 E0.03762
G1 X179.823 Y202.578 E0.03846
G1 X180.71 Y202.34 E0.03846
G1 X181.567 Y202.011 E0.03846
G1 X182.385 Y201.595 E0.03846
G1 X183.155 Y201.095 E0.03846
G1 X183.868 Y200.517 E0.03846
G1 X184.517 Y199.868 E0.03846
G1 X185.095 Y199.155 E0.03846
G1 X185.595 Y198.385 E0.03846
G1 X186.011 Y197.567 E0.03846
G1 X186.34 Y196.71 E0.03846
G1 X186.578 Y195.823 E0.03846
G1 X186.722 Y194.917 E0.03846
G1 X186.768 Y194.02 E0.03762
G1 X186.768 Y135.98 E2.43191
M73 P4 R22
G1 X186.722 Y135.083 E0.03762
G1 X186.578 Y134.177 E0.03846
G1 X186.34 Y133.29 E0.03846
G1 X186.011 Y132.433 E0.03846
G1 X185.595 Y131.615 E0.03846
G1 X185.095 Y130.845 E0.03846
G1 X184.517 Y130.132 E0.03846
G1 X183.868 Y129.483 E0.03846
G1 X183.155 Y128.905 E0.03846
G1 X182.385 Y128.405 E0.03846
G1 X181.567 Y127.989 E0.03846
G1 X180.71 Y127.66 E0.03846
G1 X179.823 Y127.422 E0.03846
G1 X178.917 Y127.278 E0.03847
G1 X178.015 Y127.232 E0.03783
G1 X151.985 Y127.232 E1.09067
G1 X151.083 Y127.278 E0.03783
G1 X150.177 Y127.422 E0.03847
G1 X149.29 Y127.66 E0.03846
G1 X148.433 Y127.989 E0.03846
G1 X147.615 Y128.405 E0.03846
G1 X146.845 Y128.905 E0.03846
G1 X146.149 Y129.469 E0.03752
G1 X146.419 Y129.802 F9000
;TYPE:External perimeter
G1 F1800
G1 X145.802 Y130.419 E0.03658
G1 X145.252 Y131.098 E0.03658
G1 X144.777 Y131.83 E0.03658
G1 X144.381 Y132.608 E0.03658
G1 X144.068 Y133.423 E0.03658
G1 X143.842 Y134.266 E0.03658
G1 X143.705 Y135.128 E0.03658
G1 X143.66 Y135.991 E0.03621
G1 X143.66 Y194.009 E2.43097
G1 X143.705 Y194.872 E0.03621
G1 X143.842 Y195.734 E0.03658
G1 X144.068 Y196.577 E0.03658
G1 X144.381 Y197.392 E0.03658
G1 X144.777 Y198.17 E0.03658
G1 X145.252 Y198.902 E0.03658
G1 X145.802 Y199.581 E0.03658
G1 X146.419 Y200.198 E0.03658
G1 X147.098 Y200.748 E0.03658
G1 X147.83 Y201.223 E0.03658
G1 X148.608 Y201.619 E0.03658
G1 X149.423 Y201.932 E0.03658
G1 X150.266 Y202.158 E0.03658
G1 X151.128 Y202.295 E0.03658
G1 X151.996 Y202.34 E0.03642
G1 X178.009 Y202.34 E1.08994
G1 X178.872 Y202.295 E0.03621
G1 X179.734 Y202.158 E0.03658
G1 X180.577 Y201.932 E0.03658
G1 X181.392 Y201.619 E0.03658
G1 X182.17 Y201.223 E0.03658
G1 X182.902 Y200.748 E0.03658
G1 X183.581 Y200.198 E0.03658
G1 X184.198 Y199.581 E0.03658
G1 X184.748 Y198.902 E0.03658
G1 X185.223 Y198.17 E0.03658
G1 X185.619 Y197.392 E0.03658
G1 X185.932 Y196.577 E0.03658
G1 X186.158 Y195.734 E0.03658
G1 X186.295 Y194.872 E0.03658
G1 X186.34 Y194.009 E0.03621
G1 X186.34 Y135.991 E2.43097
G1 X186.295 Y135.128 E0.03621
G1 X186.158 Y134.266 E0.03658
G1 X185.932 Y133.423 E0.03658
G1 X185.619 Y132.608 E0.03658
G1 X185.223 Y131.83 E0.03658
G1 X184.748 Y131.098 E0.03658
G1 X184.198 Y130.419 E0.03658
G1 X183.581 Y129.802 E0.03658
G1 X182.902 Y129.252 E0.03658
G1 X182.17 Y128.777 E0.03658
G1 X181.392 Y128.381 E0.03658
G1 X180.577 Y128.068 E0.03658
G1 X179.734 Y127.842 E0.03658
G1 X178.872 Y127.705 E0.03658
G1 X178.004 Y127.66 E0.03642
G1 X151.996 Y127.66 E1.08973
G1 X151.128 Y127.705 E0.03642
G1 X150.266 Y127.842 E0.03658
G1 X149.423 Y128.068 E0.03658
G1 X148.608 Y128.381 E0.03658
G1 X147.83 Y128.777 E0.03658
G1 X147.098 Y129.252 E0.03658
G1 X146.419 Y129.802 E0.03658
;WIPE_START
M204 S4000
G1 X146.037 Y129.685 F9000
;WIPE_END
G1 E-0.8 F3000
; acceleration to travel
M204 S3000
G1 X148.861 Y121.819 F9000
; decel to extrusion
M204 S1000
G1 X149.803 Y119.197
; end travel
G1 E0.8 F1800
;TYPE:Internal perimeter
G1 X149.803 Y119.505 E0.0129
G1 X149.816 Y120.346 E0.03525
G1 X149.953 Y120.99 E0.02759
G1 X150.226 Y121.602 E0.02806
G1 X150.619 Y122.144 E0.02806
G1 X151.117 Y122.592 E0.02806
G1 X151.67 Y122.911 E0.02674
G1 X152.041 Y123.053 E0.01667
G1 X152.621 Y123.177 E0.02486
G1 X152.96 Y123.202 E0.01425
G1 X177.064 Y123.202 E1.00995
G1 X177.641 Y123.135 E0.02433
G1 X177.988 Y123.042 E0.01508
G1 X178.33 Y122.911 E0.01535
G1 X178.856 Y122.608 E0.02541
G1 X179.165 Y122.357 E0.01667
G1 X179.592 Y121.883 E0.02674
G1 X179.911 Y121.33 E0.02674
G1 X180.053 Y120.959 E0.01667
G1 X180.185 Y120.338 E0.02661
G1 X180.191 Y119.197 E0.0478
G1 X194.803 Y119.197 E0.61225
G1 X194.803 Y149.809 E1.28265
G1 X193.662 Y149.815 E0.0478
G1 X193.041 Y149.947 E0.02661
G1 X192.67 Y150.089 E0.01667
G1 X192.117 Y150.408 E0.02674
G1 X191.643 Y150.835 E0.02674
G1 X191.392 Y151.144 E0.01667
G1 X191.089 Y151.67 E0.02541
G1 X190.958 Y152.012 E0.01535
G1 X190.865 Y152.359 E0.01508
G1 X190.798 Y152.936 E0.02433
G1 X190.798 Y177.04 E1.00995
G1 X190.821 Y177.347 E0.01294
G1 X190.876 Y177.696 E0.01479
G1 X191.073 Y178.303 E0.02674
G1 X191.392 Y178.856 E0.02674
G1 X191.643 Y179.165 E0.01667
G1 X192.117 Y179.592 E0.02674
G1 X192.697 Y179.927 E0.02806
G1 X193.304 Y180.124 E0.02674
G1 X193.694 Y180.186 E0.01654
G1 X194.803 Y180.191 E0.04648
G1 X194.803 Y210.803 E1.28265
M73 P5 R22
G1 X180.191 Y210.803 E0.61225
G1 X180.185 Y209.662 E0.0478
G1 X180.053 Y209.041 E0.02661
G1 X179.911 Y208.67 E0.01667
G1 X179.608 Y208.144 E0.02541
G1 X179.357 Y207.835 E0.01667
G1 X178.883 Y207.408 E0.02674
G1 X178.33 Y207.089 E0.02674
G1 X177.988 Y206.958 E0.01535
G1 X177.641 Y206.865 E0.01508
G1 X177.064 Y206.798 E0.02432
G1 X152.96 Y206.798 E1.00995
G1 X152.621 Y206.823 E0.01425
G1 X152.041 Y206.947 E0.02486
G1 X151.67 Y207.089 E0.01667
G1 X151.144 Y207.392 E0.02541
G1 X150.835 Y207.643 E0.01667
G1 X150.408 Y208.117 E0.02674
G1 X150.089 Y208.67 E0.02674
G1 X149.947 Y209.041 E0.01667
G1 X149.815 Y209.662 E0.02661
G1 X149.809 Y210.803 E0.0478
G1 X135.197 Y210.803 E0.61225
G1 X135.197 Y180.191 E1.28265
G1 X136.338 Y180.185 E0.0478
G1 X136.959 Y180.053 E0.02661
G1 X137.33 Y179.911 E0.01667
G1 X137.883 Y179.592 E0.02674
G1 X138.357 Y179.165 E0.02674
G1 X138.608 Y178.856 E0.01667
G1 X138.911 Y178.33 E0.02541
G1 X139.042 Y177.988 E0.01535
G1 X139.135 Y177.641 E0.01508
G1 X139.202 Y177.064 E0.02433
G1 X139.202 Y152.96 E1.00995
G1 X139.179 Y152.653 E0.01294
G1 X139.124 Y152.304 E0.01479
G1 X138.927 Y151.697 E0.02674
G1 X138.608 Y151.144 E0.02674
G1 X138.357 Y150.835 E0.01667
G1 X137.883 Y150.408 E0.02674
G1 X137.303 Y150.073 E0.02806
G1 X136.696 Y149.876 E0.02674
G1 X136.306 Y149.814 E0.01654
G1 X135.197 Y149.809 E0.04648
G1 X135.197 Y119.197 E1.28265
G1 X149.803 Y119.197 E0.612
G1 X150.232 Y118.768 F9000
G1 F1800
G1 X150.232 Y119.501 E0.03071
G1 X150.244 Y120.298 E0.03336
G1 X150.363 Y120.857 E0.02396
G1 X150.599 Y121.386 E0.02429
G1 X150.939 Y121.855 E0.02429
G1 X151.37 Y122.243 E0.02429
G1 X151.855 Y122.523 E0.02344
G1 X152.163 Y122.641 E0.01384
G1 X152.682 Y122.752 E0.02223
G1 X152.976 Y122.773 E0.01237
G1 X177.039 Y122.773 E1.00824
G1 X177.56 Y122.713 E0.02197
G1 X177.856 Y122.634 E0.01282
G1 X178.145 Y122.523 E0.01299
G1 X178.612 Y122.253 E0.02259
G1 X178.869 Y122.045 E0.01384
G1 X179.243 Y121.63 E0.02344
G1 X179.523 Y121.145 E0.02344
G1 X179.641 Y120.837 E0.01384
G1 X179.757 Y120.292 E0.02336
G1 X179.765 Y118.768 E0.06382
G1 X195.232 Y118.768 E0.64806
G1 X195.232 Y150.235 E1.31847
G1 X193.708 Y150.243 E0.06382
G1 X193.163 Y150.359 E0.02336
G1 X192.855 Y150.477 E0.01384
G1 X192.37 Y150.757 E0.02344
G1 X191.955 Y151.131 E0.02344
G1 X191.747 Y151.388 E0.01384
G1 X191.477 Y151.855 E0.02259
G1 X191.366 Y152.144 E0.01299
G1 X191.287 Y152.44 E0.01282
G1 X191.227 Y152.961 E0.02197
G1 X191.227 Y177.024 E1.00824
G1 X191.247 Y177.298 E0.01152
G1 X191.294 Y177.596 E0.01264
G1 X191.467 Y178.128 E0.02344
G1 X191.747 Y178.612 E0.02344
G1 X191.955 Y178.869 E0.01384
G1 X192.37 Y179.243 E0.02344
G1 X192.872 Y179.533 E0.02429
G1 X193.404 Y179.706 E0.02344
G1 X193.729 Y179.757 E0.01376
G1 X195.232 Y179.765 E0.06297
G1 X195.232 Y211.232 E1.31847
G1 X179.765 Y211.232 E0.64806
G1 X179.757 Y209.708 E0.06382
G1 X179.641 Y209.163 E0.02336
G1 X179.523 Y208.855 E0.01384
G1 X179.253 Y208.388 E0.02259
G1 X179.045 Y208.131 E0.01384
G1 X178.63 Y207.757 E0.02344
G1 X178.145 Y207.477 E0.02344
G1 X177.856 Y207.366 E0.01299
G1 X177.56 Y207.287 E0.01282
G1 X177.039 Y207.227 E0.02197
G1 X152.976 Y207.227 E1.00824
G1 X152.682 Y207.248 E0.01237
G1 X152.163 Y207.359 E0.02223
G1 X151.855 Y207.477 E0.01384
G1 X151.388 Y207.747 E0.02259
G1 X151.131 Y207.955 E0.01384
G1 X150.757 Y208.37 E0.02344
G1 X150.477 Y208.855 E0.02344
G1 X150.359 Y209.163 E0.01384
G1 X150.243 Y209.708 E0.02336
G1 X150.235 Y211.232 E0.06382
G1 X134.768 Y211.232 E0.64806
G1 X134.768 Y179.765 E1.31847
M73 P6 R22
G1 X136.292 Y179.757 E0.06382
G1 X136.837 Y179.641 E0.02336
G1 X137.145 Y179.523 E0.01384
G1 X137.63 Y179.243 E0.02344
G1 X138.045 Y178.869 E0.02344
G1 X138.253 Y178.612 E0.01384
G1 X138.523 Y178.145 E0.02259
G1 X138.634 Y177.856 E0.01299
G1 X138.713 Y177.56 E0.01282
G1 X138.773 Y177.039 E0.02197
G1 X138.773 Y152.976 E1.00824
G1 X138.753 Y152.702 E0.01152
G1 X138.706 Y152.404 E0.01264
G1 X138.533 Y151.872 E0.02344
G1 X138.253 Y151.388 E0.02344
G1 X138.045 Y151.131 E0.01384
G1 X137.63 Y150.757 E0.02344
G1 X137.128 Y150.467 E0.02429
G1 X136.596 Y150.294 E0.02344
G1 X136.271 Y150.243 E0.01376
G1 X134.768 Y150.235 E0.06297
G1 X134.768 Y118.768 E1.31847
G1 X150.232 Y118.768 E0.64791
G1 X150.66 Y118.34 F9000
;TYPE:External perimeter
G1 F1800
G1 X150.66 Y119.498 E0.04853
G1 X150.672 Y120.249 E0.03147
G1 X150.773 Y120.724 E0.02033
G1 X150.972 Y121.171 E0.02051
G1 X151.26 Y121.567 E0.02051
G1 X151.623 Y121.895 E0.02051
G1 X152.04 Y122.135 E0.02014
G1 X152.285 Y122.229 E0.01101
G1 X152.743 Y122.326 E0.0196
G1 X152.992 Y122.345 E0.01049
G1 X177.015 Y122.345 E1.00654
G1 X177.48 Y122.291 E0.01962
G1 X177.723 Y122.226 E0.01057
G1 X177.96 Y122.135 E0.01064
G1 X178.369 Y121.899 E0.01976
G1 X178.573 Y121.734 E0.01101
G1 X178.895 Y121.377 E0.02014
G1 X179.135 Y120.96 E0.02014
G1 X179.229 Y120.715 E0.01101
G1 X179.329 Y120.246 E0.0201
G1 X179.338 Y118.34 E0.07985
G1 X195.66 Y118.34 E0.68388
G1 X195.66 Y150.662 E1.35429
G1 X193.754 Y150.671 E0.07985
G1 X193.285 Y150.771 E0.0201
G1 X193.04 Y150.865 E0.01101
G1 X192.623 Y151.105 E0.02014
G1 X192.266 Y151.427 E0.02014
G1 X192.101 Y151.631 E0.01101
G1 X191.865 Y152.04 E0.01976
G1 X191.774 Y152.277 E0.01064
G1 X191.709 Y152.52 E0.01056
G1 X191.655 Y152.985 E0.01962
G1 X191.655 Y177.008 E1.00654
G1 X191.673 Y177.248 E0.01011
G1 X191.712 Y177.495 E0.01048
G1 X191.861 Y177.953 E0.02014
G1 X192.101 Y178.369 E0.02014
G1 X192.266 Y178.573 E0.01101
G1 X192.623 Y178.895 E0.02014
G1 X193.047 Y179.139 E0.02051
G1 X193.505 Y179.288 E0.02014
G1 X193.763 Y179.329 E0.01098
G1 X195.66 Y179.338 E0.07947
G1 X195.66 Y211.66 E1.35429
G1 X179.338 Y211.66 E0.68388
G1 X179.329 Y209.754 E0.07985
G1 X179.229 Y209.285 E0.0201
G1 X179.135 Y209.04 E0.01101
G1 X178.899 Y208.631 E0.01976
G1 X178.734 Y208.427 E0.01101
G1 X178.377 Y208.105 E0.02014
G1 X177.96 Y207.865 E0.02014
G1 X177.723 Y207.774 E0.01064
G1 X177.48 Y207.709 E0.01056
G1 X177.015 Y207.655 E0.01962
G1 X152.992 Y207.655 E1.00654
G1 X152.743 Y207.674 E0.01049
G1 X152.285 Y207.771 E0.0196
G1 X152.04 Y207.865 E0.01101
G1 X151.631 Y208.101 E0.01976
