; generated by SuperSlicer 2.4 on 2022-08-03 at 18:31:31 UTC


;
;

;
;
; 

; external perimeters extrusion width = 0.48mm
; perimeters extrusion width = 0.48mm
; infill extrusion width = 0.72mm
; solid infill extrusion width = 0.56mm
; top infill extrusion width = 0.40mm
; first layer extrusion width = 0.48mm

; external perimeters extrusion width = 0.48mm
; perimeters extrusion width = 0.48mm
; infill extrusion width = 0.72mm
; solid infill extrusion width = 0.56mm
; top infill extrusion width = 0.40mm
; first layer extrusion width = 0.48mm

; object:{"name":"BusinessCardCase02T","id":"BusinessCardCase02T.stl id:0 copy 0","object_center":[165.000000,158.000001,0.000000],"boundingbox_center":[165.000000,158.000001,7.900000],"boundingbox_size":[96.246948,9.800000,15.799999]}
; object:{"name":"BusinessCardCase02B","id":"BusinessCardCase02B.stl id:1 copy 0","object_center":[165.000001,172.900001,0.000000],"boundingbox_center":[165.000001,172.900001,31.000000],"boundingbox_size":[95.349998,8.000000,62.000000]}
; plater:{"center":[165.000000,165.000001,0.000000],"boundingbox_center":[165.000000,165.000001,31.000000],"boundingbox_size":[96.246948,23.800000,62.000000]}

M73 P0 R86
;TYPE:Custom
START_PRINT T_BED=110 T_EXTRUDER=245
M107
G21 ; set units to millimeters
G90 ; use absolute coordinates
M83 ; use relative distances for extrusion
; Filament gcode
M109 S245 ; set temperature and wait for it to be reached
M190 S110 ; set bed temperature and wait for it to be reached
M107
;LAYER_CHANGE
;Z:0.2
;HEIGHT:0.2
G1 Z0.2 F9000
G92 E0
G1 E-0.5 F3000
M204 S1000
G1 X116.113 Y150.944 F9000
G1 E0.5 F1800
;TYPE:Skirt
;WIDTH:0.52
G1 X114.757 Y152.431 E0.07984
G1 X114.362 Y154.098 E0.06793
G1 X114.459 Y176.824 E0.90156
G1 X115.196 Y179.021 E0.09191
G1 X116.509 Y180.121 E0.06793
G1 X118.175 Y180.516 E0.06793
G1 X212.575 Y180.516 E3.74479
G1 X214.699 Y179.848 E0.08833
G1 X215.841 Y178.572 E0.06793
G1 X216.289 Y176.919 E0.06793
G1 X216.737 Y162.919 E0.55566
G1 X216.739 Y153.2 E0.38554
G1 X216.002 Y150.979 E0.09283
G1 X214.69 Y149.879 E0.06793
G1 X213.023 Y149.484 E0.06793
G1 X119.638 Y149.484 E3.70455
G1 X118.994 Y149.539 E0.02564
G1 X117.972 Y149.838 E0.04221
G1 X116.113 Y150.944 E0.08583
G1 X116.365 Y151.349 F9000
G1 F1800
G1 X115.233 Y152.55 E0.06547
G1 X114.839 Y154.098 E0.06336
G1 X114.937 Y176.821 E0.90144
G1 X115.456 Y178.559 E0.07195
G1 X116.627 Y179.645 E0.06336
G1 X118.175 Y180.039 E0.06336
G1 X212.575 Y180.039 E3.74479
G1 X214.246 Y179.574 E0.0688
G1 X215.369 Y178.438 E0.06336
G1 X215.812 Y176.904 E0.06336
G1 X216.26 Y162.904 E0.55566
G1 X216.262 Y153.2 E0.38494
G1 X215.743 Y151.441 E0.07276
G1 X214.571 Y150.355 E0.06336
G1 X213.023 Y149.961 E0.06336
G1 X119.061 Y150.011 E3.72742
G1 X118.159 Y150.277 E0.0373
G1 X116.365 Y151.349 E0.08291
G1 E-0.5 F3000
; printing object BusinessCardCase02T.stl id:0 copy 0
; acceleration to travel
M204 S3000
G1 X118.813 Y154.237 F9000
; decel to extrusion
M204 S1000
G1 X119.629 Y155.2
; end travel
G1 E0.5 F1800
;TYPE:Internal perimeter
;WIDTH:0.48
G1 X119.765 Y155.094 E0.00626
G1 X120.108 Y154.751 E0.01762
G1 X211.472 Y154.751 E3.32047
M73 P0 R85
G1 X211.472 Y161.249 E0.23614
G1 X120.108 Y161.249 E3.32047
G1 X119.765 Y160.906 E0.01762
G1 X119.629 Y160.8 E0.00626
G1 X119.629 Y155.2 E0.20355
G1 X119.192 Y154.986 F9000
G1 F1800
G1 X119.475 Y154.765 E0.01305
G1 X119.927 Y154.314 E0.02322
G1 X211.909 Y154.314 E3.34293
G1 X211.909 Y161.686 E0.26791
G1 X119.927 Y161.686 E3.34293
M73 P1 R85
G1 X119.475 Y161.235 E0.02323
G1 X119.192 Y161.014 E0.01305
G1 X119.192 Y154.986 E0.21906
G1 X118.755 Y154.692 F9000
G1 F1800
G1 X118.963 Y154.611 E0.00813
G1 X119.185 Y154.437 E0.01025
G1 X119.747 Y153.877 E0.02883
G1 X212.346 Y153.877 E3.36538
G1 X212.346 Y162.123 E0.29968
G1 X119.747 Y162.123 E3.36538
G1 X119.185 Y161.563 E0.02883
G1 X118.963 Y161.389 E0.01024
G1 X118.755 Y161.308 E0.00813
G1 X118.755 Y154.692 E0.24042
G1 X118.318 Y154.332 F9000
;TYPE:External perimeter
G1 F1800
G1 X118.489 Y154.327 E0.00623
G1 X118.744 Y154.227 E0.00995
G1 X118.895 Y154.109 E0.00698
G1 X119.5 Y153.506 E0.03102
G1 X119.601 Y153.448 E0.00424
G1 X119.655 Y153.44 E0.00199
G1 X212.783 Y153.44 E3.3846
G1 X212.783 Y162.56 E0.33145
G1 X119.655 Y162.56 E3.3846
G1 X119.601 Y162.552 E0.00199
G1 X119.5 Y162.494 E0.00424
G1 X118.895 Y161.891 E0.03102
G1 X118.744 Y161.773 E0.00698
G1 X118.489 Y161.673 E0.00995
G1 X118.318 Y161.668 E0.00623
G1 X118.318 Y154.332 E0.26665
;WIPE_START
M204 S4000
G1 X118.667 Y154.526 F9000
;WIPE_END
G1 E-0.5 F3000
; acceleration to travel
M204 S3000
G1 X185.823 Y155.376 F9000
; decel to extrusion
M204 S1000
G1 X211.407 Y155.7
; end travel
G1 E0.5 F1800
;TYPE:Solid infill
;WIDTH:0.468014
G1 F3600
G1 X210.711 Y155.005 E0.03486
G1 X210.093 Y155.005 E0.0219
G1 X211.219 Y156.131 E0.05642
G1 X211.219 Y156.749 E0.0219
G1 X209.475 Y155.005 E0.08739
G1 X208.857 Y155.005 E0.0219
G1 X211.219 Y157.367 E0.11837
G1 X211.219 Y157.985 E0.0219
G1 X208.239 Y155.005 E0.14935
G1 X207.62 Y155.005 E0.0219
G1 X211.219 Y158.603 E0.18032
G1 X211.219 Y159.221 E0.0219
G1 X207.002 Y155.005 E0.2113
G1 X206.384 Y155.005 E0.0219
G1 X211.219 Y159.839 E0.24228
G1 X211.219 Y160.457 E0.0219
G1 X205.766 Y155.005 E0.27325
G1 X205.148 Y155.005 E0.0219
G1 X211.139 Y160.995 E0.30021
G1 X210.52 Y160.995 E0.0219
G1 X204.53 Y155.005 E0.30021
G1 X203.912 Y155.005 E0.0219
G1 X209.902 Y160.995 E0.30021
G1 X209.284 Y160.995 E0.0219
G1 X203.294 Y155.005 E0.30021
G1 X202.675 Y155.005 E0.0219
G1 X208.666 Y160.995 E0.30021
G1 X208.048 Y160.995 E0.0219
G1 X202.057 Y155.005 E0.30021
G1 X201.439 Y155.005 E0.0219
G1 X207.43 Y160.995 E0.30021
G1 X206.812 Y160.995 E0.0219
G1 X200.821 Y155.005 E0.30021
G1 X200.203 Y155.005 E0.0219
G1 X206.194 Y160.995 E0.30021
G1 X205.575 Y160.995 E0.0219
G1 X199.585 Y155.005 E0.30021
G1 X198.967 Y155.005 E0.0219
G1 X204.957 Y160.995 E0.30021
G1 X204.339 Y160.995 E0.0219
G1 X198.349 Y155.005 E0.30021
G1 X197.731 Y155.005 E0.0219
G1 X203.721 Y160.995 E0.30021
G1 X203.103 Y160.995 E0.0219
G1 X197.112 Y155.005 E0.30021
G1 X196.494 Y155.005 E0.0219
G1 X202.485 Y160.995 E0.30021
G1 X201.867 Y160.995 E0.0219
G1 X195.876 Y155.005 E0.30021
G1 X195.258 Y155.005 E0.0219
G1 X201.249 Y160.995 E0.30021
G1 X200.63 Y160.995 E0.0219
G1 X194.64 Y155.005 E0.30021
G1 X194.022 Y155.005 E0.0219
G1 X200.012 Y160.995 E0.30021
G1 X199.394 Y160.995 E0.0219
G1 X193.404 Y155.005 E0.30021
G1 X192.786 Y155.005 E0.0219
G1 X198.776 Y160.995 E0.30021
G1 X198.158 Y160.995 E0.0219
G1 X192.167 Y155.005 E0.30021
G1 X191.549 Y155.005 E0.0219
G1 X197.54 Y160.995 E0.30021
G1 X196.922 Y160.995 E0.0219
G1 X190.931 Y155.005 E0.30021
G1 X190.313 Y155.005 E0.0219
G1 X196.304 Y160.995 E0.30021
G1 X195.685 Y160.995 E0.0219
G1 X189.695 Y155.005 E0.30021
G1 X189.077 Y155.005 E0.0219
G1 X195.067 Y160.995 E0.30021
G1 X194.449 Y160.995 E0.0219
G1 X188.459 Y155.005 E0.30021
G1 X187.841 Y155.005 E0.0219
G1 X193.831 Y160.995 E0.30021
G1 X193.213 Y160.995 E0.0219
G1 X187.222 Y155.005 E0.30021
G1 X186.604 Y155.005 E0.0219
G1 X192.595 Y160.995 E0.30021
G1 X191.977 Y160.995 E0.0219
G1 X185.986 Y155.005 E0.30021
G1 X185.368 Y155.005 E0.0219
G1 X191.359 Y160.995 E0.30021
G1 X190.74 Y160.995 E0.0219
G1 X184.75 Y155.005 E0.30021
G1 X184.132 Y155.005 E0.0219
G1 X190.122 Y160.995 E0.30021
G1 X189.504 Y160.995 E0.0219
G1 X183.514 Y155.005 E0.30021
G1 X182.896 Y155.005 E0.0219
G1 X188.886 Y160.995 E0.30021
G1 X188.268 Y160.995 E0.0219
G1 X182.277 Y155.005 E0.30021
G1 X181.659 Y155.005 E0.0219
G1 X187.65 Y160.995 E0.30021
G1 X187.032 Y160.995 E0.0219
G1 X181.041 Y155.005 E0.30021
G1 X180.423 Y155.005 E0.0219
G1 X186.414 Y160.995 E0.30021
G1 X185.796 Y160.995 E0.0219
G1 X179.805 Y155.005 E0.30021
G1 X179.187 Y155.005 E0.0219
G1 X185.177 Y160.995 E0.30021
G1 X184.559 Y160.995 E0.0219
G1 X178.569 Y155.005 E0.30021
G1 X177.951 Y155.005 E0.0219
G1 X183.941 Y160.995 E0.30021
G1 X183.323 Y160.995 E0.0219
G1 X177.332 Y155.005 E0.30021
G1 X176.714 Y155.005 E0.0219
G1 X182.705 Y160.995 E0.30021
G1 X182.087 Y160.995 E0.0219
G1 X176.096 Y155.005 E0.30021
G1 X175.478 Y155.005 E0.0219
G1 X181.469 Y160.995 E0.30021
G1 X180.851 Y160.995 E0.0219
G1 X174.86 Y155.005 E0.30021
G1 X174.242 Y155.005 E0.0219
G1 X180.232 Y160.995 E0.30021
G1 X179.614 Y160.995 E0.0219
G1 X173.624 Y155.005 E0.30021
G1 X173.006 Y155.005 E0.0219
G1 X178.996 Y160.995 E0.30021
G1 X178.378 Y160.995 E0.0219
G1 X172.387 Y155.005 E0.30021
G1 X171.769 Y155.005 E0.0219
G1 X177.76 Y160.995 E0.30021
G1 X177.142 Y160.995 E0.0219
G1 X171.151 Y155.005 E0.30021
G1 X170.533 Y155.005 E0.0219
G1 X176.524 Y160.995 E0.30021
G1 X175.906 Y160.995 E0.0219
G1 X169.915 Y155.005 E0.30021
G1 X169.297 Y155.005 E0.0219
G1 X175.287 Y160.995 E0.30021
G1 X174.669 Y160.995 E0.0219
G1 X168.679 Y155.005 E0.30021
G1 X168.061 Y155.005 E0.0219
G1 X174.051 Y160.995 E0.30021
G1 X173.433 Y160.995 E0.0219
G1 X167.442 Y155.005 E0.30021
G1 X166.824 Y155.005 E0.0219
G1 X172.815 Y160.995 E0.30021
G1 X172.197 Y160.995 E0.0219
G1 X166.206 Y155.005 E0.30021
G1 X165.588 Y155.005 E0.0219
G1 X171.579 Y160.995 E0.30021
G1 X170.961 Y160.995 E0.0219
G1 X164.97 Y155.005 E0.30021
G1 X164.352 Y155.005 E0.0219
G1 X170.342 Y160.995 E0.30021
G1 X169.724 Y160.995 E0.0219
G1 X163.734 Y155.005 E0.30021
G1 X163.116 Y155.005 E0.0219
G1 X169.106 Y160.995 E0.30021
G1 X168.488 Y160.995 E0.0219
G1 X162.497 Y155.005 E0.30021
G1 X161.879 Y155.005 E0.0219
G1 X167.87 Y160.995 E0.30021
G1 X167.252 Y160.995 E0.0219
G1 X161.261 Y155.005 E0.30021
G1 X160.643 Y155.005 E0.0219
G1 X166.634 Y160.995 E0.30021
G1 X166.016 Y160.995 E0.0219
G1 X160.025 Y155.005 E0.30021
G1 X159.407 Y155.005 E0.0219
G1 X165.397 Y160.995 E0.30021
G1 X164.779 Y160.995 E0.0219
G1 X158.789 Y155.005 E0.30021
G1 X158.171 Y155.005 E0.0219
G1 X164.161 Y160.995 E0.30021
G1 X163.543 Y160.995 E0.0219
G1 X157.553 Y155.005 E0.30021
G1 X156.934 Y155.005 E0.0219
G1 X162.925 Y160.995 E0.30021
G1 X162.307 Y160.995 E0.0219
G1 X156.316 Y155.005 E0.30021
G1 X155.698 Y155.005 E0.0219
G1 X161.689 Y160.995 E0.30021
G1 X161.071 Y160.995 E0.0219
G1 X155.08 Y155.005 E0.30021
G1 X154.462 Y155.005 E0.0219
G1 X160.452 Y160.995 E0.30021
G1 X159.834 Y160.995 E0.0219
G1 X153.844 Y155.005 E0.30021
G1 X153.226 Y155.005 E0.0219
G1 X159.216 Y160.995 E0.30021
G1 X158.598 Y160.995 E0.0219
G1 X152.608 Y155.005 E0.30021
G1 X151.989 Y155.005 E0.0219
G1 X157.98 Y160.995 E0.30021
G1 X157.362 Y160.995 E0.0219
G1 X151.371 Y155.005 E0.30021
G1 X150.753 Y155.005 E0.0219
G1 X156.744 Y160.995 E0.30021
G1 X156.126 Y160.995 E0.0219
G1 X150.135 Y155.005 E0.30021
G1 X149.517 Y155.005 E0.0219
G1 X155.507 Y160.995 E0.30021
G1 X154.889 Y160.995 E0.0219
G1 X148.899 Y155.005 E0.30021
G1 X148.281 Y155.005 E0.0219
G1 X154.271 Y160.995 E0.30021
G1 X153.653 Y160.995 E0.0219
G1 X147.663 Y155.005 E0.30021
G1 X147.044 Y155.005 E0.0219
G1 X153.035 Y160.995 E0.30021
G1 X152.417 Y160.995 E0.0219
G1 X146.426 Y155.005 E0.30021
G1 X145.808 Y155.005 E0.0219
G1 X151.799 Y160.995 E0.30021
G1 X151.181 Y160.995 E0.0219
G1 X145.19 Y155.005 E0.30021
G1 X144.572 Y155.005 E0.0219
G1 X150.562 Y160.995 E0.30021
G1 X149.944 Y160.995 E0.0219
G1 X143.954 Y155.005 E0.30021
G1 X143.336 Y155.005 E0.0219
G1 X149.326 Y160.995 E0.30021
G1 X148.708 Y160.995 E0.0219
G1 X142.718 Y155.005 E0.30021
G1 X142.099 Y155.005 E0.0219
G1 X148.09 Y160.995 E0.30021
G1 X147.472 Y160.995 E0.0219
G1 X141.481 Y155.005 E0.30021
G1 X140.863 Y155.005 E0.0219
G1 X146.854 Y160.995 E0.30021
G1 X146.236 Y160.995 E0.0219
G1 X140.245 Y155.005 E0.30021
G1 X139.627 Y155.005 E0.0219
G1 X145.618 Y160.995 E0.30021
G1 X144.999 Y160.995 E0.0219
G1 X139.009 Y155.005 E0.30021
G1 X138.391 Y155.005 E0.0219
G1 X144.381 Y160.995 E0.30021
G1 X143.763 Y160.995 E0.0219
G1 X137.773 Y155.005 E0.30021
G1 X137.154 Y155.005 E0.0219
G1 X143.145 Y160.995 E0.30021
G1 X142.527 Y160.995 E0.0219
G1 X136.536 Y155.005 E0.30021
G1 X135.918 Y155.005 E0.0219
G1 X141.909 Y160.995 E0.30021
G1 X141.291 Y160.995 E0.0219
G1 X135.3 Y155.005 E0.30021
G1 X134.682 Y155.005 E0.0219
G1 X140.673 Y160.995 E0.30021
G1 X140.054 Y160.995 E0.0219
G1 X134.064 Y155.005 E0.30021
G1 X133.446 Y155.005 E0.0219
G1 X139.436 Y160.995 E0.30021
G1 X138.818 Y160.995 E0.0219
G1 X132.828 Y155.005 E0.30021
G1 X132.209 Y155.005 E0.0219
G1 X138.2 Y160.995 E0.30021
G1 X137.582 Y160.995 E0.0219
G1 X131.591 Y155.005 E0.30021
G1 X130.973 Y155.005 E0.0219
G1 X136.964 Y160.995 E0.30021
G1 X136.346 Y160.995 E0.0219
G1 X130.355 Y155.005 E0.30021
G1 X129.737 Y155.005 E0.0219
G1 X135.728 Y160.995 E0.30021
G1 X135.109 Y160.995 E0.0219
G1 X129.119 Y155.005 E0.30021
G1 X128.501 Y155.005 E0.0219
G1 X134.491 Y160.995 E0.30021
G1 X133.873 Y160.995 E0.0219
G1 X127.883 Y155.005 E0.30021
G1 X127.264 Y155.005 E0.0219
G1 X133.255 Y160.995 E0.30021
G1 X132.637 Y160.995 E0.0219
G1 X126.646 Y155.005 E0.30021
G1 X126.028 Y155.005 E0.0219
G1 X132.019 Y160.995 E0.30021
G1 X131.401 Y160.995 E0.0219
G1 X125.41 Y155.005 E0.30021
G1 X124.792 Y155.005 E0.0219
G1 X130.783 Y160.995 E0.30021
G1 X130.164 Y160.995 E0.0219
G1 X124.174 Y155.005 E0.30021
G1 X123.556 Y155.005 E0.0219
G1 X129.546 Y160.995 E0.30021
G1 X128.928 Y160.995 E0.0219
G1 X122.938 Y155.005 E0.30021
G1 X122.319 Y155.005 E0.0219
G1 X128.31 Y160.995 E0.30021
G1 X127.692 Y160.995 E0.0219
G1 X121.701 Y155.005 E0.30021
G1 X121.083 Y155.005 E0.0219
G1 X127.074 Y160.995 E0.30021
G1 X126.456 Y160.995 E0.0219
G1 X120.465 Y155.005 E0.30021
G1 X120.208 Y155.005 E0.0091
G1 X120.022 Y155.179 E0.00906
G1 X125.838 Y160.995 E0.29146
G1 X125.219 Y160.995 E0.0219
G1 X119.882 Y155.658 E0.26746
G1 X119.882 Y156.276 E0.0219
G1 X124.601 Y160.995 E0.23648
G1 X123.983 Y160.995 E0.0219
G1 X119.882 Y156.895 E0.2055
G1 X119.882 Y157.513 E0.0219
G1 X123.365 Y160.995 E0.17453
G1 X122.747 Y160.995 E0.0219
G1 X119.882 Y158.131 E0.14355
G1 X119.882 Y158.749 E0.0219
G1 X122.129 Y160.995 E0.11257
G1 X121.511 Y160.995 E0.0219
G1 X119.882 Y159.367 E0.0816
G1 X119.882 Y159.985 E0.0219
G1 X120.893 Y160.995 E0.05062
G1 X120.274 Y160.995 E0.0219
G1 X119.694 Y160.415 E0.02906
G1 E-0.5 F3000
; stop printing object BusinessCardCase02T.stl id:0 copy 0
; printing object BusinessCardCase02B.stl id:1 copy 0
; acceleration to travel
M204 S3000
G1 X119.719 Y168.262 F9000
; decel to extrusion
M204 S1000
G1 X119.726 Y170.551
; end travel
G1 E0.5 F1800
;TYPE:Internal perimeter
;WIDTH:0.48
G1 X211.024 Y170.551 E3.31806
M73 P2 R84
G1 X211.024 Y175.249 E0.17072
G1 X119.726 Y175.249 E3.31806
G1 X119.726 Y170.551 E0.17072
G1 X119.289 Y170.114 F9000
G1 F1800
G1 X211.461 Y170.114 E3.34983
G1 X211.461 Y175.686 E0.20249
G1 X119.289 Y175.686 E3.34983
G1 X119.289 Y170.114 E0.20249
G1 X118.852 Y169.677 F9000
G1 F1800
G1 X211.898 Y169.677 E3.3816
G1 X211.898 Y176.123 E0.23426
G1 X118.852 Y176.123 E3.3816
G1 X118.852 Y169.677 E0.23426
G1 X118.415 Y169.24 F9000
;TYPE:External perimeter
G1 F1800
G1 X212.335 Y169.24 E3.41336
G1 X212.335 Y176.56 E0.26603
G1 X118.415 Y176.56 E3.41336
G1 X118.415 Y169.24 E0.26603
;WIPE_START
M204 S4000
G1 X118.761 Y169.44 F9000
;WIPE_END
G1 E-0.5 F3000
; acceleration to travel
M204 S3000
G1 X184.885 Y170.292 F9000
; decel to extrusion
M204 S1000
G1 X210.075 Y170.617
; end travel
G1 E0.5 F1800
;TYPE:Solid infill
;WIDTH:0.463752
G1 F3600
G1 X210.77 Y171.312 E0.03454
G1 X210.77 Y171.931 E0.0217
G1 X209.644 Y170.805 E0.0559
G1 X209.026 Y170.805 E0.0217
G1 X210.77 Y172.549 E0.0866
G1 X210.77 Y173.167 E0.0217
G1 X208.408 Y170.805 E0.11729
G1 X207.79 Y170.805 E0.0217
G1 X210.77 Y173.785 E0.14799
G1 X210.77 Y174.403 E0.0217
G1 X207.172 Y170.805 E0.17868
G1 X206.554 Y170.805 E0.0217
G1 X210.744 Y174.995 E0.20809
G1 X210.126 Y174.995 E0.0217
G1 X205.936 Y170.805 E0.20809
G1 X205.318 Y170.805 E0.0217
G1 X209.508 Y174.995 E0.20809
G1 X208.89 Y174.995 E0.0217
G1 X204.7 Y170.805 E0.20809
G1 X204.081 Y170.805 E0.0217
G1 X208.272 Y174.995 E0.20809
G1 X207.654 Y174.995 E0.0217
G1 X203.463 Y170.805 E0.20809
G1 X202.845 Y170.805 E0.0217
G1 X207.036 Y174.995 E0.20809
G1 X206.418 Y174.995 E0.0217
G1 X202.227 Y170.805 E0.20809
G1 X201.609 Y170.805 E0.0217
G1 X205.799 Y174.995 E0.20809
G1 X205.181 Y174.995 E0.0217
