; generated by SuperSlicer 2.3.57 on 2022-04-08 at 14:51:56 UTC


;
;

;
;
; 

; external perimeters extrusion width = 0.40mm
; perimeters extrusion width = 0.45mm
; infill extrusion width = 0.72mm
; solid infill extrusion width = 0.56mm
; top infill extrusion width = 0.40mm
; support material extrusion width = 0.42mm
; first layer extrusion width = 0.48mm

; external perimeters extrusion width = 0.40mm
; perimeters extrusion width = 0.45mm
; infill extrusion width = 0.72mm
; solid infill extrusion width = 0.56mm
; top infill extrusion width = 0.40mm
; support material extrusion width = 0.42mm
; first layer extrusion width = 0.48mm

; external perimeters extrusion width = 0.40mm
; perimeters extrusion width = 0.45mm
; infill extrusion width = 0.72mm
; solid infill extrusion width = 0.56mm
; top infill extrusion width = 0.40mm
; support material extrusion width = 0.42mm
; first layer extrusion width = 0.48mm

; object:{"name":"Untitled","id":"Untitled.stl id:0 copy 0","object_center":[152.500000,150.000000,0.000000],"boundingbox_center":[152.500000,150.000000,7.607252],"boundingbox_size":[179.999992,93.008469,15.214503]}
; plater:{"center":[152.500000,150.000000,0.000000],"boundingbox_center":[152.500000,150.000000,7.607252],"boundingbox_size":[179.999992,93.008469,15.214503]}

;TYPE:Custom
START_PRINT T_BED=70 T_EXTRUDER=230
M107
G21 ; set units to millimeters
G90 ; use absolute coordinates
M83 ; use relative distances for extrusion
; Filament gcode
M104 S230 ; set temperature
M109 S230 ; set temperature and wait for it to be reached
M190 S70 ; set bed temperature and wait for it to be reached
M107
;LAYER_CHANGE
;Z:0.24
;HEIGHT:0.24
G1 E-1 F3000
G1 Z0.24 F9000
G1 X60.877 Y100.386
G1 E1 F1800
; External perimeter
;Skirt
SET_VELOCITY_LIMIT ACCEL=300 ACCEL_TO_DECEL=3000 SQUARE_CORNER_VELOCITY=5

; Support material

;TYPE:Skirt
;WIDTH:0.48
G1 X60.096 Y100.95 E0.04121
G1 X59.487 Y101.703 E0.04141
G1 X59.1 Y102.586 E0.04121
G1 X58.958 Y103.539 E0.04121
G1 X58.957 Y196.421 E3.9712
G1 X59.069 Y197.298 E0.03781
G1 X59.39 Y198.127 E0.03801
G1 X59.961 Y198.915 E0.04161
G1 X60.716 Y199.522 E0.04141
G1 X61.608 Y199.909 E0.04161
G1 X62.572 Y200.047 E0.04161
G1 X242.407 Y200.047 E7.68895
G1 X243.294 Y199.936 E0.03821
G1 X244.123 Y199.614 E0.03801
G1 X244.904 Y199.05 E0.04121
G1 X245.508 Y198.305 E0.04101
G1 X245.896 Y197.428 E0.04101
G1 X246.042 Y196.48 E0.04101
G1 X246.042 Y103.532 E3.97402
G1 X245.961 Y102.831 E0.03019
G1 X245.747 Y102.158 E0.03019
G1 X245.409 Y101.543 E0.02999
G1 X244.957 Y101.001 E0.03019
G1 X244.408 Y100.556 E0.03019
G1 X243.784 Y100.226 E0.03019
G1 X243.107 Y100.022 E0.03019
G1 X242.405 Y99.953 E0.03019
G1 X62.593 Y99.953 E7.68794
G1 X61.706 Y100.064 E0.03821
G1 X60.933 Y100.364 E0.03544
G1 X61.086 Y100.76 F9000
G1 F1800
G1 X60.394 Y101.258 E0.03645
G1 X59.855 Y101.924 E0.03663
G1 X59.511 Y102.708 E0.03663
G1 X59.386 Y103.551 E0.03644
G1 X59.386 Y196.417 E3.97051
G1 X59.483 Y197.189 E0.03325
G1 X59.765 Y197.918 E0.03344
G1 X60.268 Y198.617 E0.03682
G1 X60.936 Y199.154 E0.03663
G1 X61.725 Y199.497 E0.03682
G1 X62.578 Y199.618 E0.03682
G1 X242.408 Y199.618 E7.68874
G1 X243.184 Y199.521 E0.03344
G1 X243.914 Y199.24 E0.03344
G1 X244.606 Y198.742 E0.03644
G1 X245.141 Y198.084 E0.03625
G1 X245.486 Y197.304 E0.03644
G1 X245.614 Y196.462 E0.03644
G1 X245.614 Y103.547 E3.9726
G1 X245.544 Y102.928 E0.02666
G1 X245.356 Y102.333 E0.02666
G1 X245.057 Y101.786 E0.02666
G1 X244.657 Y101.307 E0.02666
G1 X244.173 Y100.915 E0.02666
G1 X243.622 Y100.623 E0.02666
G1 X243.025 Y100.443 E0.02666
G1 X242.404 Y100.382 E0.02666
G1 X62.592 Y100.382 E7.68798
G1 X61.816 Y100.479 E0.03344
G1 X61.142 Y100.739 E0.03086
; INIT printing object Untitled.stl id:0 copy 0
G1 E-1 F3000
; printing object Untitled.stl id:0 copy 0
G1 X63.697 Y104.693 F9000
G1 E1 F1800
; External perimeter
;Perimeter
SET_VELOCITY_LIMIT ACCEL=2000 ACCEL_TO_DECEL=2000 SQUARE_CORNER_VELOCITY=5

; Overhang perimeter

;TYPE:Internal perimeter
G1 X241.303 Y104.693 E7.59363
G1 X241.303 Y195.307 E3.87426
G1 X63.697 Y195.307 E7.59363
G1 X63.697 Y104.753 E3.8717
G1 X241.732 Y195.736 F9000
G1 F1800
G1 X63.268 Y195.736 E7.63027
G1 X63.268 Y104.264 E3.91091
G1 X241.732 Y104.264 E7.63027
G1 X241.732 Y195.676 E3.90834
G1 X242.16 Y196.164 F9000
; External perimeter
;ExternalPerimeter
SET_VELOCITY_LIMIT ACCEL=1000 ACCEL_TO_DECEL=1000 SQUARE_CORNER_VELOCITY=5

; Perimeter

;TYPE:External perimeter
G1 F1800
G1 X62.84 Y196.164 E7.66691
G1 X62.84 Y196.044 E0.00458
G1 X62.84 Y195.804 E0.00971
G1 X62.84 Y103.836 E3.93215
G1 X62.96 Y103.836 E0.00458
G1 X63.2 Y103.836 E0.00971
G1 X242.16 Y103.836 E7.65152
G1 X242.16 Y103.956 E0.00458
G1 X242.16 Y104.196 E0.00971
G1 X242.16 Y196.104 E3.92959
;WIPE_START
G1 X241.814 Y195.964 F9000
;WIPE_END
G1 X240.373 Y104.757
; External perimeter
;SolidInfill
SET_VELOCITY_LIMIT ACCEL=2000 ACCEL_TO_DECEL=2000 SQUARE_CORNER_VELOCITY=5

; Bridge infill

;TYPE:Solid infill
;WIDTH:0.478842
G1 F2400
G1 X241.055 Y105.439 E0.04113
G1 X241.055 Y106.045 E0.02585
G1 X239.951 Y104.941 E0.06657
G1 X239.345 Y104.941 E0.02585
G1 X241.055 Y106.651 E0.10313
G1 X241.055 Y107.257 E0.02585
G1 X238.739 Y104.941 E0.13968
G1 X238.133 Y104.941 E0.02585
G1 X241.055 Y107.863 E0.17623
G1 X241.055 Y108.469 E0.02585
G1 X237.527 Y104.941 E0.21278
G1 X236.921 Y104.941 E0.02585
G1 X241.055 Y109.075 E0.24934
G1 X241.055 Y109.681 E0.02585
G1 X236.315 Y104.941 E0.28589
G1 X235.709 Y104.941 E0.02585
G1 X241.055 Y110.287 E0.32244
G1 X241.055 Y110.893 E0.02585
G1 X235.103 Y104.941 E0.35899
G1 X234.497 Y104.941 E0.02585
G1 X241.055 Y111.499 E0.39555
G1 X241.055 Y112.105 E0.02585
G1 X233.891 Y104.941 E0.4321
G1 X233.285 Y104.941 E0.02585
G1 X241.055 Y112.711 E0.46865
G1 X241.055 Y113.317 E0.02585
G1 X232.679 Y104.941 E0.5052
G1 X232.073 Y104.941 E0.02585
G1 X241.055 Y113.923 E0.54176
G1 X241.055 Y114.529 E0.02585
G1 X231.467 Y104.941 E0.57831
G1 X230.861 Y104.941 E0.02585
G1 X241.055 Y115.135 E0.61486
G1 X241.055 Y115.741 E0.02585
G1 X230.255 Y104.941 E0.65141
G1 X229.649 Y104.941 E0.02585
G1 X241.055 Y116.347 E0.68797
G1 X241.055 Y116.953 E0.02585
G1 X229.043 Y104.941 E0.72452
G1 X228.437 Y104.941 E0.02585
G1 X241.055 Y117.559 E0.76107
G1 X241.055 Y118.165 E0.02585
G1 X227.831 Y104.941 E0.79762
G1 X227.225 Y104.941 E0.02585
G1 X241.055 Y118.771 E0.83418
G1 X241.055 Y119.377 E0.02585
G1 X226.619 Y104.941 E0.87073
G1 X226.013 Y104.941 E0.02585
G1 X241.055 Y119.983 E0.90728
G1 X241.055 Y120.589 E0.02585
G1 X225.407 Y104.941 E0.94383
G1 X224.801 Y104.941 E0.02585
G1 X241.055 Y121.195 E0.98039
G1 X241.055 Y121.801 E0.02585
G1 X224.195 Y104.941 E1.01694
G1 X223.589 Y104.941 E0.02585
G1 X241.055 Y122.406 E1.05349
G1 X241.055 Y123.012 E0.02585
G1 X222.983 Y104.941 E1.09005
G1 X222.377 Y104.941 E0.02585
G1 X241.055 Y123.618 E1.1266
G1 X241.055 Y124.224 E0.02585
G1 X221.771 Y104.941 E1.16315
G1 X221.165 Y104.941 E0.02585
G1 X241.055 Y124.83 E1.1997
G1 X241.055 Y125.436 E0.02585
G1 X220.559 Y104.941 E1.23626
G1 X219.953 Y104.941 E0.02585
G1 X241.055 Y126.042 E1.27281
G1 X241.055 Y126.648 E0.02585
G1 X219.347 Y104.941 E1.30936
G1 X218.741 Y104.941 E0.02585
G1 X241.055 Y127.254 E1.34591
G1 X241.055 Y127.86 E0.02585
G1 X218.135 Y104.941 E1.38247
G1 X217.529 Y104.941 E0.02585
G1 X241.055 Y128.466 E1.41902
G1 X241.055 Y129.072 E0.02585
G1 X216.923 Y104.941 E1.45557
G1 X216.317 Y104.941 E0.02585
G1 X241.055 Y129.678 E1.49212
G1 X241.055 Y130.284 E0.02585
G1 X215.711 Y104.941 E1.52868
G1 X215.106 Y104.941 E0.02585
G1 X241.055 Y130.89 E1.56523
G1 X241.055 Y131.496 E0.02585
G1 X214.5 Y104.941 E1.60178
G1 X213.894 Y104.941 E0.02585
G1 X241.055 Y132.102 E1.63833
G1 X241.055 Y132.708 E0.02585
G1 X213.288 Y104.941 E1.67489
G1 X212.682 Y104.941 E0.02585
G1 X241.055 Y133.314 E1.71144
G1 X241.055 Y133.92 E0.02585
G1 X212.076 Y104.941 E1.74799
G1 X211.47 Y104.941 E0.02585
G1 X241.055 Y134.526 E1.78454
G1 X241.055 Y135.132 E0.02585
G1 X210.864 Y104.941 E1.8211
G1 X210.258 Y104.941 E0.02585
G1 X241.055 Y135.738 E1.85765
G1 X241.055 Y136.344 E0.02585
G1 X209.652 Y104.941 E1.8942
G1 X209.046 Y104.941 E0.02585
G1 X241.055 Y136.95 E1.93075
G1 X241.055 Y137.556 E0.02585
G1 X208.44 Y104.941 E1.96731
G1 X207.834 Y104.941 E0.02585
G1 X241.055 Y138.162 E2.00386
G1 X241.055 Y138.768 E0.02585
G1 X207.228 Y104.941 E2.04041
G1 X206.622 Y104.941 E0.02585
G1 X241.055 Y139.374 E2.07697
G1 X241.055 Y139.98 E0.02585
G1 X206.016 Y104.941 E2.11352
G1 X205.41 Y104.941 E0.02585
G1 X241.055 Y140.586 E2.15007
G1 X241.055 Y141.192 E0.02585
G1 X204.804 Y104.941 E2.18662
G1 X204.198 Y104.941 E0.02585
G1 X241.055 Y141.798 E2.22318
G1 X241.055 Y142.404 E0.02585
G1 X203.592 Y104.941 E2.25973
G1 X202.986 Y104.941 E0.02585
G1 X241.055 Y143.01 E2.29628
G1 X241.055 Y143.616 E0.02585
G1 X202.38 Y104.941 E2.33283
G1 X201.774 Y104.941 E0.02585
G1 X241.055 Y144.222 E2.36939
G1 X241.055 Y144.828 E0.02585
G1 X201.168 Y104.941 E2.40594
G1 X200.562 Y104.941 E0.02585
G1 X241.055 Y145.434 E2.44249
G1 X241.055 Y146.04 E0.02585
G1 X199.956 Y104.941 E2.47904
G1 X199.35 Y104.941 E0.02585
G1 X241.055 Y146.646 E2.5156
G1 X241.055 Y147.252 E0.02585
G1 X198.744 Y104.941 E2.55215
G1 X198.138 Y104.941 E0.02585
G1 X241.055 Y147.858 E2.5887
G1 X241.055 Y148.464 E0.02585
G1 X197.532 Y104.941 E2.62525
G1 X196.926 Y104.941 E0.02585
G1 X241.055 Y149.07 E2.66181
G1 X241.055 Y149.676 E0.02585
G1 X196.32 Y104.941 E2.69836
G1 X195.714 Y104.941 E0.02585
G1 X241.055 Y150.282 E2.73491
G1 X241.055 Y150.888 E0.02585
G1 X195.108 Y104.941 E2.77146
G1 X194.502 Y104.941 E0.02585
G1 X241.055 Y151.494 E2.80802
G1 X241.055 Y152.1 E0.02585
G1 X193.896 Y104.941 E2.84457
G1 X193.29 Y104.941 E0.02585
G1 X241.055 Y152.706 E2.88112
G1 X241.055 Y153.312 E0.02585
G1 X192.684 Y104.941 E2.91767
G1 X192.078 Y104.941 E0.02585
G1 X241.055 Y153.918 E2.95423
G1 X241.055 Y154.524 E0.02585
G1 X191.472 Y104.941 E2.99078
G1 X190.866 Y104.941 E0.02585
G1 X241.055 Y155.13 E3.02733
G1 X241.055 Y155.736 E0.02585
G1 X190.26 Y104.941 E3.06388
G1 X189.654 Y104.941 E0.02585
G1 X241.055 Y156.342 E3.10044
G1 X241.055 Y156.948 E0.02585
G1 X189.048 Y104.941 E3.13699
G1 X188.442 Y104.941 E0.02585
G1 X241.055 Y157.554 E3.17354
G1 X241.055 Y158.16 E0.02585
G1 X187.836 Y104.941 E3.21009
G1 X187.23 Y104.941 E0.02585
G1 X241.055 Y158.765 E3.24665
G1 X241.055 Y159.371 E0.02585
G1 X186.624 Y104.941 E3.2832
G1 X186.018 Y104.941 E0.02585
G1 X241.055 Y159.977 E3.31975
G1 X241.055 Y160.583 E0.02585
G1 X185.412 Y104.941 E3.35631
G1 X184.806 Y104.941 E0.02585
G1 X241.055 Y161.189 E3.39286
G1 X241.055 Y161.795 E0.02585
G1 X184.2 Y104.941 E3.42941
G1 X183.594 Y104.941 E0.02585
G1 X241.055 Y162.401 E3.46596
G1 X241.055 Y163.007 E0.02585
G1 X182.988 Y104.941 E3.50252
G1 X182.382 Y104.941 E0.02585
G1 X241.055 Y163.613 E3.53907
G1 X241.055 Y164.219 E0.02585
G1 X181.776 Y104.941 E3.57562
G1 X181.17 Y104.941 E0.02585
G1 X241.055 Y164.825 E3.61217
G1 X241.055 Y165.431 E0.02585
G1 X180.564 Y104.941 E3.64873
G1 X179.958 Y104.941 E0.02585
G1 X241.055 Y166.037 E3.68528
G1 X241.055 Y166.643 E0.02585
G1 X179.352 Y104.941 E3.72183
G1 X178.747 Y104.941 E0.02585
G1 X241.055 Y167.249 E3.75838
G1 X241.055 Y167.855 E0.02585
G1 X178.141 Y104.941 E3.79494
G1 X177.535 Y104.941 E0.02585
G1 X241.055 Y168.461 E3.83149
G1 X241.055 Y169.067 E0.02585
G1 X176.929 Y104.941 E3.86804
G1 X176.323 Y104.941 E0.02585
G1 X241.055 Y169.673 E3.90459
G1 X241.055 Y170.279 E0.02585
G1 X175.717 Y104.941 E3.94115
G1 X175.111 Y104.941 E0.02585
G1 X241.055 Y170.885 E3.9777
G1 X241.055 Y171.491 E0.02585
G1 X174.505 Y104.941 E4.01425
G1 X173.899 Y104.941 E0.02585
G1 X241.055 Y172.097 E4.0508
G1 X241.055 Y172.703 E0.02585
G1 X173.293 Y104.941 E4.08736
G1 X172.687 Y104.941 E0.02585
G1 X241.055 Y173.309 E4.12391
G1 X241.055 Y173.915 E0.02585
G1 X172.081 Y104.941 E4.16046
G1 X171.475 Y104.941 E0.02585
G1 X241.055 Y174.521 E4.19701
G1 X241.055 Y175.127 E0.02585
G1 X170.869 Y104.941 E4.23357
G1 X170.263 Y104.941 E0.02585
G1 X241.055 Y175.733 E4.27012
G1 X241.055 Y176.339 E0.02585
G1 X169.657 Y104.941 E4.30667
G1 X169.051 Y104.941 E0.02585
G1 X241.055 Y176.945 E4.34322
G1 X241.055 Y177.551 E0.02585
G1 X168.445 Y104.941 E4.37978
G1 X167.839 Y104.941 E0.02585
G1 X241.055 Y178.157 E4.41633
G1 X241.055 Y178.763 E0.02585
G1 X167.233 Y104.941 E4.45288
G1 X166.627 Y104.941 E0.02585
G1 X241.055 Y179.369 E4.48944
G1 X241.055 Y179.975 E0.02585
G1 X166.021 Y104.941 E4.52599
G1 X165.415 Y104.941 E0.02585
G1 X241.055 Y180.581 E4.56254
G1 X241.055 Y181.187 E0.02585
G1 X164.809 Y104.941 E4.59909
G1 X164.203 Y104.941 E0.02585
G1 X241.055 Y181.793 E4.63565
G1 X241.055 Y182.399 E0.02585
G1 X163.597 Y104.941 E4.6722
G1 X162.991 Y104.941 E0.02585
G1 X241.055 Y183.005 E4.70875
G1 X241.055 Y183.611 E0.02585
G1 X162.385 Y104.941 E4.7453
G1 X161.779 Y104.941 E0.02585
G1 X241.055 Y184.217 E4.78186
G1 X241.055 Y184.823 E0.02585
G1 X161.173 Y104.941 E4.81841
G1 X160.567 Y104.941 E0.02585
G1 X241.055 Y185.429 E4.85496
G1 X241.055 Y186.035 E0.02585
G1 X159.961 Y104.941 E4.89151
G1 X159.355 Y104.941 E0.02585
G1 X241.055 Y186.641 E4.92807
G1 X241.055 Y187.247 E0.02585
G1 X158.749 Y104.941 E4.96462
G1 X158.143 Y104.941 E0.02585
G1 X241.055 Y187.853 E5.00117
G1 X241.055 Y188.459 E0.02585
G1 X157.537 Y104.941 E5.03772
G1 X156.931 Y104.941 E0.02585
G1 X241.055 Y189.065 E5.07428
G1 X241.055 Y189.671 E0.02585
G1 X156.325 Y104.941 E5.11083
G1 X155.719 Y104.941 E0.02585
G1 X241.055 Y190.277 E5.14738
G1 X241.055 Y190.883 E0.02585
G1 X155.113 Y104.941 E5.18393
G1 X154.507 Y104.941 E0.02585
G1 X241.055 Y191.489 E5.22049
G1 X241.055 Y192.095 E0.02585
G1 X153.901 Y104.941 E5.25704
G1 X153.295 Y104.941 E0.02585
G1 X241.055 Y192.701 E5.29359
G1 X241.055 Y193.307 E0.02585
G1 X152.689 Y104.941 E5.33014
G1 X152.083 Y104.941 E0.02585
G1 X241.055 Y193.913 E5.3667
G1 X241.055 Y194.519 E0.02585
G1 X151.477 Y104.941 E5.40325
G1 X150.871 Y104.941 E0.02585
G1 X240.989 Y195.059 E5.43584
G1 X240.383 Y195.059 E0.02585
G1 X150.265 Y104.941 E5.43584
G1 X149.659 Y104.941 E0.02585
G1 X239.777 Y195.059 E5.43584
G1 X239.171 Y195.059 E0.02585
G1 X149.053 Y104.941 E5.43584
G1 X148.447 Y104.941 E0.02585
G1 X238.565 Y195.059 E5.43584
G1 X237.959 Y195.059 E0.02585
G1 X147.841 Y104.941 E5.43584
G1 X147.235 Y104.941 E0.02585
G1 X237.353 Y195.059 E5.43584
G1 X236.747 Y195.059 E0.02585
G1 X146.629 Y104.941 E5.43584
G1 X146.023 Y104.941 E0.02585
G1 X236.141 Y195.059 E5.43584
G1 X235.535 Y195.059 E0.02585
G1 X145.417 Y104.941 E5.43584
G1 X144.811 Y104.941 E0.02585
G1 X234.929 Y195.059 E5.43584
G1 X234.323 Y195.059 E0.02585
G1 X144.205 Y104.941 E5.43584
G1 X143.599 Y104.941 E0.02585
G1 X233.717 Y195.059 E5.43584
G1 X233.111 Y195.059 E0.02585
G1 X142.993 Y104.941 E5.43584
G1 X142.387 Y104.941 E0.02585
G1 X232.505 Y195.059 E5.43584
G1 X231.899 Y195.059 E0.02585
G1 X141.782 Y104.941 E5.43584
G1 X141.176 Y104.941 E0.02585
G1 X231.293 Y195.059 E5.43584
G1 X230.687 Y195.059 E0.02585
G1 X140.57 Y104.941 E5.43584
G1 X139.964 Y104.941 E0.02585
G1 X230.081 Y195.059 E5.43584
G1 X229.475 Y195.059 E0.02585
G1 X139.358 Y104.941 E5.43584
G1 X138.752 Y104.941 E0.02585
G1 X228.869 Y195.059 E5.43584
G1 X228.263 Y195.059 E0.02585
G1 X138.146 Y104.941 E5.43584
G1 X137.54 Y104.941 E0.02585
G1 X227.657 Y195.059 E5.43584
G1 X227.051 Y195.059 E0.02585
G1 X136.934 Y104.941 E5.43584
G1 X136.328 Y104.941 E0.02585
G1 X226.445 Y195.059 E5.43584
G1 X225.839 Y195.059 E0.02585
G1 X135.722 Y104.941 E5.43584
G1 X135.116 Y104.941 E0.02585
G1 X225.233 Y195.059 E5.43584
G1 X224.627 Y195.059 E0.02585
G1 X134.51 Y104.941 E5.43584
G1 X133.904 Y104.941 E0.02585
G1 X224.021 Y195.059 E5.43584
G1 X223.415 Y195.059 E0.02585
G1 X133.298 Y104.941 E5.43584
G1 X132.692 Y104.941 E0.02585
G1 X222.809 Y195.059 E5.43584
G1 X222.203 Y195.059 E0.02585
G1 X132.086 Y104.941 E5.43584
G1 X131.48 Y104.941 E0.02585
G1 X221.597 Y195.059 E5.43584
G1 X220.991 Y195.059 E0.02585
G1 X130.874 Y104.941 E5.43584
G1 X130.268 Y104.941 E0.02585
G1 X220.385 Y195.059 E5.43584
G1 X219.779 Y195.059 E0.02585
G1 X129.662 Y104.941 E5.43584
G1 X129.056 Y104.941 E0.02585
G1 X219.173 Y195.059 E5.43584
G1 X218.567 Y195.059 E0.02585
