; generated by SuperSlicer 2.4 on 2022-04-25 at 21:36:57 UTC


;
;

;
;
; 

; external perimeters extrusion width = 0.40mm
; perimeters extrusion width = 0.40mm
; infill extrusion width = 0.72mm
; solid infill extrusion width = 0.56mm
; top infill extrusion width = 0.40mm
; first layer extrusion width = 0.48mm

; object:{"name":"AP2_Shell_Low_Profile_V4","id":"AP2_Shell_Low_Profile_V4.stl id:0 copy 0","object_center":[165.000001,164.937899,0.000000],"boundingbox_center":[165.000001,164.937899,12.146439],"boundingbox_size":[290.999998,101.214818,24.292878]}
; plater:{"center":[165.000001,164.937899,0.000000],"boundingbox_center":[165.000001,164.937899,12.146439],"boundingbox_size":[290.999998,101.214818,24.292878]}

M73 P0 R231
;TYPE:Custom
START_PRINT T_BED=60 T_EXTRUDER=200
M107
G21 ; set units to millimeters
G90 ; use absolute coordinates
M83 ; use relative distances for extrusion
; Filament gcode
M104 S200 ; set temperature
M109 S200 ; set temperature and wait for it to be reached
M190 S60 ; set bed temperature and wait for it to be reached
M107
;LAYER_CHANGE
;Z:0.24
;HEIGHT:0.24
G1 E-0.6 F3000
G1 Z0.24 F9000
G92 E0
M204 S1000
G1 X18.496 Y112.607
G1 E0.6 F1800
;TYPE:Skirt
;WIDTH:0.52
G1 X17.044 Y113.508 E0.07988
G1 X16.295 Y114.521 E0.0589
G1 X15.9 Y116.184 E0.07988
G1 X15.922 Y116.638 E0.02124
G1 X25.803 Y207.095 E4.25375
G1 X26.511 Y208.899 E0.09056
G1 X27.818 Y209.999 E0.07988
G1 X29.481 Y210.393 E0.07988
G1 X300.519 Y210.393 E12.67013
M73 P0 R230
G1 X302.389 Y209.886 E0.09058
G1 X303.624 Y208.705 E0.07988
G1 X304.197 Y207.095 E0.07988
G1 X314.073 Y116.58 E4.25637
G1 X313.911 Y115.028 E0.07295
G1 X313.019 Y113.571 E0.07988
G1 X311.995 Y112.811 E0.05963
G1 X310.332 Y112.416 E0.07988
G1 X19.668 Y112.416 E13.58762
G1 X18.555 Y112.597 E0.0527
G1 X18.744 Y113.017 F9000
G1 F1800
G1 X17.374 Y113.836 E0.0746
G1 X16.761 Y114.637 E0.04717
G1 X16.367 Y116.184 E0.0746
G1 X16.386 Y116.587 E0.01887
G1 X26.267 Y207.045 E4.25375
G1 X26.765 Y208.448 E0.06958
G1 X27.934 Y209.533 E0.0746
G1 X29.481 Y209.927 E0.0746
G1 X300.519 Y209.927 E12.67013
G1 X301.968 Y209.584 E0.0696
G1 X303.174 Y208.539 E0.0746
G1 X303.733 Y207.044 E0.0746
G1 X313.61 Y116.53 E4.25637
G1 X313.499 Y115.274 E0.05892
G1 X312.688 Y113.9 E0.0746
G1 X311.879 Y113.276 E0.04777
G1 X310.332 Y112.883 E0.0746
G1 X19.668 Y112.883 E13.58762
G1 X18.803 Y113.009 E0.04082
; INIT printing object AP2_Shell_Low_Profile_V4.stl id:0 copy 0
G1 E-0.6 F3000
; printing object AP2_Shell_Low_Profile_V4.stl id:0 copy 0
; acceleration to travel
M204 S4000
G1 X212.077 Y176.488 F9000
; decel to extrusion
M204 S1000
G1 X260.395 Y192.357
; end travel
G1 E0.6 F1800
;TYPE:Internal perimeter
;WIDTH:0.48
G1 X260.395 Y197.894 E0.23674
G1 X292.789 Y197.894 E1.38502
G1 X292.789 Y191.5 E0.27338
G1 X260.395 Y191.5 E1.38502
G1 X260.395 Y192.297 E0.03408
G1 X260.824 Y192.357 F9000
G1 F1800
G1 X260.824 Y197.466 E0.21842
G1 X292.361 Y197.466 E1.34838
G1 X292.361 Y191.929 E0.23674
G1 X260.824 Y191.929 E1.34838
G1 X260.824 Y192.297 E0.01576
G1 X261.252 Y192.357 F9000
;TYPE:External perimeter
G1 F1800
G1 X261.252 Y197.037 E0.2001
G1 X291.932 Y197.037 E1.31174
G1 X291.932 Y192.357 E0.2001
G1 X261.312 Y192.357 E1.30917
;WIPE_START
M204 S4000
G1 X260.852 Y192.357 F9000
;WIPE_END
; acceleration to travel
G1 X270.219 Y143.549
; decel to extrusion
M204 S1000
G1 X272.56 Y131.347
; end travel
;TYPE:Internal perimeter
G1 F1800
G1 X304.097 Y131.347 E1.34838
G1 X304.097 Y124.953 E0.27338
G1 X271.703 Y124.953 E1.38502
G1 X271.703 Y131.347 E0.27338
G1 X272.5 Y131.347 E0.03408
G1 X272.56 Y130.918 F9000
G1 F1800
G1 X303.669 Y130.918 E1.33006
G1 X303.669 Y125.381 E0.23674
G1 X272.132 Y125.381 E1.34838
G1 X272.132 Y130.918 E0.23674
G1 X272.5 Y130.918 E0.01576
G1 X272.56 Y130.49 F9000
;TYPE:External perimeter
G1 F1800
G1 X303.24 Y130.49 E1.31174
G1 X303.24 Y125.81 E0.2001
G1 X272.56 Y125.81 E1.31174
G1 X272.56 Y130.43 E0.19753
;WIPE_START
M204 S4000
G1 X272.56 Y130.89 F9000
;WIPE_END
; acceleration to travel
G1 X108.094 Y149.11
; decel to extrusion
M204 S1000
M73 P0 R229
G1 X66.977 Y153.665
; end travel
;TYPE:Internal perimeter
G1 F1800
G1 X66.977 Y152.808 E0.03664
G1 X37.023 Y152.808 E1.2807
G1 X37.023 Y177.262 E1.04554
G1 X66.977 Y177.262 E1.2807
G1 X66.977 Y153.725 E1.00634
G1 X66.549 Y153.665 F9000
G1 F1800
G1 X66.549 Y153.236 E0.01832
G1 X37.451 Y153.236 E1.24406
G1 X37.451 Y176.833 E1.0089
G1 X66.549 Y176.833 E1.24406
G1 X66.549 Y153.725 E0.98802
G1 X66.12 Y153.665 F9000
;TYPE:External perimeter
G1 F1800
G1 X37.88 Y153.665 E1.20742
G1 X37.88 Y176.405 E0.97226
G1 X66.12 Y176.405 E1.20742
G1 X66.12 Y153.725 E0.9697
;WIPE_START
M204 S4000
G1 X66.12 Y153.265 F9000
;WIPE_END
; acceleration to travel
G1 X68.908 Y184.539
; decel to extrusion
M204 S1000
G1 X69.605 Y192.357
; end travel
;TYPE:Internal perimeter
G1 F1800
G1 X69.605 Y191.5 E0.03664
G1 X37.211 Y191.5 E1.38502
G1 X37.211 Y197.894 E0.27338
G1 X69.605 Y197.894 E1.38502
G1 X69.605 Y192.417 E0.23417
G1 X69.176 Y192.357 F9000
G1 F1800
G1 X69.176 Y191.929 E0.01832
G1 X37.639 Y191.929 E1.34838
G1 X37.639 Y197.466 E0.23674
G1 X69.176 Y197.466 E1.34838
G1 X69.176 Y192.417 E0.21585
G1 X68.748 Y192.357 F9000
;TYPE:External perimeter
G1 F1800
G1 X38.068 Y192.357 E1.31174
G1 X38.068 Y197.037 E0.2001
G1 X68.748 Y197.037 E1.31174
G1 X68.748 Y192.417 E0.19753
;WIPE_START
M204 S4000
G1 X68.748 Y191.957 F9000
;WIPE_END
G1 E-0.6 F3000
; acceleration to travel
G1 X63.268 Y142.783 F9000
; decel to extrusion
M204 S1000
G1 X61.899 Y130.49
; end travel
G1 E0.6 F1800
;TYPE:Internal perimeter
G1 X61.899 Y124.953 E0.23674
G1 X29.505 Y124.953 E1.38502
G1 X29.505 Y131.347 E0.27338
G1 X61.899 Y131.347 E1.38502
G1 X61.899 Y130.55 E0.03408
G1 X61.47 Y130.49 F9000
G1 F1800
G1 X61.47 Y125.381 E0.21842
G1 X29.933 Y125.381 E1.34838
G1 X29.933 Y130.918 E0.23674
G1 X61.47 Y130.918 E1.34838
G1 X61.47 Y130.55 E0.01576
G1 X61.042 Y130.49 F9000
;TYPE:External perimeter
G1 F1800
G1 X61.042 Y125.81 E0.2001
G1 X30.362 Y125.81 E1.31174
G1 X30.362 Y130.49 E0.2001
G1 X60.982 Y130.49 E1.30917
;WIPE_START
M204 S4000
G1 X61.442 Y130.49 F9000
;WIPE_END
G1 E-0.6 F3000
; acceleration to travel
G1 X28.936 Y119.868 F9000
; decel to extrusion
M204 S1000
G1 X20.81 Y117.213
; end travel
G1 E0.6 F1800
;TYPE:Internal perimeter
G1 X309.179 Y117.213 E12.32935
G1 X299.535 Y205.597 E3.80133
G1 X30.465 Y205.597 E11.50424
G1 X20.817 Y117.272 E3.79881
G1 X20.332 Y116.784 F9000
G1 F1800
G1 X309.657 Y116.784 E12.3702
M73 P0 R228
G1 X299.92 Y206.025 E3.83818
G1 X30.08 Y206.025 E11.5371
M73 P1 R228
G1 X20.339 Y116.844 E3.83567
G1 X19.855 Y116.356 F9000
;TYPE:External perimeter
G1 F1800
G1 X310.135 Y116.356 E12.41106
G1 X300.304 Y206.454 E3.87504
G1 X29.696 Y206.454 E11.56996
G1 X19.861 Y116.415 E3.87253
;WIPE_START
M204 S4000
G1 X20.208 Y116.543 F9000
;WIPE_END
; acceleration to travel
G1 X244.841 Y117.72
; decel to extrusion
M204 S1000
G1 X309.023 Y118.056
; end travel
;TYPE:Solid infill
;WIDTH:0.478253
G1 F3600
G1 X308.428 Y117.461 E0.03582
G1 X307.822 Y117.461 E0.02581
G1 X308.796 Y118.435 E0.05866
G1 X308.736 Y118.981 E0.02341
G1 X307.216 Y117.461 E0.09158
G1 X306.61 Y117.461 E0.02581
G1 X308.677 Y119.528 E0.1245
G1 X308.617 Y120.074 E0.02341
G1 X306.004 Y117.461 E0.15741
G1 X305.398 Y117.461 E0.02581
G1 X308.557 Y120.62 E0.19033
G1 X308.498 Y121.167 E0.02341
G1 X304.792 Y117.461 E0.22324
G1 X304.186 Y117.461 E0.02581
G1 X308.438 Y121.713 E0.25616
G1 X308.378 Y122.26 E0.02341
G1 X303.58 Y117.461 E0.28908
G1 X302.974 Y117.461 E0.02581
G1 X308.319 Y122.806 E0.32199
G1 X308.259 Y123.352 E0.02341
G1 X302.368 Y117.461 E0.35491
G1 X301.762 Y117.461 E0.02581
G1 X308.2 Y123.899 E0.38783
G1 X308.14 Y124.445 E0.02341
G1 X301.156 Y117.461 E0.42074
G1 X300.55 Y117.461 E0.02581
G1 X308.08 Y124.991 E0.45366
G1 X308.021 Y125.538 E0.02341
G1 X299.944 Y117.461 E0.48657
G1 X299.338 Y117.461 E0.02581
G1 X307.961 Y126.084 E0.51949
G1 X307.902 Y126.631 E0.02341
G1 X298.732 Y117.461 E0.55241
G1 X298.126 Y117.461 E0.02581
G1 X307.842 Y127.177 E0.58532
G1 X307.782 Y127.723 E0.02341
G1 X297.52 Y117.461 E0.61824
G1 X296.914 Y117.461 E0.02581
G1 X307.723 Y128.27 E0.65115
G1 X307.663 Y128.816 E0.02341
G1 X304.346 Y125.499 E0.19985
G1 X304.346 Y126.105 E0.02581
G1 X307.603 Y129.362 E0.19626
G1 X307.544 Y129.909 E0.02341
G1 X304.346 Y126.711 E0.19266
G1 X304.346 Y127.317 E0.02581
G1 X307.484 Y130.455 E0.18907
G1 X307.425 Y131.001 E0.02341
G1 X304.346 Y127.923 E0.18548
G1 X304.346 Y128.529 E0.02581
G1 X307.365 Y131.548 E0.18189
G1 X307.305 Y132.094 E0.02341
G1 X304.346 Y129.135 E0.1783
G1 X304.346 Y129.741 E0.02581
G1 X307.246 Y132.641 E0.17471
G1 X307.186 Y133.187 E0.02341
G1 X304.346 Y130.347 E0.17111
G1 X304.346 Y130.953 E0.02581
G1 X307.127 Y133.733 E0.16752
G1 X307.067 Y134.28 E0.02341
G1 X304.346 Y131.559 E0.16393
G1 X304.346 Y131.595 E0.00156
G1 X303.776 Y131.595 E0.02426
G1 X307.007 Y134.826 E0.19465
G1 X306.948 Y135.372 E0.02341
G1 X303.17 Y131.595 E0.22756
G1 X302.564 Y131.595 E0.02581
G1 X306.888 Y135.919 E0.26048
G1 X306.828 Y136.465 E0.02341
G1 X301.958 Y131.595 E0.29339
G1 X301.352 Y131.595 E0.02581
G1 X306.769 Y137.012 E0.32631
G1 X306.709 Y137.558 E0.02341
G1 X300.747 Y131.595 E0.35923
G1 X300.141 Y131.595 E0.02581
G1 X306.65 Y138.104 E0.39214
G1 X306.59 Y138.651 E0.02341
G1 X299.535 Y131.595 E0.42506
G1 X298.929 Y131.595 E0.02581
G1 X306.53 Y139.197 E0.45797
G1 X306.471 Y139.743 E0.02341
G1 X298.323 Y131.595 E0.49089
G1 X297.717 Y131.595 E0.02581
G1 X306.411 Y140.29 E0.52381
G1 X306.352 Y140.836 E0.02341
G1 X297.111 Y131.595 E0.55672
G1 X296.505 Y131.595 E0.02581
G1 X306.292 Y141.382 E0.58964
G1 X306.232 Y141.929 E0.02341
G1 X295.899 Y131.595 E0.62255
G1 X295.293 Y131.595 E0.02581
G1 X306.173 Y142.475 E0.65547
G1 X306.113 Y143.022 E0.02341
G1 X294.687 Y131.595 E0.68839
G1 X294.081 Y131.595 E0.02581
G1 X306.053 Y143.568 E0.7213
G1 X305.994 Y144.114 E0.02341
G1 X293.475 Y131.595 E0.75422
G1 X292.869 Y131.595 E0.02581
G1 X305.934 Y144.661 E0.78713
G1 X305.875 Y145.207 E0.02341
G1 X292.263 Y131.595 E0.82005
G1 X291.657 Y131.595 E0.02581
G1 X305.815 Y145.753 E0.85297
G1 X305.755 Y146.3 E0.02341
G1 X291.051 Y131.595 E0.88588
G1 X290.445 Y131.595 E0.02581
G1 X305.696 Y146.846 E0.9188
G1 X305.636 Y147.392 E0.02341
G1 X289.839 Y131.595 E0.95171
G1 X289.233 Y131.595 E0.02581
G1 X305.577 Y147.939 E0.98463
G1 X305.517 Y148.485 E0.02341
G1 X288.627 Y131.595 E1.01755
G1 X288.021 Y131.595 E0.02581
G1 X305.457 Y149.032 E1.05046
G1 X305.398 Y149.578 E0.02341
G1 X287.415 Y131.595 E1.08338
G1 X286.809 Y131.595 E0.02581
G1 X305.338 Y150.124 E1.11629
G1 X305.278 Y150.671 E0.02341
G1 X286.203 Y131.595 E1.14921
G1 X285.597 Y131.595 E0.02581
G1 X305.219 Y151.217 E1.18213
M73 P1 R227
G1 X305.159 Y151.763 E0.02341
G1 X284.991 Y131.595 E1.21504
G1 X284.385 Y131.595 E0.02581
G1 X305.1 Y152.31 E1.24796
G1 X305.04 Y152.856 E0.02341
G1 X283.779 Y131.595 E1.28088
G1 X283.173 Y131.595 E0.02581
G1 X304.98 Y153.403 E1.31379
G1 X304.921 Y153.949 E0.02341
G1 X282.567 Y131.595 E1.34671
G1 X281.961 Y131.595 E0.02581
G1 X304.861 Y154.495 E1.37962
G1 X304.802 Y155.042 E0.02341
G1 X281.355 Y131.595 E1.41254
G1 X280.749 Y131.595 E0.02581
G1 X304.742 Y155.588 E1.44546
G1 X304.682 Y156.134 E0.02341
G1 X280.143 Y131.595 E1.47837
G1 X279.537 Y131.595 E0.02581
G1 X304.623 Y156.681 E1.51129
G1 X304.563 Y157.227 E0.02341
G1 X278.931 Y131.595 E1.5442
G1 X278.325 Y131.595 E0.02581
G1 X304.503 Y157.773 E1.57712
G1 X304.444 Y158.32 E0.02341
G1 X277.719 Y131.595 E1.61004
G1 X277.113 Y131.595 E0.02581
G1 X304.384 Y158.866 E1.64295
G1 X304.325 Y159.413 E0.02341
G1 X276.507 Y131.595 E1.67587
G1 X275.901 Y131.595 E0.02581
G1 X304.265 Y159.959 E1.70878
G1 X304.205 Y160.505 E0.02341
G1 X275.295 Y131.595 E1.7417
G1 X274.689 Y131.595 E0.02581
G1 X304.146 Y161.052 E1.77462
G1 X304.086 Y161.598 E0.02341
G1 X274.083 Y131.595 E1.80753
G1 X273.477 Y131.595 E0.02581
G1 X304.027 Y162.144 E1.84045
G1 X303.967 Y162.691 E0.02341
G1 X272.871 Y131.595 E1.87336
G1 X272.265 Y131.595 E0.02581
G1 X304.074 Y163.404 E1.91635
G1 E-0.6 F3000
; acceleration to travel
M204 S4000
G1 X297.714 Y126.502 F9000
; decel to extrusion
M204 S1000
G1 X296.124 Y117.277
; end travel
G1 E0.6 F1800
G1 F3600
G1 X303.551 Y124.704 E0.44745
G1 X302.945 Y124.704 E0.02581
G1 X295.702 Y117.461 E0.43635
G1 X295.096 Y117.461 E0.02581
G1 X302.339 Y124.704 E0.43635
G1 X301.733 Y124.704 E0.02581
G1 X294.49 Y117.461 E0.43635
G1 X293.884 Y117.461 E0.02581
G1 X301.127 Y124.704 E0.43635
G1 X300.521 Y124.704 E0.02581
G1 X293.278 Y117.461 E0.43635
G1 X292.672 Y117.461 E0.02581
G1 X299.915 Y124.704 E0.43635
G1 X299.309 Y124.704 E0.02581
G1 X292.066 Y117.461 E0.43635
G1 X291.46 Y117.461 E0.02581
G1 X298.703 Y124.704 E0.43635
G1 X298.097 Y124.704 E0.02581
G1 X290.854 Y117.461 E0.43635
G1 X290.249 Y117.461 E0.02581
G1 X297.491 Y124.704 E0.43635
G1 X296.885 Y124.704 E0.02581
G1 X289.643 Y117.461 E0.43635
G1 X289.037 Y117.461 E0.02581
G1 X296.279 Y124.704 E0.43635
G1 X295.673 Y124.704 E0.02581
G1 X288.431 Y117.461 E0.43635
G1 X287.825 Y117.461 E0.02581
G1 X295.067 Y124.704 E0.43635
G1 X294.461 Y124.704 E0.02581
G1 X287.219 Y117.461 E0.43635
G1 X286.613 Y117.461 E0.02581
G1 X293.856 Y124.704 E0.43635
G1 X293.25 Y124.704 E0.02581
G1 X286.007 Y117.461 E0.43635
G1 X285.401 Y117.461 E0.02581
G1 X292.644 Y124.704 E0.43635
G1 X292.038 Y124.704 E0.02581
G1 X284.795 Y117.461 E0.43635
G1 X284.189 Y117.461 E0.02581
G1 X291.432 Y124.704 E0.43635
G1 X290.826 Y124.704 E0.02581
G1 X283.583 Y117.461 E0.43635
G1 X282.977 Y117.461 E0.02581
G1 X290.22 Y124.704 E0.43635
G1 X289.614 Y124.704 E0.02581
G1 X282.371 Y117.461 E0.43635
G1 X281.765 Y117.461 E0.02581
G1 X289.008 Y124.704 E0.43635
G1 X288.402 Y124.704 E0.02581
G1 X281.159 Y117.461 E0.43635
G1 X280.553 Y117.461 E0.02581
G1 X287.796 Y124.704 E0.43635
G1 X287.19 Y124.704 E0.02581
G1 X279.947 Y117.461 E0.43635
G1 X279.341 Y117.461 E0.02581
G1 X286.584 Y124.704 E0.43635
G1 X285.978 Y124.704 E0.02581
G1 X278.735 Y117.461 E0.43635
G1 X278.129 Y117.461 E0.02581
G1 X285.372 Y124.704 E0.43635
G1 X284.766 Y124.704 E0.02581
G1 X277.523 Y117.461 E0.43635
G1 X276.917 Y117.461 E0.02581
G1 X284.16 Y124.704 E0.43635
G1 X283.554 Y124.704 E0.02581
G1 X276.311 Y117.461 E0.43635
G1 X275.705 Y117.461 E0.02581
G1 X282.948 Y124.704 E0.43635
G1 X282.342 Y124.704 E0.02581
G1 X275.099 Y117.461 E0.43635
G1 X274.493 Y117.461 E0.02581
G1 X281.736 Y124.704 E0.43635
G1 X281.13 Y124.704 E0.02581
G1 X273.887 Y117.461 E0.43635
G1 X273.281 Y117.461 E0.02581
G1 X280.524 Y124.704 E0.43635
G1 X279.918 Y124.704 E0.02581
G1 X272.675 Y117.461 E0.43635
G1 X272.069 Y117.461 E0.02581
G1 X279.312 Y124.704 E0.43635
G1 X278.706 Y124.704 E0.02581
G1 X271.463 Y117.461 E0.43635
G1 X270.857 Y117.461 E0.02581
G1 X278.1 Y124.704 E0.43635
G1 X277.494 Y124.704 E0.02581
G1 X270.251 Y117.461 E0.43635
G1 X269.645 Y117.461 E0.02581
G1 X276.888 Y124.704 E0.43635
G1 X276.282 Y124.704 E0.02581
G1 X269.039 Y117.461 E0.43635
G1 X268.433 Y117.461 E0.02581
G1 X275.676 Y124.704 E0.43635
G1 X275.07 Y124.704 E0.02581
G1 X267.827 Y117.461 E0.43635
G1 X267.221 Y117.461 E0.02581
G1 X274.464 Y124.704 E0.43635
G1 X273.858 Y124.704 E0.02581
G1 X266.615 Y117.461 E0.43635
G1 X266.009 Y117.461 E0.02581
G1 X273.252 Y124.704 E0.43635
G1 X272.646 Y124.704 E0.02581
G1 X265.403 Y117.461 E0.43635
G1 X264.797 Y117.461 E0.02581
G1 X272.04 Y124.704 E0.43635
G1 X271.455 Y124.704 E0.02493
G1 X271.455 Y124.725 E0.00088
G1 X264.191 Y117.461 E0.4376
G1 X263.585 Y117.461 E0.02581
G1 X271.455 Y125.331 E0.47411
G1 X271.455 Y125.937 E0.02581
G1 X262.979 Y117.461 E0.51062
G1 X262.373 Y117.461 E0.02581
G1 X271.455 Y126.543 E0.54712
G1 X271.455 Y127.149 E0.02581
G1 X261.767 Y117.461 E0.58363
G1 X261.161 Y117.461 E0.02581
G1 X271.455 Y127.755 E0.62014
G1 X271.455 Y128.361 E0.02581
G1 X260.555 Y117.461 E0.65665
G1 X259.949 Y117.461 E0.02581
G1 X271.455 Y128.967 E0.69315
G1 X271.455 Y129.573 E0.02581
G1 X259.343 Y117.461 E0.72966
G1 X258.737 Y117.461 E0.02581
G1 X271.455 Y130.179 E0.76617
G1 X271.455 Y130.785 E0.02581
G1 X258.131 Y117.461 E0.80268
G1 X257.525 Y117.461 E0.02581
