;FLAVOR:Marlin
;TIME:3092
;Filament used: 2.06424m
;Layer height: 0.2
;MINX:152.357
;MINY:147.832
;MINZ:0.2
;MAXX:190.02
;MAXY:182.177
;MAXZ:27
;Generated with Cura_SteamEngine 5.0.0-beta+1
M140 S110
M105
M190 S110
M104 S245
M105
M109 S245
M82 ;absolute extrusion mode
START_PRINT T_BED=110 T_EXTRUDER=245
G92 E0
G92 E0
G1 F3000 E-1.1
;LAYER_COUNT:135
;LAYER:0
M107
M204 S2000
G0 F9000 X153.352 Y149.061 Z0.2
G0 X152.357 Y152.112
M204 S1000
;TYPE:SKIRT
G1 F1800 E0
G1 F2400 X152.365 Y151.491 E0.02024
G1 X152.412 Y150.956 E0.03775
G1 X152.538 Y150.435 E0.05522
G1 X152.74 Y149.938 E0.07271
G1 X153.013 Y149.477 E0.09017
G1 X153.352 Y149.061 E0.10766
G1 X153.748 Y148.7 E0.12513
G1 X154.194 Y148.402 E0.14261
G1 X154.68 Y148.174 E0.16011
G1 X155.064 Y148.051 E0.17325
G1 X155.395 Y147.975 E0.18432
G1 X155.789 Y147.904 E0.19737
G1 X156.36 Y147.848 E0.21607
G1 X157.232 Y147.832 E0.2445
G1 X172.922 Y147.837 E0.75591
G1 X173.644 Y147.85 E0.77945
G1 X174.02 Y147.876 E0.79174
G1 X175.478 Y148.056 E0.83962
G1 X178.228 Y148.355 E0.92978
G1 X180.921 Y148.572 E1.01785
G1 X183.648 Y148.714 E1.10685
G1 X184.995 Y148.745 E1.15077
G1 X185.089 Y148.754 E1.15385
G1 X186.416 Y148.789 E1.19712
G1 X186.949 Y148.843 E1.21458
G1 X187.469 Y148.976 E1.23207
G1 X187.963 Y149.184 E1.24955
G1 X188.421 Y149.464 E1.26704
G1 X188.832 Y149.808 E1.28451
G1 X189.187 Y150.21 E1.30199
G1 X189.479 Y150.66 E1.31948
G1 X189.638 Y150.988 E1.33136
G1 X189.831 Y151.554 E1.35085
G1 X189.904 Y151.846 E1.36066
G1 X190.009 Y152.603 E1.38557
G1 X190.02 Y153.037 E1.39972
G1 X189.762 Y177.606 E2.20059
G1 X189.742 Y178.348 E2.22479
G1 X189.66 Y179.021 E2.24689
G1 X189.616 Y179.222 E2.25359
G1 X189.392 Y179.906 E2.27705
G1 X189.339 Y180.026 E2.28133
G1 X189.087 Y180.5 E2.29883
G1 X188.766 Y180.93 E2.31632
G1 X188.386 Y181.308 E2.33379
G1 X187.954 Y181.625 E2.35125
G1 X187.479 Y181.875 E2.36875
G1 X186.972 Y182.051 E2.38624
G1 X186.445 Y182.15 E2.40372
G1 X186.095 Y182.172 E2.41515
G1 X185.638 Y182.177 E2.43005
G1 X184.495 Y182.164 E2.46731
G1 X183.667 Y182.139 E2.49431
G1 X180.909 Y182.032 E2.58427
G1 X178.143 Y182.003 E2.67443
G1 X175.474 Y182.05 E2.76144
G1 X174.482 Y182.1 E2.79382
G1 X174.383 Y182.097 E2.79705
G1 X172.856 Y182.157 E2.84686
G1 X172.214 Y182.165 E2.86778
G1 X158.006 Y182.163 E3.33089
G1 X157.272 Y182.152 E3.35482
G1 X156.908 Y182.128 E3.36671
G1 X156.416 Y182.044 E3.38298
G1 X156.206 Y181.993 E3.39002
G1 X155.659 Y181.813 E3.40879
G1 X155.583 Y181.781 E3.41148
G1 X155.106 Y181.537 E3.42895
G1 X154.67 Y181.224 E3.44644
G1 X154.285 Y180.85 E3.46394
G1 X153.961 Y180.423 E3.48141
G1 X153.703 Y179.953 E3.49888
G1 X153.518 Y179.45 E3.51635
G1 X153.41 Y178.924 E3.53385
G1 X153.381 Y178.53 E3.54673
G1 X153.362 Y177.502 E3.58024
G1 X153.362 Y167.974 E3.89081
G1 X153.323 Y165.193 E3.98146
G1 X153.207 Y162.464 E4.0705
G1 X153.015 Y159.757 E4.15895
G1 X152.608 Y155.894 E4.28556
G1 X152.396 Y154.211 E4.34085
G1 X152.369 Y153.84 E4.35298
G1 X152.36 Y153.407 E4.3671
G1 X152.357 Y152.112 E4.40931
M204 S2000
G0 F9000 X152.757 Y152.117
M204 S1000
G1 F2400 X152.765 Y151.496 E4.42955
G1 X152.812 Y150.992 E4.44605
G1 X152.937 Y150.503 E4.4625
G1 X153.138 Y150.038 E4.47901
G1 X153.409 Y149.612 E4.49547
G1 X153.744 Y149.233 E4.51196
G1 X154.134 Y148.912 E4.52842
G1 X154.571 Y148.657 E4.54491
G1 X155.104 Y148.455 E4.56349
G1 X155.465 Y148.369 E4.57559
G1 X155.859 Y148.298 E4.58864
G1 X156.367 Y148.248 E4.60527
G1 X157.232 Y148.232 E4.63347
G1 X172.915 Y148.237 E5.14466
G1 X173.637 Y148.25 E5.1682
G1 X173.971 Y148.273 E5.17911
G1 X175.452 Y148.456 E5.22775
G1 X178.153 Y148.75 E5.31631
G1 X180.904 Y148.971 E5.40627
G1 X183.652 Y149.114 E5.49596
G1 X184.986 Y149.145 E5.53945
G1 X185.075 Y149.154 E5.54237
G1 X186.405 Y149.189 E5.58573
G1 X186.908 Y149.242 E5.60222
G1 X187.396 Y149.374 E5.6187
G1 X187.857 Y149.581 E5.63517
G1 X188.28 Y149.858 E5.65165
G1 X188.654 Y150.198 E5.66813
G1 X188.97 Y150.593 E5.68461
G1 X189.271 Y151.148 E5.70519
G1 X189.442 Y151.651 E5.72251
G1 X189.515 Y151.943 E5.73232
G1 X189.609 Y152.616 E5.75447
G1 X189.62 Y153.033 E5.76807
G1 X189.362 Y177.595 E6.56871
G1 X189.342 Y178.337 E6.5929
G1 X189.269 Y178.935 E6.61254
G1 X189.225 Y179.136 E6.61925
G1 X189.026 Y179.745 E6.64013
G1 X188.973 Y179.865 E6.6444
G1 X188.733 Y180.31 E6.66088
G1 X188.426 Y180.711 E6.67735
G1 X188.059 Y181.059 E6.69383
G1 X187.642 Y181.345 E6.71031
G1 X187.186 Y181.562 E6.72677
G1 X186.7 Y181.704 E6.74328
G1 X186.089 Y181.772 E6.76331
G1 X185.642 Y181.777 E6.77789
G1 X184.507 Y181.765 E6.81488
G1 X183.683 Y181.74 E6.84175
G1 X180.894 Y181.631 E6.93273
G1 X178.14 Y181.603 E7.0225
G1 X175.447 Y181.651 E7.11029
G1 X174.462 Y181.7 E7.14244
G1 X172.85 Y181.757 E7.19501
G1 X172.215 Y181.765 E7.21571
G1 X158.012 Y181.763 E7.67866
G1 X157.278 Y181.752 E7.70259
G1 X156.948 Y181.73 E7.71337
G1 X156.511 Y181.656 E7.72781
G1 X156.301 Y181.605 E7.73486
G1 X155.814 Y181.444 E7.75158
G1 X155.738 Y181.412 E7.75426
G1 X155.289 Y181.18 E7.77074
G1 X154.882 Y180.88 E7.78722
G1 X154.528 Y180.519 E7.8037
G1 X154.235 Y180.107 E7.82018
G1 X154.01 Y179.654 E7.83666
G1 X153.859 Y179.172 E7.85313
G1 X153.781 Y178.523 E7.87443
G1 X153.762 Y177.502 E7.90772
G1 X153.762 Y167.968 E8.21848
G1 X153.722 Y165.17 E8.30969
G1 X153.607 Y162.453 E8.39833
G1 X153.413 Y159.717 E8.48773
G1 X153.005 Y155.844 E8.61467
G1 X152.793 Y154.161 E8.66996
G1 X152.769 Y153.832 E8.68071
G1 X152.76 Y153.406 E8.6946
G1 X152.757 Y152.117 E8.73662
M204 S2000
G1 F3000 E7.63662
;MESH:probe.stl
G0 F9000 X155.632 Y154.65
G0 X155.957 Y154.839
G0 X156.307 Y154.91
G0 X157.819 Y171.11
M204 S1000
;TYPE:WALL-OUTER
G1 F1800 E8.73662
G1 F1672.5 X157.822 Y171.069 E8.73854
G1 F1967.2 X157.962 Y170.841 E8.74918
G1 F2400 X157.971 Y170.812 E8.75017
G1 X158.081 Y170.53 E8.76004
G1 X158.218 Y170.29 E8.76904
G1 X158.375 Y170.084 E8.77749
G1 X158.395 Y170.062 E8.77846
G1 X158.592 Y169.87 E8.78742
G1 X158.615 Y169.851 E8.78839
G1 X158.828 Y169.698 E8.79694
G1 X158.853 Y169.682 E8.79791
G1 X159.091 Y169.56 E8.80663
G1 X159.361 Y169.465 E8.81596
G1 X159.391 Y169.457 E8.81697
G1 X159.654 Y169.409 E8.82568
G1 X159.927 Y169.396 E8.83459
G1 X159.958 Y169.397 E8.8356
G1 X160.222 Y169.425 E8.84426
G1 X160.252 Y169.43 E8.84525
G1 X160.529 Y169.504 E8.85459
G1 X160.771 Y169.602 E8.8631
G1 X160.799 Y169.616 E8.86412
G1 X161.034 Y169.758 E8.87307
G1 X161.256 Y169.939 E8.88241
G1 X161.273 Y169.955 E8.88317
G1 X161.458 Y170.16 E8.89217
G1 X161.614 Y170.391 E8.90126
G1 X161.628 Y170.416 E8.90219
G1 X161.746 Y170.663 E8.91111
G1 X161.836 Y170.951 E8.92095
G1 X161.879 Y171.241 E8.9305
G1 X161.881 Y171.513 E8.93937
G1 X161.879 Y171.541 E8.94028
G1 X161.839 Y171.827 E8.9497
G1 X161.76 Y172.091 E8.95868
G1 X161.634 Y172.364 E8.96848
G1 X161.479 Y172.603 E8.97776
G1 X161.461 Y172.628 E8.97877
G1 X161.286 Y172.824 E8.98733
G1 X161.264 Y172.845 E8.98832
G1 X161.07 Y173.005 E8.99652
G1 X160.823 Y173.16 E9.00603
G1 X160.797 Y173.174 E9.00699
G1 X160.558 Y173.277 E9.01547
G1 X160.261 Y173.36 E9.02552
G1 X159.961 Y173.393 E9.03536
G1 X159.696 Y173.384 E9.044
G1 X159.669 Y173.382 E9.04489
G1 X159.393 Y173.335 E9.05401
G1 X159.361 Y173.326 E9.0551
G1 X159.117 Y173.241 E9.06352
G1 X159.091 Y173.23 E9.06444
G1 X158.853 Y173.109 E9.07314
G1 X158.828 Y173.093 E9.07411
G1 X158.615 Y172.94 E9.08266
G1 X158.592 Y172.921 E9.08363
G1 X158.403 Y172.738 E9.0922
G1 X158.233 Y172.522 E9.10116
G1 X158.218 Y172.499 E9.10206
G1 X158.082 Y172.261 E9.11099
G1 X157.981 Y172.004 E9.11999
G1 X157.973 Y171.978 E9.12088
G1 F2008.4 X157.834 Y171.723 E9.13219
G1 F1705.2 X157.819 Y171.68 E9.13428
G1 F1693.1 X157.804 Y171.398 E9.14733
G1 X157.819 Y171.11 E9.16065
M204 S2000
G1 F3000 E8.06065
G0 F9000 X157.595 Y171.094
G0 X157.699 Y169.969
G0 X158.213 Y169.391
G0 X158.864 Y168.993
G0 X159.598 Y168.801
G0 X160.343 Y168.826
G0 X161.06 Y169.065
G0 X161.684 Y169.504
G0 X162.824 Y172.006
G0 X159.002 Y174.263
G0 X158.342 Y174.19
G0 X158.281 Y177.245
G0 X171.99 Y177.247
G0 X171.926 Y174.188
G0 X168.028 Y172.732
G0 X167.8 Y171.722
G1 F1800 E9.16065
G0 F9000 X168.408 Y171.678
M204 S1000
G1 F2400 X168.39 Y171.396 E9.16986
G1 X168.411 Y171.093 E9.17976
G1 X168.472 Y170.818 E9.18895
G1 X168.576 Y170.548 E9.19838
G1 X168.719 Y170.294 E9.20788
G1 X168.881 Y170.083 E9.21655
G1 X168.9 Y170.062 E9.21747
G1 X169.107 Y169.861 E9.22688
G1 X169.344 Y169.691 E9.23638
G1 X169.595 Y169.561 E9.2456
G1 X169.621 Y169.55 E9.24652
G1 X169.866 Y169.465 E9.25497
G1 X169.895 Y169.457 E9.25595
G1 X170.157 Y169.409 E9.26463
G1 X170.432 Y169.396 E9.27361
G1 X170.463 Y169.397 E9.27462
G1 X170.727 Y169.425 E9.28327
G1 X170.756 Y169.43 E9.28423
G1 X171.033 Y169.504 E9.29357
G1 X171.275 Y169.602 E9.30208
G1 X171.303 Y169.616 E9.3031
G1 X171.527 Y169.751 E9.31163
G1 X171.551 Y169.768 E9.31259
G1 X171.756 Y169.934 E9.32119
G1 X171.956 Y170.151 E9.33081
G1 X171.974 Y170.174 E9.33176
G1 X172.126 Y170.401 E9.34066
G1 X172.141 Y170.428 E9.34167
G1 F2394 X172.262 Y170.691 E9.35113
G1 F2038.2 X172.401 Y170.912 E9.36115
G1 F1705.2 X172.432 Y170.946 E9.36326
G1 F1669.6 X172.464 Y171.218 E9.37609
G1 F1705.2 X172.465 Y171.262 E9.37811
G1 X172.462 Y171.58 E9.3927
G1 F1669.6 X172.435 Y171.839 E9.4049
G1 F1705.2 X172.406 Y171.867 E9.40675
G1 F2038.2 X172.266 Y172.084 E9.41666
G1 F2400 X172.257 Y172.108 E9.4175
G1 X172.142 Y172.361 E9.42656
G1 X172.127 Y172.388 E9.42756
G1 X171.984 Y172.604 E9.43601
G1 X171.965 Y172.628 E9.437
G1 X171.776 Y172.836 E9.44617
G1 X171.576 Y173.004 E9.45468
G1 X171.327 Y173.161 E9.46427
G1 X171.301 Y173.174 E9.46522
G1 X171.062 Y173.277 E9.4737
G1 X170.783 Y173.355 E9.48315
G1 X170.754 Y173.361 E9.48411
G1 X170.478 Y173.393 E9.49317
G1 X170.2 Y173.384 E9.50223
G1 X170.173 Y173.382 E9.50312
G1 X169.898 Y173.335 E9.51221
G1 X169.866 Y173.326 E9.51329
G1 X169.621 Y173.241 E9.52175
G1 X169.595 Y173.23 E9.52267
G1 X169.358 Y173.108 E9.53136
G1 X169.333 Y173.093 E9.53231
G1 X169.12 Y172.94 E9.54085
G1 X169.097 Y172.921 E9.54183
G1 X168.908 Y172.738 E9.5504
G1 X168.889 Y172.717 E9.55132
G1 X168.73 Y172.512 E9.55978
G1 X168.585 Y172.26 E9.56926
G1 X168.572 Y172.232 E9.57026
G1 X168.475 Y171.971 E9.57934
G1 X168.408 Y171.678 E9.58914
M204 S2000
G1 F3000 E8.48914
G0 F9000 X167.8 Y171.722
G0 X167.946 Y170.661
G0 X168.971 Y168.352
G0 X171.73 Y168.299
G0 X172.499 Y154.259
G1 F1800 E9.58914
G0 F9000 X173.109 Y154.26
M204 S1000
G1 F2400 X173.145 Y154.144 E9.5931
G1 X173.309 Y154.059 E9.59912
G1 X173.599 Y154.059 E9.60857
G1 X173.782 Y153.981 E9.61505
G1 X173.839 Y153.804 E9.62111
G1 X173.844 Y151.691 E9.68999
G1 X173.517 Y151.637 E9.70079
G1 X158.203 Y151.633 E10.19995
G1 X156.545 Y151.633 E10.25399
G1 X156.156 Y151.693 E10.26682
G1 X156.162 Y153.822 E10.33622
G1 X156.239 Y154.002 E10.3426
G1 X156.419 Y154.061 E10.34877
G1 X156.962 Y154.062 E10.36647
G1 X157.109 Y154.126 E10.3717
G1 X157.161 Y154.262 E10.37644
G1 X157.162 Y165.427 E10.74036
G1 X157.162 Y170.755 E10.91403
G1 F1967.2 X157.25 Y171.008 E10.92468
G1 F1684.2 X157.242 Y171.398 E10.9428
G1 F1687.2 X157.249 Y171.758 E10.9595
G1 F1699.1 X157.239 Y171.791 E10.96108
G1 F2008.4 X157.162 Y172.072 E10.97243
G1 F2400 X157.163 Y178.322 E11.17615
G1 X157.401 Y178.363 E11.18402
G1 X172.885 Y178.364 E11.68872
G1 X173.016 Y178.35 E11.69302
G1 X173.108 Y178.321 E11.69616
G1 X173.108 Y172.208 E11.89541
G1 F2038.2 X173.037 Y171.961 E11.90528
G1 F1705.2 X173.016 Y171.87 E11.90956
G1 F1675.4 X173.027 Y171.546 E11.9247
G1 F1702.1 X173.026 Y171.175 E11.94175
G1 F1669.6 X173.015 Y170.901 E11.9546
G1 F1705.2 X173.038 Y170.818 E11.95855
G1 F2038.2 X173.107 Y170.566 E11.96858
G1 F2394 X173.108 Y168.366 E12.04047
G1 F2400 X173.109 Y154.26 E12.50025
M204 S2000
G1 F3000 E11.40025
G0 F9000 X172.499 Y154.259
G0 X172.362 Y153.022
G0 X157.875 Y153.023
G0 X158.541 Y168.301
G0 X161.033 Y169.118
G0 X161.642 Y169.548
G0 X162.098 Y170.13
G0 X162.376 Y170.84
G0 X162.429 Y171.565
G0 X162.272 Y172.294
G0 X161.906 Y172.951
G0 X161.381 Y173.46
G0 X160.726 Y173.803
G0 X159.994 Y173.943
G0 X159.243 Y173.865
G0 X158.557 Y173.574
G0 X158.094 Y173.188
G0 X157.697 Y172.665
G1 F1800 E12.50025
G0 F9000 X157.563 Y171.979
M204 S1000
;TYPE:WALL-INNER
G1 F2400 X157.562 Y173.264 E12.54213
G1 X157.563 Y177.963 E12.6953
G1 X172.708 Y177.965 E13.18895
G1 X172.708 Y172.293 E13.37383
G1 X172.706 Y172.016 E13.38286
G1 X172.621 Y172.274 E13.39171
G1 X172.506 Y172.527 E13.40077
G1 X172.461 Y172.608 E13.40379
G1 X172.318 Y172.824 E13.41223
G1 X172.262 Y172.895 E13.41518
G1 X172.094 Y173.084 E13.42342
G1 X172.033 Y173.142 E13.42617
G1 X171.834 Y173.31 E13.43465
G1 X171.763 Y173.36 E13.43748
G1 X171.538 Y173.501 E13.44614
G1 X171.459 Y173.542 E13.44904
G1 X171.22 Y173.645 E13.45752
G1 X171.141 Y173.672 E13.46024
G1 X170.889 Y173.741 E13.46876
G1 X170.8 Y173.758 E13.47171
G1 X170.501 Y173.793 E13.48153
G1 X170.445 Y173.793 E13.48335
G1 X170.186 Y173.784 E13.4918
G1 X170.106 Y173.776 E13.49442
G1 X169.83 Y173.729 E13.50355
G1 X169.735 Y173.704 E13.50675
G1 X169.49 Y173.619 E13.5152
G1 X169.412 Y173.586 E13.51796
G1 X169.175 Y173.464 E13.52665
G1 X169.099 Y173.418 E13.52955
G1 X168.886 Y173.265 E13.53809
G1 X168.819 Y173.209 E13.54094
G1 X168.63 Y173.026 E13.54951
G1 X168.573 Y172.962 E13.55231
G1 X168.414 Y172.757 E13.56076
G1 X168.237 Y172.457 E13.57212
G1 X168.198 Y172.374 E13.57511
G1 X168.1 Y172.112 E13.58422
G1 X168.084 Y172.057 E13.58609
G1 X168.017 Y171.764 E13.59589
G1 X167.991 Y171.453 E13.60606
G1 X167.991 Y171.37 E13.60877
G1 X168.011 Y171.065 E13.61873
G1 X168.022 Y170.998 E13.62094
G1 X168.086 Y170.714 E13.63043
G1 X168.106 Y170.653 E13.63252
G1 X168.21 Y170.387 E13.64183
G1 X168.237 Y170.333 E13.6438
G1 X168.381 Y170.081 E13.65326
G1 X168.565 Y169.838 E13.6632
G1 X168.621 Y169.776 E13.66592
G1 X168.849 Y169.555 E13.67627
G1 X168.886 Y169.526 E13.6778
G1 X169.132 Y169.351 E13.68764
G1 X169.412 Y169.205 E13.69793
G1 X169.49 Y169.172 E13.7007
G1 X169.735 Y169.087 E13.70915
G1 X169.823 Y169.063 E13.71212
G1 X170.085 Y169.015 E13.7208
G1 X170.416 Y168.996 E13.73161
G1 X170.505 Y168.999 E13.73451
G1 X170.769 Y169.027 E13.74317
G1 X170.857 Y169.043 E13.74608
G1 X171.109 Y169.109 E13.75457
G1 X171.183 Y169.133 E13.75711
G1 X171.425 Y169.231 E13.76562
G1 X171.509 Y169.273 E13.76868
G1 X171.733 Y169.408 E13.7772
G1 X171.803 Y169.458 E13.78001
G1 X172.009 Y169.624 E13.78863
G1 X172.073 Y169.686 E13.79154
G1 X172.252 Y169.882 E13.80019
G1 X172.306 Y169.952 E13.80307
G1 X172.458 Y170.179 E13.81197
G1 X172.504 Y170.26 E13.81501
G1 F2394 X172.649 Y170.574 E13.82631
G1 F2382.1 X172.703 Y170.756 E13.83255
G1 F2394 X172.708 Y170.476 E13.8417
G1 F2400 X172.709 Y154.26 E14.37026
G1 X172.73 Y154.098 E14.37558
G1 X172.818 Y153.914 E14.38223
G1 X172.997 Y153.746 E14.39023
G1 X173.309 Y153.659 E14.40079
G1 X173.439 Y153.659 E14.40503
G1 X173.442 Y152.96 E14.42781
G1 X173.443 Y152.037 E14.45789
G1 X158.203 Y152.033 E14.95464
G1 X156.557 Y152.034 E15.00829
G1 X156.561 Y153.661 E15.06132
G1 X156.963 Y153.662 E15.07443
G1 X157.147 Y153.69 E15.08049
G1 X157.403 Y153.855 E15.09042
G1 X157.53 Y154.071 E15.09859
G1 X157.561 Y154.262 E15.1049
G1 X157.562 Y165.427 E15.46882
G1 X157.561 Y170.662 E15.63945
G1 X157.567 Y170.755 E15.64249
G1 X157.597 Y170.668 E15.64549
G1 X157.695 Y170.413 E15.65439
G1 X157.854 Y170.117 E15.66535
G1 X157.9 Y170.048 E15.66805
G1 X158.057 Y169.842 E15.67649
G1 X158.116 Y169.776 E15.67938
G1 X158.313 Y169.584 E15.68834
G1 X158.381 Y169.526 E15.69126
G1 X158.594 Y169.373 E15.69981
G1 X158.671 Y169.326 E15.70275
G1 X158.909 Y169.204 E15.71146
G1 X158.985 Y169.172 E15.71415
G1 X159.229 Y169.087 E15.72257
G1 X159.319 Y169.063 E15.72561
G1 X159.582 Y169.015 E15.73432
G1 X159.911 Y168.996 E15.74506
G1 X160 Y168.999 E15.74797
G1 X160.264 Y169.027 E15.75662
G1 X160.354 Y169.043 E15.7596
G1 X160.606 Y169.109 E15.76809
G1 X160.679 Y169.133 E15.7706
G1 X160.921 Y169.231 E15.77911
G1 X161.005 Y169.274 E15.78218
G1 X161.262 Y169.43 E15.79198
G1 X161.298 Y169.457 E15.79345
G1 X161.519 Y169.637 E15.80274
G1 X161.569 Y169.686 E15.80502
G1 X161.769 Y169.908 E15.81476
G1 X161.801 Y169.952 E15.81653
G1 X161.961 Y170.193 E15.82596
