; generated by SuperSlicer 2.4 on 2022-05-29 at 01:32:48 UTC


;
;

;
;
; 

; external perimeters extrusion width = 0.40mm
; perimeters extrusion width = 0.40mm
; infill extrusion width = 0.72mm
; solid infill extrusion width = 0.56mm
; top infill extrusion width = 0.40mm
; support material extrusion width = 0.40mm
; first layer extrusion width = 0.48mm

; external perimeters extrusion width = 0.40mm
; perimeters extrusion width = 0.40mm
; infill extrusion width = 0.72mm
; solid infill extrusion width = 0.56mm
; top infill extrusion width = 0.40mm
; support material extrusion width = 0.40mm
; first layer extrusion width = 0.48mm

; object:{"name":"ClarkPark","id":"ClarkPark.stl id:0 copy 0","object_center":[165.000003,165.000000,0.000000],"boundingbox_center":[165.000003,165.000000,8.819000],"boundingbox_size":[109.952003,60.042000,17.638000]}
; plater:{"center":[165.000003,165.000000,0.000000],"boundingbox_center":[165.000003,165.000000,8.819000],"boundingbox_size":[109.952003,60.042000,17.638000]}

M73 P0 R80
M73 C71
;TYPE:Custom
START_PRINT T_BED=60 T_EXTRUDER=200
M107
G21 ; set units to millimeters
G90 ; use absolute coordinates
M83 ; use relative distances for extrusion
; Filament gcode
M109 S200 ; set temperature and wait for it to be reached
M190 S60 ; set bed temperature and wait for it to be reached
M107
;LAYER_CHANGE
;Z:0.24
;HEIGHT:0.24
G1 Z0.24 F9000
G92 E0
M73 P0 R79
M73 C1
G1 E-0.8 F3000
M204 S1000
G1 X108.112 Y132.939 F9000
G1 E0.8 F1800
;TYPE:Skirt
;WIDTH:0.52
G1 X107.513 Y133.614 E0.04132
G1 X106.807 Y134.939 E0.0688
G1 X106.582 Y135.805 E0.04098
G1 X106.498 Y136.59 E0.03615
G1 X106.498 Y179.824 E1.98065
G1 X106.696 Y181.188 E0.06314
G1 X107.093 Y182.162 E0.04819
G1 X107.777 Y183.13 E0.05432
G1 X108.164 Y183.533 E0.02559
G1 X109.024 Y184.211 E0.05017
G1 X109.835 Y184.617 E0.04153
G1 X148.662 Y198.374 E1.8871
G1 X149.898 Y198.586 E0.05743
G1 X180.099 Y198.586 E1.38357
G1 X181.334 Y198.374 E0.0574
G1 X220.084 Y184.652 E1.88324
G1 X221.1 Y184.125 E0.05242
G1 X222.227 Y183.124 E0.06906
G1 X222.905 Y182.162 E0.05391
G1 X223.302 Y181.188 E0.04819
G1 X223.483 Y180.176 E0.04709
G1 X223.5 Y136.59 E1.99677
G1 X223.314 Y135.348 E0.05752
G1 X222.955 Y134.387 E0.04704
G1 X222.464 Y133.589 E0.04291
G1 X222.081 Y133.149 E0.02668
G1 X221.663 Y132.737 E0.02692
G1 X220.616 Y132.012 E0.05835
G1 X219.657 Y131.651 E0.04693
G1 X218.427 Y131.462 E0.05701
G1 X111.637 Y131.453 E4.89226
G1 X110.232 Y131.689 E0.06526
G1 X109.301 Y132.06 E0.04591
G1 X108.112 Y132.939 E0.06773
G1 X108.442 Y133.269 F9000
G1 F1800
G1 X107.874 Y133.909 E0.0392
G1 X107.245 Y135.101 E0.06174
G1 X107.038 Y135.904 E0.03799
G1 X106.964 Y136.59 E0.03159
G1 X106.964 Y179.824 E1.98065
G1 X107.148 Y181.076 E0.05794
G1 X107.495 Y181.927 E0.04211
G1 X108.114 Y182.807 E0.04931
G1 X108.501 Y183.21 E0.02559
G1 X109.282 Y183.823 E0.04551
G1 X109.991 Y184.178 E0.0363
G1 X148.818 Y197.934 E1.88708
G1 X149.898 Y198.12 E0.05019
G1 X180.099 Y198.12 E1.38357
G1 X181.178 Y197.934 E0.05016
G1 X219.929 Y184.213 E1.88324
G1 X220.857 Y183.727 E0.04797
G1 X221.89 Y182.802 E0.06355
G1 X222.503 Y181.927 E0.04895
G1 X222.85 Y181.075 E0.04211
G1 X223.019 Y180.132 E0.04391
G1 X223.034 Y136.59 E1.99474
G1 X222.859 Y135.449 E0.05286
G1 X222.545 Y134.609 E0.04111
G1 X222.096 Y133.876 E0.03937
G1 X221.754 Y133.481 E0.02392
G1 X221.336 Y133.069 E0.02692
G1 X220.42 Y132.435 E0.051
G1 X219.55 Y132.104 E0.04267
G1 X218.427 Y131.928 E0.05206
G1 X111.636 Y131.919 E4.89226
G1 X110.344 Y132.142 E0.06008
G1 X109.53 Y132.466 E0.04012
G1 X108.442 Y133.269 E0.06198
G1 E-0.8 F3000
; printing object ClarkPark.stl id:0 copy 0
; acceleration to travel
M204 S3000
G1 X138.991 Y172.358 F9000
; decel to extrusion
M204 S1000
G1 X149.174 Y185.388
; end travel
G1 E0.8 F1800
;TYPE:Internal perimeter
;WIDTH:0.48
G1 X141.94 Y184.826 E0.30403
G1 X134.294 Y184.004 E0.32223
G1 X126.675 Y182.95 E0.32227
G1 X119.093 Y181.666 E0.32222
G1 X111.619 Y180.161 E0.31942
G1 X111.553 Y180.137 E0.00295
G1 X111.32 Y179.895 E0.01408
G1 X111.294 Y179.754 E0.00602
G1 X111.294 Y136.716 E1.8033
G1 X111.345 Y136.521 E0.00844
G1 X111.477 Y136.365 E0.00857
G1 X111.561 Y136.301 E0.0044
G1 X111.77 Y136.249 E0.00904
G1 X112.123 Y136.25 E0.01478
G1 X218.299 Y136.258 E4.44879
M73 P1 R79
G1 X218.428 Y136.289 E0.00559
G1 X218.663 Y136.53 E0.01411
G1 X218.704 Y136.71 E0.00775
G1 X218.704 Y179.754 E1.80352
G1 X218.678 Y179.895 E0.00604
G1 X218.483 Y180.099 E0.01182
G1 X218.361 Y180.165 E0.0058
G1 X210.905 Y181.666 E0.31865
G1 X203.322 Y182.95 E0.32226
G1 X195.705 Y184.004 E0.3222
G1 X188.059 Y184.825 E0.32223
G1 X180.474 Y185.415 E0.31878
G1 X179.687 Y186.324 E0.05037
G1 X179.687 Y193.79 E0.31282
G1 X150.311 Y193.79 E1.23083
G1 X150.311 Y186.325 E0.31276
G1 X149.527 Y185.415 E0.05035
G1 X149.174 Y185.388 E0.0148
G1 X149.141 Y185.815 F9000
G1 F1800
G1 X141.901 Y185.252 E0.3043
G1 X134.241 Y184.43 E0.32277
G1 X126.609 Y183.374 E0.32282
G1 X119.015 Y182.087 E0.32276
G1 X111.505 Y180.575 E0.32097
G1 X111.375 Y180.529 E0.00579
G1 X111.264 Y180.455 E0.00555
G1 X110.983 Y180.162 E0.01701
G1 X110.911 Y180.039 E0.00599
G1 X110.876 Y179.899 E0.00603
G1 X110.866 Y179.792 E0.00451
G1 X110.866 Y136.661 E1.8072
G1 X110.921 Y136.41 E0.0108
G1 X110.954 Y136.319 E0.00407
G1 X111.181 Y136.051 E0.01471
G1 X111.373 Y135.907 E0.01007
G1 X111.718 Y135.821 E0.01487
G1 X112.123 Y135.821 E0.01698
G1 X218.349 Y135.83 E4.45089
G1 X218.585 Y135.886 E0.01018
G1 X218.673 Y135.926 E0.00407
G1 X219.005 Y136.267 E0.01992
G1 X219.071 Y136.387 E0.00575
G1 X219.132 Y136.663 E0.01185
G1 X219.132 Y179.792 E1.80712
G1 X219.122 Y179.899 E0.00451
G1 X219.087 Y180.039 E0.00603
G1 X219.014 Y180.163 E0.00603
G1 X218.745 Y180.445 E0.01634
G1 X218.57 Y180.552 E0.00858
G1 X218.507 Y180.572 E0.0028
G1 X210.983 Y182.087 E0.32155
G1 X203.387 Y183.374 E0.32281
G1 X195.758 Y184.43 E0.32274
G1 X188.098 Y185.252 E0.32276
G1 X180.683 Y185.828 E0.31166
G1 X180.116 Y186.483 E0.0363
G1 X180.115 Y194.071 E0.3179
G1 X180.075 Y194.167 E0.00439
G1 X179.959 Y194.218 E0.0053
G1 X149.957 Y194.218 E1.25713
G1 X149.883 Y194.059 E0.00734
G1 X149.882 Y186.484 E0.31738
G1 X149.317 Y185.828 E0.03628
G1 X149.141 Y185.815 E0.0074
G1 X149.108 Y186.242 F9000
;TYPE:External perimeter
G1 F1800
G1 X141.861 Y185.679 E0.30456
G1 X134.189 Y184.855 E0.3233
G1 X126.544 Y183.797 E0.32337
G1 X118.936 Y182.508 E0.32331
G1 X111.39 Y180.989 E0.32253
G1 X111.181 Y180.915 E0.00929
G1 X110.988 Y180.786 E0.00974
G1 X110.639 Y180.423 E0.02111
G1 X110.51 Y180.202 E0.01069
G1 X110.453 Y179.972 E0.00995
G1 X110.437 Y179.813 E0.0067
G1 X110.437 Y136.615 E1.80998
G1 X110.508 Y136.289 E0.01398
G1 X110.579 Y136.099 E0.00849
G1 X110.885 Y135.737 E0.01989
G1 X111.139 Y135.546 E0.0133
G1 X111.213 Y135.505 E0.00354
G1 X111.666 Y135.392 E0.01955
G1 X112.123 Y135.393 E0.01917
G1 X218.399 Y135.401 E4.45298
G1 X218.726 Y135.478 E0.01407
G1 X218.925 Y135.57 E0.00919
G1 X219.354 Y136.01 E0.02573
G1 X219.476 Y136.236 E0.01076
G1 X219.561 Y136.616 E0.01634
G1 X219.561 Y179.813 E1.80995
M73 P1 R78
G1 X219.545 Y179.972 E0.0067
G1 X219.488 Y180.202 E0.00995
G1 X219.359 Y180.423 E0.01071
G1 X219.016 Y180.782 E0.02078
G1 X218.749 Y180.945 E0.01312
G1 X218.614 Y180.988 E0.00596
G1 X211.062 Y182.508 E0.32279
G1 X203.453 Y183.797 E0.32336
G1 X195.81 Y184.855 E0.32329
G1 X188.138 Y185.679 E0.3233
G1 X180.891 Y186.242 E0.30455
G1 X180.544 Y186.643 E0.02223
G1 X180.544 Y194.156 E0.31477
G1 X180.468 Y194.339 E0.00831
G1 X180.395 Y194.458 E0.00587
G1 X180.305 Y194.534 E0.00492
G1 X180.049 Y194.647 E0.01173
G1 X149.945 Y194.647 E1.26135
G1 X149.774 Y194.576 E0.00776
G1 X149.585 Y194.439 E0.00978
G1 X149.454 Y194.152 E0.01321
G1 X149.454 Y186.644 E0.3146
G1 X149.108 Y186.242 E0.02221
;WIPE_START
M204 S4000
G1 X149.034 Y185.849 F9000
;WIPE_END
; acceleration to travel
M204 S3000
G1 X199.438 Y150.819
; decel to extrusion
M204 S1000
G1 X218.639 Y137.474
; end travel
;TYPE:Solid infill
;WIDTH:0.477962
G1 F3600
G1 X217.701 Y136.537 E0.05531
G1 X217.095 Y136.537 E0.02529
G1 X218.454 Y137.896 E0.08019
G1 X218.454 Y138.501 E0.02527
G1 X216.489 Y136.537 E0.11594
G1 X215.883 Y136.536 E0.02529
G1 X218.454 Y139.107 E0.15169
G1 X218.453 Y139.713 E0.02527
G1 X215.277 Y136.536 E0.18743
G1 X214.67 Y136.536 E0.02529
G1 X218.453 Y140.318 E0.22318
G1 X218.453 Y140.924 E0.02527
G1 X214.064 Y136.536 E0.25893
G1 X213.458 Y136.535 E0.02529
G1 X218.452 Y141.53 E0.29468
G1 X218.452 Y142.135 E0.02527
G1 X212.852 Y136.535 E0.33042
G1 X212.246 Y136.535 E0.02529
G1 X218.451 Y142.741 E0.36617
G1 X218.451 Y143.346 E0.02527
G1 X211.639 Y136.535 E0.40192
G1 X211.033 Y136.535 E0.02529
G1 X218.451 Y143.952 E0.43767
G1 X218.45 Y144.558 E0.02527
G1 X210.427 Y136.534 E0.47341
G1 X209.821 Y136.534 E0.02529
G1 X218.45 Y145.163 E0.50916
G1 X218.45 Y145.769 E0.02527
G1 X209.215 Y136.534 E0.54491
G1 X208.608 Y136.534 E0.02529
G1 X218.449 Y146.375 E0.58066
G1 X218.449 Y146.98 E0.02527
G1 X208.002 Y136.533 E0.6164
G1 X207.396 Y136.533 E0.02529
G1 X218.449 Y147.586 E0.65215
G1 X218.448 Y148.191 E0.02527
G1 X206.79 Y136.533 E0.6879
G1 X206.184 Y136.533 E0.02529
G1 X218.448 Y148.797 E0.72365
G1 X218.447 Y149.403 E0.02527
G1 X205.577 Y136.533 E0.75939
G1 X204.971 Y136.532 E0.02529
G1 X218.447 Y150.008 E0.79514
G1 X218.447 Y150.614 E0.02527
G1 X204.365 Y136.532 E0.83089
G1 X203.759 Y136.532 E0.02529
G1 X218.446 Y151.219 E0.86664
G1 X218.446 Y151.825 E0.02527
G1 X203.152 Y136.532 E0.90238
G1 X202.546 Y136.531 E0.02529
G1 X218.446 Y152.431 E0.93813
G1 X218.445 Y153.036 E0.02527
G1 X201.94 Y136.531 E0.97388
G1 X201.334 Y136.531 E0.02529
G1 X218.445 Y153.642 E1.00963
G1 X218.445 Y154.248 E0.02527
G1 X200.728 Y136.531 E1.04537
G1 X200.121 Y136.531 E0.02529
G1 X218.444 Y154.853 E1.08112
G1 X218.444 Y155.459 E0.02527
G1 X199.515 Y136.53 E1.11687
G1 X198.909 Y136.53 E0.02529
G1 X218.443 Y156.064 E1.15262
G1 X218.443 Y156.67 E0.02527
G1 X198.303 Y136.53 E1.18836
G1 X197.697 Y136.53 E0.02529
G1 X218.443 Y157.276 E1.22411
G1 X218.442 Y157.881 E0.02527
G1 X197.09 Y136.529 E1.25986
G1 X196.484 Y136.529 E0.02529
G1 X218.442 Y158.487 E1.29561
G1 X218.442 Y159.093 E0.02527
G1 X195.878 Y136.529 E1.33135
G1 X195.272 Y136.529 E0.02529
G1 X218.441 Y159.698 E1.3671
G1 X218.441 Y160.304 E0.02527
G1 X194.666 Y136.528 E1.40285
G1 X194.059 Y136.528 E0.02529
G1 X218.441 Y160.909 E1.4386
G1 X218.44 Y161.515 E0.02527
G1 X193.453 Y136.528 E1.47434
G1 X192.847 Y136.528 E0.02529
G1 X218.44 Y162.121 E1.51009
G1 X218.439 Y162.726 E0.02527
G1 X192.241 Y136.528 E1.54584
G1 X191.635 Y136.527 E0.02529
G1 X218.439 Y163.332 E1.58159
G1 X218.439 Y163.938 E0.02527
G1 X191.028 Y136.527 E1.61733
G1 X190.422 Y136.527 E0.02529
G1 X218.438 Y164.543 E1.65308
G1 X218.438 Y165.149 E0.02527
G1 X189.816 Y136.527 E1.68883
M73 P2 R78
G1 X189.21 Y136.526 E0.02529
G1 X218.438 Y165.754 E1.72458
G1 X218.437 Y166.36 E0.02527
G1 X188.604 Y136.526 E1.76032
G1 X187.997 Y136.526 E0.02529
G1 X218.437 Y166.966 E1.79607
G1 X218.437 Y167.571 E0.02527
G1 X187.391 Y136.526 E1.83182
G1 X186.785 Y136.526 E0.02529
G1 X218.436 Y168.177 E1.86757
G1 X218.436 Y168.782 E0.02527
G1 X186.179 Y136.525 E1.90331
G1 X185.572 Y136.525 E0.02529
G1 X218.435 Y169.388 E1.93906
G1 X218.435 Y169.994 E0.02527
G1 X184.966 Y136.525 E1.97481
G1 X184.36 Y136.525 E0.02529
G1 X218.435 Y170.599 E2.01056
G1 X218.434 Y171.205 E0.02527
G1 X183.754 Y136.524 E2.0463
G1 X183.148 Y136.524 E0.02529
G1 X218.434 Y171.811 E2.08205
G1 X218.434 Y172.416 E0.02527
G1 X182.541 Y136.524 E2.1178
G1 X181.935 Y136.524 E0.02529
G1 X218.433 Y173.022 E2.15355
G1 X218.433 Y173.627 E0.02527
G1 X181.329 Y136.524 E2.18929
G1 X180.723 Y136.523 E0.02529
G1 X218.433 Y174.233 E2.22504
G1 X218.432 Y174.839 E0.02527
G1 X180.117 Y136.523 E2.26079
G1 X179.51 Y136.523 E0.02529
G1 X218.432 Y175.444 E2.29654
G1 X218.431 Y176.05 E0.02527
G1 X178.904 Y136.523 E2.33228
G1 X178.298 Y136.522 E0.02529
G1 X218.431 Y176.656 E2.36803
G1 X218.431 Y177.261 E0.02527
G1 X177.692 Y136.522 E2.40378
G1 X177.086 Y136.522 E0.02529
G1 X218.43 Y177.867 E2.43953
G1 X218.43 Y178.472 E0.02527
G1 X176.479 Y136.522 E2.47527
G1 X175.873 Y136.522 E0.02529
G1 X218.43 Y179.078 E2.51102
G1 X218.429 Y179.684 E0.02527
G1 X175.267 Y136.521 E2.54677
G1 X174.661 Y136.521 E0.02529
G1 X217.947 Y179.807 E2.55407
G1 X217.453 Y179.919 E0.02112
G1 X174.055 Y136.521 E2.56071
G1 X173.448 Y136.521 E0.02529
G1 X216.96 Y180.032 E2.56736
G1 X216.466 Y180.144 E0.02112
G1 X172.842 Y136.52 E2.574
G1 X172.236 Y136.52 E0.02529
G1 X215.972 Y180.257 E2.58065
G1 X215.479 Y180.369 E0.02112
G1 X171.63 Y136.52 E2.5873
G1 X171.024 Y136.52 E0.02529
G1 X214.985 Y180.482 E2.59394
G1 X214.492 Y180.594 E0.02112
G1 X170.417 Y136.52 E2.60059
G1 X169.811 Y136.519 E0.02529
G1 X213.998 Y180.706 E2.60723
G1 X213.505 Y180.819 E0.02112
G1 X169.205 Y136.519 E2.61388
G1 X168.599 Y136.519 E0.02529
G1 X213.011 Y180.931 E2.62052
G1 X212.517 Y181.044 E0.02112
G1 X167.992 Y136.519 E2.62717
G1 X167.386 Y136.518 E0.02529
G1 X212.024 Y181.156 E2.63382
M73 P2 R77
G1 X211.53 Y181.268 E0.02112
G1 X166.78 Y136.518 E2.64046
G1 X166.174 Y136.518 E0.02529
G1 X211.037 Y181.381 E2.64711
G1 X210.857 Y181.422 E0.00769
G1 X210.527 Y181.478 E0.01394
G1 X165.568 Y136.518 E2.65283
G1 X164.961 Y136.518 E0.02529
G1 X210.009 Y181.565 E2.65802
G1 X209.491 Y181.653 E0.02193
G1 X164.355 Y136.517 E2.66322
G1 X163.749 Y136.517 E0.02529
G1 X208.973 Y181.741 E2.66841
G1 X208.455 Y181.829 E0.02193
G1 X163.143 Y136.517 E2.6736
G1 X162.537 Y136.517 E0.02529
G1 X207.937 Y181.917 E2.6788
G1 X207.418 Y182.004 E0.02193
G1 X161.93 Y136.516 E2.68399
G1 X161.324 Y136.516 E0.02529
G1 X206.9 Y182.092 E2.68918
M73 P3 R77
G1 X206.382 Y182.18 E0.02193
G1 X160.718 Y136.516 E2.69438
G1 X160.112 Y136.516 E0.02529
G1 X205.864 Y182.268 E2.69957
G1 X205.346 Y182.355 E0.02193
G1 X159.506 Y136.516 E2.70476
G1 X158.899 Y136.515 E0.02529
G1 X204.827 Y182.443 E2.70996
G1 X204.309 Y182.531 E0.02193
G1 X158.293 Y136.515 E2.71515
G1 X157.687 Y136.515 E0.02529
G1 X203.791 Y182.619 E2.72034
G1 X203.272 Y182.706 E0.02194
G1 X157.081 Y136.515 E2.72552
G1 X156.475 Y136.514 E0.02529
G1 X202.74 Y182.78 E2.72988
G1 X202.208 Y182.854 E0.02242
G1 X155.868 Y136.514 E2.73424
G1 X155.262 Y136.514 E0.02529
G1 X201.676 Y182.927 E2.7386
G1 X201.143 Y183.001 E0.02242
G1 X154.656 Y136.514 E2.74296
G1 X154.05 Y136.513 E0.02529
G1 X200.611 Y183.075 E2.74732
G1 X200.079 Y183.148 E0.02242
G1 X153.443 Y136.513 E2.75168
G1 X152.837 Y136.513 E0.02529
G1 X199.546 Y183.222 E2.75604
G1 X199.014 Y183.296 E0.02242
G1 X152.231 Y136.513 E2.7604
G1 X151.625 Y136.513 E0.02529
G1 X198.482 Y183.369 E2.76476
G1 X197.949 Y183.443 E0.02242
G1 X151.019 Y136.512 E2.76912
G1 X150.412 Y136.512 E0.02529
G1 X197.417 Y183.517 E2.77348
G1 X196.885 Y183.59 E0.02242
G1 X149.806 Y136.512 E2.77784
G1 X149.2 Y136.512 E0.02529
G1 X196.352 Y183.664 E2.7822
G1 X195.82 Y183.738 E0.02242
G1 X148.594 Y136.511 E2.78656
G1 X147.988 Y136.511 E0.02529
G1 X195.271 Y183.795 E2.78996
G1 X194.717 Y183.846 E0.02324
G1 X147.381 Y136.511 E2.793
G1 X146.775 Y136.511 E0.02529
G1 X194.162 Y183.898 E2.79604
G1 X193.608 Y183.949 E0.02324
G1 X146.169 Y136.511 E2.79909
G1 X145.563 Y136.51 E0.02529
G1 X193.053 Y184 E2.80213
G1 X192.498 Y184.052 E0.02324
G1 X144.957 Y136.51 E2.80517
G1 X144.35 Y136.51 E0.02529
G1 X191.944 Y184.103 E2.80822
G1 X191.389 Y184.155 E0.02324
G1 X143.744 Y136.51 E2.81126
G1 X143.138 Y136.509 E0.02529
G1 X190.834 Y184.206 E2.8143
G1 X190.28 Y184.257 E0.02324
G1 X142.532 Y136.509 E2.81735
G1 X141.926 Y136.509 E0.02529
G1 X189.725 Y184.309 E2.82039
G1 X189.171 Y184.36 E0.02324
G1 X141.319 Y136.509 E2.82343
G1 X140.713 Y136.509 E0.02529
G1 X188.616 Y184.411 E2.82648
G1 X188.061 Y184.463 E0.02324
G1 X140.107 Y136.508 E2.82952
G1 X139.501 Y136.508 E0.02529
G1 X187.507 Y184.514 E2.83256
G1 X186.952 Y184.565 E0.02324
G1 X138.895 Y136.508 E2.83561
G1 X138.288 Y136.508 E0.02529
G1 X186.397 Y184.617 E2.83865
G1 X185.843 Y184.668 E0.02324
G1 X137.682 Y136.507 E2.8417
G1 X137.076 Y136.507 E0.02529
G1 X185.288 Y184.719 E2.84474
G1 X184.734 Y184.771 E0.02324
G1 X136.47 Y136.507 E2.84778
M73 P4 R77
