; generated by SuperSlicer 2.4 on 2022-04-24 at 03:23:41 UTC


;
;

;
;
; 

; external perimeters extrusion width = 0.40mm
; perimeters extrusion width = 0.40mm
; infill extrusion width = 0.72mm
; solid infill extrusion width = 0.56mm
; top infill extrusion width = 0.40mm
; first layer extrusion width = 0.48mm

; object:{"name":"123one_Cleat_Set_1x","id":"123one_Cleat_Set_1x.stl id:0 copy 0","object_center":[165.000000,165.000004,0.000000],"boundingbox_center":[165.000000,165.000004,4.000490],"boundingbox_size":[91.000000,72.001198,8.000980]}
; plater:{"center":[165.000000,165.000004,0.000000],"boundingbox_center":[165.000000,165.000004,4.000490],"boundingbox_size":[91.000000,72.001198,8.000980]}

M73 P0 R78
;TYPE:Custom
START_PRINT T_BED=60 T_EXTRUDER=200
M107
G21 ; set units to millimeters
G90 ; use absolute coordinates
M83 ; use relative distances for extrusion
; Filament gcode
M109 S200 ; set temperature and wait for it to be reached
M190 S60 ; set bed temperature and wait for it to be reached
M107
;LAYER_CHANGE
;Z:0.24
;HEIGHT:0.24
G1 E-0.6 F3000
G1 Z0.24 F9000
G92 E0
M204 S1000
G1 X118.232 Y127.66
G1 E0.6 F1800
;TYPE:Skirt
;WIDTH:0.52
G1 X117.128 Y129.075 E0.08389
G1 X116.643 Y130.028 E0.04999
G1 X116.284 Y131.088 E0.05233
G1 X116.1 Y131.997 E0.04337
G1 X116.035 Y132.992 E0.04659
G1 X115.901 Y196.876 E2.98638
G1 X115.999 Y198.08 E0.05648
G1 X116.188 Y198.943 E0.04128
G1 X116.777 Y200.414 E0.07409
G1 X117.177 Y201.092 E0.03679
G1 X118.164 Y202.287 E0.07243
G1 X119.58 Y203.392 E0.08398
G1 X120.532 Y203.875 E0.0499
G1 X121.588 Y204.232 E0.05211
G1 X122.496 Y204.415 E0.04328
G1 X123.504 Y204.48 E0.04722
G1 X188.496 Y204.48 E3.03818
G1 X189.504 Y204.415 E0.04722
G1 X190.412 Y204.232 E0.04328
G1 X191.468 Y203.875 E0.05211
G1 X192.42 Y203.392 E0.0499
G1 X211.14 Y189.901 E1.07867
G1 X212.187 Y188.738 E0.07317
G1 X212.67 Y187.099 E0.07988
G1 X213.965 Y162.847 E1.1353
G1 X213.965 Y133.004 E1.39505
G1 X213.9 Y131.998 E0.04713
G1 X213.716 Y131.089 E0.04338
G1 X213.358 Y130.028 E0.05234
G1 X212.873 Y129.075 E0.04998
G1 X211.768 Y127.661 E0.08387
G1 X210.572 Y126.675 E0.07245
G1 X209.236 Y125.97 E0.07061
G1 X208.434 Y125.69 E0.03971
G1 X206.73 Y125.419 E0.08068
G1 X169.504 Y125.401 E1.74019
G1 X123.283 Y125.418 E2.16068
G1 X122.428 Y125.501 E0.04015
G1 X121.566 Y125.691 E0.04127
G1 X120.764 Y125.97 E0.03971
G1 X119.428 Y126.675 E0.07059
G1 X118.279 Y127.622 E0.06962
G1 X118.576 Y127.98 F9000
G1 F1800
G1 X118.547 Y128.005 E0.00176
G1 X117.508 Y129.344 E0.07923
G1 X117.084 Y130.177 E0.04369
G1 X116.726 Y131.237 E0.05233
G1 X116.565 Y132.032 E0.0379
G1 X116.502 Y132.993 E0.04504
G1 X116.367 Y196.876 E2.98631
G1 X116.463 Y198.036 E0.05439
G1 X116.628 Y198.79 E0.03608
G1 X117.179 Y200.177 E0.06978
G1 X117.579 Y200.855 E0.03679
G1 X118.508 Y201.972 E0.06792
G1 X119.849 Y203.011 E0.07931
G1 X120.681 Y203.433 E0.04361
G1 X121.737 Y203.79 E0.05211
G1 X122.53 Y203.95 E0.03783
G1 X123.504 Y204.014 E0.0456
G1 X188.496 Y204.014 E3.03818
G1 X189.47 Y203.95 E0.0456
G1 X190.263 Y203.79 E0.03783
G1 X191.319 Y203.433 E0.05211
G1 X192.151 Y203.011 E0.04361
G1 X210.867 Y189.523 E1.07845
G1 X211.728 Y188.597 E0.05911
G1 X212.204 Y187.074 E0.0746
G1 X213.499 Y162.847 E1.13414
G1 X213.499 Y133.004 E1.39505
G1 X213.435 Y132.033 E0.04551
G1 X213.274 Y131.238 E0.03791
G1 X212.916 Y130.177 E0.05234
G1 X212.492 Y129.344 E0.04368
G1 X211.454 Y128.005 E0.07921
G1 X210.335 Y127.077 E0.06794
G1 X209.083 Y126.411 E0.06633
G1 X208.281 Y126.131 E0.03971
G1 X206.685 Y125.883 E0.07549
G1 X169.504 Y125.867 E1.73808
G1 X123.328 Y125.882 E2.15857
G1 X121.719 Y126.131 E0.07608
G1 X120.917 Y126.411 E0.03971
G1 X119.665 Y127.077 E0.06631
G1 X118.622 Y127.942 E0.06334
; INIT printing object 123one_Cleat_Set_1x.stl id:0 copy 0
G1 E-0.6 F3000
; printing object 123one_Cleat_Set_1x.stl id:0 copy 0
; acceleration to travel
M204 S4000
G1 X153.771 Y166.236 F9000
; decel to extrusion
M204 S1000
G1 X162.558 Y175.81
; end travel
G1 E0.6 F1800
;TYPE:Internal perimeter
;WIDTH:0.48
G1 X162.498 Y175.856 E0.00323
G1 X161.376 Y176.959 E0.0673
G1 X160.705 Y178.023 E0.05379
G1 X160.289 Y179.048 E0.04727
G1 X160.064 Y179.955 E0.03997
G1 X160 Y181.667 E0.07325
G1 X160.263 Y182.87 E0.05261
G1 X160.862 Y184.294 E0.06607
G1 X161.639 Y185.342 E0.05578
G1 X162.72 Y186.335 E0.06275
G1 X164.207 Y187.109 E0.07167
G1 X165.714 Y187.473 E0.06629
G1 X167.178 Y187.497 E0.06261
G1 X168.821 Y187.099 E0.07229
G1 X170.282 Y186.333 E0.07051
G1 X171.363 Y185.341 E0.06274
G1 X172.149 Y184.274 E0.05666
G1 X172.739 Y182.874 E0.06496
G1 X172.999 Y181.603 E0.05545
G1 X172.974 Y180.261 E0.05737
G1 X172.738 Y179.123 E0.04972
G1 X172.136 Y177.705 E0.06583
G1 X171.361 Y176.659 E0.05568
G1 X170.28 Y175.666 E0.06275
G1 X168.793 Y174.893 E0.07167
G1 X167.286 Y174.528 E0.06629
G1 X165.823 Y174.504 E0.06258
G1 X165.208 Y174.653 E0.02704
G1 X164.185 Y174.9 E0.04498
G1 X162.785 Y175.634 E0.0676
G1 X162.605 Y175.773 E0.00972
G1 X162.821 Y176.148 F9000
G1 F1800
G1 X162.781 Y176.179 E0.00215
G1 X161.712 Y177.23 E0.0641
G1 X161.087 Y178.22 E0.05004
G1 X160.697 Y179.18 E0.04433
G1 X160.491 Y180.016 E0.03678
G1 X160.43 Y181.629 E0.06904
G1 X160.673 Y182.74 E0.0486
G1 X161.237 Y184.08 E0.06218
G1 X161.959 Y185.054 E0.05183
G1 X162.968 Y185.981 E0.05858
G1 X164.358 Y186.704 E0.06701
G1 X165.768 Y187.045 E0.06202
G1 X167.13 Y187.067 E0.05824
G1 X168.669 Y186.695 E0.06769
G1 X170.033 Y185.98 E0.06585
G1 X171.042 Y185.053 E0.05858
G1 X171.774 Y184.06 E0.05271
G1 X172.328 Y182.746 E0.06097
G1 X172.569 Y181.564 E0.05161
G1 X172.546 Y180.309 E0.05364
G1 X172.327 Y179.251 E0.0462
G1 X171.762 Y177.92 E0.06185
G1 X171.041 Y176.947 E0.05175
G1 X170.032 Y176.02 E0.05858
G1 X168.642 Y175.297 E0.06701
G1 X167.232 Y174.956 E0.06203
G1 X165.87 Y174.934 E0.05822
G1 X165.308 Y175.069 E0.02471
G1 X164.337 Y175.304 E0.04271
G1 X163.018 Y175.995 E0.06371
G1 X162.868 Y176.111 E0.00809
G1 X163.045 Y176.52 F9000
G1 F1800
G1 X162.048 Y177.501 E0.05982
G1 X161.47 Y178.416 E0.04628
G1 X161.106 Y179.313 E0.04139
G1 X160.917 Y180.076 E0.03358
G1 X160.86 Y181.591 E0.06483
G1 X161.083 Y182.61 E0.04459
G1 X161.612 Y183.866 E0.0583
G1 X162.279 Y184.766 E0.04788
G1 X163.216 Y185.627 E0.05441
G1 X164.51 Y186.3 E0.06236
G1 X165.823 Y186.618 E0.05776
G1 X167.083 Y186.638 E0.05387
G1 X168.517 Y186.291 E0.0631
G1 X169.785 Y185.626 E0.0612
G1 X170.722 Y184.765 E0.05441
G1 X171.399 Y183.847 E0.04877
G1 X171.917 Y182.619 E0.05698
G1 X172.14 Y181.524 E0.04778
G1 X172.119 Y180.357 E0.04991
G1 X171.916 Y179.38 E0.04268
G1 X171.387 Y178.134 E0.05787
G1 X170.721 Y177.235 E0.04783
G1 X169.784 Y176.374 E0.05441
G1 X168.49 Y175.701 E0.06235
G1 X167.177 Y175.384 E0.05776
G1 X165.918 Y175.363 E0.05386
G1 X165.409 Y175.486 E0.02237
G1 X164.489 Y175.708 E0.04045
G1 X163.25 Y176.357 E0.05982
G1 X163.091 Y176.481 E0.00862
G1 X163.346 Y176.825 F9000
;TYPE:External perimeter
G1 F1800
G1 X162.383 Y177.771 E0.05769
G1 X161.853 Y178.613 E0.04253
G1 X161.514 Y179.446 E0.03845
G1 X161.344 Y180.136 E0.03039
G1 X161.29 Y181.552 E0.06061
G1 X161.493 Y182.48 E0.04058
G1 X161.987 Y183.653 E0.05442
G1 X162.599 Y184.478 E0.04393
G1 X163.464 Y185.273 E0.05024
G1 X164.661 Y185.896 E0.0577
G1 X165.877 Y186.19 E0.05349
G1 X167.035 Y186.209 E0.0495
G1 X168.365 Y185.887 E0.0585
G1 X169.536 Y185.273 E0.05655
G1 X170.402 Y184.478 E0.05024
G1 X171.024 Y183.634 E0.04482
G1 X171.505 Y182.492 E0.053
G1 X171.711 Y181.485 E0.04394
G1 X171.691 Y180.405 E0.04618
G1 X171.505 Y179.508 E0.03916
G1 X171.013 Y178.348 E0.05388
G1 X170.401 Y177.523 E0.0439
G1 X169.536 Y176.728 E0.05024
G1 X168.339 Y176.105 E0.0577
G1 X167.123 Y175.811 E0.05349
G1 X165.965 Y175.792 E0.04949
G1 X165.509 Y175.902 E0.02004
G1 X164.641 Y176.112 E0.03818
G1 X163.483 Y176.719 E0.05593
G1 X163.393 Y176.789 E0.00484
;WIPE_START
M204 S4000
G1 X162.965 Y176.704 F9000
;WIPE_END
G1 E-0.6 F3000
; acceleration to travel
G1 X173.559 Y178.81 F9000
; decel to extrusion
M204 S1000
G1 X176.207 Y179.337
; end travel
G1 E0.6 F1800
;TYPE:Internal perimeter
G1 X176.019 Y180.378 E0.04523
G1 X176.004 Y181.566 E0.0508
G1 X176.231 Y182.792 E0.05331
G1 X176.698 Y183.975 E0.05438
G1 X177.39 Y185.051 E0.05471
G1 X178.349 Y186.04 E0.05889
G1 X179.417 Y186.735 E0.05447
G1 X180.5 Y187.206 E0.0505
G1 X181.753 Y187.478 E0.05482
G1 X183.029 Y187.499 E0.05458
G1 X184.383 Y187.253 E0.05883
G1 X185.557 Y186.749 E0.05464
G1 X186.649 Y186.042 E0.05559
G1 X187.592 Y185.072 E0.05787
G1 X188.301 Y183.978 E0.05574
G1 X188.771 Y182.789 E0.05464
G1 X188.998 Y181.53 E0.05471
G1 X188.98 Y180.283 E0.05333
G1 X188.735 Y179.123 E0.05068
G1 X188.289 Y178.002 E0.05157
G1 X187.607 Y176.947 E0.05372
G1 X186.63 Y175.943 E0.05992
G1 X185.579 Y175.264 E0.05349
G1 X184.473 Y174.787 E0.05151
G1 X183.152 Y174.504 E0.05773
G1 X182.629 Y174.51 E0.02237
G1 X181.782 Y174.52 E0.03622
G1 X180.502 Y174.794 E0.05599
G1 X179.417 Y175.266 E0.05059
G1 X178.349 Y175.961 E0.05447
G1 X177.39 Y176.95 E0.0589
G1 X176.698 Y178.026 E0.05469
G1 X176.23 Y179.212 E0.05451
G1 X176.218 Y179.278 E0.00288
G1 X176.629 Y179.413 F9000
G1 F1800
G1 X176.447 Y180.419 E0.04371
G1 X176.433 Y181.529 E0.04747
G1 X176.645 Y182.673 E0.04974
G1 X177.081 Y183.779 E0.05081
G1 X177.728 Y184.784 E0.05109
G1 X178.623 Y185.708 E0.05501
G1 X179.62 Y186.356 E0.05088
G1 X180.632 Y186.796 E0.04717
G1 X181.802 Y187.051 E0.0512
G1 X182.994 Y187.07 E0.05096
G1 X184.259 Y186.84 E0.05496
G1 X185.355 Y186.37 E0.05101
G1 X186.375 Y185.709 E0.05196
G1 X187.256 Y184.804 E0.05399
G1 X187.918 Y183.781 E0.05211
G1 X188.357 Y182.671 E0.051
G1 X188.569 Y181.495 E0.05111
G1 X188.552 Y180.331 E0.04977
G1 X188.323 Y179.248 E0.04734
G1 X187.907 Y178.2 E0.04822
G1 X187.271 Y177.215 E0.0501
G1 X186.357 Y176.277 E0.05603
G1 X185.377 Y175.643 E0.04989
G1 X184.342 Y175.197 E0.04818
G1 X183.11 Y174.933 E0.05388
G1 X182.634 Y174.938 E0.02033
G1 X181.83 Y174.948 E0.03438
G1 X180.634 Y175.204 E0.05232
G1 X179.621 Y175.645 E0.04724
G1 X178.623 Y176.294 E0.05088
G1 X177.728 Y177.218 E0.05501
G1 X177.081 Y178.222 E0.05107
G1 X176.644 Y179.33 E0.0509
G1 X176.639 Y179.354 E0.00107
G1 X177.05 Y179.489 F9000
G1 F1800
G1 X176.875 Y180.46 E0.04218
G1 X176.862 Y181.493 E0.04414
G1 X177.059 Y182.554 E0.04617
G1 X177.464 Y183.582 E0.04724
G1 X178.065 Y184.516 E0.04747
G1 X178.897 Y185.375 E0.05113
G1 X179.824 Y185.978 E0.04729
G1 X180.764 Y186.387 E0.04384
G1 X181.852 Y186.623 E0.04758
G1 X182.959 Y186.641 E0.04733
G1 X184.134 Y186.427 E0.05108
G1 X185.153 Y185.99 E0.04738
G1 X186.102 Y185.376 E0.04834
G1 X186.919 Y184.535 E0.05012
G1 X187.535 Y183.583 E0.04848
G1 X187.942 Y182.553 E0.04736
G1 X188.14 Y181.46 E0.04752
G1 X188.125 Y180.379 E0.04621
G1 X187.911 Y179.372 E0.044
G1 X187.524 Y178.397 E0.04487
G1 X186.934 Y177.484 E0.04647
G1 X186.083 Y176.61 E0.05213
G1 X185.174 Y176.022 E0.0463
G1 X184.211 Y175.607 E0.04484
G1 X183.067 Y175.362 E0.05004
G1 X182.639 Y175.367 E0.01828
G1 X181.878 Y175.375 E0.03254
G1 X180.765 Y175.614 E0.04865
G1 X179.824 Y176.023 E0.04388
G1 X178.897 Y176.627 E0.04729
G1 X178.065 Y177.485 E0.05112
G1 X177.465 Y178.419 E0.04746
G1 X177.064 Y179.431 E0.04654
G1 X177.472 Y179.566 F9000
;TYPE:External perimeter
G1 F1800
G1 X177.303 Y180.501 E0.04066
G1 X177.291 Y181.456 E0.04081
G1 X177.473 Y182.435 E0.0426
G1 X177.848 Y183.386 E0.04368
G1 X178.402 Y184.248 E0.04385
G1 X179.171 Y185.042 E0.04724
G1 X180.028 Y185.599 E0.04369
G1 X180.897 Y185.977 E0.0405
G1 X181.901 Y186.195 E0.04395
G1 X182.923 Y186.212 E0.04371
G1 X184.01 Y186.014 E0.04721
G1 X184.95 Y185.611 E0.04376
G1 X185.828 Y185.042 E0.04471
G1 X186.582 Y184.267 E0.04624
G1 X187.152 Y183.386 E0.04485
G1 X187.528 Y182.435 E0.04373
G1 X187.711 Y181.424 E0.04393
G1 X187.697 Y180.427 E0.04265
G1 X187.5 Y179.497 E0.04066
G1 X187.141 Y178.594 E0.04152
G1 X186.597 Y177.752 E0.04285
G1 X185.81 Y176.944 E0.04824
G1 X184.971 Y176.402 E0.0427
G1 X184.08 Y176.017 E0.0415
G1 X183.024 Y175.791 E0.04619
G1 X182.644 Y175.795 E0.01624
G1 X181.926 Y175.803 E0.0307
G1 X180.897 Y176.024 E0.04499
G1 X180.028 Y176.402 E0.04052
G1 X179.171 Y176.959 E0.04369
G1 X178.402 Y177.753 E0.04724
G1 X177.848 Y178.615 E0.04384
G1 X177.494 Y179.51 E0.04112
;WIPE_START
M204 S4000
G1 X177.088 Y179.676 F9000
;WIPE_END
; acceleration to travel
G1 X177.395 Y172.436
; decel to extrusion
M204 S1000
G1 X177.472 Y170.627
; end travel
;TYPE:Internal perimeter
G1 F1800
G1 X188.435 Y170.627 E0.4687
G1 X188.992 Y170.68 E0.02395
G1 X189.642 Y170.918 E0.02957
G1 X190.113 Y171.263 E0.02497
G1 X190.425 Y171.609 E0.01995
G1 X190.657 Y172.014 E0.01996
G1 X190.838 Y172.574 E0.02515
G1 X190.875 Y173.061 E0.02089
G1 X190.875 Y196.803 E1.01507
G1 X190.817 Y197.398 E0.02555
G1 X190.647 Y197.888 E0.02219
G1 X190.405 Y198.298 E0.02035
G1 X190.093 Y198.638 E0.01972
G1 X189.587 Y198.995 E0.0265
G1 X188.924 Y199.219 E0.02993
G1 X188.439 Y199.255 E0.02076
G1 X160.561 Y199.255 E1.19197
G1 X160.076 Y199.219 E0.02076
G1 X159.413 Y198.995 E0.02993
G1 X158.907 Y198.638 E0.0265
G1 X158.595 Y198.298 E0.01972
G1 X158.353 Y197.888 E0.02036
G1 X158.183 Y197.398 E0.02219
G1 X158.126 Y196.803 E0.02555
G1 X158.126 Y173.07 E1.01471
G1 X158.176 Y172.501 E0.02442
G1 X158.353 Y171.995 E0.02294
G1 X158.598 Y171.58 E0.02057
G1 X158.909 Y171.242 E0.01965
G1 X159.421 Y170.882 E0.02677
G1 X160.071 Y170.663 E0.02931
G1 X160.561 Y170.626 E0.02102
G1 X160.991 Y170.626 E0.01839
G1 X177.412 Y170.627 E0.70209
G1 X177.472 Y170.198 F9000
G1 F1800
G1 X188.455 Y170.198 E0.46956
G1 X189.088 Y170.258 E0.02719
G1 X189.846 Y170.536 E0.03453
G1 X190.402 Y170.943 E0.02944
G1 X190.774 Y171.357 E0.02379
G1 X191.051 Y171.84 E0.02384
G1 X191.262 Y172.491 E0.02925
G1 X191.303 Y173.045 E0.02376
G1 X191.303 Y196.823 E1.01664
G1 X191.239 Y197.49 E0.02863
G1 X191.037 Y198.069 E0.02622
G1 X190.751 Y198.554 E0.02409
G1 X190.378 Y198.961 E0.0236
G1 X189.783 Y199.381 E0.03114
G1 X189.009 Y199.643 E0.03491
G1 X188.455 Y199.684 E0.02376
G1 X160.545 Y199.684 E1.19334
G1 X159.991 Y199.643 E0.02376
G1 X159.217 Y199.381 E0.03491
G1 X158.622 Y198.961 E0.03114
G1 X158.249 Y198.554 E0.0236
G1 X157.963 Y198.069 E0.02409
G1 X157.761 Y197.49 E0.02621
G1 X157.697 Y196.823 E0.02863
G1 X157.697 Y173.051 E1.0164
G1 X157.754 Y172.41 E0.0275
G1 X157.962 Y171.813 E0.02704
G1 X158.252 Y171.324 E0.02432
G1 X158.625 Y170.918 E0.02356
G1 X159.226 Y170.496 E0.0314
G1 X159.985 Y170.24 E0.03426
G1 X160.545 Y170.198 E0.02401
G1 X160.991 Y170.198 E0.01908
G1 X177.412 Y170.198 E0.70209
G1 X177.472 Y169.77 F9000
G1 F1800
G1 X188.475 Y169.77 E0.47042
G1 X189.183 Y169.837 E0.03042
G1 X190.05 Y170.155 E0.03949
G1 X190.69 Y170.624 E0.03391
G1 X191.123 Y171.104 E0.02764
G1 X191.445 Y171.666 E0.02771
G1 X191.685 Y172.408 E0.03335
G1 X191.732 Y173.029 E0.02663
G1 X191.732 Y196.844 E1.0182
G1 X191.661 Y197.582 E0.03171
G1 X191.428 Y198.25 E0.03024
G1 X191.097 Y198.811 E0.02782
G1 X190.663 Y199.285 E0.02748
G1 X189.979 Y199.767 E0.03579
G1 X189.095 Y200.066 E0.03989
G1 X188.471 Y200.112 E0.02675
G1 X160.529 Y200.112 E1.1947
G1 X159.905 Y200.066 E0.02675
G1 X159.021 Y199.768 E0.03989
G1 X158.337 Y199.285 E0.03579
G1 X157.903 Y198.811 E0.02748
G1 X157.572 Y198.25 E0.02782
G1 X157.339 Y197.582 E0.03024
G1 X157.269 Y196.844 E0.03171
G1 X157.269 Y173.032 E1.0181
M73 P0 R77
G1 X157.332 Y172.319 E0.03059
G1 X157.572 Y171.632 E0.03113
G1 X157.906 Y171.067 E0.02806
G1 X158.34 Y170.594 E0.02746
G1 X159.03 Y170.109 E0.03604
G1 X159.899 Y169.817 E0.03921
G1 X160.529 Y169.769 E0.027
G1 X160.991 Y169.769 E0.01977
G1 X177.412 Y169.77 E0.70209
G1 X177.472 Y169.341 F9000
;TYPE:External perimeter
G1 F1800
G1 X188.495 Y169.341 E0.47129
M73 P1 R77
G1 X189.279 Y169.415 E0.03366
G1 X190.255 Y169.774 E0.04444
G1 X190.979 Y170.304 E0.03838
G1 X191.472 Y170.851 E0.03148
G1 X191.839 Y171.492 E0.03159
G1 X192.108 Y172.325 E0.03745
G1 X192.16 Y173.013 E0.0295
G1 X192.16 Y196.865 E1.01977
G1 X192.082 Y197.675 E0.03479
G1 X191.819 Y198.431 E0.03427
G1 X191.443 Y199.067 E0.03156
G1 X190.948 Y199.608 E0.03136
G1 X190.176 Y200.154 E0.04043
G1 X189.181 Y200.489 E0.04488
G1 X188.487 Y200.541 E0.02974
G1 X160.513 Y200.541 E1.19607
G1 X159.819 Y200.489 E0.02974
