; generated by SuperSlicer 2.4 on 2022-04-23 at 04:12:49 UTC


;
;

;
;
; 

; external perimeters extrusion width = 0.40mm
; perimeters extrusion width = 0.40mm
; infill extrusion width = 0.72mm
; solid infill extrusion width = 0.56mm
; top infill extrusion width = 0.40mm
; first layer extrusion width = 0.48mm

; external perimeters extrusion width = 0.40mm
; perimeters extrusion width = 0.40mm
; infill extrusion width = 0.72mm
; solid infill extrusion width = 0.56mm
; top infill extrusion width = 0.40mm
; first layer extrusion width = 0.48mm

; object:{"name":"DD007(1)","id":"DD007(1).STL id:0 copy 0","object_center":[199.558667,165.000002,0.000000],"boundingbox_center":[199.558667,165.000002,4.499999],"boundingbox_size":[12.599991,59.206606,8.999998]}
; object:{"name":"DH010(1)","id":"DH010(1).STL id:1 copy 0","object_center":[155.700345,164.999945,0.000000],"boundingbox_center":[155.700345,164.999945,5.922686],"boundingbox_size":[63.116348,96.294144,11.845372]}
; plater:{"center":[165.000417,164.999945,0.000000],"boundingbox_center":[165.000417,164.999945,5.922686],"boundingbox_size":[81.716492,96.294144,11.845372]}

M73 P0 R57
;TYPE:Custom
START_PRINT T_BED=110 T_EXTRUDER=245
M107
G21 ; set units to millimeters
G90 ; use absolute coordinates
M83 ; use relative distances for extrusion
; Filament gcode
M104 S245 ; set temperature
M109 S245 ; set temperature and wait for it to be reached
M190 S110 ; set bed temperature and wait for it to be reached
M107
;LAYER_CHANGE
;Z:0.24
;HEIGHT:0.24
G1 E-0.5 F3000
G1 Z0.24 F9000
G92 E0
; INIT printing object DD007(1).STL id:0 copy 0
; printing object DD007(1).STL id:0 copy 0
SET_GCODE_OFFSET Z_ADJUST=-0.31 MOVE=1
M204 S1000
G1 X203.14 Y150.168
G1 E0.5 F1800
;TYPE:Internal perimeter
;WIDTH:0.48
G1 X204.308 Y150.167 E0.04995
G1 X204.308 Y151.384 E0.05204
G1 X203.941 Y151.437 E0.01588
G1 X203.872 Y151.204 E0.01038
G1 X203.695 Y150.769 E0.02011
G1 X203.181 Y150.212 E0.03242
G1 E-0.5 F3000
; acceleration to travel
M204 S4000
G1 X202.703 Y144.543 F9000
; decel to extrusion
M204 S1000
G1 X202.584 Y143.126
; end travel
G1 E0.5 F1800
G1 X203.144 Y142.536 E0.03479
G1 X203.276 Y142.241 E0.0138
G1 X203.429 Y141.766 E0.02137
G1 X203.509 Y141.377 E0.01697
G1 X203.533 Y141.049 E0.01406
G1 X203.539 Y138.461 E0.11066
G1 X204.302 Y138.465 E0.03259
G1 X204.308 Y143.124 E0.19917
G1 X202.644 Y143.126 E0.07116
G1 E-0.5 F3000
; acceleration to travel
M204 S4000
G1 X196.376 Y142.148 F9000
; decel to extrusion
M204 S1000
G1 X194.809 Y141.903
; end travel
G1 E0.5 F1800
G1 X195.184 Y141.904 E0.01601
G1 X195.353 Y142.389 E0.02194
G1 X195.546 Y142.728 E0.0167
G1 X196.173 Y143.062 E0.0304
G1 X195.608 Y143.308 E0.02635
G1 X195.371 Y143.649 E0.01776
G1 X195.172 Y144.277 E0.02814
G1 X194.809 Y144.22 E0.01571
G1 X194.809 Y141.963 E0.09653
G1 E-0.5 F3000
; acceleration to travel
M204 S4000
G1 X195.838 Y175.569 F9000
; decel to extrusion
M204 S1000
G1 X196.095 Y183.971
; end travel
G1 E0.5 F1800
G1 X196.839 Y184.447 E0.03776
G1 X197.679 Y184.808 E0.0391
G1 X198.311 Y184.983 E0.02806
G1 X198.931 Y185.085 E0.02686
G1 X199.559 Y185.119 E0.02686
G1 X200.214 Y185.084 E0.02806
G1 X201.112 Y184.911 E0.0391
G1 X201.997 Y184.586 E0.0403
G1 X203.023 Y184.006 E0.05039
G1 X203.023 Y190.538 E0.27927
G1 X196.095 Y190.538 E0.29621
G1 X196.095 Y184.031 E0.27822
G1 X195.666 Y183.05 F9000
G1 F1800
G1 X196.324 Y183.609 E0.03688
G1 X197.04 Y184.067 E0.03637
G1 X197.822 Y184.403 E0.03637
G1 X198.404 Y184.564 E0.02582
G1 X198.978 Y184.658 E0.02488
G1 X199.559 Y184.69 E0.02488
G1 X200.162 Y184.657 E0.02582
G1 X200.997 Y184.497 E0.03637
G1 X201.816 Y184.196 E0.03731
G1 X202.576 Y183.767 E0.03731
G1 X203.451 Y183.063 E0.04801
G1 X203.451 Y190.966 E0.33792
G1 X195.666 Y190.966 E0.33285
G1 X195.666 Y183.11 E0.3359
G1 X195.535 Y182.166 F9000
G1 F1800
G1 X195.779 Y182.506 E0.0179
G1 X196.158 Y182.906 E0.02359
G1 X196.579 Y183.263 E0.02358
G1 X197.242 Y183.687 E0.03363
G1 X197.964 Y183.998 E0.03363
G1 X198.496 Y184.145 E0.02359
G1 X199.024 Y184.232 E0.02289
G1 X199.559 Y184.261 E0.02289
G1 X200.109 Y184.231 E0.02359
G1 X200.882 Y184.083 E0.03363
G1 X201.636 Y183.806 E0.03433
G1 X202.335 Y183.411 E0.03433
G1 X202.96 Y182.908 E0.03433
G1 X203.486 Y182.322 E0.03363
G1 X203.577 Y182.188 E0.00695
G1 X203.88 Y182.281 E0.01354
G1 X203.88 Y191.395 E0.38969
G1 X195.238 Y191.395 E0.36949
G1 X195.238 Y182.261 E0.39051
G1 X195.478 Y182.184 E0.01078
; acceleration to travel
M204 S4000
G1 X195.23 Y180.762 F9000
; decel to extrusion
M204 S1000
G1 X195.168 Y180.407
; end travel
G1 F1800
G1 X195.367 Y180.998 E0.02666
G1 X195.689 Y181.645 E0.0309
G1 X196.11 Y182.232 E0.0309
G1 X196.454 Y182.595 E0.02135
G1 X196.834 Y182.918 E0.02135
G1 X197.443 Y183.307 E0.0309
G1 X198.107 Y183.593 E0.0309
G1 X198.588 Y183.726 E0.02135
G1 X199.07 Y183.805 E0.0209
G1 X199.559 Y183.832 E0.0209
G1 X200.057 Y183.805 E0.02135
G1 X200.767 Y183.669 E0.0309
G1 X201.455 Y183.416 E0.03135
G1 X202.093 Y183.055 E0.03135
G1 X202.665 Y182.596 E0.03134
G1 X203.147 Y182.058 E0.0309
G1 X203.428 Y181.644 E0.02135
G1 X203.661 Y181.203 E0.02135
G1 X203.955 Y180.405 E0.03635
G1 X204.308 Y180.468 E0.01535
G1 X204.308 Y191.823 E0.48551
G1 X194.809 Y191.823 E0.40613
G1 X194.809 Y180.466 E0.48561
G1 X195.109 Y180.416 E0.013
G1 E-0.5 F3000
; acceleration to travel
M204 S4000
G1 X199.519 Y156.684 F9000
; decel to extrusion
M204 S1000
G1 X200.622 Y150.751
; end travel
G1 E0.5 F1800
;TYPE:External perimeter
G1 X200.912 Y150.3 E0.02294
G1 X201.248 Y149.869 E0.02333
G1 X201.399 Y149.739 E0.00854
G1 X204.661 Y149.739 E0.13947
G1 X204.683 Y149.789 E0.00233
G1 X204.713 Y149.922 E0.00584
G1 X204.737 Y150.257 E0.01437
G1 X204.737 Y191.857 E1.77862
G1 X204.715 Y192.121 E0.01133
G1 X204.69 Y192.216 E0.00419
G1 X204.673 Y192.252 E0.00171
G1 X194.445 Y192.252 E0.43729
G1 X194.402 Y192.113 E0.00622
G1 X194.381 Y191.857 E0.01097
G1 X194.381 Y142.003 E2.13152
G1 X194.416 Y141.613 E0.01678
G1 X194.466 Y141.473 E0.00634
G1 X195.453 Y141.477 E0.0422
G1 X195.48 Y141.51 E0.00182
G1 X195.584 Y141.75 E0.01119
G1 X195.745 Y142.211 E0.02087
G1 X195.857 Y142.409 E0.00972
G1 X196.076 Y142.525 E0.01062
G1 X200.435 Y142.533 E0.18636
G1 X202.575 Y142.514 E0.09148
G1 X202.783 Y142.294 E0.01292
G1 X202.875 Y142.088 E0.00968
G1 X203.014 Y141.656 E0.01937
G1 X203.084 Y141.318 E0.01477
G1 X203.104 Y141.033 E0.01222
G1 X203.111 Y138.387 E0.11313
G1 X203.163 Y138.077 E0.01343
G1 X203.183 Y138.03 E0.0022
G1 X204.665 Y138.039 E0.06335
G1 X204.703 Y138.168 E0.00577
G1 X204.73 Y138.38 E0.00913
G1 X204.737 Y143.033 E0.19894
G1 X204.712 Y143.371 E0.01447
G1 X204.682 Y143.505 E0.00587
G1 X204.661 Y143.552 E0.0022
G1 X196.091 Y143.566 E0.36645
G1 X195.891 Y143.653 E0.00932
G1 X195.76 Y143.841 E0.00979
G1 X195.529 Y144.569 E0.03265
G1 X195.473 Y145.05 E0.02074
G1 X195.473 Y179.33 E1.46566
G1 X195.525 Y179.973 E0.02757
G1 X195.621 Y180.41 E0.01911
G1 X195.764 Y180.833 E0.01912
G1 X196.057 Y181.423 E0.02816
G1 X196.441 Y181.958 E0.02816
G1 X196.749 Y182.283 E0.01911
G1 X197.089 Y182.572 E0.01911
G1 X197.644 Y182.927 E0.02816
G1 X198.249 Y183.187 E0.02816
G1 X198.68 Y183.307 E0.01911
G1 X199.117 Y183.379 E0.01892
G1 X199.559 Y183.403 E0.01892
G1 X200.005 Y183.378 E0.01911
G1 X200.652 Y183.254 E0.02816
G1 X201.275 Y183.026 E0.02836
G1 X201.852 Y182.699 E0.02836
G1 X202.369 Y182.283 E0.02836
G1 X202.809 Y181.793 E0.02816
G1 X203.06 Y181.423 E0.01911
G1 X203.269 Y181.028 E0.01911
G1 X203.495 Y180.414 E0.02797
G1 X203.592 Y179.973 E0.01931
G1 X203.644 Y179.33 E0.02757
G1 X203.635 Y152.054 E1.16621
G1 X203.575 Y151.714 E0.01475
G1 X203.467 Y151.346 E0.01641
G1 X203.328 Y151.002 E0.01585
G1 X203.119 Y150.776 E0.01314
G1 X200.682 Y150.751 E0.10421
;WIPE_START
M204 S4000
G1 X200.937 Y150.505 F9000
;WIPE_END
M204 S1000
G1 X201.123 Y150.35
;TYPE:Gap fill
;WIDTH:0.461616
G1 F1800
G1 X201.271 Y150.315 E0.00624
G1 X201.37 Y150.295 E0.00414
;WIDTH:0.495992
G1 X201.469 Y150.276 E0.00448
;WIDTH:0.58754
G1 X201.599 Y150.25 E0.00706
;WIDTH:0.688594
G1 X202.519 Y150.255 E0.05847
G1 X202.617 Y150.267 E0.00631
;WIDTH:0.625896
G1 X202.814 Y150.293 E0.01138
;WIDTH:0.542299
G1 X203.011 Y150.318 E0.00973
G1 X203.907 Y150.364 F9000
;WIDTH:0.448572
G1 F1800
G1 X203.953 Y150.523 E0.00655
;WIDTH:0.336768
G1 X203.983 Y150.613 E0.0027
;WIDTH:0.287489
G1 X204.016 Y150.781 E0.00403
;WIDTH:0.205303
G1 X204.049 Y150.949 E0.00263
;WIDTH:0.140817
G1 X204.074 Y151.079 E0.00117
G1 X204.139 Y151.608 F9000
;WIDTH:0.836886
G1 F1800
G1 X204.16 Y151.785 E0.01402
;WIDTH:0.751073
G1 X204.182 Y151.963 E0.01249
G1 X204.186 Y152.037 E0.00514
G1 X204.188 Y165.687 E0.95287
G1 X204.19 Y179.338 E0.95287
G1 X204.19 Y179.367 E0.00199
G1 X204.18 Y179.617 E0.01749
;WIDTH:0.791647
G1 X204.17 Y179.867 E0.0185
G1 X204.156 Y180.047 E0.01332
G1 X204.135 Y180.237 E0.01412
G1 X204.073 Y180.764 F9000
;WIDTH:0.141402
G1 F1800
G1 X204.047 Y180.914 E0.00136
;WIDTH:0.19011
G1 X204.028 Y181.018 E0.00147
;WIDTH:0.236555
G1 X204.009 Y181.123 E0.00196
;WIDTH:0.283001
G1 X203.991 Y181.227 E0.00245
;WIDTH:0.329446
G1 X203.972 Y181.332 E0.00294
;WIDTH:0.35702
G1 X203.931 Y181.501 E0.00531
;WIDTH:0.449496
G1 X203.894 Y181.651 E0.00614
;WIDTH:0.539025
G1 X203.856 Y181.801 E0.00752
;WIDTH:0.567004
G1 X203.843 Y181.858 E0.00305
;WIDTH:0.631579
G1 X203.794 Y182.048 E0.01135
; acceleration to travel
M204 S4000
G1 X203.144 Y184.31 F9000
; decel to extrusion
M204 S1000
G1 X202.958 Y184.956
; end travel
;TYPE:Solid infill
;WIDTH:0.459666
G1 F3600
G1 X202.482 Y184.48 E0.02758
G1 X202.044 Y184.648 E0.01921
G1 X202.774 Y185.378 E0.04228
G1 X202.774 Y185.984 E0.02481
G1 X201.606 Y184.816 E0.06764
G1 X201.168 Y184.984 E0.01921
G1 X202.774 Y186.59 E0.093
G1 X202.774 Y187.196 E0.02481
G1 X200.73 Y185.152 E0.11836
G1 X200.292 Y185.32 E0.01921
G1 X202.774 Y187.802 E0.14372
G1 X202.774 Y188.408 E0.02481
G1 X199.67 Y185.304 E0.17973
G1 X199.031 Y185.27 E0.02623
G1 X202.774 Y189.014 E0.21677
G1 X202.774 Y189.62 E0.02481
G1 X198.391 Y185.236 E0.25381
G1 X198.261 Y185.23 E0.00532
G1 X197.501 Y184.952 E0.03313
G1 X202.774 Y190.226 E0.30534
G1 X202.774 Y190.289 E0.00261
G1 X202.232 Y190.289 E0.0222
G1 X196.409 Y184.467 E0.33715
G1 X196.343 Y184.425 E0.00322
G1 X196.343 Y185.007 E0.02383
G1 X201.626 Y190.289 E0.30589
G1 X201.02 Y190.289 E0.02481
G1 X196.343 Y185.613 E0.2708
G1 X196.343 Y186.219 E0.02481
G1 X200.414 Y190.289 E0.23571
G1 X199.808 Y190.289 E0.02481
G1 X196.343 Y186.825 E0.20063
G1 X196.343 Y187.431 E0.02481
G1 X199.202 Y190.289 E0.16554
G1 X198.596 Y190.289 E0.02481
G1 X196.343 Y188.037 E0.13045
G1 X196.343 Y188.643 E0.02481
G1 X197.99 Y190.289 E0.09536
G1 X197.384 Y190.289 E0.02481
G1 X196.343 Y189.249 E0.06027
G1 X196.343 Y189.855 E0.02481
G1 X196.962 Y190.474 E0.03585
; acceleration to travel
M204 S4000
G1 X195.61 Y183.545 F9000
; decel to extrusion
M204 S1000
G1 X195.315 Y182.03
; end travel
;TYPE:Gap fill
;WIDTH:0.611685
G1 F1800
G1 X195.271 Y181.852 E0.01021
;WIDTH:0.555985
G1 X195.257 Y181.784 E0.00349
;WIDTH:0.531432
G1 X195.218 Y181.617 E0.00823
;WIDTH:0.441835
G1 X195.179 Y181.45 E0.00669
;WIDTH:0.352237
G1 X195.14 Y181.282 E0.00515
;WIDTH:0.260915
G1 X195.098 Y181.103 E0.00386
;WIDTH:0.235222
G1 X195.075 Y180.963 E0.00259
;WIDTH:0.14196
G1 X195.045 Y180.778 E0.00169
G1 X194.979 Y180.238 F9000
;WIDTH:0.791417
G1 F1800
G1 X194.96 Y180.044 E0.01438
G1 X194.948 Y179.868 E0.01304
G1 X194.938 Y179.617 E0.01853
;WIDTH:0.751088
G1 X194.927 Y179.367 E0.01752
G1 X194.927 Y179.338 E0.00198
G1 X194.927 Y145.039 E2.39427
G1 X194.928 Y144.998 E0.00285
G1 X194.939 Y144.806 E0.01345
G1 X194.955 Y144.625 E0.01264
;WIDTH:0.809438
G1 X194.972 Y144.445 E0.0137
G1 X195.045 Y143.896 F9000
;WIDTH:0.143864
G1 F1800
G1 X195.052 Y143.85 E0.00042
G1 X195.077 Y143.691 E0.00148
;WIDTH:0.229632
G1 X195.108 Y143.503 E0.0034
;WIDTH:0.256159
G1 X195.247 Y143.06 E0.00947
;WIDTH:0.365926
G1 X195.218 Y142.98 E0.00268
;WIDTH:0.455244
G1 X195.183 Y142.847 E0.00554
;WIDTH:0.373452
G1 X195.148 Y142.714 E0.00442
;WIDTH:0.291659
G1 X195.113 Y142.581 E0.0033
;WIDTH:0.229701
G1 X195.092 Y142.499 E0.00151
G1 X195.072 Y142.382 E0.00211
;WIDTH:0.143863
G1 X195.045 Y142.219 E0.00152
; acceleration to travel
M204 S4000
G1 X196.297 Y142.901 F9000
; decel to extrusion
M204 S1000
G1 X196.61 Y143.071
; end travel
;WIDTH:0.689563
G1 F1800
G1 X196.724 Y143.052 E0.0074
G1 X196.835 Y143.049 E0.00707
G1 X196.946 Y143.045 E0.00707
G1 X198.691 Y143.046 E0.11107
G1 X200.439 Y143.046 E0.11128
G1 X201.196 Y143.042 E0.04823
G1 X201.954 Y143.038 E0.04823
G1 X202.055 Y143.024 E0.0065
;WIDTH:0.651324
G1 X202.156 Y143.011 E0.00611
;WIDTH:0.608274
G1 X202.257 Y142.998 E0.00567
;WIDTH:0.565225
G1 X202.359 Y142.984 E0.00523
;WIDTH:0.522175
G1 X202.46 Y142.971 E0.00479
; acceleration to travel
M204 S4000
G1 X203.497 Y142.936 F9000
; decel to extrusion
M204 S1000
G1 X203.757 Y142.928
; end travel
;WIDTH:1.013011
G1 F1800
G1 X203.756 Y142.743 E0.0177
;WIDTH:0.847105
G1 X203.746 Y142.563 E0.01429
;WIDTH:0.748376
G1 X203.777 Y142.414 E0.01057
;WIDTH:0.718213
G1 X203.793 Y142.31 E0.00702
;WIDTH:0.676971
G1 X203.81 Y142.206 E0.00659
;WIDTH:0.635729
G1 X203.826 Y142.102 E0.00615
;WIDTH:0.594487
G1 X203.842 Y141.997 E0.00572
;WIDTH:0.552535
G1 X203.862 Y141.866 E0.00666
G1 X203.883 Y141.655 E0.01057
;WIDTH:0.460073
G1 X203.905 Y141.445 E0.00862
G1 X203.906 Y141.419 E0.00108
G1 X203.913 Y141.244 E0.00711
;WIDTH:0.430666
G1 X203.919 Y141.057 E0.0071
G1 X203.92 Y139.951 E0.04184
G1 X203.92 Y138.845 E0.04184
G1 X203.92 Y138.66 E0.007
; INIT stop printing object DD007(1).STL id:0 copy 0
; INIT printing object DH010(1).STL id:1 copy 0
G1 E-0.5 F3000
; stop printing object DD007(1).STL id:0 copy 0
; printing object DH010(1).STL id:1 copy 0
; acceleration to travel
M204 S4000
G1 X152.302 Y137.74 F9000
; decel to extrusion
M204 S1000
G1 X139.397 Y137.51
; end travel
G1 E0.5 F1800
;TYPE:Internal perimeter
;WIDTH:0.48
G1 X139.4 Y137.488 E0.00096
G1 X139.402 Y137.069 E0.01791
G1 X139.344 Y136.516 E0.02379
G1 X139.25 Y136.069 E0.01951
G1 X139.139 Y135.707 E0.01619
G1 X138.893 Y135.132 E0.02676
G1 X138.696 Y134.784 E0.01708
G1 X138.315 Y134.255 E0.02788
G1 X137.844 Y133.768 E0.029
G1 X137.563 Y133.535 E0.01561
G1 X137.224 Y133.299 E0.01765
G1 X136.678 Y132.999 E0.02663
G1 X136.082 Y132.772 E0.02728
G1 X135.682 Y132.668 E0.01763
G1 X135.061 Y132.578 E0.02685
G1 X134.649 Y132.566 E0.01763
G1 X134.337 Y132.59 E0.01336
G1 X134.012 Y132.615 E0.01396
G1 X133.337 Y132.766 E0.02958
G1 X132.691 Y133.015 E0.02961
G1 X132.108 Y133.344 E0.02861
G1 X131.584 Y133.747 E0.02826
G1 X131.286 Y134.035 E0.01769
G1 X130.878 Y134.527 E0.02734
G1 X130.524 Y135.107 E0.02904
G1 X130.356 Y135.471 E0.01714
G1 X130.156 Y136.062 E0.02668
G1 X128.268 Y143.382 E0.32323
G1 X128.215 Y143.752 E0.01596
G1 X128.191 Y144.391 E0.02733
G1 X128.271 Y145.116 E0.03122
G1 X128.434 Y145.735 E0.02735
G1 X128.563 Y146.074 E0.01548
G1 X128.739 Y146.443 E0.01748
G1 X129.069 Y146.979 E0.02693
G1 X129.512 Y147.51 E0.02957
G1 X130.018 Y147.962 E0.02903
G1 X130.313 Y148.171 E0.01543
G1 X130.621 Y148.358 E0.01541
G1 X131.223 Y148.637 E0.02839
G1 X131.847 Y148.825 E0.02785
G1 X132.228 Y148.895 E0.01654
G1 X132.892 Y148.944 E0.02846
G1 X133.582 Y148.893 E0.02962
G1 X134.259 Y148.742 E0.02964
G1 X134.906 Y148.492 E0.02964
G1 X135.509 Y148.15 E0.02964
G1 X136.054 Y147.725 E0.02956
G1 X136.505 Y147.255 E0.02787
G1 X136.908 Y146.693 E0.02956
G1 X137.226 Y146.077 E0.02964
G1 X137.44 Y145.447 E0.02845
G1 X139.331 Y138.113 E0.32382
G1 X139.391 Y137.57 E0.02335
G1 X138.972 Y137.463 F9000
;TYPE:External perimeter
G1 F1800
G1 X138.974 Y137.091 E0.01594
G1 X138.92 Y136.583 E0.02184
G1 X138.835 Y136.176 E0.01774
G1 X138.736 Y135.855 E0.01438
G1 X138.508 Y135.322 E0.02476
G1 X138.335 Y135.016 E0.01507
G1 X137.986 Y134.53 E0.02556
G1 X137.552 Y134.082 E0.02665
G1 X137.303 Y133.876 E0.01382
G1 X136.997 Y133.664 E0.01592
G1 X136.497 Y133.389 E0.0244
G1 X135.951 Y133.181 E0.02499
G1 X135.598 Y133.089 E0.01561
G1 X135.024 Y133.006 E0.0248
G1 X134.659 Y132.995 E0.01561
G1 X134.37 Y133.017 E0.01237
G1 X134.076 Y133.039 E0.01264
G1 X133.461 Y133.177 E0.02691
