; generated by SuperSlicer 2.4 on 2022-07-10 at 05:38:42 UTC


;
;

;
;
; 

; external perimeters extrusion width = 0.40mm
; perimeters extrusion width = 0.48mm
; infill extrusion width = 0.72mm
; solid infill extrusion width = 0.56mm
; top infill extrusion width = 0.40mm
; support material extrusion width = 0.40mm
; first layer extrusion width = 0.48mm

; object:{"name":"test","id":"test.stl id:0 copy 0","object_center":[165.117687,165.583196,0.000000],"boundingbox_center":[165.117687,165.583196,16.252538],"boundingbox_size":[140.892400,23.212671,32.505077]}
; plater:{"center":[165.117687,165.583196,0.000000],"boundingbox_center":[165.117687,165.583196,16.252538],"boundingbox_size":[140.892400,23.212671,32.505077]}

M73 P0 R78
;TYPE:Custom
START_PRINT T_BED=70 T_EXTRUDER=235
M107
G21 ; set units to millimeters
G90 ; use absolute coordinates
M83 ; use relative distances for extrusion
; Filament gcode
M104 S235 ; set temperature
M109 S235 ; set temperature and wait for it to be reached
M190 S70 ; set bed temperature and wait for it to be reached
M107
;LAYER_CHANGE
;Z:0.24
;HEIGHT:0.24
G1 Z0.24 F9000
G92 E0
G1 E-1 F3000
M204 S1000
G1 X90.413 Y153.938 F9000
G1 E1 F1800
;TYPE:Skirt
;WIDTH:0.52
G1 X89.258 Y155.197 E0.07988
G1 X88.791 Y156.84 E0.07988
G1 X88.626 Y160.604 E0.17612
G1 X88.656 Y162.479 E0.08767
G1 X88.874 Y164.219 E0.08196
G1 X89.17 Y165.557 E0.06406
G1 X89.735 Y167.278 E0.08467
G1 X90.664 Y169.256 E0.10215
G1 X91.633 Y170.794 E0.085
G1 X92.494 Y171.896 E0.06535
G1 X93.729 Y173.191 E0.08365
G1 X94.339 Y173.694 E0.03695
G1 X96.632 Y175.204 E0.12836
G1 X98.222 Y176.05 E0.08421
G1 X99.958 Y176.725 E0.08706
G1 X102.091 Y177.217 E0.10233
G1 X107.013 Y177.572 E0.2307
G1 X224.054 Y182.945 E5.47702
G1 X225.051 Y182.855 E0.0468
G1 X234.668 Y180.644 E0.46129
G1 X235.907 Y180.106 E0.06315
G1 X237.065 Y178.849 E0.07988
G1 X237.535 Y177.206 E0.07988
G1 X238.093 Y164.912 E0.57532
G1 X237.449 Y162.652 E0.10986
G1 X236.183 Y161.504 E0.07988
G1 X230.531 Y158.389 E0.30169
G1 X229.131 Y157.949 E0.06859
G1 X139.987 Y148.606 E4.19003
G1 X133.637 Y148.319 E0.29713
G1 X122.079 Y148.165 E0.54033
G1 X118.285 Y148.164 E0.17736
G1 X117.562 Y148.236 E0.03395
G1 X91.764 Y153.373 E1.22967
M73 P0 R77
G1 X90.413 Y153.938 E0.06845
G1 X90.767 Y154.296 F9000
G1 F1800
G1 X89.718 Y155.333 E0.06895
G1 X89.257 Y156.861 E0.0746
G1 X89.092 Y160.625 E0.17612
G1 X89.12 Y162.427 E0.08426
G1 X89.329 Y164.118 E0.07968
G1 X89.625 Y165.457 E0.06406
G1 X90.176 Y167.127 E0.0822
G1 X91.062 Y169.013 E0.09742
G1 X92.001 Y170.507 E0.0825
G1 X92.862 Y171.608 E0.06535
G1 X94.063 Y172.865 E0.08124
G1 X94.595 Y173.304 E0.03229
G1 X96.888 Y174.815 E0.12836
G1 X98.437 Y175.635 E0.08191
G1 X100.121 Y176.288 E0.08445
G1 X102.125 Y176.752 E0.09617
G1 X107.035 Y177.107 E0.23012
G1 X150.056 Y179.115 E2.01326
G1 X224.075 Y182.479 E3.46374
G1 X224.947 Y182.401 E0.0409
G1 X234.563 Y180.189 E0.46129
G1 X235.468 Y179.831 E0.04546
G1 X236.605 Y178.712 E0.0746
G1 X237.069 Y177.185 E0.0746
G1 X237.628 Y164.891 E0.57532
G1 X237.123 Y163.003 E0.09132
G1 X235.958 Y161.912 E0.0746
G1 X230.306 Y158.797 E0.30169
G1 X229.082 Y158.413 E0.05994
G1 X139.938 Y149.07 E4.19003
G1 X133.631 Y148.785 E0.29515
G1 X122.079 Y148.631 E0.54004
G1 X118.285 Y148.631 E0.17736
G1 X117.653 Y148.693 E0.02967
G1 X91.855 Y153.831 E1.22967
G1 X90.853 Y154.212 E0.05012
G1 X90.767 Y154.296 E0.00565
G1 E-1 F3000
; printing object test.stl id:0 copy 0
; acceleration to travel
M204 S3000
G1 X92.057 Y156.325 F9000
; decel to extrusion
M204 S1000
G1 X92.487 Y157.002
; end travel
G1 E1 F1800
;TYPE:Support material
;WIDTH:0.48
G1 X96.129 Y156.967 E0.15572
G1 X97.919 Y156.989 E0.07655
G1 X99.518 Y157.008 E0.06839
G1 X100.704 Y158.181 E0.07128
G1 X100.774 Y158.283 E0.00528
G1 X103.093 Y160.427 E0.13504
G1 X103.219 Y157.656 E0.1186
G1 X104.356 Y156.585 E0.06678
G1 X104.705 Y156.256 E0.0205
G1 X105.12 Y155.866 E0.02434
G1 X106.953 Y155.889 E0.07838
G1 X107.183 Y155.892 E0.00983
G1 X108.024 Y155.912 E0.036
G1 X108.322 Y156.035 E0.01375
G1 X108.444 Y156.085 E0.00565
G1 X108.505 Y156.084 E0.00262
G1 X109.913 Y156.071 E0.06017
G1 X112.278 Y156.117 E0.10117
G1 X112.516 Y156.214 E0.01097
G1 X112.681 Y156.282 E0.00765
G1 X114.065 Y156.269 E0.05916
G1 X116.101 Y156.294 E0.08709
G1 X116.803 Y156.312 E0.03002
G1 X117.223 Y156.485 E0.01938
G1 X117.964 Y156.477 E0.03171
G1 X117.993 Y155.866 E0.02616
G1 X118.036 Y154.967 E0.03847
G1 X118.069 Y154.463 E0.02158
G1 X118.285 Y151.864 E0.11153
G1 X122.079 Y151.864 E0.16222
G1 X122.587 Y152.067 E0.0234
G1 X122.599 Y152.067 E0.00049
G1 X122.783 Y152.064 E0.00786
G1 X126.475 Y152.064 E0.15785
G1 X126.983 Y152.267 E0.0234
G1 X127.178 Y152.263 E0.00835
G1 X130.703 Y152.264 E0.15072
G1 X130.833 Y157.221 E0.21204
G1 X127.922 Y157.374 E0.12465
G1 X127.436 Y157.4 E0.02081
G1 X126.463 Y157.451 E0.04163
G1 X126.031 Y157.474 E0.0185
G1 X126.007 Y157.475 E0.00103
G1 X125.962 Y158.47 E0.04257
G1 X126.412 Y158.534 E0.01944
G1 X126.894 Y158.603 E0.02081
G1 X127.376 Y158.672 E0.02081
G1 X130.754 Y159.157 E0.14591
G1 X130.146 Y164.335 E0.2229
G1 X131.025 Y164.374 E0.03762
G1 X132.231 Y164.455 E0.05167
G1 X132.546 Y164.476 E0.0135
G1 X133.487 Y164.539 E0.04034
G1 X134.697 Y164.64 E0.05192
G1 X133.939 Y163.392 E0.06246
G1 X133.445 Y162.607 E0.03961
G1 X133.579 Y161.566 E0.0449
G1 X133.583 Y161.538 E0.0012
G1 X133.956 Y161.619 E0.01634
G1 X134.327 Y161.699 E0.01624
G1 X134.708 Y161.782 E0.01666
G1 X134.734 Y161.787 E0.00114
G1 X135.052 Y161.832 E0.01372
G1 X135.582 Y161.908 E0.02288
G1 X135.936 Y161.615 E0.01966
G1 X136.096 Y161.482 E0.00891
G1 X136.213 Y158.908 E0.11018
G1 X136.235 Y158.438 E0.02012
G1 X136.342 Y156.087 E0.1006
G1 X136.373 Y155.393 E0.0297
G1 X135.899 Y154.922 E0.02858
G1 X135.364 Y154.95 E0.02288
G1 X135.044 Y154.967 E0.01371
G1 X135.018 Y154.969 E0.00111
G1 X134.712 Y155.007 E0.01317
G1 X134.632 Y155.017 E0.00347
G1 X133.435 Y155.162 E0.05154
G1 X133.587 Y152.018 E0.13461
G1 X139.106 Y152.263 E0.2362
M73 P1 R77
G1 X139.601 Y152.285 E0.02117
G1 X139.42 Y156.256 E0.16994
G1 X139.434 Y156.294 E0.00171
G1 X139.542 Y156.591 E0.01352
G1 X139.502 Y157.475 E0.03784
G1 X139.512 Y157.475 E0.00044
G1 X140.098 Y157.466 E0.02506
G1 X141.925 Y157.486 E0.07811
G1 X142.471 Y157.492 E0.02335
G1 X143.238 Y157.512 E0.03281
G1 X143.64 Y157.678 E0.01859
G1 X144.832 Y157.671 E0.05096
G1 X147.489 Y157.703 E0.11363
G1 X147.69 Y157.784 E0.00925
G1 X147.933 Y157.883 E0.01125
G1 X148.953 Y157.87 E0.0436
G1 X151.26 Y157.892 E0.09862
G1 X151.875 Y157.907 E0.02632
G1 X151.952 Y157.909 E0.0033
G1 X152.074 Y157.958 E0.00561
G1 X152.373 Y158.08 E0.01379
G1 X153.009 Y158.071 E0.0272
G1 X153.082 Y158.07 E0.00312
G1 X155.659 Y158.092 E0.11022
G1 X155.748 Y158.094 E0.00381
G1 X156.357 Y158.112 E0.02602
G1 X156.763 Y158.277 E0.01877
G1 X157.205 Y158.269 E0.0189
G1 X159.691 Y158.283 E0.1063
G1 X160.393 Y158.587 E0.03267
G1 X160.608 Y158.577 E0.00922
G1 X160.823 Y158.568 E0.00922
G1 X161.163 Y158.692 E0.01548
G1 X161.416 Y158.784 E0.01151
G1 X165.598 Y158.973 E0.17896
G1 X169.979 Y159.172 E0.18751
G1 X170.414 Y159.193 E0.01864
G1 X173.689 Y159.34 E0.14016
G1 X174.39 Y159.372 E0.03001
G1 X178.778 Y159.571 E0.1878
G1 X179.387 Y159.601 E0.02607
G1 X183.181 Y159.771 E0.16237
G1 X183.872 Y159.803 E0.02959
G1 X184.827 Y159.847 E0.04086
G1 X185.933 Y159.897 E0.04732
G1 X187.58 Y159.971 E0.07049
G1 X189.117 Y160.04 E0.0658
G1 X191.969 Y160.17 E0.12205
G1 X192.554 Y160.198 E0.02503
G1 X195.188 Y160.317 E0.11275
G1 X196.369 Y160.37 E0.05054
G1 X200.769 Y160.569 E0.1883
G1 X201.472 Y160.602 E0.0301
G1 X203.041 Y160.673 E0.06717
G1 X204.88 Y160.756 E0.0787
G1 X205.16 Y160.769 E0.01196
G1 X209.558 Y160.968 E0.18823
G1 X213.953 Y161.167 E0.18813
G1 X218.349 Y161.367 E0.18812
G1 X220.486 Y161.463 E0.09145
G1 X220.571 Y161.432 E0.0039
G1 X220.89 Y161.315 E0.01452
G1 X221.215 Y161.329 E0.01393
G1 X221.494 Y161.342 E0.01193
G1 X221.638 Y161.348 E0.00617
G1 X221.91 Y161.359 E0.01163
G1 X222.3 Y161.374 E0.01667
G1 X228.745 Y161.629 E0.2758
G1 X224.862 Y165.177 E0.22491
G1 X224.755 Y167.515 E0.10009
G1 X221.387 Y167.364 E0.14415
G1 X221.12 Y173.249 E0.25188
G1 X224.488 Y173.402 E0.14415
G1 X224.402 Y175.29 E0.08078
G1 X224.359 Y176.226 E0.04007
G1 X224.222 Y179.25 E0.12941
G1 X217.55 Y178.946 E0.28556
G1 X213.154 Y178.747 E0.18813
G1 X208.759 Y178.547 E0.18812
G1 X204.363 Y178.347 E0.18812
G1 X199.968 Y178.147 E0.18812
G1 X191.177 Y177.748 E0.37625
G1 X186.782 Y177.548 E0.18812
G1 X182.386 Y177.348 E0.18812
G1 X177.991 Y177.148 E0.18812
G1 X173.595 Y176.948 E0.18812
G1 X169.2 Y176.749 E0.18812
G1 X164.804 Y176.549 E0.18812
G1 X160.409 Y176.349 E0.18812
G1 X156.014 Y176.149 E0.18812
G1 X151.618 Y175.949 E0.18813
G1 X150.207 Y175.885 E0.06041
G1 X149.849 Y175.732 E0.01665
G1 X149.766 Y175.73 E0.00355
G1 X149.184 Y175.718 E0.02486
G1 X148.992 Y175.714 E0.00823
G1 X148.942 Y175.713 E0.00214
G1 X148.313 Y175.651 E0.027
G1 X147.187 Y175.538 E0.04838
G1 X146.749 Y175.673 E0.01961
G1 X146.05 Y175.629 E0.02993
G1 X143.09 Y175.38 E0.12701
G1 X143.038 Y175.375 E0.00226
G1 X142.778 Y175.346 E0.01119
G1 X142.348 Y175.475 E0.01918
G1 X141.651 Y175.429 E0.02987
G1 X139.992 Y175.29 E0.0712
G1 X138.695 Y175.181 E0.05563
G1 X138.661 Y175.177 E0.00148
G1 X138.382 Y175.146 E0.01199
G1 X137.953 Y175.275 E0.01918
G1 X137.306 Y175.233 E0.02772
G1 X137.294 Y175.232 E0.00047
G1 X137.256 Y175.23 E0.00166
G1 X135.227 Y175.059 E0.08703
G1 X134.299 Y174.981 E0.03981
G1 X134.261 Y174.977 E0.00166
G1 X133.987 Y174.946 E0.01179
G1 X133.557 Y175.076 E0.01918
G1 X133.475 Y175.07 E0.00351
G1 X132.86 Y175.03 E0.02635
G1 X131.345 Y174.902 E0.065
G1 X129.904 Y174.781 E0.06185
G1 X129.747 Y174.764 E0.00673
G1 X129.591 Y174.746 E0.00672
G1 X129.368 Y174.813 E0.00995
G1 X129.162 Y174.876 E0.00923
G1 X128.465 Y174.83 E0.02985
G1 X125.509 Y174.581 E0.12685
G1 X125.414 Y174.571 E0.00408
G1 X125.225 Y174.55 E0.00813
G1 X124.951 Y174.637 E0.01227
G1 X124.885 Y174.637 E0.00285
G1 X124.153 Y174.637 E0.0313
G1 X121.113 Y174.381 E0.13042
G1 X120.685 Y174.334 E0.01842
G1 X120.259 Y174.462 E0.019
G1 X118.108 Y174.308 E0.0922
G1 X116.301 Y174.127 E0.07768
G1 X115.863 Y174.262 E0.01959
G1 X113.713 Y174.109 E0.09213
G1 X112.615 Y173.999 E0.0472
G1 X111.905 Y173.928 E0.03049
G1 X111.467 Y174.063 E0.01959
G1 X109.318 Y173.909 E0.09214
G1 X107.749 Y173.752 E0.06739
G1 X107.631 Y173.74 E0.00509
G1 X107.186 Y173.877 E0.0199
G1 X106.489 Y173.831 E0.02986
G1 X106.237 Y173.81 E0.01081
G1 X105.733 Y173.768 E0.02163
G1 X103.88 Y173.615 E0.0795
G1 X102.81 Y173.443 E0.04631
G1 X102.363 Y173.527 E0.01948
G1 X101.25 Y173.259 E0.04893
G1 X99.921 Y172.763 E0.06066
G1 X99.039 Y172.307 E0.04246
G1 X98.667 Y172.115 E0.01788
G1 X97.505 Y171.328 E0.06002
G1 X96.905 Y170.809 E0.03389
G1 X96.374 Y170.604 E0.02433
G1 X95.761 Y169.977 E0.03752
G1 X95.745 Y169.961 E0.00094
G1 X95.409 Y169.617 E0.02058
G1 X94.548 Y168.516 E0.05977
G1 X93.82 Y167.326 E0.05964
G1 X93.233 Y166.075 E0.05908
G1 X92.91 Y165.135 E0.0425
G1 X92.896 Y165.093 E0.00188
G1 X92.782 Y164.758 E0.01513
G1 X92.59 Y163.889 E0.03806
G1 X92.486 Y163.42 E0.02053
G1 X92.436 Y162.978 E0.01901
G1 X92.394 Y162.607 E0.01596
G1 X92.332 Y162.063 E0.02344
G1 X92.327 Y161.315 E0.03198
G1 X92.322 Y160.766 E0.02347
G1 X92.487 Y157.002 E0.16108
G1 E-1 F3000
; acceleration to travel
M204 S3000
G1 X194.094 Y160.899 F9000
; decel to extrusion
M204 S1000
G1 X227.964 Y162.198
; end travel
G1 E1 F1800
G1 X227.964 Y161.889 E0.01318
G1 X227.488 Y161.871 E0.02037
G1 X227.488 Y162.383 E0.02191
G1 X227.011 Y162.818 E0.02757
G1 X227.011 Y161.852 E0.04131
G1 X226.535 Y161.833 E0.02037
G1 X226.535 Y163.253 E0.06071
G1 X226.059 Y163.688 E0.02757
G1 X226.059 Y161.814 E0.08011
G1 X225.583 Y161.796 E0.02037
G1 X225.583 Y164.123 E0.09951
G1 X225.107 Y164.558 E0.02757
G1 X225.107 Y161.777 E0.11891
G1 X224.631 Y161.758 E0.02037
G1 X224.631 Y164.993 E0.13831
G1 X224.576 Y165.043 E0.00317
G1 X224.478 Y167.211 E0.0928
G1 X224.155 Y167.197 E0.01381
G1 X224.155 Y161.739 E0.23334
G1 X223.679 Y161.72 E0.02037
G1 X223.679 Y167.175 E0.23323
G1 X223.203 Y167.154 E0.02038
G1 X223.203 Y161.702 E0.23312
G1 X222.727 Y161.683 E0.02037
G1 X222.727 Y167.133 E0.23301
G1 X222.25 Y167.111 E0.02038
G1 X222.25 Y161.664 E0.2329
G1 X221.898 Y161.65 E0.01506
G1 X221.774 Y161.645 E0.00531
G1 X221.774 Y167.09 E0.2328
G1 X221.298 Y167.069 E0.02038
G1 X221.298 Y161.625 E0.23275
G1 X221.202 Y161.62 E0.0041
G1 X220.935 Y161.608 E0.01143
G1 X220.822 Y161.65 E0.00516
G1 X220.822 Y178.803 E0.73339
G1 X221.298 Y178.825 E0.02038
G1 X221.298 Y173.549 E0.22558
G1 X221.774 Y173.571 E0.02038
G1 X221.774 Y178.847 E0.22558
G1 X222.25 Y178.868 E0.02038
G1 X222.25 Y173.592 E0.22558
G1 X222.727 Y173.614 E0.02038
G1 X222.727 Y178.89 E0.22558
G1 X223.203 Y178.912 E0.02038
G1 X223.203 Y173.636 E0.22558
G1 X223.679 Y173.657 E0.02038
G1 X223.679 Y178.933 E0.22558
G1 X223.944 Y178.945 E0.01136
G1 X224.068 Y176.213 E0.11695
G1 X224.111 Y175.276 E0.04007
G1 X224.155 Y174.312 E0.0413
G1 X224.155 Y173.494 E0.03493
; acceleration to travel
M204 S3000
G1 X221.298 Y177.598 F9000
; decel to extrusion
M204 S1000
G1 X220.346 Y178.966
; end travel
G1 F1800
G1 X220.346 Y161.749 E0.73614
G1 X219.87 Y161.727 E0.02038
G1 X219.87 Y178.76 E0.72825
G1 X219.394 Y178.738 E0.02038
G1 X219.394 Y161.706 E0.72824
G1 X218.918 Y161.684 E0.02038
G1 X218.918 Y178.717 E0.72824
G1 X218.442 Y178.695 E0.02038
G1 X218.442 Y161.662 E0.72824
G1 X218.336 Y161.658 E0.00454
G1 X217.965 Y161.641 E0.01584
G1 X217.965 Y178.674 E0.72824
G1 X217.563 Y178.655 E0.01722
G1 X217.489 Y178.652 E0.00316
G1 X217.489 Y161.619 E0.72824
G1 X217.013 Y161.598 E0.02038
G1 X217.013 Y178.63 E0.72823
G1 X216.537 Y178.609 E0.02038
G1 X216.537 Y161.576 E0.72823
G1 X216.061 Y161.555 E0.02038
G1 X216.061 Y178.587 E0.72823
G1 X215.585 Y178.565 E0.02038
G1 X215.585 Y161.533 E0.72823
G1 X215.109 Y161.511 E0.02038
G1 X215.109 Y178.544 E0.72822
G1 X214.633 Y178.522 E0.02038
G1 X214.633 Y161.49 E0.72822
G1 X214.157 Y161.468 E0.02038
G1 X214.157 Y178.5 E0.72822
G1 X213.68 Y178.479 E0.02038
G1 X213.68 Y161.447 E0.72822
G1 X213.204 Y161.425 E0.02038
G1 X213.204 Y178.457 E0.72822
G1 X213.168 Y178.455 E0.00157
G1 X212.728 Y178.435 E0.0188
G1 X212.728 Y161.403 E0.72821
G1 X212.252 Y161.382 E0.02038
G1 X212.252 Y178.414 E0.72821
G1 X211.776 Y178.392 E0.02038
G1 X211.776 Y161.36 E0.72821
G1 X211.3 Y161.339 E0.02038
G1 X211.3 Y178.371 E0.72821
G1 X210.824 Y178.349 E0.02038
G1 X210.824 Y161.317 E0.7282
G1 X210.348 Y161.295 E0.02038
G1 X210.348 Y178.327 E0.7282
G1 X209.872 Y178.306 E0.02038
G1 X209.872 Y161.274 E0.7282
G1 X209.544 Y161.259 E0.014
G1 X209.396 Y161.252 E0.00637
G1 X209.396 Y178.284 E0.7282
G1 X208.919 Y178.262 E0.02038
G1 X208.919 Y161.231 E0.7282
G1 X208.443 Y161.209 E0.02038
G1 X208.443 Y178.241 E0.72819
G1 X207.967 Y178.219 E0.02038
G1 X207.967 Y161.188 E0.72819
G1 X207.491 Y161.166 E0.02038
G1 X207.491 Y178.197 E0.72819
G1 X207.015 Y178.176 E0.02038
G1 X207.015 Y161.144 E0.72819
G1 X206.539 Y161.123 E0.02038
G1 X206.539 Y178.154 E0.72819
G1 X206.063 Y178.132 E0.02038
G1 X206.063 Y161.101 E0.72818
G1 X205.587 Y161.08 E0.02038
G1 X205.587 Y178.111 E0.72818
G1 X205.111 Y178.089 E0.02038
G1 X205.111 Y161.058 E0.72818
G1 X204.867 Y161.047 E0.01042
G1 X204.634 Y161.037 E0.00996
G1 X204.634 Y178.068 E0.72817
G1 X204.377 Y178.056 E0.01103
G1 X204.158 Y178.046 E0.00934
G1 X204.158 Y161.015 E0.72815
G1 X203.682 Y160.994 E0.02038
G1 X203.682 Y178.024 E0.72814
G1 X203.206 Y178.003 E0.02038
G1 X203.206 Y160.973 E0.72813
G1 X203.028 Y160.965 E0.00761
G1 X202.73 Y160.951 E0.01276
G1 X202.73 Y177.981 E0.72813
G1 X202.254 Y177.959 E0.02038
G1 X202.254 Y160.929 E0.72814
G1 X201.778 Y160.907 E0.02038
G1 X201.778 Y177.938 E0.72815
G1 X201.302 Y177.916 E0.02038
G1 X201.302 Y160.885 E0.72815
G1 X200.826 Y160.864 E0.02038
G1 X200.826 Y177.894 E0.72816
G1 X200.35 Y177.873 E0.02038
G1 X200.35 Y160.842 E0.72816
G1 X199.873 Y160.82 E0.02038
G1 X199.873 Y177.851 E0.72816
G1 X199.397 Y177.83 E0.02038
G1 X199.397 Y160.799 E0.72815
G1 X198.921 Y160.777 E0.02038
G1 X198.921 Y177.808 E0.72815
