; generated by SuperSlicer 2.3.56 on 2021-12-01 at 23:59:14 UTC


;
;

;
;
; 

; external perimeters extrusion width = 0.40mm
; perimeters extrusion width = 0.40mm
; infill extrusion width = 0.40mm
; solid infill extrusion width = 0.40mm
; top infill extrusion width = 0.40mm
; support material extrusion width = 0.40mm
; first layer extrusion width = 0.48mm


;TYPE:Custom
START_PRINT T_BED=60 T_EXTRUDER=200
M107
G21 ; set units to millimeters
G90 ; use absolute coordinates
M83 ; use relative distances for extrusion
; Filament gcode
M109 S200 ; set temperature and wait for it to be reached
M190 S60 ; set bed temperature and wait for it to be reached
;LAYER_CHANGE
;Z:0.24
;HEIGHT:0.24
G1 Z0.240000 F12000.000
G1 E-0.80000 F3000.000
G1 X107.237 Y64.136 F12000.000
G1 E0.80000 F1500.000
;TYPE:Skirt
;WIDTH:0.48
G1 F600.000
G1 X107.655 Y63.608 E0.02877
G1 X108.189 Y63.205 E0.02860
G1 X108.807 Y62.950 E0.02860
G1 X109.469 Y62.857 E0.02860
G1 X219.504 Y62.857 E4.70458
G1 X220.015 Y62.908 E0.02194
G1 X220.506 Y63.056 E0.02194
G1 X220.960 Y63.297 E0.02194
G1 X221.358 Y63.621 E0.02194
G1 X221.686 Y64.015 E0.02194
G1 X221.932 Y64.466 E0.02194
G1 X222.087 Y64.959 E0.02212
G1 X222.143 Y65.469 E0.02194
G1 X222.143 Y245.504 E7.69746
G1 X222.046 Y246.210 E0.03047
G1 X221.763 Y246.864 E0.03047
G1 X221.345 Y247.392 E0.02877
G1 X220.808 Y247.797 E0.02877
G1 X220.189 Y248.051 E0.02860
G1 X219.523 Y248.143 E0.02877
G1 X109.492 Y248.143 E4.70441
G1 X108.786 Y248.044 E0.03047
G1 X108.136 Y247.763 E0.03030
G1 X107.608 Y247.345 E0.02877
G1 X107.203 Y246.808 E0.02877
G1 X106.947 Y246.181 E0.02894
G1 X106.857 Y245.515 E0.02877
G1 X106.857 Y65.496 E7.69677
G1 X106.954 Y64.790 E0.03047
G1 X107.213 Y64.191 E0.02791
G1 X107.603 Y64.359 F12000.000
G1 F600.000
G1 X107.604 Y64.356 E0.00014
G1 X107.955 Y63.914 E0.02414
G1 X108.403 Y63.576 E0.02398
G1 X108.922 Y63.363 E0.02398
G1 X109.478 Y63.286 E0.02398
G1 X219.504 Y63.286 E4.70422
G1 X220.342 Y63.452 E0.03655
G1 X221.058 Y63.926 E0.03670
G1 X221.539 Y64.637 E0.03670
G1 X221.714 Y65.478 E0.03670
G1 X221.714 Y245.504 E7.69710
G1 X221.633 Y246.095 E0.02554
G1 X221.396 Y246.644 E0.02554
G1 X221.045 Y247.086 E0.02414
G1 X220.597 Y247.424 E0.02398
G1 X220.075 Y247.638 E0.02414
G1 X219.515 Y247.714 E0.02414
G1 X109.493 Y247.714 E4.70406
G1 X108.905 Y247.633 E0.02539
G1 X108.356 Y247.396 E0.02554
G1 X107.914 Y247.045 E0.02414
G1 X107.573 Y246.590 E0.02430
G1 X107.360 Y246.068 E0.02414
G1 X107.286 Y245.508 E0.02414
G1 X107.286 Y65.496 E7.69647
G1 X107.367 Y64.905 E0.02554
G1 X107.579 Y64.414 E0.02284
G1 E-0.80000 F3000.000
G1 X110.597 Y66.597 F12000.000
G1 E0.80000 F1500.000
;TYPE:Internal perimeter
G1 F600.000
G1 X218.403 Y66.597 E4.60930
G1 X218.403 Y244.403 E7.60218
G1 X110.597 Y244.403 E4.60930
G1 X110.597 Y66.657 E7.59961
G1 X110.168 Y66.168 F12000.000
G1 F600.000
G1 X218.832 Y66.168 E4.64594
G1 X218.832 Y244.832 E7.63882
G1 X110.168 Y244.832 E4.64594
G1 X110.168 Y66.228 E7.63625
G1 X109.740 Y65.740 F12000.000
;TYPE:External perimeter
G1 F600.000
G1 X219.260 Y65.740 E4.68258
G1 X219.260 Y245.260 E7.67546
G1 X109.740 Y245.260 E4.68258
G1 X109.740 Y65.800 E7.67289
G1 X110.086 Y65.940 F12000.000
G1 E-0.80000 F3000.000
G1 X218.253 Y67.613 F12000.000
G1 E0.80000 F1500.000
;TYPE:Solid infill
;WIDTH:0.480313
G1 F1800.000
G1 X217.580 Y66.940 E0.04074
G1 X216.974 Y66.940 E0.02593
G1 X218.060 Y68.026 E0.06574
G1 X218.060 Y68.632 E0.02593
G1 X216.368 Y66.940 E0.10241
G1 X215.762 Y66.940 E0.02593
G1 X218.060 Y69.238 E0.13907
G1 X218.060 Y69.844 E0.02593
G1 X215.156 Y66.940 E0.17574
G1 X214.550 Y66.940 E0.02593
G1 X218.060 Y70.450 E0.21240
G1 X218.060 Y71.056 E0.02593
G1 X213.944 Y66.940 E0.24907
G1 X213.338 Y66.940 E0.02593
G1 X218.060 Y71.662 E0.28573
G1 X218.060 Y72.268 E0.02593
G1 X212.732 Y66.940 E0.32239
G1 X212.126 Y66.940 E0.02593
G1 X218.060 Y72.874 E0.35906
G1 X218.060 Y73.480 E0.02593
G1 X211.520 Y66.940 E0.39572
G1 X210.914 Y66.940 E0.02593
G1 X218.060 Y74.086 E0.43239
G1 X218.060 Y74.692 E0.02593
G1 X210.308 Y66.940 E0.46905
G1 X209.702 Y66.940 E0.02593
G1 X218.060 Y75.298 E0.50572
G1 X218.060 Y75.904 E0.02593
G1 X209.096 Y66.940 E0.54238
G1 X208.490 Y66.940 E0.02593
G1 X218.060 Y76.510 E0.57905
G1 X218.060 Y77.116 E0.02593
G1 X207.884 Y66.940 E0.61571
G1 X207.278 Y66.940 E0.02593
G1 X218.060 Y77.722 E0.65238
G1 X218.060 Y78.328 E0.02593
G1 X206.672 Y66.940 E0.68904
G1 X206.066 Y66.940 E0.02593
G1 X218.060 Y78.934 E0.72571
G1 X218.060 Y79.540 E0.02593
G1 X205.460 Y66.940 E0.76237
G1 X204.854 Y66.940 E0.02593
G1 X218.060 Y80.146 E0.79904
G1 X218.060 Y80.752 E0.02593
G1 X204.248 Y66.940 E0.83570
G1 X203.642 Y66.940 E0.02593
G1 X218.060 Y81.358 E0.87237
G1 X218.060 Y81.964 E0.02593
G1 X203.036 Y66.940 E0.90903
G1 X202.430 Y66.940 E0.02593
G1 X218.060 Y82.570 E0.94570
G1 X218.060 Y83.176 E0.02593
G1 X201.824 Y66.940 E0.98236
G1 X201.218 Y66.940 E0.02593
G1 X218.060 Y83.782 E1.01903
G1 X218.060 Y84.388 E0.02593
G1 X200.612 Y66.940 E1.05569
G1 X200.006 Y66.940 E0.02593
G1 X218.060 Y84.994 E1.09236
G1 X218.060 Y85.600 E0.02593
G1 X199.400 Y66.940 E1.12902
G1 X198.794 Y66.940 E0.02593
G1 X218.060 Y86.206 E1.16569
G1 X218.060 Y86.812 E0.02593
G1 X198.188 Y66.940 E1.20235
G1 X197.582 Y66.940 E0.02593
G1 X218.060 Y87.418 E1.23902
G1 X218.060 Y88.024 E0.02593
G1 X196.976 Y66.940 E1.27568
G1 X196.370 Y66.940 E0.02593
G1 X218.060 Y88.630 E1.31235
G1 X218.060 Y89.236 E0.02593
G1 X195.764 Y66.940 E1.34901
G1 X195.158 Y66.940 E0.02593
G1 X218.060 Y89.842 E1.38568
G1 X218.060 Y90.448 E0.02593
G1 X194.552 Y66.940 E1.42234
G1 X193.946 Y66.940 E0.02593
G1 X218.060 Y91.054 E1.45901
G1 X218.060 Y91.660 E0.02593
G1 X193.340 Y66.940 E1.49567
G1 X192.734 Y66.940 E0.02593
G1 X218.060 Y92.266 E1.53234
G1 X218.060 Y92.872 E0.02593
G1 X192.128 Y66.940 E1.56900
G1 X191.522 Y66.940 E0.02593
G1 X218.060 Y93.478 E1.60567
G1 X218.060 Y94.084 E0.02593
G1 X190.916 Y66.940 E1.64233
G1 X190.310 Y66.940 E0.02593
G1 X218.060 Y94.690 E1.67900
G1 X218.060 Y95.296 E0.02593
G1 X189.704 Y66.940 E1.71566
G1 X189.098 Y66.940 E0.02593
G1 X218.060 Y95.902 E1.75233
G1 X218.060 Y96.508 E0.02593
G1 X188.492 Y66.940 E1.78899
G1 X187.886 Y66.940 E0.02593
G1 X218.060 Y97.114 E1.82566
G1 X218.060 Y97.719 E0.02593
G1 X187.280 Y66.940 E1.86232
G1 X186.675 Y66.940 E0.02593
G1 X218.060 Y98.325 E1.89899
G1 X218.060 Y98.931 E0.02593
G1 X186.069 Y66.940 E1.93565
G1 X185.463 Y66.940 E0.02593
G1 X218.060 Y99.537 E1.97232
G1 X218.060 Y100.143 E0.02593
G1 X184.857 Y66.940 E2.00898
G1 X184.251 Y66.940 E0.02593
G1 X218.060 Y100.749 E2.04564
G1 X218.060 Y101.355 E0.02593
G1 X183.645 Y66.940 E2.08231
G1 X183.039 Y66.940 E0.02593
G1 X218.060 Y101.961 E2.11897
G1 X218.060 Y102.567 E0.02593
G1 X182.433 Y66.940 E2.15564
G1 X181.827 Y66.940 E0.02593
G1 X218.060 Y103.173 E2.19230
G1 X218.060 Y103.779 E0.02593
G1 X181.221 Y66.940 E2.22897
G1 X180.615 Y66.940 E0.02593
G1 X218.060 Y104.385 E2.26563
G1 X218.060 Y104.991 E0.02593
G1 X180.009 Y66.940 E2.30230
G1 X179.403 Y66.940 E0.02593
G1 X218.060 Y105.597 E2.33896
G1 X218.060 Y106.203 E0.02593
G1 X178.797 Y66.940 E2.37563
G1 X178.191 Y66.940 E0.02593
G1 X218.060 Y106.809 E2.41229
G1 X218.060 Y107.415 E0.02593
G1 X177.585 Y66.940 E2.44896
G1 X176.979 Y66.940 E0.02593
G1 X218.060 Y108.021 E2.48562
G1 X218.060 Y108.627 E0.02593
G1 X176.373 Y66.940 E2.52229
G1 X175.767 Y66.940 E0.02593
G1 X218.060 Y109.233 E2.55895
G1 X218.060 Y109.839 E0.02593
G1 X175.161 Y66.940 E2.59562
G1 X174.555 Y66.940 E0.02593
G1 X218.060 Y110.445 E2.63228
G1 X218.060 Y111.051 E0.02593
G1 X173.949 Y66.940 E2.66895
G1 X173.343 Y66.940 E0.02593
G1 X218.060 Y111.657 E2.70561
G1 X218.060 Y112.263 E0.02593
G1 X172.737 Y66.940 E2.74228
G1 X172.131 Y66.940 E0.02593
G1 X218.060 Y112.869 E2.77894
G1 X218.060 Y113.475 E0.02593
G1 X171.525 Y66.940 E2.81561
G1 X170.919 Y66.940 E0.02593
G1 X218.060 Y114.081 E2.85227
G1 X218.060 Y114.687 E0.02593
G1 X170.313 Y66.940 E2.88894
G1 X169.707 Y66.940 E0.02593
G1 X218.060 Y115.293 E2.92560
G1 X218.060 Y115.899 E0.02593
G1 X169.101 Y66.940 E2.96227
G1 X168.495 Y66.940 E0.02593
G1 X218.060 Y116.505 E2.99893
G1 X218.060 Y117.111 E0.02593
G1 X167.889 Y66.940 E3.03560
G1 X167.283 Y66.940 E0.02593
G1 X218.060 Y117.717 E3.07226
G1 X218.060 Y118.323 E0.02593
G1 X166.677 Y66.940 E3.10893
G1 X166.071 Y66.940 E0.02593
G1 X218.060 Y118.929 E3.14559
G1 X218.060 Y119.535 E0.02593
G1 X165.465 Y66.940 E3.18226
G1 X164.859 Y66.940 E0.02593
G1 X218.060 Y120.141 E3.21892
G1 X218.060 Y120.747 E0.02593
G1 X164.253 Y66.940 E3.25559
G1 X163.647 Y66.940 E0.02593
G1 X218.060 Y121.353 E3.29225
G1 X218.060 Y121.959 E0.02593
G1 X163.041 Y66.940 E3.32892
G1 X162.435 Y66.940 E0.02593
G1 X218.060 Y122.565 E3.36558
G1 X218.060 Y123.171 E0.02593
G1 X161.829 Y66.940 E3.40225
G1 X161.223 Y66.940 E0.02593
G1 X218.060 Y123.777 E3.43891
G1 X218.060 Y124.383 E0.02593
G1 X160.617 Y66.940 E3.47558
G1 X160.011 Y66.940 E0.02593
G1 X218.060 Y124.989 E3.51224
G1 X218.060 Y125.595 E0.02593
G1 X159.405 Y66.940 E3.54891
G1 X158.799 Y66.940 E0.02593
G1 X218.060 Y126.201 E3.58557
G1 X218.060 Y126.807 E0.02593
G1 X158.193 Y66.940 E3.62224
G1 X157.587 Y66.940 E0.02593
G1 X218.060 Y127.413 E3.65890
G1 X218.060 Y128.019 E0.02593
G1 X156.981 Y66.940 E3.69557
G1 X156.375 Y66.940 E0.02593
G1 X218.060 Y128.625 E3.73223
G1 X218.060 Y129.231 E0.02593
G1 X155.769 Y66.940 E3.76889
G1 X155.163 Y66.940 E0.02593
G1 X218.060 Y129.837 E3.80556
G1 X218.060 Y130.443 E0.02593
G1 X154.557 Y66.940 E3.84222
G1 X153.951 Y66.940 E0.02593
G1 X218.060 Y131.049 E3.87889
G1 X218.060 Y131.655 E0.02593
G1 X153.345 Y66.940 E3.91555
G1 X152.739 Y66.940 E0.02593
G1 X218.060 Y132.261 E3.95222
G1 X218.060 Y132.867 E0.02593
G1 X152.133 Y66.940 E3.98888
G1 X151.527 Y66.940 E0.02593
G1 X218.060 Y133.473 E4.02555
G1 X218.060 Y134.079 E0.02593
G1 X150.921 Y66.940 E4.06221
G1 X150.316 Y66.940 E0.02593
G1 X218.060 Y134.684 E4.09888
G1 X218.060 Y135.290 E0.02593
G1 X149.710 Y66.940 E4.13554
G1 X149.104 Y66.940 E0.02593
G1 X218.060 Y135.896 E4.17221
G1 X218.060 Y136.502 E0.02593
G1 X148.498 Y66.940 E4.20887
G1 X147.892 Y66.940 E0.02593
G1 X218.060 Y137.108 E4.24554
G1 X218.060 Y137.714 E0.02593
G1 X147.286 Y66.940 E4.28220
G1 X146.680 Y66.940 E0.02593
G1 X218.060 Y138.320 E4.31887
G1 X218.060 Y138.926 E0.02593
G1 X146.074 Y66.940 E4.35553
G1 X145.468 Y66.940 E0.02593
G1 X218.060 Y139.532 E4.39220
G1 X218.060 Y140.138 E0.02593
G1 X144.862 Y66.940 E4.42886
G1 X144.256 Y66.940 E0.02593
G1 X218.060 Y140.744 E4.46553
G1 X218.060 Y141.350 E0.02593
G1 X143.650 Y66.940 E4.50219
G1 X143.044 Y66.940 E0.02593
G1 X218.060 Y141.956 E4.53886
G1 X218.060 Y142.562 E0.02593
G1 X142.438 Y66.940 E4.57552
G1 X141.832 Y66.940 E0.02593
G1 X218.060 Y143.168 E4.61219
G1 X218.060 Y143.774 E0.02593
G1 X141.226 Y66.940 E4.64885
G1 X140.620 Y66.940 E0.02593
G1 X218.060 Y144.380 E4.68552
G1 X218.060 Y144.986 E0.02593
G1 X140.014 Y66.940 E4.72218
G1 X139.408 Y66.940 E0.02593
G1 X218.060 Y145.592 E4.75885
G1 X218.060 Y146.198 E0.02593
G1 X138.802 Y66.940 E4.79551
G1 X138.196 Y66.940 E0.02593
G1 X218.060 Y146.804 E4.83218
G1 X218.060 Y147.410 E0.02593
G1 X137.590 Y66.940 E4.86884
G1 X136.984 Y66.940 E0.02593
G1 X218.060 Y148.016 E4.90551
G1 X218.060 Y148.622 E0.02593
G1 X136.378 Y66.940 E4.94217
G1 X135.772 Y66.940 E0.02593
G1 X218.060 Y149.228 E4.97884
G1 X218.060 Y149.834 E0.02593
G1 X135.166 Y66.940 E5.01550
G1 X134.560 Y66.940 E0.02593
G1 X218.060 Y150.440 E5.05217
G1 X218.060 Y151.046 E0.02593
G1 X133.954 Y66.940 E5.08883
G1 X133.348 Y66.940 E0.02593
G1 X218.060 Y151.652 E5.12550
G1 X218.060 Y152.258 E0.02593
G1 X132.742 Y66.940 E5.16216
G1 X132.136 Y66.940 E0.02593
G1 X218.060 Y152.864 E5.19883
G1 X218.060 Y153.470 E0.02593
G1 X131.530 Y66.940 E5.23549
G1 X130.924 Y66.940 E0.02593
G1 X218.060 Y154.076 E5.27216
G1 X218.060 Y154.682 E0.02593
G1 X130.318 Y66.940 E5.30882
G1 X129.712 Y66.940 E0.02593
G1 X218.060 Y155.288 E5.34549
G1 X218.060 Y155.894 E0.02593
G1 X129.106 Y66.940 E5.38215
G1 X128.500 Y66.940 E0.02593
G1 X218.060 Y156.500 E5.41882
G1 X218.060 Y157.106 E0.02593
G1 X127.894 Y66.940 E5.45548
G1 X127.288 Y66.940 E0.02593
G1 X218.060 Y157.712 E5.49214
G1 X218.060 Y158.318 E0.02593
G1 X126.682 Y66.940 E5.52881
G1 X126.076 Y66.940 E0.02593
G1 X218.060 Y158.924 E5.56547
G1 X218.060 Y159.530 E0.02593
G1 X125.470 Y66.940 E5.60214
G1 X124.864 Y66.940 E0.02593
G1 X218.060 Y160.136 E5.63880
G1 X218.060 Y160.742 E0.02593
G1 X124.258 Y66.940 E5.67547
G1 X123.652 Y66.940 E0.02593
G1 X218.060 Y161.348 E5.71213
G1 X218.060 Y161.954 E0.02593
G1 X123.046 Y66.940 E5.74880
G1 X122.440 Y66.940 E0.02593
G1 X218.060 Y162.560 E5.78546
G1 X218.060 Y163.166 E0.02593
G1 X121.834 Y66.940 E5.82213
G1 X121.228 Y66.940 E0.02593
G1 X218.060 Y163.772 E5.85879
G1 X218.060 Y164.378 E0.02593
G1 X120.622 Y66.940 E5.89546
G1 X120.016 Y66.940 E0.02593
G1 X218.060 Y164.984 E5.93212
G1 X218.060 Y165.590 E0.02593
G1 X119.410 Y66.940 E5.96879
G1 X118.804 Y66.940 E0.02593
G1 X218.060 Y166.196 E6.00545
G1 X218.060 Y166.802 E0.02593
G1 X118.198 Y66.940 E6.04212
G1 X117.592 Y66.940 E0.02593
G1 X218.060 Y167.408 E6.07878
G1 X218.060 Y168.014 E0.02593
G1 X116.986 Y66.940 E6.11545
G1 X116.380 Y66.940 E0.02593
G1 X218.060 Y168.620 E6.15211
G1 X218.060 Y169.226 E0.02593
G1 X115.774 Y66.940 E6.18878
G1 X115.168 Y66.940 E0.02593
G1 X218.060 Y169.832 E6.22544
G1 X218.060 Y170.438 E0.02593
G1 X114.562 Y66.940 E6.26211
G1 X113.957 Y66.940 E0.02593
G1 X218.060 Y171.043 E6.29877
G1 X218.060 Y171.649 E0.02593
G1 X113.351 Y66.940 E6.33544
G1 X112.745 Y66.940 E0.02593
G1 X218.060 Y172.255 E6.37210
G1 X218.060 Y172.861 E0.02593
G1 X112.139 Y66.940 E6.40877
G1 X111.533 Y66.940 E0.02593
G1 X218.060 Y173.467 E6.44543
G1 X218.060 Y174.073 E0.02593
G1 X110.940 Y66.953 E6.48130
G1 X110.940 Y67.559 E0.02593
G1 X218.060 Y174.679 E6.48130
G1 X218.060 Y175.285 E0.02593
G1 X110.940 Y68.165 E6.48130
G1 X110.940 Y68.771 E0.02593
G1 X218.060 Y175.891 E6.48130
G1 X218.060 Y176.497 E0.02593
G1 X110.940 Y69.377 E6.48130
G1 X110.940 Y69.983 E0.02593
G1 X218.060 Y177.103 E6.48130
G1 X218.060 Y177.709 E0.02593
G1 X110.940 Y70.589 E6.48130
G1 X110.940 Y71.195 E0.02593
G1 X218.060 Y178.315 E6.48130
G1 X218.060 Y178.921 E0.02593
G1 X110.940 Y71.801 E6.48130
G1 X110.940 Y72.407 E0.02593
G1 X218.060 Y179.527 E6.48130
G1 X218.060 Y180.133 E0.02593
G1 X110.940 Y73.013 E6.48130
G1 X110.940 Y73.619 E0.02593
G1 X218.060 Y180.739 E6.48130
G1 X218.060 Y181.345 E0.02593
G1 X110.940 Y74.225 E6.48130
G1 X110.940 Y74.831 E0.02593
G1 X218.060 Y181.951 E6.48130
G1 X218.060 Y182.557 E0.02593
G1 X110.940 Y75.437 E6.48130
G1 X110.940 Y76.043 E0.02593
G1 X218.060 Y183.163 E6.48130
G1 X218.060 Y183.769 E0.02593
G1 X110.940 Y76.649 E6.48130
G1 X110.940 Y77.255 E0.02593
G1 X218.060 Y184.375 E6.48130
G1 X218.060 Y184.981 E0.02593
G1 X110.940 Y77.861 E6.48130
G1 X110.940 Y78.467 E0.02593
G1 X218.060 Y185.587 E6.48130
G1 X218.060 Y186.193 E0.02593
G1 X110.940 Y79.073 E6.48130
G1 X110.940 Y79.679 E0.02593
G1 X218.060 Y186.799 E6.48130
G1 X218.060 Y187.405 E0.02593
G1 X110.940 Y80.285 E6.48130
G1 X110.940 Y80.891 E0.02593
G1 X218.060 Y188.011 E6.48130
G1 X218.060 Y188.617 E0.02593
G1 X110.940 Y81.497 E6.48130
G1 X110.940 Y82.103 E0.02593
G1 X218.060 Y189.223 E6.48130
G1 X218.060 Y189.829 E0.02593
G1 X110.940 Y82.709 E6.48130
G1 X110.940 Y83.315 E0.02593
G1 X218.060 Y190.435 E6.48130
G1 X218.060 Y191.041 E0.02593
G1 X110.940 Y83.921 E6.48130
G1 X110.940 Y84.526 E0.02593
G1 X218.060 Y191.647 E6.48130
G1 X218.060 Y192.253 E0.02593
G1 X110.940 Y85.132 E6.48130
G1 X110.940 Y85.738 E0.02593
G1 X218.060 Y192.859 E6.48130
G1 X218.060 Y193.465 E0.02593
G1 X110.940 Y86.344 E6.48130
G1 X110.940 Y86.950 E0.02593
G1 X218.060 Y194.071 E6.48130
G1 X218.060 Y194.677 E0.02593
G1 X110.940 Y87.556 E6.48130
G1 X110.940 Y88.162 E0.02593
G1 X218.060 Y195.283 E6.48130
G1 X218.060 Y195.889 E0.02593
G1 X110.940 Y88.768 E6.48130
G1 X110.940 Y89.374 E0.02593
G1 X218.060 Y196.495 E6.48130
G1 X218.060 Y197.101 E0.02593
G1 X110.940 Y89.980 E6.48130
G1 X110.940 Y90.586 E0.02593
G1 X218.060 Y197.707 E6.48130
G1 X218.060 Y198.313 E0.02593
