; generated by SuperSlicer 2.4 on 2022-05-14 at 17:00:28 UTC


;
;

;
;
; 

; external perimeters extrusion width = 0.40mm
; perimeters extrusion width = 0.40mm
; infill extrusion width = 0.72mm
; solid infill extrusion width = 0.56mm
; top infill extrusion width = 0.40mm
; support material extrusion width = 0.40mm
; first layer extrusion width = 0.48mm

; object:{"name":"cnr_bracket_strong_braced_notch_fixed","id":"cnr_bracket_strong_braced_notch_fixed.stl id:0 copy 0","object_center":[165.000001,165.000001,0.000000],"boundingbox_center":[165.000001,165.000001,10.000000],"boundingbox_size":[62.000000,62.000000,20.000000]}
; plater:{"center":[165.000001,165.000001,0.000000],"boundingbox_center":[165.000001,165.000001,10.000000],"boundingbox_size":[62.000000,62.000000,20.000000]}

M73 P0 R56
;TYPE:Custom
START_PRINT T_BED=110 T_EXTRUDER=245
M107
G21 ; set units to millimeters
G90 ; use absolute coordinates
M83 ; use relative distances for extrusion
; Filament gcode
M109 S245 ; set temperature and wait for it to be reached
M190 S110 ; set bed temperature and wait for it to be reached
M107
;LAYER_CHANGE
;Z:0.24
;HEIGHT:0.24
G1 Z0.24 F9000
G92 E0
G1 E-0.5 F3000
M204 S1000
G1 X129.249 Y128.484 F9000
G1 E0.5 F1800
;TYPE:Skirt
;WIDTH:0.52
G1 X128.149 Y129.792 E0.07988
G1 X127.755 Y131.454 E0.07988
G1 X127.755 Y192.551 E2.85606
G1 X127.942 Y193.712 E0.05499
G1 X128.838 Y195.167 E0.07988
G1 X134.833 Y201.162 E0.39633
G1 X135.787 Y201.851 E0.05499
G1 X137.449 Y202.245 E0.07988
G1 X198.546 Y202.245 E2.85606
G1 X200.751 Y201.516 E0.10858
G1 X201.851 Y200.208 E0.07988
G1 X202.245 Y198.546 E0.07988
G1 X202.245 Y187.688 E0.50758
G1 X201.896 Y186.118 E0.07518
G1 X199.25 Y180.472 E0.29148
G1 X198.516 Y179.425 E0.05974
G1 X150.575 Y131.484 E3.1694
G1 X149.528 Y130.75 E0.05974
G1 X143.882 Y128.104 E0.29148
G1 X142.312 Y127.755 E0.07518
G1 X131.454 Y127.755 E0.50758
G1 X129.249 Y128.484 E0.10858
G1 X129.618 Y128.827 F9000
G1 F1800
G1 X128.615 Y129.908 E0.06895
G1 X128.221 Y131.454 E0.0746
G1 X128.221 Y192.551 E2.85606
M73 P0 R55
G1 X128.353 Y193.465 E0.04318
G1 X129.168 Y194.837 E0.0746
G1 X135.163 Y200.832 E0.39633
G1 X135.903 Y201.385 E0.04318
G1 X137.449 Y201.779 E0.0746
G1 X198.546 Y201.779 E2.85606
G1 X200.3 Y201.262 E0.08548
G1 X201.385 Y200.092 E0.0746
G1 X201.779 Y198.546 E0.0746
G1 X201.779 Y187.688 E0.50758
G1 X201.473 Y186.316 E0.0657
G1 X198.828 Y180.67 E0.29148
G1 X198.186 Y179.755 E0.05221
G1 X150.245 Y131.814 E3.1694
G1 X149.33 Y131.172 E0.05221
G1 X143.684 Y128.527 E0.29148
G1 X142.312 Y128.221 E0.0657
G1 X131.454 Y128.221 E0.50758
G1 X129.7 Y128.738 E0.08548
G1 X129.618 Y128.827 E0.00565
; INIT printing object cnr_bracket_strong_braced_notch_fixed.stl id:0 copy 0
G1 E-0.5 F3000
; printing object cnr_bracket_strong_braced_notch_fixed.stl id:0 copy 0
; acceleration to travel
M204 S3000
G1 X130.995 Y156.185 F9000
; decel to extrusion
M204 S1000
G1 X131.454 Y165.304
; end travel
G1 E0.5 F1800
;TYPE:Support material
;WIDTH:0.48
G1 X139.346 Y165.304 E0.3374
G1 X139.346 Y171.671 E0.2722
G1 X139.321 Y171.671 E0.00107
G1 X139.321 Y186.184 E0.62054
G1 X139.346 Y186.184 E0.00107
G1 X139.346 Y190.212 E0.17222
G1 X139.788 Y190.654 E0.02672
G1 X143.816 Y190.654 E0.17222
G1 X143.816 Y190.679 E0.00107
G1 X158.329 Y190.679 E0.62054
G1 X158.329 Y190.654 E0.00107
G1 X164.696 Y190.654 E0.2722
G1 X164.696 Y198.546 E0.3374
G1 X137.449 Y198.546 E1.16494
G1 X137.449 Y192.551 E0.25632
G1 X131.454 Y192.551 E0.25632
G1 X131.454 Y165.304 E1.16494
G1 E-0.5 F3000
; acceleration to travel
M204 S3000
G1 X155.899 Y190.155 F9000
; decel to extrusion
M204 S1000
G1 X164.048 Y198.439
; end travel
G1 E0.5 F1800
G1 X164.048 Y190.946 E0.32037
G1 X163.572 Y190.946 E0.02036
G1 X163.572 Y198.254 E0.31249
G1 X163.096 Y198.254 E0.02036
G1 X163.096 Y190.946 E0.31249
G1 X162.619 Y190.946 E0.02036
G1 X162.619 Y198.254 E0.31249
G1 X162.143 Y198.254 E0.02036
G1 X162.143 Y190.946 E0.31249
G1 X161.667 Y190.946 E0.02036
G1 X161.667 Y198.254 E0.31249
G1 X161.191 Y198.254 E0.02036
G1 X161.191 Y190.946 E0.31249
G1 X160.715 Y190.946 E0.02036
G1 X160.715 Y198.254 E0.31249
G1 X160.239 Y198.254 E0.02036
G1 X160.239 Y190.946 E0.31249
G1 X159.763 Y190.946 E0.02036
G1 X159.763 Y198.254 E0.31249
G1 X159.287 Y198.254 E0.02036
G1 X159.287 Y190.946 E0.31249
G1 X158.811 Y190.946 E0.02036
G1 X158.811 Y198.254 E0.31249
G1 X158.335 Y198.254 E0.02036
G1 X158.335 Y190.971 E0.31142
G1 X157.858 Y190.971 E0.02036
G1 X157.858 Y198.254 E0.31142
G1 X157.382 Y198.254 E0.02036
G1 X157.382 Y190.971 E0.31142
G1 X156.906 Y190.971 E0.02036
G1 X156.906 Y198.254 E0.31142
G1 X156.43 Y198.254 E0.02036
G1 X156.43 Y190.971 E0.31142
G1 X155.954 Y190.971 E0.02036
G1 X155.954 Y198.254 E0.31142
G1 X155.478 Y198.254 E0.02036
G1 X155.478 Y190.971 E0.31142
G1 X155.002 Y190.971 E0.02036
G1 X155.002 Y198.254 E0.31142
G1 X154.526 Y198.254 E0.02036
G1 X154.526 Y190.971 E0.31142
G1 X154.05 Y190.971 E0.02036
G1 X154.05 Y198.254 E0.31142
G1 X153.573 Y198.254 E0.02036
G1 X153.573 Y190.971 E0.31142
G1 X153.097 Y190.971 E0.02036
G1 X153.097 Y198.254 E0.31142
G1 X152.621 Y198.254 E0.02036
G1 X152.621 Y190.971 E0.31142
G1 X152.145 Y190.971 E0.02036
G1 X152.145 Y198.254 E0.31142
G1 X151.669 Y198.254 E0.02036
G1 X151.669 Y190.971 E0.31142
G1 X151.193 Y190.971 E0.02036
G1 X151.193 Y198.254 E0.31142
G1 X150.717 Y198.254 E0.02036
G1 X150.717 Y190.971 E0.31142
G1 X150.241 Y190.971 E0.02036
G1 X150.241 Y198.254 E0.31142
G1 X149.765 Y198.254 E0.02036
G1 X149.765 Y190.971 E0.31142
G1 X149.289 Y190.971 E0.02036
G1 X149.288 Y198.254 E0.31142
G1 X148.812 Y198.254 E0.02036
G1 X148.812 Y190.971 E0.31142
G1 X148.336 Y190.971 E0.02036
G1 X148.336 Y198.254 E0.31142
G1 X147.86 Y198.254 E0.02036
G1 X147.86 Y190.971 E0.31142
M73 P1 R55
G1 X147.384 Y190.971 E0.02036
G1 X147.384 Y198.254 E0.31142
G1 X146.908 Y198.254 E0.02036
G1 X146.908 Y190.971 E0.31142
G1 X146.432 Y190.971 E0.02036
G1 X146.432 Y198.254 E0.31142
G1 X145.956 Y198.254 E0.02036
G1 X145.956 Y190.971 E0.31142
G1 X145.48 Y190.971 E0.02036
G1 X145.48 Y198.254 E0.31142
G1 X145.004 Y198.254 E0.02036
G1 X145.004 Y190.971 E0.31142
G1 X144.527 Y190.971 E0.02036
G1 X144.527 Y198.254 E0.31142
G1 X144.051 Y198.254 E0.02036
G1 X144.051 Y190.971 E0.31142
G1 X143.575 Y190.971 E0.02036
G1 X143.575 Y198.254 E0.31142
G1 X143.099 Y198.254 E0.02036
G1 X143.099 Y190.946 E0.31249
G1 X142.623 Y190.946 E0.02036
G1 X142.623 Y198.254 E0.31249
G1 X142.147 Y198.254 E0.02036
G1 X142.147 Y190.946 E0.31249
G1 X141.671 Y190.946 E0.02036
G1 X141.671 Y198.254 E0.31249
G1 X141.195 Y198.254 E0.02036
G1 X141.195 Y190.946 E0.31249
G1 X140.719 Y190.946 E0.02036
G1 X140.719 Y198.254 E0.31249
G1 X140.242 Y198.254 E0.02036
G1 X140.242 Y190.946 E0.31249
G1 X139.766 Y190.946 E0.02036
G1 X139.766 Y198.254 E0.31249
G1 X139.29 Y198.254 E0.02036
G1 X139.29 Y190.569 E0.32859
G1 X139.054 Y190.333 E0.01426
G1 X139.054 Y186.476 E0.16493
G1 X139.029 Y186.476 E0.00107
G1 X139.029 Y171.379 E0.64545
G1 X139.054 Y171.379 E0.00107
G1 X139.054 Y165.596 E0.24728
G1 X138.814 Y165.596 E0.01027
G1 X138.814 Y198.254 E1.39634
G1 X138.338 Y198.254 E0.02036
G1 X138.338 Y165.596 E1.39634
G1 X137.862 Y165.596 E0.02036
G1 X137.862 Y198.254 E1.39634
G1 X137.741 Y198.254 E0.00519
G1 X137.741 Y192.259 E0.25632
G1 X137.386 Y192.259 E0.01517
G1 X137.386 Y165.596 E1.14002
G1 X136.91 Y165.596 E0.02036
G1 X136.91 Y192.259 E1.14002
G1 X136.434 Y192.259 E0.02036
G1 X136.434 Y165.596 E1.14002
G1 X135.958 Y165.596 E0.02036
G1 X135.958 Y192.259 E1.14002
G1 X135.481 Y192.259 E0.02036
G1 X135.481 Y165.596 E1.14002
G1 X135.005 Y165.596 E0.02036
G1 X135.005 Y192.259 E1.14002
G1 X134.529 Y192.259 E0.02036
G1 X134.529 Y165.596 E1.14002
G1 X134.053 Y165.596 E0.02036
G1 X134.053 Y192.259 E1.14002
G1 X133.577 Y192.259 E0.02036
G1 X133.577 Y165.596 E1.14002
G1 X133.101 Y165.596 E0.02036
G1 X133.101 Y192.259 E1.14002
G1 X132.625 Y192.259 E0.02036
G1 X132.625 Y165.596 E1.14002
G1 X132.149 Y165.596 E0.02036
G1 X132.149 Y192.444 E1.1479
G1 E-0.5 F3000
; acceleration to travel
M204 S3000
G1 X161.515 Y192.444 F9000
; decel to extrusion
M204 S1000
G1 X171.304 Y192.444
; end travel
G1 E0.5 F1800
G1 X171.304 Y190.654 E0.07651
G1 X179.696 Y190.654 E0.35878
G1 X179.696 Y198.546 E0.3374
G1 X171.304 Y198.546 E0.35878
G1 X171.304 Y192.444 E0.2609
; acceleration to travel
M204 S3000
G1 X177.288 Y196.94 F9000
; decel to extrusion
M204 S1000
G1 X179.283 Y198.439
; end travel
G1 F1800
G1 X179.283 Y190.946 E0.32037
G1 X178.807 Y190.946 E0.02036
G1 X178.807 Y198.254 E0.31249
G1 X178.331 Y198.254 E0.02036
G1 X178.331 Y190.946 E0.31249
G1 X177.855 Y190.946 E0.02036
G1 X177.855 Y198.254 E0.31249
G1 X177.379 Y198.254 E0.02036
G1 X177.379 Y190.946 E0.31249
G1 X176.903 Y190.946 E0.02036
G1 X176.903 Y198.254 E0.31249
G1 X176.427 Y198.254 E0.02036
G1 X176.427 Y190.946 E0.31249
G1 X175.95 Y190.946 E0.02036
G1 X175.95 Y198.254 E0.31249
G1 X175.474 Y198.254 E0.02036
G1 X175.474 Y190.946 E0.31249
G1 X174.998 Y190.946 E0.02036
G1 X174.998 Y198.254 E0.31249
G1 X174.522 Y198.254 E0.02036
G1 X174.522 Y190.946 E0.31249
G1 X174.046 Y190.946 E0.02036
G1 X174.046 Y198.254 E0.31249
G1 X173.57 Y198.254 E0.02036
G1 X173.57 Y190.946 E0.31249
G1 X173.094 Y190.946 E0.02036
G1 X173.094 Y198.254 E0.31249
G1 X172.618 Y198.254 E0.02036
G1 X172.618 Y190.946 E0.31249
G1 X172.142 Y190.946 E0.02036
G1 X172.142 Y198.254 E0.31249
G1 X171.665 Y198.254 E0.02036
G1 X171.665 Y190.761 E0.32037
G1 E-0.5 F3000
; acceleration to travel
M204 S3000
G1 X182.645 Y190.761 F9000
; decel to extrusion
M204 S1000
G1 X186.304 Y190.761
; end travel
G1 E0.5 F1800
G1 X186.304 Y190.654 E0.00458
G1 X196.212 Y190.654 E0.42363
G1 X196.654 Y190.212 E0.02672
G1 X196.654 Y187.688 E0.10795
G1 X198.546 Y187.688 E0.08087
G1 X198.546 Y198.546 E0.46424
G1 X186.304 Y198.546 E0.52339
G1 X186.304 Y190.761 E0.33282
; acceleration to travel
M204 S3000
G1 X194.965 Y196.519 F9000
; decel to extrusion
M204 S1000
G1 X197.851 Y198.439
; end travel
G1 F1800
G1 X197.851 Y187.979 E0.4472
G1 X197.375 Y187.979 E0.02036
G1 X197.375 Y198.254 E0.43933
G1 X196.899 Y198.254 E0.02036
G1 X196.899 Y190.38 E0.33669
G1 X196.423 Y190.856 E0.02879
G1 X196.423 Y198.254 E0.31633
G1 X195.947 Y198.254 E0.02036
G1 X195.947 Y190.946 E0.31249
G1 X195.471 Y190.946 E0.02036
G1 X195.471 Y198.254 E0.31249
G1 X194.995 Y198.254 E0.02036
G1 X194.995 Y190.946 E0.31249
G1 X194.519 Y190.946 E0.02036
G1 X194.519 Y198.254 E0.31249
G1 X194.042 Y198.254 E0.02036
G1 X194.042 Y190.946 E0.31249
G1 X193.566 Y190.946 E0.02036
G1 X193.566 Y198.254 E0.31249
G1 X193.09 Y198.254 E0.02036
G1 X193.09 Y190.946 E0.31249
G1 X192.614 Y190.946 E0.02036
G1 X192.614 Y198.254 E0.31249
G1 X192.138 Y198.254 E0.02036
G1 X192.138 Y190.946 E0.31249
G1 X191.662 Y190.946 E0.02036
G1 X191.662 Y198.254 E0.31249
M73 P2 R55
G1 X191.186 Y198.254 E0.02036
G1 X191.186 Y190.946 E0.31249
G1 X190.71 Y190.946 E0.02036
G1 X190.71 Y198.254 E0.31249
G1 X190.234 Y198.254 E0.02036
G1 X190.234 Y190.946 E0.31249
G1 X189.758 Y190.946 E0.02036
G1 X189.758 Y198.254 E0.31249
G1 X189.281 Y198.254 E0.02036
G1 X189.281 Y190.946 E0.31249
G1 X188.805 Y190.946 E0.02036
G1 X188.805 Y198.254 E0.31249
G1 X188.329 Y198.254 E0.02036
G1 X188.329 Y190.946 E0.31249
G1 X187.853 Y190.946 E0.02036
G1 X187.853 Y198.254 E0.31249
G1 X187.377 Y198.254 E0.02036
G1 X187.377 Y190.946 E0.31249
G1 X186.901 Y190.946 E0.02036
G1 X186.901 Y198.439 E0.32037
G1 E-0.5 F3000
; acceleration to travel
M204 S3000
G1 X151.235 Y168.631 F9000
; decel to extrusion
M204 S1000
G1 X139.346 Y158.696
; end travel
M73 P2 R54
G1 E0.5 F1800
G1 X131.454 Y158.696 E0.3374
G1 X131.454 Y150.304 E0.35878
G1 X139.346 Y150.304 E0.3374
G1 X139.346 Y158.696 E0.35878
G1 X138.814 Y158.589 F9000
G1 F1800
G1 X138.814 Y150.596 E0.34174
G1 X138.338 Y150.596 E0.02036
G1 X138.338 Y158.404 E0.33387
G1 X137.862 Y158.404 E0.02036
G1 X137.862 Y150.596 E0.33387
G1 X137.386 Y150.596 E0.02036
G1 X137.386 Y158.404 E0.33387
G1 X136.91 Y158.404 E0.02036
G1 X136.91 Y150.596 E0.33387
G1 X136.434 Y150.596 E0.02036
G1 X136.434 Y158.404 E0.33387
G1 X135.958 Y158.404 E0.02036
G1 X135.958 Y150.596 E0.33387
G1 X135.481 Y150.596 E0.02036
G1 X135.481 Y158.404 E0.33387
G1 X135.005 Y158.404 E0.02036
G1 X135.005 Y150.596 E0.33387
G1 X134.529 Y150.596 E0.02036
G1 X134.529 Y158.404 E0.33387
G1 X134.053 Y158.404 E0.02036
G1 X134.053 Y150.596 E0.33387
G1 X133.577 Y150.596 E0.02036
G1 X133.577 Y158.404 E0.33387
G1 X133.101 Y158.404 E0.02036
G1 X133.101 Y150.596 E0.33387
G1 X132.625 Y150.596 E0.02036
G1 X132.625 Y158.404 E0.33387
G1 X132.149 Y158.404 E0.02036
G1 X132.149 Y150.411 E0.34174
G1 E-0.5 F3000
; acceleration to travel
M204 S3000
G1 X132.149 Y145.375 F9000
; decel to extrusion
M204 S1000
G1 X132.149 Y143.696
; end travel
G1 E0.5 F1800
G1 X131.454 Y143.696 E0.02969
G1 X131.454 Y131.454 E0.52339
G1 X142.312 Y131.454 E0.46424
G1 X142.312 Y133.346 E0.08087
G1 X139.788 Y133.346 E0.10795
G1 X139.346 Y133.788 E0.02672
G1 X139.346 Y143.696 E0.42363
G1 X132.149 Y143.696 E0.30771
G1 E-0.5 F3000
; acceleration to travel
M204 S3000
G1 X139.29 Y135.853 F9000
; decel to extrusion
M204 S1000
G1 X141.671 Y133.239
; end travel
G1 E0.5 F1800
G1 X141.671 Y131.746 E0.06383
G1 X141.195 Y131.746 E0.02036
G1 X141.195 Y133.054 E0.05595
G1 X140.719 Y133.054 E0.02036
G1 X140.719 Y131.746 E0.05595
G1 X140.242 Y131.746 E0.02036
G1 X140.242 Y133.054 E0.05595
G1 X139.766 Y133.054 E0.02036
G1 X139.766 Y131.746 E0.05595
G1 X139.29 Y131.746 E0.02036
G1 X139.29 Y133.431 E0.07206
G1 X139.054 Y133.667 E0.01426
G1 X139.054 Y143.404 E0.41633
G1 X138.814 Y143.404 E0.01027
G1 X138.814 Y131.746 E0.49847
G1 X138.338 Y131.746 E0.02036
G1 X138.338 Y143.404 E0.49847
G1 X137.862 Y143.404 E0.02036
G1 X137.862 Y131.746 E0.49847
G1 X137.386 Y131.746 E0.02036
G1 X137.386 Y143.404 E0.49847
G1 X136.91 Y143.404 E0.02036
G1 X136.91 Y131.746 E0.49847
G1 X136.434 Y131.746 E0.02036
G1 X136.434 Y143.404 E0.49847
G1 X135.958 Y143.404 E0.02036
G1 X135.958 Y131.746 E0.49847
G1 X135.481 Y131.746 E0.02036
G1 X135.481 Y143.404 E0.49847
G1 X135.005 Y143.404 E0.02036
G1 X135.005 Y131.746 E0.49847
G1 X134.529 Y131.746 E0.02036
G1 X134.529 Y143.404 E0.49847
G1 X134.053 Y143.404 E0.02036
G1 X134.053 Y131.746 E0.49847
G1 X133.577 Y131.746 E0.02036
G1 X133.577 Y143.404 E0.49847
G1 X133.101 Y143.404 E0.02036
G1 X133.101 Y131.746 E0.49847
G1 X132.625 Y131.746 E0.02036
G1 X132.625 Y143.404 E0.49847
G1 X132.149 Y143.404 E0.02036
G1 X132.149 Y131.561 E0.50635
G1 E-0.5 F3000
; acceleration to travel
M204 S3000
G1 X139.256 Y134.609 F9000
; decel to extrusion
M204 S1000
G1 X141.625 Y135.625
; end travel
G1 E0.5 F1800
;TYPE:Internal perimeter
G1 X147.327 Y135.625 E0.24376
G1 X194.375 Y182.673 E2.84476
G1 X194.375 Y188.375 E0.24376
G1 X141.625 Y188.375 E2.25531
G1 X141.625 Y135.625 E2.25531
G1 X141.197 Y135.197 F9000
G1 F1800
G1 X147.504 Y135.197 E0.26967
G1 X194.803 Y182.496 E2.85994
G1 X194.803 Y188.803 E0.26967
G1 X141.197 Y188.803 E2.29195
G1 X141.197 Y135.197 E2.29195
G1 X140.768 Y134.768 F9000
G1 F1800
G1 X147.682 Y134.768 E0.29558
G1 X195.232 Y182.318 E2.87512
G1 X195.232 Y189.232 E0.29558
M73 P3 R54
G1 X140.768 Y189.232 E2.32859
G1 X140.768 Y134.768 E2.32859
G1 X140.34 Y134.34 F9000
;TYPE:External perimeter
G1 F1800
G1 X147.859 Y134.34 E0.32149
G1 X195.66 Y182.141 E2.89029
G1 X195.66 Y189.66 E0.32149
G1 X140.34 Y189.66 E2.36523
G1 X140.34 Y134.34 E2.36523
;WIPE_START
M204 S4000
G1 X140.686 Y134.54 F9000
;WIPE_END
; acceleration to travel
M204 S3000
G1 X145.278 Y135.373
; decel to extrusion
M204 S1000
G1 X147.027 Y135.69
; end travel
;TYPE:Solid infill
;WIDTH:0.476331
G1 F3600
G1 X194.126 Y182.788 E2.82607
G1 X194.126 Y183.394 E0.02571
G1 X146.606 Y135.874 E2.85138
G1 X146 Y135.874 E0.02571
G1 X194.126 Y184 E2.88774
G1 X194.126 Y184.606 E0.02571
G1 X145.394 Y135.874 E2.9241
G1 X144.788 Y135.874 E0.02571
G1 X194.126 Y185.212 E2.96046
G1 X194.126 Y185.818 E0.02571
G1 X144.182 Y135.874 E2.99682
G1 X143.576 Y135.874 E0.02571
G1 X194.126 Y186.424 E3.03318
G1 X194.126 Y187.03 E0.02571
G1 X142.97 Y135.874 E3.06954
G1 X142.364 Y135.874 E0.02571
G1 X194.126 Y187.636 E3.10591
