; generated by SuperSlicer 2.4 on 2022-04-23 at 18:27:32 UTC


;
;

;
;
; 

; external perimeters extrusion width = 0.40mm
; perimeters extrusion width = 0.40mm
; infill extrusion width = 0.72mm
; solid infill extrusion width = 0.56mm
; top infill extrusion width = 0.40mm
; first layer extrusion width = 0.48mm

; object:{"name":"Cross_Stitch_Project_Card","id":"Cross_Stitch_Project_Card.stl id:0 copy 0","object_center":[165.000000,165.000000,0.000000],"boundingbox_center":[165.000000,165.000000,3.250000],"boundingbox_size":[90.000000,200.000000,6.500000]}
; plater:{"center":[165.000000,165.000000,0.000000],"boundingbox_center":[165.000000,165.000000,3.250000],"boundingbox_size":[90.000000,200.000000,6.500000]}

M73 P0 R125
;TYPE:Custom
START_PRINT T_BED=60 T_EXTRUDER=200
M107
G21 ; set units to millimeters
G90 ; use absolute coordinates
M83 ; use relative distances for extrusion
; Filament gcode
M104 S200 ; set temperature
M109 S200 ; set temperature and wait for it to be reached
M190 S60 ; set bed temperature and wait for it to be reached
M107
;LAYER_CHANGE
;Z:0.24
;HEIGHT:0.24
G1 E-0.6 F3000
G1 Z0.24 F9000
G92 E0
; INIT printing object Cross_Stitch_Project_Card.stl id:0 copy 0
; printing object Cross_Stitch_Project_Card.stl id:0 copy 0
M204 S1000
G1 X195.523 Y160.827
G1 E0.6 F1800
;TYPE:Internal perimeter
;WIDTH:0.48
G1 X195.406 Y160.93 E0.00667
G1 X194.566 Y162.148 E0.06326
G1 X194.041 Y163.531 E0.06326
G1 X193.863 Y165 E0.06326
G1 X193.974 Y165.914 E0.03936
G1 X194.041 Y166.469 E0.0239
G1 X194.566 Y167.852 E0.06326
G1 X195.406 Y169.07 E0.06326
G1 X196.514 Y170.051 E0.06326
G1 X197.824 Y170.739 E0.06326
G1 X199.26 Y171.093 E0.06326
G1 X200.74 Y171.093 E0.06326
G1 X202.176 Y170.739 E0.06326
G1 X203.486 Y170.051 E0.06326
G1 X204.594 Y169.07 E0.06326
G1 X205.434 Y167.852 E0.06326
G1 X205.959 Y166.469 E0.06326
G1 X206.137 Y165 E0.06326
G1 X205.959 Y163.531 E0.06326
G1 X205.434 Y162.148 E0.06326
G1 X204.594 Y160.93 E0.06326
G1 X203.486 Y159.949 E0.06326
G1 X202.176 Y159.261 E0.06326
G1 X200.74 Y158.907 E0.06326
G1 X199.26 Y158.907 E0.06326
G1 X197.824 Y159.261 E0.06326
G1 X196.514 Y159.949 E0.06326
G1 X195.568 Y160.787 E0.05402
G1 X195.807 Y161.147 F9000
G1 F1800
G1 X195.729 Y161.216 E0.00445
G1 X194.948 Y162.348 E0.05881
G1 X194.46 Y163.635 E0.05881
G1 X194.294 Y165 E0.05881
G1 X194.399 Y165.862 E0.03714
G1 X194.46 Y166.365 E0.02167
G1 X194.948 Y167.652 E0.05881
G1 X195.729 Y168.784 E0.05881
G1 X196.759 Y169.696 E0.05881
G1 X197.977 Y170.335 E0.05881
G1 X199.312 Y170.664 E0.05881
G1 X200.688 Y170.664 E0.05881
G1 X202.023 Y170.335 E0.05881
G1 X203.241 Y169.696 E0.05881
G1 X204.271 Y168.784 E0.05881
G1 X205.052 Y167.652 E0.05881
G1 X205.54 Y166.365 E0.05881
G1 X205.706 Y165 E0.05881
G1 X205.54 Y163.635 E0.05881
G1 X205.052 Y162.348 E0.05881
G1 X204.271 Y161.216 E0.05881
G1 X203.241 Y160.304 E0.05881
G1 X202.023 Y159.665 E0.05881
G1 X200.688 Y159.336 E0.05881
G1 X199.312 Y159.336 E0.05881
G1 X197.977 Y159.665 E0.05881
G1 X196.759 Y160.304 E0.05881
G1 X195.852 Y161.108 E0.0518
G1 X196.091 Y161.468 F9000
G1 F1800
G1 X196.052 Y161.503 E0.00222
G1 X195.33 Y162.549 E0.05436
G1 X194.879 Y163.738 E0.05436
G1 X194.726 Y165 E0.05436
G1 X194.824 Y165.811 E0.03491
G1 X194.879 Y166.262 E0.01945
G1 X195.33 Y167.451 E0.05436
G1 X196.052 Y168.497 E0.05436
G1 X197.004 Y169.341 E0.05436
G1 X198.13 Y169.931 E0.05436
G1 X199.364 Y170.236 E0.05436
G1 X200.636 Y170.236 E0.05436
G1 X201.87 Y169.931 E0.05436
G1 X202.996 Y169.341 E0.05436
G1 X203.948 Y168.497 E0.05436
G1 X204.67 Y167.451 E0.05436
G1 X205.121 Y166.262 E0.05436
G1 X205.274 Y165 E0.05436
G1 X205.121 Y163.738 E0.05436
G1 X204.67 Y162.549 E0.05436
G1 X203.948 Y161.503 E0.05436
G1 X202.996 Y160.659 E0.05436
G1 X201.87 Y160.069 E0.05436
G1 X200.636 Y159.764 E0.05436
G1 X199.364 Y159.764 E0.05436
G1 X198.13 Y160.069 E0.05436
G1 X197.004 Y160.659 E0.05436
G1 X196.136 Y161.428 E0.04957
G1 X196.375 Y161.789 F9000
;TYPE:External perimeter
G1 F1800
G1 X195.712 Y162.75 E0.04991
G1 X195.298 Y163.841 E0.04991
G1 X195.158 Y165 E0.04991
G1 X195.25 Y165.759 E0.03269
G1 X195.298 Y166.159 E0.01723
G1 X195.712 Y167.25 E0.04991
G1 X196.375 Y168.211 E0.04991
G1 X197.249 Y168.985 E0.04991
G1 X198.283 Y169.528 E0.04991
G1 X199.416 Y169.807 E0.04991
G1 X200.584 Y169.807 E0.04991
G1 X201.717 Y169.528 E0.04991
G1 X202.751 Y168.985 E0.04991
G1 X203.625 Y168.211 E0.04991
G1 X204.288 Y167.25 E0.04991
G1 X204.702 Y166.159 E0.04991
G1 X204.842 Y165 E0.04991
G1 X204.702 Y163.841 E0.04991
G1 X204.288 Y162.75 E0.04991
G1 X203.625 Y161.789 E0.04991
G1 X202.751 Y161.015 E0.04991
G1 X201.717 Y160.472 E0.04991
G1 X200.584 Y160.193 E0.04991
G1 X199.416 Y160.193 E0.04991
G1 X198.283 Y160.472 E0.04991
G1 X197.249 Y161.015 E0.04991
G1 X196.42 Y161.749 E0.04735
;WIPE_START
M204 S4000
G1 X195.981 Y161.725 F9000
;WIPE_END
; acceleration to travel
G1 X197.576 Y158.68
; decel to extrusion
M204 S1000
G1 X197.975 Y157.919
; end travel
;TYPE:Internal perimeter
G1 F1800
G1 X199.26 Y158.236 E0.05659
G1 X200.74 Y158.236 E0.06326
G1 X202.176 Y157.881 E0.06326
G1 X203.486 Y157.194 E0.06326
G1 X204.594 Y156.213 E0.06326
G1 X205.434 Y154.995 E0.06326
G1 X205.959 Y153.612 E0.06326
G1 X206.137 Y152.143 E0.06326
G1 X205.959 Y150.674 E0.06326
G1 X205.434 Y149.291 E0.06326
G1 X204.594 Y148.073 E0.06326
G1 X203.486 Y147.092 E0.06326
G1 X202.176 Y146.404 E0.06326
G1 X200.74 Y146.05 E0.06326
G1 X199.26 Y146.05 E0.06326
G1 X197.824 Y146.404 E0.06326
G1 X196.514 Y147.092 E0.06326
G1 X195.406 Y148.073 E0.06326
G1 X194.566 Y149.291 E0.06326
G1 X194.041 Y150.674 E0.06326
G1 X193.863 Y152.143 E0.06326
G1 X193.974 Y153.057 E0.03936
G1 X194.041 Y153.612 E0.0239
G1 X194.566 Y154.995 E0.06326
G1 X195.406 Y156.213 E0.06326
G1 X196.514 Y157.194 E0.06326
G1 X197.824 Y157.881 E0.06326
G1 X197.917 Y157.904 E0.00411
G1 X198.078 Y157.503 F9000
G1 F1800
G1 X199.312 Y157.807 E0.05436
G1 X200.688 Y157.807 E0.05881
G1 X202.023 Y157.478 E0.05881
G1 X203.241 Y156.839 E0.05881
G1 X204.271 Y155.926 E0.05881
G1 X205.052 Y154.794 E0.05881
G1 X205.54 Y153.508 E0.05881
G1 X205.706 Y152.143 E0.05881
G1 X205.54 Y150.777 E0.05881
G1 X205.052 Y149.491 E0.05881
G1 X204.271 Y148.359 E0.05881
G1 X203.241 Y147.447 E0.05881
G1 X202.023 Y146.808 E0.05881
G1 X200.688 Y146.479 E0.05881
G1 X199.312 Y146.479 E0.05881
G1 X197.977 Y146.808 E0.05881
G1 X196.759 Y147.447 E0.05881
G1 X195.729 Y148.359 E0.05881
G1 X194.948 Y149.491 E0.05881
G1 X194.46 Y150.777 E0.05881
G1 X194.294 Y152.143 E0.05881
G1 X194.399 Y153.005 E0.03714
G1 X194.46 Y153.508 E0.02167
G1 X194.948 Y154.794 E0.05881
G1 X195.729 Y155.926 E0.05881
G1 X196.759 Y156.839 E0.05881
G1 X197.977 Y157.478 E0.05881
G1 X198.019 Y157.488 E0.00188
G1 X198.18 Y157.087 F9000
G1 F1800
G1 X199.364 Y157.379 E0.05214
G1 X200.636 Y157.379 E0.05436
G1 X201.87 Y157.074 E0.05436
G1 X202.996 Y156.483 E0.05436
G1 X203.948 Y155.64 E0.05436
G1 X204.67 Y154.594 E0.05436
G1 X205.121 Y153.405 E0.05436
G1 X205.274 Y152.143 E0.05436
G1 X205.121 Y150.881 E0.05436
G1 X204.67 Y149.692 E0.05436
G1 X203.948 Y148.645 E0.05436
G1 X202.996 Y147.802 E0.05436
G1 X201.87 Y147.211 E0.05436
G1 X200.636 Y146.907 E0.05436
G1 X199.364 Y146.907 E0.05436
G1 X198.13 Y147.211 E0.05436
G1 X197.004 Y147.802 E0.05436
G1 X196.052 Y148.645 E0.05436
G1 X195.33 Y149.692 E0.05436
G1 X194.879 Y150.881 E0.05436
G1 X194.726 Y152.143 E0.05436
G1 X194.824 Y152.953 E0.03491
G1 X194.879 Y153.405 E0.01945
G1 X195.33 Y154.594 E0.05436
G1 X196.052 Y155.64 E0.05436
G1 X197.004 Y156.483 E0.05436
G1 X198.123 Y157.071 E0.05402
G1 X198.283 Y156.671 F9000
;TYPE:External perimeter
G1 F1800
G1 X199.416 Y156.95 E0.04991
G1 X200.584 Y156.95 E0.04991
G1 X201.717 Y156.671 E0.04991
G1 X202.751 Y156.128 E0.04991
G1 X203.625 Y155.354 E0.04991
G1 X204.288 Y154.393 E0.04991
G1 X204.702 Y153.302 E0.04991
G1 X204.842 Y152.143 E0.04991
G1 X204.702 Y150.984 E0.04991
G1 X204.288 Y149.892 E0.04991
G1 X203.625 Y148.932 E0.04991
G1 X202.751 Y148.158 E0.04991
G1 X201.717 Y147.615 E0.04991
G1 X200.584 Y147.336 E0.04991
G1 X199.416 Y147.336 E0.04991
G1 X198.283 Y147.615 E0.04991
G1 X197.249 Y148.158 E0.04991
G1 X196.375 Y148.932 E0.04991
G1 X195.712 Y149.892 E0.04991
G1 X195.298 Y150.984 E0.04991
G1 X195.158 Y152.143 E0.04991
G1 X195.25 Y152.902 E0.03269
G1 X195.298 Y153.302 E0.01723
G1 X195.712 Y154.393 E0.04991
G1 X196.375 Y155.354 E0.04991
G1 X197.249 Y156.128 E0.04991
G1 X198.23 Y156.643 E0.04735
;WIPE_START
M204 S4000
G1 X198.363 Y157.063 F9000
;WIPE_END
G1 E-0.6 F3000
; acceleration to travel
G1 X199.206 Y147.715 F9000
; decel to extrusion
M204 S1000
G1 X199.416 Y145.378
; end travel
G1 E0.6 F1800
;TYPE:Internal perimeter
G1 X200.74 Y145.378 E0.05659
G1 X202.176 Y145.024 E0.06326
G1 X203.486 Y144.337 E0.06326
G1 X204.594 Y143.356 E0.06326
G1 X205.434 Y142.138 E0.06326
G1 X205.959 Y140.754 E0.06326
G1 X206.137 Y139.286 E0.06326
G1 X205.959 Y137.817 E0.06326
G1 X205.434 Y136.434 E0.06326
G1 X204.594 Y135.216 E0.06326
G1 X203.486 Y134.235 E0.06326
G1 X202.176 Y133.547 E0.06326
G1 X200.74 Y133.193 E0.06326
G1 X199.26 Y133.193 E0.06326
G1 X197.824 Y133.547 E0.06326
G1 X197.329 Y133.807 E0.0239
G1 X196.514 Y134.235 E0.03936
G1 X195.406 Y135.216 E0.06326
G1 X194.566 Y136.434 E0.06326
G1 X194.041 Y137.817 E0.06326
G1 X193.863 Y139.286 E0.06326
G1 X193.974 Y140.2 E0.03936
G1 X194.041 Y140.754 E0.0239
G1 X194.566 Y142.138 E0.06326
G1 X195.406 Y143.356 E0.06326
G1 X196.514 Y144.337 E0.06326
G1 X197.824 Y145.024 E0.06326
G1 X198.717 Y145.245 E0.03936
G1 X199.26 Y145.378 E0.0239
G1 X199.356 Y145.378 E0.00411
G1 X199.416 Y144.95 F9000
G1 F1800
G1 X200.688 Y144.95 E0.05436
G1 X202.023 Y144.621 E0.05881
G1 X203.241 Y143.981 E0.05881
G1 X204.271 Y143.069 E0.05881
G1 X205.052 Y141.937 E0.05881
G1 X205.54 Y140.651 E0.05881
G1 X205.706 Y139.286 E0.05881
G1 X205.54 Y137.92 E0.05881
G1 X205.052 Y136.634 E0.05881
G1 X204.271 Y135.502 E0.05881
G1 X203.241 Y134.59 E0.05881
G1 X202.023 Y133.951 E0.05881
G1 X200.688 Y133.622 E0.05881
G1 X199.312 Y133.622 E0.05881
G1 X197.977 Y133.951 E0.05881
G1 X197.528 Y134.186 E0.02167
G1 X196.759 Y134.59 E0.03714
G1 X195.729 Y135.502 E0.05881
G1 X194.948 Y136.634 E0.05881
G1 X194.46 Y137.92 E0.05881
G1 X194.294 Y139.286 E0.05881
G1 X194.399 Y140.148 E0.03714
G1 X194.46 Y140.651 E0.02167
G1 X194.948 Y141.937 E0.05881
G1 X195.729 Y143.069 E0.05881
G1 X196.759 Y143.981 E0.05881
G1 X197.977 Y144.621 E0.05881
G1 X198.82 Y144.829 E0.03714
G1 X199.312 Y144.95 E0.02167
G1 X199.356 Y144.95 E0.00188
G1 X199.416 Y144.521 F9000
G1 F1800
G1 X200.636 Y144.521 E0.05214
G1 X201.87 Y144.217 E0.05436
G1 X202.996 Y143.626 E0.05436
G1 X203.948 Y142.783 E0.05436
G1 X204.67 Y141.737 E0.05436
G1 X205.121 Y140.548 E0.05436
G1 X205.274 Y139.286 E0.05436
G1 X205.121 Y138.024 E0.05436
G1 X204.67 Y136.835 E0.05436
G1 X203.948 Y135.788 E0.05436
G1 X202.996 Y134.945 E0.05436
G1 X201.87 Y134.354 E0.05436
G1 X200.636 Y134.05 E0.05436
G1 X199.364 Y134.05 E0.05436
G1 X198.13 Y134.354 E0.05436
G1 X197.727 Y134.566 E0.01945
G1 X197.004 Y134.945 E0.03491
G1 X196.052 Y135.788 E0.05436
G1 X195.33 Y136.835 E0.05436
G1 X194.879 Y138.024 E0.05436
G1 X194.726 Y139.286 E0.05436
G1 X194.824 Y140.096 E0.03491
G1 X194.879 Y140.548 E0.01945
G1 X195.33 Y141.737 E0.05436
G1 X196.052 Y142.783 E0.05436
G1 X197.004 Y143.626 E0.05436
G1 X198.13 Y144.217 E0.05436
G1 X198.923 Y144.413 E0.03491
G1 X199.357 Y144.519 E0.01911
G1 X199.416 Y144.093 F9000
;TYPE:External perimeter
G1 F1800
G1 X200.584 Y144.093 E0.04991
G1 X201.717 Y143.814 E0.04991
G1 X202.751 Y143.271 E0.04991
G1 X203.625 Y142.497 E0.04991
G1 X204.288 Y141.536 E0.04991
G1 X204.702 Y140.445 E0.04991
G1 X204.842 Y139.286 E0.04991
G1 X204.702 Y138.127 E0.04991
G1 X204.288 Y137.035 E0.04991
G1 X203.625 Y136.075 E0.04991
G1 X202.751 Y135.3 E0.04991
G1 X201.717 Y134.758 E0.04991
G1 X200.584 Y134.479 E0.04991
G1 X199.416 Y134.479 E0.04991
G1 X198.283 Y134.758 E0.04991
G1 X197.926 Y134.945 E0.01723
G1 X197.249 Y135.3 E0.03269
G1 X196.375 Y136.075 E0.04991
G1 X195.712 Y137.035 E0.04991
G1 X195.298 Y138.127 E0.04991
G1 X195.158 Y139.286 E0.04991
G1 X195.25 Y140.045 E0.03269
G1 X195.298 Y140.445 E0.01723
G1 X195.712 Y141.536 E0.04991
G1 X196.375 Y142.497 E0.04991
G1 X197.249 Y143.271 E0.04991
G1 X198.283 Y143.814 E0.04991
G1 X199.025 Y143.996 E0.03269
G1 X199.358 Y144.079 E0.01466
;WIPE_START
M204 S4000
G1 X199.588 Y144.454 F9000
;WIPE_END
G1 E-0.6 F3000
; acceleration to travel
G1 X199.451 Y134.908 F9000
; decel to extrusion
M204 S1000
G1 X199.416 Y132.521
; end travel
G1 E0.6 F1800
;TYPE:Internal perimeter
G1 X200.74 Y132.521 E0.05659
G1 X202.176 Y132.167 E0.06326
G1 X203.486 Y131.48 E0.06326
G1 X204.594 Y130.498 E0.06326
G1 X205.434 Y129.281 E0.06326
G1 X205.959 Y127.897 E0.06326
G1 X206.137 Y126.429 E0.06326
G1 X205.959 Y124.96 E0.06326
G1 X205.434 Y123.576 E0.06326
G1 X204.594 Y122.359 E0.06326
G1 X203.486 Y121.378 E0.06326
G1 X202.176 Y120.69 E0.06326
G1 X200.74 Y120.336 E0.06326
G1 X199.26 Y120.336 E0.06326
G1 X197.824 Y120.69 E0.06326
G1 X196.514 Y121.378 E0.06326
G1 X195.406 Y122.359 E0.06326
G1 X194.566 Y123.576 E0.06326
G1 X194.041 Y124.96 E0.06326
G1 X193.863 Y126.429 E0.06326
G1 X193.974 Y127.342 E0.03936
G1 X194.041 Y127.897 E0.0239
G1 X194.566 Y129.281 E0.06326
G1 X195.406 Y130.498 E0.06326
G1 X196.514 Y131.48 E0.06326
G1 X197.824 Y132.167 E0.06326
G1 X199.26 Y132.521 E0.06326
G1 X199.356 Y132.521 E0.00411
G1 X199.416 Y132.093 F9000
G1 F1800
G1 X200.688 Y132.093 E0.05436
G1 X202.023 Y131.764 E0.05881
G1 X203.241 Y131.124 E0.05881
G1 X204.271 Y130.212 E0.05881
G1 X205.052 Y129.08 E0.05881
G1 X205.54 Y127.794 E0.05881
G1 X205.706 Y126.429 E0.05881
G1 X205.54 Y125.063 E0.05881
G1 X205.052 Y123.777 E0.05881
G1 X204.271 Y122.645 E0.05881
G1 X203.241 Y121.733 E0.05881
G1 X202.023 Y121.094 E0.05881
G1 X200.688 Y120.764 E0.05881
G1 X199.312 Y120.764 E0.05881
G1 X197.977 Y121.094 E0.05881
G1 X197.528 Y121.329 E0.02167
G1 X196.759 Y121.733 E0.03714
G1 X195.729 Y122.645 E0.05881
G1 X194.948 Y123.777 E0.05881
G1 X194.46 Y125.063 E0.05881
G1 X194.294 Y126.429 E0.05881
G1 X194.399 Y127.291 E0.03714
G1 X194.46 Y127.794 E0.02167
G1 X194.948 Y129.08 E0.05881
G1 X195.729 Y130.212 E0.05881
G1 X196.759 Y131.124 E0.05881
G1 X197.977 Y131.764 E0.05881
G1 X199.312 Y132.093 E0.05881
G1 X199.356 Y132.093 E0.00188
G1 X199.416 Y131.664 F9000
G1 F1800
G1 X200.636 Y131.664 E0.05214
G1 X201.87 Y131.36 E0.05436
G1 X202.996 Y130.769 E0.05436
G1 X203.948 Y129.926 E0.05436
G1 X204.67 Y128.88 E0.05436
G1 X205.121 Y127.691 E0.05436
G1 X205.274 Y126.429 E0.05436
G1 X205.121 Y125.166 E0.05436
G1 X204.67 Y123.978 E0.05436
G1 X203.948 Y122.931 E0.05436
G1 X202.996 Y122.088 E0.05436
G1 X201.87 Y121.497 E0.05436
G1 X200.636 Y121.193 E0.05436
G1 X199.364 Y121.193 E0.05436
G1 X198.13 Y121.497 E0.05436
G1 X197.727 Y121.709 E0.01945
G1 X197.004 Y122.088 E0.03491
G1 X196.052 Y122.931 E0.05436
G1 X195.33 Y123.978 E0.05436
G1 X194.879 Y125.166 E0.05436
G1 X194.726 Y126.429 E0.05436
G1 X194.824 Y127.239 E0.03491
G1 X194.879 Y127.691 E0.01945
G1 X195.33 Y128.88 E0.05436
G1 X196.052 Y129.926 E0.05436
G1 X197.004 Y130.769 E0.05436
G1 X198.13 Y131.36 E0.05436
G1 X199.357 Y131.662 E0.05402
G1 X199.416 Y131.236 F9000
;TYPE:External perimeter
G1 F1800
G1 X200.584 Y131.236 E0.04991
G1 X201.717 Y130.956 E0.04991
G1 X202.751 Y130.414 E0.04991
G1 X203.625 Y129.64 E0.04991
G1 X204.288 Y128.679 E0.04991
G1 X204.702 Y127.587 E0.04991
G1 X204.842 Y126.429 E0.04991
G1 X204.702 Y125.27 E0.04991
G1 X204.288 Y124.178 E0.04991
G1 X203.625 Y123.217 E0.04991
G1 X202.751 Y122.443 E0.04991
G1 X201.717 Y121.901 E0.04991
G1 X200.584 Y121.621 E0.04991
G1 X199.416 Y121.621 E0.04991
G1 X198.283 Y121.901 E0.04991
G1 X197.926 Y122.088 E0.01723
G1 X197.249 Y122.443 E0.03269
G1 X196.375 Y123.217 E0.04991
G1 X195.712 Y124.178 E0.04991
G1 X195.298 Y125.27 E0.04991
G1 X195.158 Y126.429 E0.04991
G1 X195.25 Y127.188 E0.03269
G1 X195.298 Y127.587 E0.01723
G1 X195.712 Y128.679 E0.04991
G1 X196.375 Y129.64 E0.04991
G1 X197.249 Y130.414 E0.04991
G1 X198.283 Y130.956 E0.04991
G1 X199.358 Y131.221 E0.04735
;WIPE_START
M204 S4000
G1 X199.588 Y131.597 F9000
