; generated by SuperSlicer 2.3.57 on 2022-02-05 at 04:17:15 UTC


;
;

;
;
; 

; external perimeters extrusion width = 0.40mm
; perimeters extrusion width = 0.45mm
; infill extrusion width = 0.72mm
; solid infill extrusion width = 0.56mm
; top infill extrusion width = 0.40mm
; first layer extrusion width = 0.48mm

; external perimeters extrusion width = 0.40mm
; perimeters extrusion width = 0.45mm
; infill extrusion width = 0.72mm
; solid infill extrusion width = 0.56mm
; top infill extrusion width = 0.40mm
; first layer extrusion width = 0.48mm

; external perimeters extrusion width = 0.40mm
; perimeters extrusion width = 0.45mm
; infill extrusion width = 0.72mm
; solid infill extrusion width = 0.56mm
; top infill extrusion width = 0.40mm
; first layer extrusion width = 0.48mm

; external perimeters extrusion width = 0.40mm
; perimeters extrusion width = 0.45mm
; infill extrusion width = 0.72mm
; solid infill extrusion width = 0.56mm
; top infill extrusion width = 0.40mm
; first layer extrusion width = 0.48mm

; external perimeters extrusion width = 0.40mm
; perimeters extrusion width = 0.45mm
; infill extrusion width = 0.72mm
; solid infill extrusion width = 0.56mm
; top infill extrusion width = 0.40mm
; first layer extrusion width = 0.48mm

; object:{"name":"Cube-30x30x3mm","id":"Cube-30x30x3mm.stl id:0 copy 0","object_center":[160.686965,163.928498,0.000000],"boundingbox_center":[160.686965,163.928498,1.500000],"boundingbox_size":[30.000000,30.000000,3.000000]}
; object:{"name":"Cube-30x30x3mm","id":"Cube-30x30x3mm.stl id:1 copy 0","object_center":[92.356281,166.502769,0.000000],"boundingbox_center":[92.356281,166.502769,1.500000],"boundingbox_size":[30.000000,30.000000,3.000000]}
; object:{"name":"Cube-30x30x3mm","id":"Cube-30x30x3mm.stl id:2 copy 0","object_center":[231.620590,163.134190,0.000000],"boundingbox_center":[231.620590,163.134190,1.500000],"boundingbox_size":[30.000000,30.000000,3.000000]}
; object:{"name":"Cube-30x30x3mm","id":"Cube-30x30x3mm.stl id:3 copy 0","object_center":[127.337619,165.087408,0.000000],"boundingbox_center":[127.337619,165.087408,1.500000],"boundingbox_size":[30.000000,30.000000,3.000000]}
; object:{"name":"Cube-30x30x3mm","id":"Cube-30x30x3mm.stl id:4 copy 0","object_center":[196.000000,165.000000,0.000000],"boundingbox_center":[196.000000,165.000000,1.500000],"boundingbox_size":[30.000000,30.000000,3.000000]}
; plater:{"center":[161.988435,164.818479,0.000000],"boundingbox_center":[161.988435,164.818479,1.500000],"boundingbox_size":[169.264309,33.368579,3.000000]}

;TYPE:Custom
START_PRINT T_BED=60 T_EXTRUDER=200
M107
G21 ; set units to millimeters
G90 ; use absolute coordinates
M83 ; use relative distances for extrusion
; Filament gcode
M109 S200 ; set temperature and wait for it to be reached
M190 S60 ; set bed temperature and wait for it to be reached
;LAYER_CHANGE
;Z:0.24
;HEIGHT:0.24
G1 E-0.6 F3000
G1 Z0.24 F9000
; INIT printing object Cube-30x30x3mm.stl id:0 copy 0
; printing object Cube-30x30x3mm.stl id:0 copy 0
G1 X147.312 Y150.554
G1 E0.6 F1800
;TYPE:Internal perimeter
;WIDTH:0.48
G1 X174.061 Y150.554 E1.09792
G1 X174.061 Y177.303 E1.09792
G1 X147.312 Y177.303 E1.09792
G1 X147.312 Y150.614 E1.09546
G1 X174.49 Y177.732 F9000
G1 F1800
G1 X146.884 Y177.732 E1.1331
G1 X146.884 Y150.125 E1.1331
G1 X174.49 Y150.125 E1.1331
G1 X174.49 Y177.672 E1.13063
G1 X174.918 Y178.16 F9000
G1 F1800
G1 X146.455 Y178.16 E1.16827
G1 X146.455 Y149.697 E1.16827
G1 X174.918 Y149.697 E1.16827
G1 X174.918 Y178.1 E1.16581
G1 X175.347 Y178.588 F9000
;TYPE:External perimeter
G1 F1800
G1 X146.027 Y178.588 E1.20345
G1 X146.027 Y178.468 E0.0044
G1 X146.027 Y178.228 E0.00932
G1 X146.027 Y149.268 E1.18867
G1 X146.147 Y149.268 E0.0044
G1 X146.387 Y149.268 E0.00932
G1 X175.347 Y149.268 E1.18867
G1 X175.347 Y149.388 E0.0044
G1 X175.347 Y149.628 E0.00932
G1 X175.347 Y178.528 E1.18621
;WIPE_START
G1 X175.001 Y178.388 F9000
;WIPE_END
G1 X173.131 Y150.618
;TYPE:Solid infill
;WIDTH:0.475035
G1 F1800
G1 X173.813 Y151.3 E0.03918
G1 X173.813 Y151.906 E0.02462
G1 X172.709 Y150.802 E0.0634
G1 X172.103 Y150.802 E0.02462
G1 X173.813 Y152.512 E0.09821
G1 X173.813 Y153.118 E0.02462
G1 X171.497 Y150.802 E0.13303
G1 X170.891 Y150.802 E0.02462
G1 X173.813 Y153.724 E0.16784
G1 X173.813 Y154.33 E0.02462
G1 X170.285 Y150.802 E0.20265
G1 X169.679 Y150.802 E0.02462
G1 X173.813 Y154.936 E0.23746
G1 X173.813 Y155.542 E0.02462
G1 X169.073 Y150.802 E0.27227
G1 X168.467 Y150.802 E0.02462
G1 X173.813 Y156.148 E0.30708
G1 X173.813 Y156.754 E0.02462
G1 X167.861 Y150.802 E0.34189
G1 X167.255 Y150.802 E0.02462
G1 X173.813 Y157.36 E0.37671
G1 X173.813 Y157.966 E0.02462
G1 X166.649 Y150.802 E0.41152
G1 X166.043 Y150.802 E0.02462
G1 X173.813 Y158.572 E0.44633
G1 X173.813 Y159.178 E0.02462
G1 X165.437 Y150.802 E0.48114
G1 X164.832 Y150.802 E0.02462
G1 X173.813 Y159.784 E0.51595
G1 X173.813 Y160.39 E0.02462
G1 X164.226 Y150.802 E0.55076
G1 X163.62 Y150.802 E0.02462
G1 X173.813 Y160.996 E0.58558
G1 X173.813 Y161.602 E0.02462
G1 X163.014 Y150.802 E0.62039
G1 X162.408 Y150.802 E0.02462
G1 X173.813 Y162.208 E0.6552
G1 X173.813 Y162.814 E0.02462
G1 X161.802 Y150.802 E0.69001
G1 X161.196 Y150.802 E0.02462
G1 X173.813 Y163.42 E0.72482
G1 X173.813 Y164.026 E0.02462
G1 X160.59 Y150.802 E0.75963
G1 X159.984 Y150.802 E0.02462
G1 X173.813 Y164.632 E0.79444
G1 X173.813 Y165.238 E0.02462
G1 X159.378 Y150.802 E0.82926
G1 X158.772 Y150.802 E0.02462
G1 X173.813 Y165.844 E0.86407
G1 X173.813 Y166.45 E0.02462
G1 X158.166 Y150.802 E0.89888
G1 X157.56 Y150.802 E0.02462
G1 X173.813 Y167.056 E0.93369
G1 X173.813 Y167.662 E0.02462
G1 X156.954 Y150.802 E0.9685
G1 X156.348 Y150.802 E0.02462
G1 X173.813 Y168.268 E1.00331
G1 X173.813 Y168.874 E0.02462
G1 X155.742 Y150.802 E1.03813
G1 X155.136 Y150.802 E0.02462
G1 X173.813 Y169.48 E1.07294
G1 X173.813 Y170.086 E0.02462
G1 X154.53 Y150.802 E1.10775
G1 X153.924 Y150.802 E0.02462
G1 X173.813 Y170.692 E1.14256
G1 X173.813 Y171.298 E0.02462
G1 X153.318 Y150.802 E1.17737
G1 X152.712 Y150.802 E0.02462
G1 X173.813 Y171.904 E1.21218
G1 X173.813 Y172.51 E0.02462
G1 X152.106 Y150.802 E1.24699
G1 X151.5 Y150.802 E0.02462
G1 X173.813 Y173.116 E1.28181
G1 X173.813 Y173.722 E0.02462
G1 X150.894 Y150.802 E1.31662
G1 X150.288 Y150.802 E0.02462
G1 X173.813 Y174.328 E1.35143
G1 X173.813 Y174.934 E0.02462
G1 X149.682 Y150.802 E1.38624
G1 X149.076 Y150.802 E0.02462
G1 X173.813 Y175.54 E1.42105
G1 X173.813 Y176.146 E0.02462
G1 X148.47 Y150.802 E1.45586
G1 X147.864 Y150.802 E0.02462
G1 X173.813 Y176.751 E1.49068
G1 X173.813 Y177.055 E0.01231
G1 X173.51 Y177.055 E0.01231
G1 X147.561 Y151.105 E1.49068
G1 X147.561 Y151.711 E0.02462
G1 X172.904 Y177.055 E1.45587
G1 X172.298 Y177.055 E0.02462
G1 X147.561 Y152.317 E1.42106
G1 X147.561 Y152.923 E0.02462
G1 X171.692 Y177.055 E1.38624
G1 X171.086 Y177.055 E0.02462
G1 X147.561 Y153.529 E1.35143
G1 X147.561 Y154.135 E0.02462
G1 X170.48 Y177.055 E1.31662
G1 X169.874 Y177.055 E0.02462
G1 X147.561 Y154.741 E1.28181
G1 X147.561 Y155.347 E0.02462
G1 X169.268 Y177.055 E1.247
G1 X168.662 Y177.055 E0.02462
G1 X147.561 Y155.953 E1.21219
G1 X147.561 Y156.559 E0.02462
G1 X168.056 Y177.055 E1.17737
G1 X167.45 Y177.055 E0.02462
G1 X147.561 Y157.165 E1.14256
G1 X147.561 Y157.771 E0.02462
G1 X166.844 Y177.055 E1.10775
G1 X166.238 Y177.055 E0.02462
G1 X147.561 Y158.377 E1.07294
G1 X147.561 Y158.983 E0.02462
G1 X165.632 Y177.055 E1.03813
G1 X165.026 Y177.055 E0.02462
G1 X147.561 Y159.589 E1.00332
G1 X147.561 Y160.195 E0.02462
G1 X164.42 Y177.055 E0.96851
G1 X163.814 Y177.055 E0.02462
G1 X147.561 Y160.801 E0.93369
G1 X147.561 Y161.407 E0.02462
G1 X163.208 Y177.055 E0.89888
G1 X162.602 Y177.055 E0.02462
G1 X147.561 Y162.013 E0.86407
G1 X147.561 Y162.619 E0.02462
G1 X161.996 Y177.055 E0.82926
G1 X161.39 Y177.055 E0.02462
G1 X147.561 Y163.225 E0.79445
G1 X147.561 Y163.831 E0.02462
G1 X160.784 Y177.055 E0.75964
G1 X160.178 Y177.055 E0.02462
G1 X147.561 Y164.437 E0.72482
G1 X147.561 Y165.043 E0.02462
G1 X159.572 Y177.055 E0.69001
G1 X158.966 Y177.055 E0.02462
G1 X147.561 Y165.649 E0.6552
G1 X147.561 Y166.255 E0.02462
G1 X158.36 Y177.055 E0.62039
G1 X157.754 Y177.055 E0.02462
G1 X147.561 Y166.861 E0.58558
G1 X147.561 Y167.467 E0.02462
G1 X157.148 Y177.055 E0.55077
G1 X156.542 Y177.055 E0.02462
G1 X147.561 Y168.073 E0.51596
G1 X147.561 Y168.679 E0.02462
G1 X155.936 Y177.055 E0.48114
G1 X155.331 Y177.055 E0.02462
G1 X147.561 Y169.285 E0.44633
G1 X147.561 Y169.891 E0.02462
G1 X154.725 Y177.055 E0.41152
G1 X154.119 Y177.055 E0.02462
G1 X147.561 Y170.497 E0.37671
G1 X147.561 Y171.103 E0.02462
G1 X153.513 Y177.055 E0.3419
G1 X152.907 Y177.055 E0.02462
G1 X147.561 Y171.709 E0.30709
G1 X147.561 Y172.315 E0.02462
G1 X152.301 Y177.055 E0.27227
G1 X151.695 Y177.055 E0.02462
G1 X147.561 Y172.921 E0.23746
G1 X147.561 Y173.527 E0.02462
G1 X151.089 Y177.055 E0.20265
G1 X150.483 Y177.055 E0.02462
G1 X147.561 Y174.133 E0.16784
G1 X147.561 Y174.739 E0.02462
G1 X149.877 Y177.055 E0.13303
G1 X149.271 Y177.055 E0.02462
G1 X147.561 Y175.345 E0.09822
G1 X147.561 Y175.951 E0.02462
G1 X148.665 Y177.055 E0.06341
G1 X148.059 Y177.055 E0.02462
G1 X147.377 Y176.373 E0.03918
; INIT stop printing object Cube-30x30x3mm.stl id:0 copy 0
; INIT printing object Cube-30x30x3mm.stl id:3 copy 0
G1 E-0.6 F3000
; stop printing object Cube-30x30x3mm.stl id:0 copy 0
; printing object Cube-30x30x3mm.stl id:3 copy 0
G1 X140.712 Y178.462 F9000
G1 E0.6 F1800
;TYPE:Internal perimeter
;WIDTH:0.48
G1 X113.963 Y178.462 E1.07505
G1 X113.963 Y151.713 E1.07505
G1 X140.712 Y151.713 E1.07505
G1 X140.712 Y178.402 E1.07264
G1 X141.141 Y178.89 F9000
G1 F1800
G1 X113.535 Y178.89 E1.10949
G1 X113.535 Y151.284 E1.10949
G1 X141.141 Y151.284 E1.10949
G1 X141.141 Y178.83 E1.10708
G1 X141.569 Y179.319 F9000
G1 F1800
G1 X113.106 Y179.319 E1.14393
G1 X113.106 Y150.856 E1.14393
G1 X141.569 Y150.856 E1.14393
G1 X141.569 Y179.259 E1.14152
G1 X141.998 Y179.747 F9000
;TYPE:External perimeter
G1 F1800
G1 X112.678 Y179.747 E1.17837
G1 X112.678 Y179.627 E0.00431
G1 X112.678 Y179.387 E0.00913
G1 X112.678 Y150.427 E1.16391
G1 X112.798 Y150.427 E0.00431
G1 X113.038 Y150.427 E0.00913
G1 X141.998 Y150.427 E1.16391
G1 X141.998 Y150.547 E0.00431
G1 X141.998 Y150.787 E0.00913
G1 X141.998 Y179.687 E1.16149
;WIPE_START
G1 X141.651 Y179.547 F9000
;WIPE_END
G1 X139.782 Y151.777
;TYPE:Solid infill
;WIDTH:0.475035
G1 F1800
G1 X140.464 Y152.459 E0.03836
G1 X140.464 Y153.065 E0.0241
G1 X139.36 Y151.961 E0.06208
G1 X138.754 Y151.961 E0.0241
G1 X140.464 Y153.671 E0.09617
G1 X140.464 Y154.277 E0.0241
G1 X138.148 Y151.961 E0.13025
G1 X137.542 Y151.961 E0.0241
G1 X140.464 Y154.883 E0.16434
G1 X140.464 Y155.489 E0.0241
G1 X136.936 Y151.961 E0.19843
G1 X136.33 Y151.961 E0.0241
G1 X140.464 Y156.095 E0.23251
G1 X140.464 Y156.701 E0.0241
G1 X135.724 Y151.961 E0.2666
G1 X135.118 Y151.961 E0.0241
G1 X140.464 Y157.307 E0.30069
G1 X140.464 Y157.913 E0.0241
G1 X134.512 Y151.961 E0.33477
G1 X133.906 Y151.961 E0.0241
G1 X140.464 Y158.519 E0.36886
G1 X140.464 Y159.125 E0.0241
G1 X133.3 Y151.961 E0.40294
G1 X132.694 Y151.961 E0.0241
G1 X140.464 Y159.731 E0.43703
G1 X140.464 Y160.337 E0.0241
G1 X132.088 Y151.961 E0.47112
G1 X131.482 Y151.961 E0.0241
G1 X140.464 Y160.943 E0.5052
G1 X140.464 Y161.549 E0.0241
G1 X130.876 Y151.961 E0.53929
G1 X130.27 Y151.961 E0.0241
G1 X140.464 Y162.155 E0.57338
G1 X140.464 Y162.761 E0.0241
G1 X129.664 Y151.961 E0.60746
G1 X129.058 Y151.961 E0.0241
G1 X140.464 Y163.367 E0.64155
G1 X140.464 Y163.973 E0.0241
G1 X128.452 Y151.961 E0.67563
G1 X127.846 Y151.961 E0.0241
G1 X140.464 Y164.579 E0.70972
G1 X140.464 Y165.185 E0.0241
G1 X127.24 Y151.961 E0.74381
G1 X126.634 Y151.961 E0.0241
G1 X140.464 Y165.791 E0.77789
G1 X140.464 Y166.397 E0.0241
G1 X126.028 Y151.961 E0.81198
G1 X125.422 Y151.961 E0.0241
G1 X140.464 Y167.003 E0.84607
G1 X140.464 Y167.609 E0.0241
G1 X124.816 Y151.961 E0.88015
G1 X124.21 Y151.961 E0.0241
G1 X140.464 Y168.215 E0.91424
G1 X140.464 Y168.821 E0.0241
G1 X123.604 Y151.961 E0.94832
G1 X122.998 Y151.961 E0.0241
G1 X140.464 Y169.427 E0.98241
G1 X140.464 Y170.033 E0.0241
G1 X122.392 Y151.961 E1.0165
G1 X121.786 Y151.961 E0.0241
G1 X140.464 Y170.639 E1.05058
G1 X140.464 Y171.245 E0.0241
G1 X121.18 Y151.961 E1.08467
G1 X120.574 Y151.961 E0.0241
G1 X140.464 Y171.851 E1.11876
G1 X140.464 Y172.457 E0.0241
G1 X119.968 Y151.961 E1.15284
G1 X119.362 Y151.961 E0.0241
G1 X140.464 Y173.063 E1.18693
G1 X140.464 Y173.669 E0.0241
G1 X118.757 Y151.961 E1.22102
G1 X118.151 Y151.961 E0.0241
G1 X140.464 Y174.274 E1.2551
G1 X140.464 Y174.88 E0.0241
G1 X117.545 Y151.961 E1.28919
G1 X116.939 Y151.961 E0.0241
G1 X140.464 Y175.486 E1.32327
G1 X140.464 Y176.092 E0.0241
G1 X116.333 Y151.961 E1.35736
G1 X115.727 Y151.961 E0.0241
G1 X140.464 Y176.698 E1.39145
G1 X140.464 Y177.304 E0.0241
G1 X115.121 Y151.961 E1.42553
G1 X114.515 Y151.961 E0.0241
G1 X140.464 Y177.91 E1.45962
G1 X140.464 Y178.213 E0.01205
G1 X140.161 Y178.213 E0.01205
G1 X114.212 Y152.264 E1.45962
G1 X114.212 Y152.87 E0.0241
G1 X139.555 Y178.213 E1.42554
G1 X138.949 Y178.213 E0.0241
G1 X114.212 Y153.476 E1.39145
G1 X114.212 Y154.082 E0.0241
G1 X138.343 Y178.213 E1.35736
G1 X137.737 Y178.213 E0.0241
G1 X114.212 Y154.688 E1.32328
G1 X114.212 Y155.294 E0.0241
G1 X137.131 Y178.213 E1.28919
G1 X136.525 Y178.213 E0.0241
G1 X114.212 Y155.9 E1.2551
G1 X114.212 Y156.506 E0.0241
G1 X135.919 Y178.213 E1.22102
G1 X135.313 Y178.213 E0.0241
G1 X114.212 Y157.112 E1.18693
G1 X114.212 Y157.718 E0.0241
G1 X134.707 Y178.213 E1.15285
G1 X134.101 Y178.213 E0.0241
G1 X114.212 Y158.324 E1.11876
G1 X114.212 Y158.93 E0.0241
G1 X133.495 Y178.213 E1.08467
G1 X132.889 Y178.213 E0.0241
G1 X114.212 Y159.536 E1.05059
G1 X114.212 Y160.142 E0.0241
G1 X132.283 Y178.213 E1.0165
G1 X131.677 Y178.213 E0.0241
G1 X114.212 Y160.748 E0.98241
G1 X114.212 Y161.354 E0.0241
G1 X131.071 Y178.213 E0.94833
G1 X130.465 Y178.213 E0.0241
G1 X114.212 Y161.96 E0.91424
G1 X114.212 Y162.566 E0.0241
G1 X129.859 Y178.213 E0.88016
G1 X129.253 Y178.213 E0.0241
G1 X114.212 Y163.172 E0.84607
G1 X114.212 Y163.778 E0.0241
G1 X128.647 Y178.213 E0.81198
G1 X128.041 Y178.213 E0.0241
G1 X114.212 Y164.384 E0.7779
G1 X114.212 Y164.99 E0.0241
G1 X127.435 Y178.213 E0.74381
G1 X126.829 Y178.213 E0.0241
G1 X114.212 Y165.596 E0.70972
G1 X114.212 Y166.202 E0.0241
G1 X126.223 Y178.213 E0.67564
G1 X125.617 Y178.213 E0.0241
G1 X114.212 Y166.808 E0.64155
G1 X114.212 Y167.414 E0.0241
G1 X125.011 Y178.213 E0.60747
G1 X124.405 Y178.213 E0.0241
G1 X114.212 Y168.02 E0.57338
G1 X114.212 Y168.626 E0.0241
G1 X123.799 Y178.213 E0.53929
G1 X123.193 Y178.213 E0.0241
G1 X114.212 Y169.232 E0.50521
G1 X114.212 Y169.838 E0.0241
G1 X122.587 Y178.213 E0.47112
G1 X121.981 Y178.213 E0.0241
G1 X114.212 Y170.444 E0.43703
G1 X114.212 Y171.05 E0.0241
G1 X121.375 Y178.213 E0.40295
G1 X120.769 Y178.213 E0.0241
G1 X114.212 Y171.656 E0.36886
G1 X114.212 Y172.262 E0.0241
G1 X120.163 Y178.213 E0.33477
G1 X119.557 Y178.213 E0.0241
G1 X114.212 Y172.868 E0.30069
G1 X114.212 Y173.474 E0.0241
G1 X118.951 Y178.213 E0.2666
G1 X118.345 Y178.213 E0.0241
G1 X114.212 Y174.08 E0.23252
G1 X114.212 Y174.686 E0.0241
G1 X117.739 Y178.213 E0.19843
G1 X117.133 Y178.213 E0.0241
G1 X114.212 Y175.292 E0.16434
G1 X114.212 Y175.898 E0.0241
G1 X116.527 Y178.213 E0.13026
G1 X115.921 Y178.213 E0.0241
G1 X114.212 Y176.504 E0.09617
G1 X114.212 Y177.11 E0.0241
G1 X115.315 Y178.213 E0.06208
G1 X114.709 Y178.213 E0.0241
G1 X114.027 Y177.531 E0.03836
; INIT stop printing object Cube-30x30x3mm.stl id:3 copy 0
; INIT printing object Cube-30x30x3mm.stl id:1 copy 0
G1 E-0.6 F3000
; stop printing object Cube-30x30x3mm.stl id:3 copy 0
; printing object Cube-30x30x3mm.stl id:1 copy 0
G1 X105.731 Y179.877 F9000
G1 E0.6 F1800
;TYPE:Internal perimeter
;WIDTH:0.48
G1 X78.982 Y179.877 E1.16654
G1 X78.982 Y153.128 E1.16654
G1 X105.731 Y153.128 E1.16654
G1 X105.731 Y179.817 E1.16392
G1 X106.159 Y180.306 F9000
G1 F1800
G1 X78.553 Y180.306 E1.20391
G1 X78.553 Y152.7 E1.20391
G1 X106.159 Y152.7 E1.20391
G1 X106.159 Y180.246 E1.2013
G1 X106.588 Y180.734 F9000
G1 F1800
