; generated by SuperSlicer 2.3.57 on 2022-02-06 at 17:51:49 UTC


;
;

;
;
; 

; external perimeters extrusion width = 0.40mm
; perimeters extrusion width = 0.45mm
; infill extrusion width = 0.72mm
; solid infill extrusion width = 0.56mm
; top infill extrusion width = 0.40mm
; first layer extrusion width = 0.48mm

; external perimeters extrusion width = 0.40mm
; perimeters extrusion width = 0.45mm
; infill extrusion width = 0.72mm
; solid infill extrusion width = 0.56mm
; top infill extrusion width = 0.40mm
; first layer extrusion width = 0.48mm

; external perimeters extrusion width = 0.40mm
; perimeters extrusion width = 0.45mm
; infill extrusion width = 0.72mm
; solid infill extrusion width = 0.56mm
; top infill extrusion width = 0.40mm
; first layer extrusion width = 0.48mm

; external perimeters extrusion width = 0.40mm
; perimeters extrusion width = 0.45mm
; infill extrusion width = 0.72mm
; solid infill extrusion width = 0.56mm
; top infill extrusion width = 0.40mm
; first layer extrusion width = 0.48mm

; external perimeters extrusion width = 0.40mm
; perimeters extrusion width = 0.45mm
; infill extrusion width = 0.72mm
; solid infill extrusion width = 0.56mm
; top infill extrusion width = 0.40mm
; first layer extrusion width = 0.48mm

; object:{"name":"Cube-0","id":"Cube-0.920.stl id:0 copy 0","object_center":[165.000000,180.500000,0.000000],"boundingbox_center":[165.000000,180.500000,1.500000],"boundingbox_size":[30.000000,30.000000,3.000000]}
; object:{"name":"Cube-1","id":"Cube-1.200.stl id:1 copy 0","object_center":[134.000000,180.500000,0.000000],"boundingbox_center":[134.000000,180.500000,1.500000],"boundingbox_size":[30.000000,30.000000,3.000000]}
; object:{"name":"Cube-0","id":"Cube-0.960.stl id:2 copy 0","object_center":[165.000000,149.500000,0.000000],"boundingbox_center":[165.000000,149.500000,1.500000],"boundingbox_size":[30.000000,30.000000,3.000000]}
; object:{"name":"Cube-0","id":"Cube-0.940.stl id:3 copy 0","object_center":[134.000000,149.500000,0.000000],"boundingbox_center":[134.000000,149.500000,1.500000],"boundingbox_size":[30.000000,30.000000,3.000000]}
; object:{"name":"Cube-30x30x3mm","id":"Cube-30x30x3mm.stl id:4 copy 0","object_center":[196.000000,165.000000,0.000000],"boundingbox_center":[196.000000,165.000000,1.500000],"boundingbox_size":[30.000000,30.000000,3.000000]}
; plater:{"center":[165.000000,165.000000,0.000000],"boundingbox_center":[165.000000,165.000000,1.500000],"boundingbox_size":[92.000000,61.000000,3.000000]}

;TYPE:Custom
START_PRINT T_BED=70 T_EXTRUDER=230
M107
G21 ; set units to millimeters
G90 ; use absolute coordinates
M83 ; use relative distances for extrusion
; Filament gcode
M104 S230 ; set temperature
M109 S230 ; set temperature and wait for it to be reached
M190 S70 ; set bed temperature and wait for it to be reached
;LAYER_CHANGE
;Z:0.24
;HEIGHT:0.24
G1 E-1.2 F3000
G1 Z0.24 F9000
G1 X116.449 Y132.101
G1 E1.2 F1800
;TYPE:Skirt
;WIDTH:0.48
G1 X116.035 Y132.632 E0.02879
G1 X115.725 Y133.229 E0.02879
G1 X115.53 Y133.874 E0.02879
G1 X115.458 Y134.543 E0.02879
G1 X115.457 Y195.407 E2.60226
G1 X115.534 Y196.142 E0.0316
G1 X115.757 Y196.847 E0.0316
G1 X116.118 Y197.492 E0.0316
G1 X116.601 Y198.051 E0.0316
G1 X117.132 Y198.465 E0.02879
G1 X117.729 Y198.775 E0.02879
G1 X118.379 Y198.971 E0.02899
G1 X119.048 Y199.042 E0.02879
G1 X180.478 Y198.997 E2.62648
G1 X181.512 Y198.667 E0.0464
G1 X212.535 Y183.155 E1.48294
G1 X213.076 Y182.822 E0.02718
G1 X213.551 Y182.399 E0.02718
G1 X213.968 Y181.864 E0.02899
G1 X214.279 Y181.262 E0.02899
G1 X214.472 Y180.612 E0.02899
G1 X214.542 Y179.942 E0.02879
G1 X214.542 Y150.032 E1.27881
G1 X214.382 Y149.03 E0.0434
G1 X213.949 Y148.107 E0.0436
G1 X213.327 Y147.383 E0.04081
G1 X212.538 Y146.846 E0.04081
G1 X181.494 Y131.325 E1.48392
G1 X180.718 Y131.05 E0.03521
G1 X179.905 Y130.957 E0.035
G1 X119.036 Y130.958 E2.60246
G1 X118.316 Y131.043 E0.031
G1 X117.627 Y131.268 E0.031
G1 X116.997 Y131.626 E0.031
G1 X116.495 Y132.062 E0.02843
G1 X116.773 Y132.384 F9000
G1 F1800
G1 X116.4 Y132.857 E0.02576
G1 X116.124 Y133.386 E0.02553
G1 X115.951 Y133.958 E0.02553
G1 X115.886 Y134.556 E0.02572
G1 X115.886 Y195.408 E2.60179
G1 X115.953 Y196.055 E0.02779
G1 X116.149 Y196.675 E0.02779
G1 X116.464 Y197.239 E0.0276
G1 X116.887 Y197.731 E0.02779
G1 X117.357 Y198.1 E0.02553
G1 X117.886 Y198.376 E0.02553
G1 X118.458 Y198.549 E0.02553
G1 X119.056 Y198.614 E0.02572
G1 X180.414 Y198.573 E2.62339
G1 X181.326 Y198.281 E0.04094
G1 X212.343 Y182.772 E1.48271
G1 X213.231 Y182.113 E0.0473
G1 X213.603 Y181.64 E0.02572
G1 X213.88 Y181.106 E0.02572
G1 X214.051 Y180.534 E0.02553
G1 X214.114 Y179.935 E0.02572
G1 X214.114 Y150.045 E1.27798
G1 X213.971 Y149.151 E0.03869
G1 X213.585 Y148.333 E0.03869
G1 X213.039 Y147.701 E0.03569
G1 X212.345 Y147.229 E0.03588
G1 X181.312 Y131.712 E1.48347
G1 X180.629 Y131.469 E0.03099
G1 X179.904 Y131.386 E0.03118
G1 X119.047 Y131.386 E2.60198
G1 X118.415 Y131.46 E0.02723
G1 X117.805 Y131.658 E0.02741
G1 X117.251 Y131.971 E0.02723
G1 X116.818 Y132.345 E0.02443
; INIT printing object Cube-0.920.stl id:0 copy 0
G1 E-1.2 F3000
; printing object Cube-0.920.stl id:0 copy 0
G1 X151.197 Y166.697 F9000
G1 E1.2 F1800
;TYPE:Internal perimeter
G1 X178.803 Y166.697 E1.08588
G1 X178.803 Y194.303 E1.08588
G1 X151.197 Y194.303 E1.08588
G1 X151.197 Y166.757 E1.08352
G1 X179.232 Y194.732 F9000
G1 F1800
G1 X150.768 Y194.732 E1.11959
G1 X150.768 Y166.268 E1.11959
G1 X179.232 Y166.268 E1.11959
G1 X179.232 Y194.672 E1.11723
G1 X179.66 Y195.16 F9000
;TYPE:External perimeter
G1 F1800
G1 X150.34 Y195.16 E1.1533
G1 X150.34 Y195.04 E0.00421
G1 X150.34 Y194.8 E0.00893
G1 X150.34 Y165.84 E1.13914
G1 X150.46 Y165.84 E0.00421
G1 X150.7 Y165.84 E0.00893
G1 X179.66 Y165.84 E1.13914
G1 X179.66 Y165.96 E0.00421
G1 X179.66 Y166.2 E0.00893
G1 X179.66 Y195.1 E1.13678
;WIPE_START
G1 X179.314 Y194.96 F9000
;WIPE_END
G1 X177.873 Y166.761
;TYPE:Solid infill
;WIDTH:0.475105
G1 F1800
G1 X178.555 Y167.443 E0.03755
G1 X178.555 Y168.049 E0.02359
G1 X177.451 Y166.945 E0.06077
G1 X176.845 Y166.945 E0.02359
G1 X178.555 Y168.655 E0.09414
G1 X178.555 Y169.261 E0.02359
G1 X176.239 Y166.945 E0.1275
G1 X175.633 Y166.945 E0.02359
G1 X178.555 Y169.867 E0.16087
G1 X178.555 Y170.473 E0.02359
G1 X175.027 Y166.945 E0.19423
G1 X174.421 Y166.945 E0.02359
G1 X178.555 Y171.079 E0.2276
G1 X178.555 Y171.685 E0.02359
G1 X173.815 Y166.945 E0.26097
G1 X173.209 Y166.945 E0.02359
G1 X178.555 Y172.291 E0.29433
G1 X178.555 Y172.897 E0.02359
G1 X172.603 Y166.945 E0.3277
G1 X171.997 Y166.945 E0.02359
G1 X178.555 Y173.503 E0.36106
G1 X178.555 Y174.109 E0.02359
G1 X171.391 Y166.945 E0.39443
G1 X170.785 Y166.945 E0.02359
G1 X178.555 Y174.715 E0.42779
G1 X178.555 Y175.321 E0.02359
G1 X170.179 Y166.945 E0.46116
G1 X169.573 Y166.945 E0.02359
G1 X178.555 Y175.927 E0.49453
G1 X178.555 Y176.533 E0.02359
G1 X168.967 Y166.945 E0.52789
G1 X168.361 Y166.945 E0.02359
G1 X178.555 Y177.139 E0.56126
G1 X178.555 Y177.745 E0.02359
G1 X167.755 Y166.945 E0.59462
G1 X167.149 Y166.945 E0.02359
G1 X178.555 Y178.351 E0.62799
G1 X178.555 Y178.957 E0.02359
G1 X166.543 Y166.945 E0.66136
G1 X165.937 Y166.945 E0.02359
G1 X178.555 Y179.563 E0.69472
G1 X178.555 Y180.169 E0.02359
G1 X165.331 Y166.945 E0.72809
G1 X164.725 Y166.945 E0.02359
G1 X178.555 Y180.775 E0.76145
G1 X178.555 Y181.381 E0.02359
G1 X164.119 Y166.945 E0.79482
G1 X163.513 Y166.945 E0.02359
G1 X178.555 Y181.987 E0.82819
G1 X178.555 Y182.593 E0.02359
G1 X162.907 Y166.945 E0.86155
G1 X162.301 Y166.945 E0.02359
G1 X178.555 Y183.199 E0.89492
G1 X178.555 Y183.805 E0.02359
G1 X161.695 Y166.945 E0.92828
G1 X161.089 Y166.945 E0.02359
G1 X178.555 Y184.411 E0.96165
G1 X178.555 Y185.017 E0.02359
G1 X160.483 Y166.945 E0.99502
G1 X159.877 Y166.945 E0.02359
G1 X178.555 Y185.623 E1.02838
G1 X178.555 Y186.229 E0.02359
G1 X159.271 Y166.945 E1.06175
G1 X158.665 Y166.945 E0.02359
G1 X178.555 Y186.835 E1.09511
G1 X178.555 Y187.441 E0.02359
G1 X158.059 Y166.945 E1.12848
G1 X157.453 Y166.945 E0.02359
G1 X178.555 Y188.047 E1.16185
G1 X178.555 Y188.653 E0.02359
G1 X156.847 Y166.945 E1.19521
G1 X156.241 Y166.945 E0.02359
G1 X178.555 Y189.259 E1.22858
G1 X178.555 Y189.865 E0.02359
G1 X155.635 Y166.945 E1.26194
G1 X155.029 Y166.945 E0.02359
G1 X178.555 Y190.471 E1.29531
G1 X178.555 Y191.077 E0.02359
G1 X154.423 Y166.945 E1.32868
G1 X153.817 Y166.945 E0.02359
G1 X178.555 Y191.683 E1.36204
G1 X178.555 Y192.289 E0.02359
G1 X153.211 Y166.945 E1.39541
G1 X152.606 Y166.945 E0.02359
G1 X178.555 Y192.894 E1.42877
G1 X178.555 Y193.5 E0.02359
G1 X152 Y166.945 E1.46214
G1 X151.445 Y166.945 E0.02157
G1 X151.445 Y166.997 E0.00202
G1 X178.503 Y194.055 E1.48978
G1 X177.897 Y194.055 E0.02359
G1 X151.445 Y167.603 E1.45642
G1 X151.445 Y168.209 E0.02359
G1 X177.291 Y194.055 E1.42305
G1 X176.685 Y194.055 E0.02359
G1 X151.445 Y168.815 E1.38969
G1 X151.445 Y169.421 E0.02359
G1 X176.079 Y194.055 E1.35632
G1 X175.473 Y194.055 E0.02359
G1 X151.445 Y170.027 E1.32295
G1 X151.445 Y170.633 E0.02359
G1 X174.867 Y194.055 E1.28959
G1 X174.261 Y194.055 E0.02359
G1 X151.445 Y171.239 E1.25622
G1 X151.445 Y171.845 E0.02359
G1 X173.655 Y194.055 E1.22286
G1 X173.049 Y194.055 E0.02359
G1 X151.445 Y172.451 E1.18949
G1 X151.445 Y173.057 E0.02359
G1 X172.443 Y194.055 E1.15612
G1 X171.837 Y194.055 E0.02359
G1 X151.445 Y173.663 E1.12276
G1 X151.445 Y174.269 E0.02359
G1 X171.231 Y194.055 E1.08939
G1 X170.625 Y194.055 E0.02359
G1 X151.445 Y174.875 E1.05603
G1 X151.445 Y175.481 E0.02359
G1 X170.019 Y194.055 E1.02266
G1 X169.413 Y194.055 E0.02359
G1 X151.445 Y176.087 E0.98929
G1 X151.445 Y176.693 E0.02359
G1 X168.807 Y194.055 E0.95593
G1 X168.201 Y194.055 E0.02359
G1 X151.445 Y177.299 E0.92256
G1 X151.445 Y177.905 E0.02359
G1 X167.595 Y194.055 E0.8892
G1 X166.989 Y194.055 E0.02359
G1 X151.445 Y178.511 E0.85583
G1 X151.445 Y179.117 E0.02359
G1 X166.383 Y194.055 E0.82246
G1 X165.777 Y194.055 E0.02359
G1 X151.445 Y179.723 E0.7891
G1 X151.445 Y180.329 E0.02359
G1 X165.171 Y194.055 E0.75573
G1 X164.565 Y194.055 E0.02359
G1 X151.445 Y180.935 E0.72237
G1 X151.445 Y181.541 E0.02359
G1 X163.959 Y194.055 E0.689
G1 X163.353 Y194.055 E0.02359
G1 X151.445 Y182.147 E0.65563
G1 X151.445 Y182.753 E0.02359
G1 X162.747 Y194.055 E0.62227
G1 X162.141 Y194.055 E0.02359
G1 X151.445 Y183.359 E0.5889
G1 X151.445 Y183.965 E0.02359
G1 X161.535 Y194.055 E0.55554
G1 X160.929 Y194.055 E0.02359
G1 X151.445 Y184.571 E0.52217
G1 X151.445 Y185.177 E0.02359
G1 X160.323 Y194.055 E0.48881
G1 X159.717 Y194.055 E0.02359
G1 X151.445 Y185.783 E0.45544
G1 X151.445 Y186.389 E0.02359
G1 X159.111 Y194.055 E0.42207
G1 X158.505 Y194.055 E0.02359
G1 X151.445 Y186.995 E0.38871
G1 X151.445 Y187.601 E0.02359
G1 X157.899 Y194.055 E0.35534
G1 X157.293 Y194.055 E0.02359
G1 X151.445 Y188.207 E0.32198
G1 X151.445 Y188.813 E0.02359
G1 X156.687 Y194.055 E0.28861
G1 X156.081 Y194.055 E0.02359
G1 X151.445 Y189.419 E0.25524
G1 X151.445 Y190.025 E0.02359
G1 X155.475 Y194.055 E0.22188
G1 X154.869 Y194.055 E0.02359
G1 X151.445 Y190.631 E0.18851
G1 X151.445 Y191.237 E0.02359
G1 X154.263 Y194.055 E0.15515
G1 X153.657 Y194.055 E0.02359
G1 X151.445 Y191.843 E0.12178
G1 X151.445 Y192.449 E0.02359
G1 X153.051 Y194.055 E0.08841
G1 X152.445 Y194.055 E0.02359
G1 X151.445 Y193.055 E0.05505
G1 X151.445 Y193.661 E0.02359
G1 X152.024 Y194.239 E0.03183
; INIT stop printing object Cube-0.920.stl id:0 copy 0
; INIT printing object Cube-1.200.stl id:1 copy 0
G1 E-1.2 F3000
; stop printing object Cube-0.920.stl id:0 copy 0
; printing object Cube-1.200.stl id:1 copy 0
G1 X147.803 Y194.239 F9000
G1 E1.2 F1800
;TYPE:Internal perimeter
;WIDTH:0.48
G1 X147.803 Y194.303 E0.0028
G1 X120.197 Y194.303 E1.20391
G1 X120.197 Y166.697 E1.20391
G1 X147.803 Y166.697 E1.20391
G1 X147.803 Y194.179 E1.1985
G1 X148.232 Y194.732 F9000
G1 F1800
G1 X119.768 Y194.732 E1.24129
G1 X119.768 Y166.268 E1.24129
G1 X148.232 Y166.268 E1.24129
G1 X148.232 Y194.672 E1.23867
G1 X148.66 Y195.16 F9000
;TYPE:External perimeter
G1 F1800
G1 X119.34 Y195.16 E1.27866
G1 X119.34 Y195.04 E0.00467
G1 X119.34 Y194.8 E0.00991
G1 X119.34 Y165.84 E1.26296
G1 X119.46 Y165.84 E0.00467
G1 X119.7 Y165.84 E0.00991
G1 X148.66 Y165.84 E1.26296
G1 X148.66 Y165.96 E0.00467
G1 X148.66 Y166.2 E0.00991
G1 X148.66 Y195.1 E1.26035
;WIPE_START
G1 X148.314 Y194.96 F9000
;WIPE_END
G1 X146.873 Y166.761
;TYPE:Solid infill
;WIDTH:0.475105
G1 F1800
G1 X147.555 Y167.443 E0.04163
G1 X147.555 Y168.049 E0.02616
G1 X146.451 Y166.945 E0.06737
G1 X145.845 Y166.945 E0.02616
G1 X147.555 Y168.655 E0.10437
G1 X147.555 Y169.261 E0.02616
G1 X145.239 Y166.945 E0.14136
G1 X144.633 Y166.945 E0.02616
G1 X147.555 Y169.867 E0.17835
G1 X147.555 Y170.473 E0.02616
G1 X144.027 Y166.945 E0.21535
G1 X143.421 Y166.945 E0.02616
G1 X147.555 Y171.079 E0.25234
G1 X147.555 Y171.685 E0.02616
G1 X142.815 Y166.945 E0.28933
G1 X142.209 Y166.945 E0.02616
G1 X147.555 Y172.291 E0.32632
G1 X147.555 Y172.897 E0.02616
G1 X141.603 Y166.945 E0.36332
G1 X140.997 Y166.945 E0.02616
G1 X147.555 Y173.503 E0.40031
G1 X147.555 Y174.109 E0.02616
G1 X140.391 Y166.945 E0.4373
G1 X139.785 Y166.945 E0.02616
G1 X147.555 Y174.715 E0.47429
G1 X147.555 Y175.321 E0.02616
G1 X139.179 Y166.945 E0.51129
G1 X138.573 Y166.945 E0.02616
G1 X147.555 Y175.927 E0.54828
G1 X147.555 Y176.533 E0.02616
G1 X137.967 Y166.945 E0.58527
G1 X137.361 Y166.945 E0.02616
G1 X147.555 Y177.139 E0.62227
G1 X147.555 Y177.745 E0.02616
G1 X136.755 Y166.945 E0.65926
G1 X136.149 Y166.945 E0.02616
G1 X147.555 Y178.351 E0.69625
G1 X147.555 Y178.957 E0.02616
G1 X135.543 Y166.945 E0.73324
G1 X134.937 Y166.945 E0.02616
G1 X147.555 Y179.563 E0.77024
G1 X147.555 Y180.169 E0.02616
G1 X134.331 Y166.945 E0.80723
G1 X133.725 Y166.945 E0.02616
G1 X147.555 Y180.775 E0.84422
G1 X147.555 Y181.381 E0.02616
G1 X133.119 Y166.945 E0.88121
G1 X132.513 Y166.945 E0.02616
G1 X147.555 Y181.987 E0.91821
G1 X147.555 Y182.593 E0.02616
G1 X131.907 Y166.945 E0.9552
G1 X131.301 Y166.945 E0.02616
G1 X147.555 Y183.199 E0.99219
G1 X147.555 Y183.805 E0.02616
G1 X130.695 Y166.945 E1.02918
G1 X130.089 Y166.945 E0.02616
G1 X147.555 Y184.411 E1.06618
G1 X147.555 Y185.017 E0.02616
G1 X129.483 Y166.945 E1.10317
G1 X128.877 Y166.945 E0.02616
G1 X147.555 Y185.623 E1.14016
G1 X147.555 Y186.229 E0.02616
G1 X128.271 Y166.945 E1.17716
G1 X127.665 Y166.945 E0.02616
G1 X147.555 Y186.835 E1.21415
G1 X147.555 Y187.441 E0.02616
G1 X127.059 Y166.945 E1.25114
G1 X126.453 Y166.945 E0.02616
G1 X147.555 Y188.047 E1.28813
G1 X147.555 Y188.653 E0.02616
G1 X125.847 Y166.945 E1.32513
G1 X125.241 Y166.945 E0.02616
G1 X147.555 Y189.259 E1.36212
G1 X147.555 Y189.865 E0.02616
G1 X124.635 Y166.945 E1.39911
G1 X124.029 Y166.945 E0.02616
G1 X147.555 Y190.471 E1.4361
G1 X147.555 Y191.077 E0.02616
G1 X123.423 Y166.945 E1.4731
G1 X122.817 Y166.945 E0.02616
G1 X147.555 Y191.683 E1.51009
G1 X147.555 Y192.289 E0.02616
G1 X122.211 Y166.945 E1.54708
G1 X121.606 Y166.945 E0.02616
G1 X147.555 Y192.894 E1.58408
G1 X147.555 Y193.5 E0.02616
G1 X121 Y166.945 E1.62107
G1 X120.445 Y166.945 E0.02392
G1 X120.445 Y166.997 E0.00224
G1 X147.503 Y194.055 E1.65172
G1 X146.897 Y194.055 E0.02616
G1 X120.445 Y167.603 E1.61472
G1 X120.445 Y168.209 E0.02616
G1 X146.291 Y194.055 E1.57773
G1 X145.685 Y194.055 E0.02616
G1 X120.445 Y168.815 E1.54074
G1 X120.445 Y169.421 E0.02616
G1 X145.079 Y194.055 E1.50375
G1 X144.473 Y194.055 E0.02616
G1 X120.445 Y170.027 E1.46675
G1 X120.445 Y170.633 E0.02616
G1 X143.867 Y194.055 E1.42976
G1 X143.261 Y194.055 E0.02616
G1 X120.445 Y171.239 E1.39277
G1 X120.445 Y171.845 E0.02616
G1 X142.655 Y194.055 E1.35578
G1 X142.049 Y194.055 E0.02616
G1 X120.445 Y172.451 E1.31878
G1 X120.445 Y173.057 E0.02616
G1 X141.443 Y194.055 E1.28179
G1 X140.837 Y194.055 E0.02616
G1 X120.445 Y173.663 E1.2448
G1 X120.445 Y174.269 E0.02616
G1 X140.231 Y194.055 E1.2078
G1 X139.625 Y194.055 E0.02616
G1 X120.445 Y174.875 E1.17081
G1 X120.445 Y175.481 E0.02616
G1 X139.019 Y194.055 E1.13382
G1 X138.413 Y194.055 E0.02616
G1 X120.445 Y176.087 E1.09683
G1 X120.445 Y176.693 E0.02616
G1 X137.807 Y194.055 E1.05983
G1 X137.201 Y194.055 E0.02616
