; generated by SuperSlicer 2.3.56 on 2021-12-15 at 00:58:45 UTC


;
;

;
;
; 

; external perimeters extrusion width = 0.40mm
; perimeters extrusion width = 0.40mm
; infill extrusion width = 0.40mm
; solid infill extrusion width = 0.40mm
; top infill extrusion width = 0.40mm
; first layer extrusion width = 0.48mm


;TYPE:Custom
START_PRINT T_BED=70 T_EXTRUDER=235
M107
G21 ; set units to millimeters
G90 ; use absolute coordinates
M83 ; use relative distances for extrusion
M104 S235 ; set temperature
M109 S235 ; set temperature and wait for it to be reached
M190 S70 ; set bed temperature and wait for it to be reached
;LAYER_CHANGE
;Z:0.24
;HEIGHT:0.24
G1 Z0.240000 F12000.000
G1 E-1.50000 F3000.000
G1 X140.930 Y94.953 F12000.000
G1 E1.50000 F1800.000
;TYPE:Skirt
;WIDTH:0.48
G1 F600.000
G1 X141.430 Y94.297 E0.03524
G1 X141.808 Y93.939 E0.02229
G1 X142.482 Y93.451 E0.03556
G1 X143.256 Y93.106 E0.03625
G1 X144.511 Y92.864 E0.05463
G1 X184.304 Y92.857 E1.70137
G1 X185.226 Y92.959 E0.03966
G1 X185.772 Y93.118 E0.02434
G1 X186.593 Y93.496 E0.03863
G1 X187.424 Y94.141 E0.04498
G1 X188.015 Y94.872 E0.04019
G1 X188.288 Y95.358 E0.02382
G1 X188.605 Y96.204 E0.03864
G1 X188.741 Y97.207 E0.04328
G1 X188.743 Y213.704 E4.98088
G1 X188.550 Y214.988 E0.05551
G1 X188.068 Y216.051 E0.04991
G1 X187.568 Y216.706 E0.03524
G1 X187.189 Y217.064 E0.02229
G1 X186.515 Y217.551 E0.03556
G1 X185.736 Y217.897 E0.03642
G1 X184.473 Y218.137 E0.05498
G1 X144.688 Y218.143 E1.70103
G1 X143.412 Y217.950 E0.05517
G1 X142.231 Y217.385 E0.05600
G1 X141.562 Y216.845 E0.03676
G1 X141.030 Y216.190 E0.03608
G1 X140.759 Y215.744 E0.02229
G1 X140.443 Y214.966 E0.03592
G1 X140.258 Y213.765 E0.05196
G1 X140.257 Y97.296 E4.97968
G1 X140.450 Y96.012 E0.05551
G1 X140.905 Y95.007 E0.04717
G1 X141.285 Y95.192 F12000.000
G1 F600.000
G1 X142.074 Y94.274 E0.05175
G1 X142.697 Y93.821 E0.03290
G1 X143.417 Y93.503 E0.03369
G1 X144.554 Y93.291 E0.04942
G1 X184.304 Y93.286 E1.69953
G1 X185.146 Y93.380 E0.03623
G1 X185.607 Y93.513 E0.02055
G1 X186.361 Y93.856 E0.03540
G1 X187.126 Y94.449 E0.04137
G1 X187.664 Y95.117 E0.03667
G1 X187.895 Y95.530 E0.02024
G1 X188.189 Y96.304 E0.03541
G1 X188.313 Y97.231 E0.03997
G1 X188.314 Y213.704 E4.97985
G1 X188.143 Y214.856 E0.04980
G1 X187.715 Y215.808 E0.04463
G1 X186.923 Y216.728 E0.05190
G1 X186.300 Y217.180 E0.03290
G1 X185.579 Y217.498 E0.03369
G1 X184.432 Y217.710 E0.04989
G1 X144.693 Y217.714 E1.69906
G1 X143.544 Y217.543 E0.04965
G1 X142.480 Y217.037 E0.05036
G1 X141.864 Y216.541 E0.03385
G1 X141.373 Y215.933 E0.03338
G1 X140.849 Y214.830 E0.05222
G1 X140.686 Y213.747 E0.04682
G1 X140.686 Y97.296 E4.97891
G1 X140.857 Y96.144 E0.04980
G1 X141.261 Y95.247 E0.04207
G1 E-1.50000 F3000.000
G1 X144.099 Y96.953 F12000.000
G1 E1.50000 F1800.000
;TYPE:Internal perimeter
G1 F600.000
G1 X144.210 Y96.810 E0.00774
G1 X144.353 Y96.699 E0.00774
G1 X144.520 Y96.630 E0.00774
G1 X144.772 Y96.597 E0.01084
G1 X184.228 Y96.597 E1.68697
G1 X184.480 Y96.630 E0.01084
G1 X184.647 Y96.699 E0.00774
G1 X184.790 Y96.810 E0.00774
G1 X184.901 Y96.953 E0.00774
G1 X184.970 Y97.120 E0.00774
G1 X185.003 Y97.372 E0.01084
G1 X185.003 Y213.628 E4.97059
G1 X184.970 Y213.880 E0.01084
G1 X184.901 Y214.047 E0.00774
G1 X184.790 Y214.190 E0.00774
G1 X184.647 Y214.301 E0.00774
G1 X184.479 Y214.370 E0.00774
G1 X184.228 Y214.403 E0.01084
G1 X144.772 Y214.403 E1.68697
G1 X144.520 Y214.370 E0.01084
G1 X144.353 Y214.301 E0.00774
G1 X144.210 Y214.190 E0.00774
G1 X144.099 Y214.047 E0.00774
G1 X144.030 Y213.880 E0.00774
G1 X143.997 Y213.628 E0.01084
G1 X143.997 Y97.372 E4.97059
G1 X144.030 Y97.120 E0.01084
G1 X144.076 Y97.009 E0.00518
G1 X143.681 Y96.845 F12000.000
G1 F600.000
G1 X143.725 Y96.737 E0.00498
G1 X143.904 Y96.504 E0.01256
G1 X144.137 Y96.325 E0.01256
G1 X144.409 Y96.213 E0.01256
G1 X144.744 Y96.168 E0.01445
G1 X184.256 Y96.168 E1.68937
G1 X184.591 Y96.213 E0.01445
G1 X184.863 Y96.325 E0.01256
G1 X185.096 Y96.504 E0.01256
G1 X185.275 Y96.737 E0.01256
G1 X185.387 Y97.009 E0.01256
G1 X185.432 Y97.344 E0.01445
G1 X185.432 Y213.656 E4.97299
G1 X185.387 Y213.991 E0.01445
G1 X185.275 Y214.263 E0.01256
G1 X185.096 Y214.496 E0.01256
G1 X184.863 Y214.675 E0.01256
G1 X184.591 Y214.787 E0.01256
G1 X184.256 Y214.832 E0.01445
G1 X144.744 Y214.832 E1.68937
G1 X144.409 Y214.787 E0.01445
G1 X144.137 Y214.675 E0.01256
G1 X143.904 Y214.496 E0.01256
G1 X143.725 Y214.263 E0.01256
G1 X143.613 Y213.991 E0.01256
G1 X143.568 Y213.656 E0.01445
G1 X143.568 Y97.344 E4.97299
G1 X143.613 Y97.009 E0.01445
G1 X143.658 Y96.900 E0.00502
G1 X143.262 Y96.736 F12000.000
;TYPE:External perimeter
G1 F600.000
G1 X143.351 Y96.521 E0.00995
G1 X143.598 Y96.198 E0.01739
G1 X143.921 Y95.951 E0.01739
G1 X144.297 Y95.795 E0.01739
G1 X144.716 Y95.740 E0.01807
G1 X184.284 Y95.740 E1.69177
G1 X184.703 Y95.795 E0.01807
G1 X185.079 Y95.951 E0.01739
G1 X185.402 Y96.198 E0.01739
G1 X185.649 Y96.521 E0.01739
G1 X185.805 Y96.897 E0.01739
G1 X185.860 Y97.316 E0.01807
G1 X185.860 Y213.684 E4.97539
G1 X185.805 Y214.103 E0.01807
G1 X185.649 Y214.479 E0.01739
G1 X185.402 Y214.802 E0.01739
G1 X185.079 Y215.049 E0.01739
G1 X184.703 Y215.205 E0.01739
G1 X184.284 Y215.260 E0.01807
G1 X144.716 Y215.260 E1.69177
G1 X144.297 Y215.205 E0.01807
G1 X143.921 Y215.049 E0.01739
G1 X143.598 Y214.802 E0.01739
G1 X143.351 Y214.479 E0.01739
G1 X143.195 Y214.103 E0.01739
G1 X143.140 Y213.684 E0.01807
G1 X143.140 Y97.316 E4.97539
G1 X143.195 Y96.897 E0.01807
G1 X143.239 Y96.792 E0.00487
G1 X143.493 Y96.706 F12000.000
G1 E-1.50000 F3000.000
G1 X183.635 Y96.747 F12000.000
G1 E1.50000 F1800.000
;TYPE:Solid infill
;WIDTH:0.480714
G1 X184.660 Y97.772 E0.06206
G1 X184.660 Y98.378 E0.02595
G1 X183.222 Y96.940 E0.08708
G1 X182.616 Y96.940 E0.02595
G1 X184.660 Y98.984 E0.12377
G1 X184.660 Y99.590 E0.02595
G1 X182.010 Y96.940 E0.16047
G1 X181.404 Y96.940 E0.02595
G1 X184.660 Y100.196 E0.19717
G1 X184.660 Y100.802 E0.02595
G1 X180.798 Y96.940 E0.23386
G1 X180.192 Y96.940 E0.02595
G1 X184.660 Y101.408 E0.27056
G1 X184.660 Y102.014 E0.02595
G1 X179.586 Y96.940 E0.30725
G1 X178.980 Y96.940 E0.02595
G1 X184.660 Y102.620 E0.34395
G1 X184.660 Y103.226 E0.02595
G1 X178.374 Y96.940 E0.38064
G1 X177.768 Y96.940 E0.02595
G1 X184.660 Y103.832 E0.41734
G1 X184.660 Y104.438 E0.02595
G1 X177.162 Y96.940 E0.45403
G1 X176.556 Y96.940 E0.02595
G1 X184.660 Y105.044 E0.49073
G1 X184.660 Y105.650 E0.02595
G1 X175.950 Y96.940 E0.52743
G1 X175.344 Y96.940 E0.02595
G1 X184.660 Y106.256 E0.56412
G1 X184.660 Y106.862 E0.02595
G1 X174.738 Y96.940 E0.60082
G1 X174.132 Y96.940 E0.02595
G1 X184.660 Y107.468 E0.63751
G1 X184.660 Y108.074 E0.02595
G1 X173.526 Y96.940 E0.67421
G1 X172.921 Y96.940 E0.02595
G1 X184.660 Y108.680 E0.71090
G1 X184.660 Y109.285 E0.02595
G1 X172.315 Y96.940 E0.74760
G1 X171.709 Y96.940 E0.02595
G1 X184.660 Y109.891 E0.78429
G1 X184.660 Y110.497 E0.02595
G1 X171.103 Y96.940 E0.82099
G1 X170.497 Y96.940 E0.02595
G1 X184.660 Y111.103 E0.85769
G1 X184.660 Y111.709 E0.02595
G1 X169.891 Y96.940 E0.89438
G1 X169.285 Y96.940 E0.02595
G1 X184.660 Y112.315 E0.93108
G1 X184.660 Y112.921 E0.02595
G1 X168.679 Y96.940 E0.96777
G1 X168.073 Y96.940 E0.02595
G1 X184.660 Y113.527 E1.00447
G1 X184.660 Y114.133 E0.02595
G1 X167.467 Y96.940 E1.04116
G1 X166.861 Y96.940 E0.02595
G1 X184.660 Y114.739 E1.07786
G1 X184.660 Y115.345 E0.02595
G1 X166.255 Y96.940 E1.11455
G1 X165.649 Y96.940 E0.02595
G1 X184.660 Y115.951 E1.15125
G1 X184.660 Y116.557 E0.02595
G1 X165.043 Y96.940 E1.18795
G1 X164.437 Y96.940 E0.02595
G1 X184.660 Y117.163 E1.22464
G1 X184.660 Y117.769 E0.02595
G1 X163.831 Y96.940 E1.26134
G1 X163.225 Y96.940 E0.02595
G1 X184.660 Y118.375 E1.29803
G1 X184.660 Y118.981 E0.02595
G1 X162.619 Y96.940 E1.33473
G1 X162.013 Y96.940 E0.02595
G1 X184.660 Y119.587 E1.37142
G1 X184.660 Y120.193 E0.02595
G1 X161.407 Y96.940 E1.40812
G1 X160.801 Y96.940 E0.02595
G1 X184.660 Y120.799 E1.44481
G1 X184.660 Y121.405 E0.02595
G1 X160.195 Y96.940 E1.48151
G1 X159.589 Y96.940 E0.02595
G1 X184.660 Y122.011 E1.51820
G1 X184.660 Y122.617 E0.02595
G1 X158.983 Y96.940 E1.55490
G1 X158.377 Y96.940 E0.02595
G1 X184.660 Y123.223 E1.59160
G1 X184.660 Y123.829 E0.02595
G1 X157.771 Y96.940 E1.62829
G1 X157.165 Y96.940 E0.02595
G1 X184.660 Y124.435 E1.66499
G1 X184.660 Y125.041 E0.02595
G1 X156.559 Y96.940 E1.70168
G1 X155.953 Y96.940 E0.02595
G1 X184.660 Y125.647 E1.73838
G1 X184.660 Y126.253 E0.02595
G1 X155.347 Y96.940 E1.77507
G1 X154.741 Y96.940 E0.02595
G1 X184.660 Y126.859 E1.81177
G1 X184.660 Y127.465 E0.02595
G1 X154.135 Y96.940 E1.84846
G1 X153.529 Y96.940 E0.02595
G1 X184.660 Y128.071 E1.88516
G1 X184.660 Y128.677 E0.02595
G1 X152.923 Y96.940 E1.92186
G1 X152.317 Y96.940 E0.02595
G1 X184.660 Y129.283 E1.95855
G1 X184.660 Y129.889 E0.02595
G1 X151.711 Y96.940 E1.99525
G1 X151.105 Y96.940 E0.02595
G1 X184.660 Y130.495 E2.03194
G1 X184.660 Y131.101 E0.02595
G1 X150.499 Y96.940 E2.06864
G1 X149.893 Y96.940 E0.02595
G1 X184.660 Y131.707 E2.10533
G1 X184.660 Y132.313 E0.02595
G1 X149.287 Y96.940 E2.14203
G1 X148.681 Y96.940 E0.02595
G1 X184.660 Y132.919 E2.17872
G1 X184.660 Y133.525 E0.02595
G1 X148.075 Y96.940 E2.21542
G1 X147.469 Y96.940 E0.02595
G1 X184.660 Y134.131 E2.25212
G1 X184.660 Y134.737 E0.02595
G1 X146.863 Y96.940 E2.28881
G1 X146.257 Y96.940 E0.02595
G1 X184.660 Y135.343 E2.32551
G1 X184.660 Y135.949 E0.02595
G1 X145.651 Y96.940 E2.36220
G1 X145.045 Y96.940 E0.02595
G1 X184.660 Y136.555 E2.39890
G1 X184.660 Y137.161 E0.02595
G1 X144.510 Y97.011 E2.43129
G1 X144.454 Y97.054 E0.00304
G1 X144.399 Y97.126 E0.00389
G1 X144.364 Y97.210 E0.00389
G1 X144.340 Y97.394 E0.00796
G1 X144.340 Y97.446 E0.00222
G1 X184.660 Y137.767 E2.44162
G1 X184.660 Y138.373 E0.02595
G1 X144.340 Y98.052 E2.44162
G1 X144.340 Y98.658 E0.02595
G1 X184.660 Y138.979 E2.44162
G1 X184.660 Y139.585 E0.02595
G1 X144.340 Y99.264 E2.44162
G1 X144.340 Y99.870 E0.02595
G1 X184.660 Y140.191 E2.44162
G1 X184.660 Y140.797 E0.02595
G1 X144.340 Y100.476 E2.44162
G1 X144.340 Y101.082 E0.02595
G1 X184.660 Y141.403 E2.44162
G1 X184.660 Y142.009 E0.02595
G1 X144.340 Y101.688 E2.44162
G1 X144.340 Y102.294 E0.02595
G1 X184.660 Y142.615 E2.44162
G1 X184.660 Y143.221 E0.02595
G1 X144.340 Y102.900 E2.44162
G1 X144.340 Y103.506 E0.02595
G1 X184.660 Y143.827 E2.44162
G1 X184.660 Y144.433 E0.02595
G1 X144.340 Y104.112 E2.44162
G1 X144.340 Y104.718 E0.02595
G1 X184.660 Y145.039 E2.44162
G1 X184.660 Y145.644 E0.02595
G1 X144.340 Y105.324 E2.44162
G1 X144.340 Y105.930 E0.02595
G1 X184.660 Y146.250 E2.44162
G1 X184.660 Y146.856 E0.02595
G1 X144.340 Y106.536 E2.44162
G1 X144.340 Y107.142 E0.02595
G1 X184.660 Y147.462 E2.44162
G1 X184.660 Y148.068 E0.02595
G1 X144.340 Y107.748 E2.44162
G1 X144.340 Y108.354 E0.02595
G1 X184.660 Y148.674 E2.44162
G1 X184.660 Y149.280 E0.02595
G1 X144.340 Y108.960 E2.44162
G1 X144.340 Y109.566 E0.02595
G1 X184.660 Y149.886 E2.44162
G1 X184.660 Y150.492 E0.02595
G1 X144.340 Y110.172 E2.44162
G1 X144.340 Y110.778 E0.02595
G1 X184.660 Y151.098 E2.44162
G1 X184.660 Y151.704 E0.02595
G1 X144.340 Y111.384 E2.44162
G1 X144.340 Y111.990 E0.02595
G1 X184.660 Y152.310 E2.44162
G1 X184.660 Y152.916 E0.02595
G1 X144.340 Y112.596 E2.44162
G1 X144.340 Y113.202 E0.02595
G1 X184.660 Y153.522 E2.44162
G1 X184.660 Y154.128 E0.02595
G1 X144.340 Y113.808 E2.44162
G1 X144.340 Y114.414 E0.02595
G1 X184.660 Y154.734 E2.44162
G1 X184.660 Y155.340 E0.02595
G1 X144.340 Y115.020 E2.44162
G1 X144.340 Y115.626 E0.02595
G1 X184.660 Y155.946 E2.44162
G1 X184.660 Y156.552 E0.02595
G1 X144.340 Y116.232 E2.44162
G1 X144.340 Y116.838 E0.02595
G1 X184.660 Y157.158 E2.44162
G1 X184.660 Y157.764 E0.02595
G1 X144.340 Y117.444 E2.44162
G1 X144.340 Y118.050 E0.02595
G1 X184.660 Y158.370 E2.44162
G1 X184.660 Y158.976 E0.02595
G1 X144.340 Y118.656 E2.44162
G1 X144.340 Y119.262 E0.02595
G1 X184.660 Y159.582 E2.44162
G1 X184.660 Y160.188 E0.02595
G1 X144.340 Y119.868 E2.44162
G1 X144.340 Y120.474 E0.02595
G1 X184.660 Y160.794 E2.44162
G1 X184.660 Y161.400 E0.02595
G1 X144.340 Y121.080 E2.44162
G1 X144.340 Y121.686 E0.02595
G1 X184.660 Y162.006 E2.44162
G1 X184.660 Y162.612 E0.02595
G1 X144.340 Y122.292 E2.44162
G1 X144.340 Y122.898 E0.02595
G1 X184.660 Y163.218 E2.44162
G1 X184.660 Y163.824 E0.02595
G1 X144.340 Y123.504 E2.44162
G1 X144.340 Y124.110 E0.02595
G1 X184.660 Y164.430 E2.44162
G1 X184.660 Y165.036 E0.02595
G1 X144.340 Y124.716 E2.44162
G1 X144.340 Y125.321 E0.02595
G1 X184.660 Y165.642 E2.44162
G1 X184.660 Y166.248 E0.02595
G1 X144.340 Y125.927 E2.44162
G1 X144.340 Y126.533 E0.02595
G1 X184.660 Y166.854 E2.44162
G1 X184.660 Y167.460 E0.02595
G1 X144.340 Y127.139 E2.44162
G1 X144.340 Y127.745 E0.02595
G1 X184.660 Y168.066 E2.44162
G1 X184.660 Y168.672 E0.02595
G1 X144.340 Y128.351 E2.44162
G1 X144.340 Y128.957 E0.02595
G1 X184.660 Y169.278 E2.44162
G1 X184.660 Y169.884 E0.02595
G1 X144.340 Y129.563 E2.44162
G1 X144.340 Y130.169 E0.02595
G1 X184.660 Y170.490 E2.44162
G1 X184.660 Y171.096 E0.02595
G1 X144.340 Y130.775 E2.44162
G1 X144.340 Y131.381 E0.02595
G1 X184.660 Y171.702 E2.44162
G1 X184.660 Y172.308 E0.02595
G1 X144.340 Y131.987 E2.44162
G1 X144.340 Y132.593 E0.02595
G1 X184.660 Y172.914 E2.44162
G1 X184.660 Y173.520 E0.02595
G1 X144.340 Y133.199 E2.44162
G1 X144.340 Y133.805 E0.02595
G1 X184.660 Y174.126 E2.44162
G1 X184.660 Y174.732 E0.02595
G1 X144.340 Y134.411 E2.44162
G1 X144.340 Y135.017 E0.02595
G1 X184.660 Y175.338 E2.44162
G1 X184.660 Y175.944 E0.02595
G1 X144.340 Y135.623 E2.44162
G1 X144.340 Y136.229 E0.02595
G1 X184.660 Y176.550 E2.44162
G1 X184.660 Y177.156 E0.02595
G1 X144.340 Y136.835 E2.44162
G1 X144.340 Y137.441 E0.02595
G1 X184.660 Y177.762 E2.44162
G1 X184.660 Y178.368 E0.02595
G1 X144.340 Y138.047 E2.44162
G1 X144.340 Y138.653 E0.02595
G1 X184.660 Y178.974 E2.44162
G1 X184.660 Y179.580 E0.02595
G1 X144.340 Y139.259 E2.44162
G1 X144.340 Y139.865 E0.02595
G1 X184.660 Y180.186 E2.44162
G1 X184.660 Y180.792 E0.02595
G1 X144.340 Y140.471 E2.44162
G1 X144.340 Y141.077 E0.02595
G1 X184.660 Y181.398 E2.44162
G1 X184.660 Y182.003 E0.02595
G1 X144.340 Y141.683 E2.44162
G1 X144.340 Y142.289 E0.02595
G1 X184.660 Y182.609 E2.44162
G1 X184.660 Y183.215 E0.02595
G1 X144.340 Y142.895 E2.44162
G1 X144.340 Y143.501 E0.02595
G1 X184.660 Y183.821 E2.44162
G1 X184.660 Y184.427 E0.02595
G1 X144.340 Y144.107 E2.44162
G1 X144.340 Y144.713 E0.02595
G1 X184.660 Y185.033 E2.44162
G1 X184.660 Y185.639 E0.02595
G1 X144.340 Y145.319 E2.44162
G1 X144.340 Y145.925 E0.02595
G1 X184.660 Y186.245 E2.44162
G1 X184.660 Y186.851 E0.02595
G1 X144.340 Y146.531 E2.44162
G1 X144.340 Y147.137 E0.02595
G1 X184.660 Y187.457 E2.44162
G1 X184.660 Y188.063 E0.02595
G1 X144.340 Y147.743 E2.44162
G1 X144.340 Y148.349 E0.02595
G1 X184.660 Y188.669 E2.44162
G1 X184.660 Y189.275 E0.02595
G1 X144.340 Y148.955 E2.44162
G1 X144.340 Y149.561 E0.02595
G1 X184.660 Y189.881 E2.44162
G1 X184.660 Y190.487 E0.02595
G1 X144.340 Y150.167 E2.44162
G1 X144.340 Y150.773 E0.02595
G1 X184.660 Y191.093 E2.44162
G1 X184.660 Y191.699 E0.02595
G1 X144.340 Y151.379 E2.44162
G1 X144.340 Y151.985 E0.02595
G1 X184.660 Y192.305 E2.44162
G1 X184.660 Y192.911 E0.02595
G1 X144.340 Y152.591 E2.44162
G1 X144.340 Y153.197 E0.02595
G1 X184.660 Y193.517 E2.44162
G1 X184.660 Y194.123 E0.02595
G1 X144.340 Y153.803 E2.44162
G1 X144.340 Y154.409 E0.02595
G1 X184.660 Y194.729 E2.44162
G1 X184.660 Y195.335 E0.02595
G1 X144.340 Y155.015 E2.44162
G1 X144.340 Y155.621 E0.02595
G1 X184.660 Y195.941 E2.44162
G1 X184.660 Y196.547 E0.02595
G1 X144.340 Y156.227 E2.44162
G1 X144.340 Y156.833 E0.02595
G1 X184.660 Y197.153 E2.44162
G1 X184.660 Y197.759 E0.02595
G1 X144.340 Y157.439 E2.44162
G1 X144.340 Y158.045 E0.02595
G1 X184.660 Y198.365 E2.44162
G1 X184.660 Y198.971 E0.02595
G1 X144.340 Y158.651 E2.44162
G1 X144.340 Y159.257 E0.02595
G1 X184.660 Y199.577 E2.44162
G1 X184.660 Y200.183 E0.02595
G1 X144.340 Y159.863 E2.44162
G1 X144.340 Y160.469 E0.02595
G1 X184.660 Y200.789 E2.44162
G1 X184.660 Y201.395 E0.02595
G1 X144.340 Y161.075 E2.44162
G1 X144.340 Y161.681 E0.02595
G1 X184.660 Y202.001 E2.44162
