; generated by SuperSlicer 2.4 on 2022-05-28 at 01:10:01 UTC


;
;

;
;
; 

; external perimeters extrusion width = 0.40mm
; perimeters extrusion width = 0.40mm
; infill extrusion width = 0.72mm
; solid infill extrusion width = 0.56mm
; top infill extrusion width = 0.40mm
; first layer extrusion width = 0.48mm

; external perimeters extrusion width = 0.40mm
; perimeters extrusion width = 0.40mm
; infill extrusion width = 0.72mm
; solid infill extrusion width = 0.56mm
; top infill extrusion width = 0.40mm
; first layer extrusion width = 0.48mm

; object:{"name":"Deck_Mate_Wall_Mount_01","id":"Deck_Mate_Wall_Mount_01.stl id:0 copy 0","object_center":[124.016676,143.977426,0.000000],"boundingbox_center":[124.016676,143.977426,8.375000],"boundingbox_size":[55.999992,57.206039,16.750000]}
; object:{"name":"Deck_Mate_01","id":"Deck_Mate_01.stl id:1 copy 0","object_center":[190.630301,165.000001,0.000000],"boundingbox_center":[190.630301,165.000001,12.461916],"boundingbox_size":[86.706039,122.810043,24.923832]}
; plater:{"center":[165.000000,165.000001,0.000000],"boundingbox_center":[165.000000,165.000001,12.461916],"boundingbox_size":[137.966641,122.810043,24.923832]}

M73 P0 R77
;TYPE:Custom
START_PRINT T_BED=60 T_EXTRUDER=200
M107
G21 ; set units to millimeters
G90 ; use absolute coordinates
M83 ; use relative distances for extrusion
; Filament gcode
M109 S200 ; set temperature and wait for it to be reached
M190 S60 ; set bed temperature and wait for it to be reached
M107
;LAYER_CHANGE
;Z:0.24
;HEIGHT:0.24
G1 Z0.24 F9000
G92 E0
M73 P0 R76
G1 E-0.8 F3000
M204 S1000
G1 X106.592 Y124.22 F9000
G1 E0.8 F1800
;TYPE:Skirt
;WIDTH:0.52
G1 X105.52 Y125.191 E0.06763
G1 X104.632 Y126.253 E0.06473
G1 X103.975 Y127.285 E0.05716
G1 X103.324 Y128.64 E0.07027
G1 X102.858 Y129.997 E0.06708
G1 X102.344 Y132.641 E0.12591
G1 X102.199 Y134.454 E0.085
G1 X102.16 Y136.831 E0.11115
G1 X102.16 Y151.146 E0.66916
G1 X102.226 Y154.02 E0.1344
G1 X102.405 Y155.781 E0.08273
G1 X102.69 Y157.303 E0.07241
G1 X103.069 Y158.628 E0.06441
G1 X103.595 Y159.936 E0.06591
G1 X104.625 Y161.697 E0.09539
G1 X146.813 Y222.807 E3.47131
G1 X148.19 Y224.008 E0.08541
G1 X149.852 Y224.405 E0.07988
G1 X154.175 Y224.411 E0.20206
G1 X231.416 Y224.405 E3.61076
G1 X232.913 Y224.083 E0.07159
G1 X234.269 Y223.044 E0.07988
G1 X235.015 Y221.507 E0.07988
G1 X235.147 Y220.686 E0.03887
G1 X235.203 Y219.599 E0.05087
G1 X235.175 Y201.799 E0.83209
G1 X235.027 Y199.801 E0.09365
G1 X234.665 Y197.754 E0.09719
G1 X234.019 Y195.69 E0.10109
G1 X205.388 Y112.337 E4.11996
G1 X204.874 Y111.352 E0.05195
G1 X203.573 Y110.244 E0.07988
G1 X201.913 Y109.839 E0.07988
G1 X179.501 Y109.793 E1.04768
G1 X178.713 Y109.852 E0.03693
G1 X111.606 Y121.977 E3.18783
G1 X110.319 Y122.312 E0.06215
G1 X109.053 Y122.776 E0.06303
G1 X107.47 Y123.6 E0.08345
G1 X106.592 Y124.22 E0.05022
G1 X106.896 Y124.574 F9000
G1 F1800
G1 X105.871 Y125.498 E0.06451
G1 X105.019 Y126.513 E0.06195
G1 X104.391 Y127.495 E0.05447
G1 X103.764 Y128.796 E0.06755
G1 X103.396 Y129.83 E0.05129
G1 X103.067 Y131.104 E0.06152
G1 X102.808 Y132.68 E0.07466
G1 X102.665 Y134.461 E0.08353
G1 X102.626 Y136.831 E0.11079
G1 X102.626 Y151.143 E0.66902
G1 X102.692 Y154.001 E0.13367
G1 X102.864 Y155.699 E0.07978
G1 X103.14 Y157.181 E0.07046
G1 X103.504 Y158.462 E0.06224
G1 X104.009 Y159.72 E0.06337
G1 X105.009 Y161.432 E0.09271
G1 X147.197 Y222.542 E3.47131
G1 X148.307 Y223.543 E0.06985
G1 X149.853 Y223.939 E0.0746
G1 X221.764 Y223.971 E3.36159
G1 X231.414 Y223.939 E0.45112
G1 X232.527 Y223.737 E0.05288
G1 X233.84 Y222.83 E0.0746
G1 X234.559 Y221.406 E0.0746
G1 X234.682 Y220.66 E0.03534
G1 X234.736 Y219.599 E0.04964
G1 X234.708 Y201.806 E0.83177
G1 X234.562 Y199.838 E0.09228
G1 X234.207 Y197.84 E0.09485
G1 X233.578 Y195.842 E0.09792
G1 X204.947 Y112.488 E4.11996
G1 X203.454 Y110.709 E0.1086
G1 X201.91 Y110.305 E0.0746
G1 X179.501 Y110.259 E1.04754
M73 P1 R76
G1 X178.796 Y110.311 E0.03304
G1 X111.689 Y122.436 E3.18783
G1 X110.442 Y122.762 E0.06026
G1 X109.22 Y123.212 E0.06086
G1 X107.73 Y123.987 E0.07853
G1 X106.896 Y124.574 E0.04765
G1 E-0.8 F3000
; printing object Deck_Mate_Wall_Mount_01.stl id:0 copy 0
; acceleration to travel
M204 S3000
G1 X129.305 Y138.831 F9000
; decel to extrusion
M204 S1000
G1 X136.775 Y143.583
; end travel
G1 E0.8 F1800
;TYPE:Internal perimeter
;WIDTH:0.48
G1 X136.727 Y143.631 E0.0029
G1 X136.403 Y144.266 E0.03047
G1 X136.292 Y144.97 E0.03047
G1 X136.403 Y145.674 E0.03047
G1 X136.727 Y146.309 E0.03047
G1 X137.231 Y146.813 E0.03047
G1 X137.866 Y147.137 E0.03047
G1 X138.57 Y147.248 E0.03047
G1 X139.274 Y147.137 E0.03047
G1 X139.909 Y146.813 E0.03047
G1 X140.413 Y146.309 E0.03047
G1 X140.736 Y145.674 E0.03047
G1 X140.848 Y144.97 E0.03047
G1 X140.736 Y144.266 E0.03047
G1 X140.413 Y143.631 E0.03047
G1 X139.909 Y143.127 E0.03047
G1 X139.274 Y142.803 E0.03047
G1 X138.57 Y142.692 E0.03047
G1 X137.866 Y142.803 E0.03047
G1 X137.231 Y143.127 E0.03047
G1 X136.775 Y143.583 E0.02757
G1 X137.078 Y143.886 F9000
;TYPE:External perimeter
G1 F1800
G1 X136.816 Y144.4 E0.02467
G1 X136.725 Y144.97 E0.02467
G1 X136.816 Y145.54 E0.02467
G1 X137.078 Y146.054 E0.02467
G1 X137.486 Y146.462 E0.02467
G1 X138 Y146.724 E0.02467
G1 X138.57 Y146.814 E0.02467
G1 X139.14 Y146.724 E0.02467
G1 X139.654 Y146.462 E0.02467
G1 X140.062 Y146.054 E0.02467
G1 X140.324 Y145.54 E0.02467
G1 X140.414 Y144.97 E0.02467
G1 X140.324 Y144.4 E0.02467
G1 X140.062 Y143.886 E0.02467
G1 X139.654 Y143.478 E0.02467
G1 X139.14 Y143.216 E0.02467
G1 X138.57 Y143.126 E0.02467
G1 X138 Y143.216 E0.02467
G1 X137.486 Y143.478 E0.02467
G1 X137.078 Y143.886 E0.02467
;WIPE_START
M204 S4000
G1 X136.678 Y143.865 F9000
;WIPE_END
; acceleration to travel
M204 S3000
G1 X128.756 Y138.018
; decel to extrusion
M204 S1000
G1 X126.115 Y136.07
; end travel
;TYPE:Internal perimeter
G1 F1800
G1 X126.211 Y135.974 E0.0058
G1 X126.596 Y135.218 E0.03628
G1 X126.729 Y134.38 E0.03628
G1 X126.596 Y133.542 E0.03628
G1 X126.211 Y132.786 E0.03628
G1 X125.611 Y132.186 E0.03628
G1 X124.855 Y131.8 E0.03628
G1 X124.017 Y131.668 E0.03628
G1 X123.652 Y131.725 E0.01577
G1 X123.179 Y131.8 E0.02051
G1 X122.423 Y132.186 E0.03628
G1 X121.823 Y132.786 E0.03628
G1 X121.438 Y133.542 E0.03628
G1 X121.305 Y134.38 E0.03628
G1 X121.438 Y135.218 E0.03628
G1 X121.823 Y135.974 E0.03628
G1 X122.423 Y136.574 E0.03628
G1 X123.179 Y136.959 E0.03628
G1 X124.017 Y137.092 E0.03628
G1 X124.855 Y136.959 E0.03628
G1 X125.611 Y136.574 E0.03628
G1 X126.115 Y136.07 E0.03047
G1 X125.812 Y135.767 F9000
G1 F1800
G1 X125.86 Y135.719 E0.0029
G1 X126.183 Y135.084 E0.03047
G1 X126.295 Y134.38 E0.03047
G1 X126.183 Y133.676 E0.03047
G1 X125.86 Y133.041 E0.03047
G1 X125.356 Y132.537 E0.03047
G1 X124.721 Y132.213 E0.03047
G1 X124.017 Y132.102 E0.03047
G1 X123.719 Y132.149 E0.01287
G1 X123.313 Y132.213 E0.0176
G1 X122.678 Y132.537 E0.03047
G1 X122.174 Y133.041 E0.03047
G1 X121.85 Y133.676 E0.03047
G1 X121.739 Y134.38 E0.03047
G1 X121.85 Y135.084 E0.03047
G1 X122.174 Y135.719 E0.03047
G1 X122.678 Y136.223 E0.03047
G1 X123.313 Y136.546 E0.03047
G1 X124.017 Y136.658 E0.03047
G1 X124.721 Y136.546 E0.03047
G1 X125.356 Y136.223 E0.03047
G1 X125.812 Y135.767 E0.02757
G1 X125.509 Y135.464 F9000
;TYPE:External perimeter
G1 F1800
G1 X125.771 Y134.95 E0.02467
G1 X125.861 Y134.38 E0.02467
G1 X125.771 Y133.81 E0.02467
G1 X125.509 Y133.296 E0.02467
G1 X125.101 Y132.888 E0.02467
G1 X124.587 Y132.626 E0.02467
G1 X124.017 Y132.535 E0.02467
G1 X123.786 Y132.572 E0.00997
G1 X123.447 Y132.626 E0.0147
G1 X122.933 Y132.888 E0.02467
G1 X122.525 Y133.296 E0.02467
G1 X122.263 Y133.81 E0.02467
G1 X122.172 Y134.38 E0.02467
G1 X122.263 Y134.95 E0.02467
G1 X122.525 Y135.464 E0.02467
G1 X122.933 Y135.872 E0.02467
G1 X123.447 Y136.134 E0.02467
G1 X124.017 Y136.224 E0.02467
G1 X124.587 Y136.134 E0.02467
G1 X125.101 Y135.872 E0.02467
G1 X125.509 Y135.464 E0.02467
;WIPE_START
M204 S4000
G1 X125.908 Y135.485 F9000
;WIPE_END
; acceleration to travel
M204 S3000
G1 X115.266 Y141.494
; decel to extrusion
M204 S1000
G1 X111.719 Y143.497
; end travel
;TYPE:Internal perimeter
G1 F1800
G1 X111.658 Y143.376 E0.0058
G1 X111.058 Y142.776 E0.03628
G1 X110.302 Y142.391 E0.03628
G1 X109.464 Y142.258 E0.03628
G1 X108.943 Y142.341 E0.02253
G1 X108.626 Y142.391 E0.01375
G1 X107.87 Y142.776 E0.03628
G1 X107.27 Y143.376 E0.03628
G1 X107.219 Y143.475 E0.00475
G1 X106.956 Y143.412 E0.01155
G1 X106.956 Y136.84 E0.28098
G1 X106.994 Y134.571 E0.09704
G1 X107.119 Y133.091 E0.06348
G1 X107.327 Y131.881 E0.05249
G1 X107.493 Y131.234 E0.02858
G1 X107.821 Y130.312 E0.04184
G1 X108.228 Y129.503 E0.03872
G1 X108.578 Y128.981 E0.02686
G1 X109.081 Y128.405 E0.03269
G1 X109.667 Y127.902 E0.03303
G1 X110.093 Y127.616 E0.02193
G1 X110.825 Y127.234 E0.03531
G1 X111.63 Y126.927 E0.03684
G1 X112.504 Y126.689 E0.03873
G1 X113.599 Y126.494 E0.04757
G1 X114.802 Y126.375 E0.05167
G1 X116.094 Y126.323 E0.05529
G1 X130.551 Y126.314 E0.61812
G1 X132.376 Y126.345 E0.07801
G1 X132.795 Y126.352 E0.01791
G1 X134.3 Y126.477 E0.0646
G1 X135.51 Y126.685 E0.05246
G1 X136.157 Y126.85 E0.02857
G1 X137.088 Y127.182 E0.04224
G1 X137.887 Y127.585 E0.0383
G1 X138.41 Y127.935 E0.02688
G1 X138.986 Y128.438 E0.03269
G1 X139.489 Y129.025 E0.03303
G1 X139.775 Y129.451 E0.02193
G1 X140.157 Y130.183 E0.03532
G1 X140.465 Y130.988 E0.03684
G1 X140.702 Y131.862 E0.03872
G1 X140.899 Y132.97 E0.04813
G1 X141.016 Y134.159 E0.0511
G1 X141.068 Y135.452 E0.0553
G1 X141.073 Y143.685 E0.35201
G1 X140.164 Y142.776 E0.05495
G1 X139.408 Y142.391 E0.03628
G1 X138.57 Y142.258 E0.03628
G1 X137.732 Y142.391 E0.03628
G1 X136.976 Y142.776 E0.03628
G1 X136.376 Y143.376 E0.03628
G1 X135.991 Y144.132 E0.03628
G1 X135.858 Y144.97 E0.03628
G1 X135.991 Y145.808 E0.03628
G1 X136.376 Y146.564 E0.03628
G1 X136.976 Y147.164 E0.03628
G1 X137.732 Y147.549 E0.03628
G1 X138.57 Y147.682 E0.03628
G1 X139.408 Y147.549 E0.03628
G1 X140.164 Y147.164 E0.03628
G1 X141.074 Y146.254 E0.05505
G1 X141.077 Y151.115 E0.20785
G1 X141.039 Y153.372 E0.09649
G1 X140.914 Y154.864 E0.06403
G1 X140.706 Y156.073 E0.05248
G1 X140.541 Y156.721 E0.02858
G1 X140.213 Y157.643 E0.04183
G1 X139.805 Y158.452 E0.03872
G1 X139.456 Y158.974 E0.02686
G1 X138.953 Y159.549 E0.03269
G1 X138.366 Y160.053 E0.03303
G1 X137.941 Y160.338 E0.02193
G1 X137.208 Y160.721 E0.03531
G1 X136.404 Y161.028 E0.03684
G1 X135.53 Y161.266 E0.03872
G1 X134.421 Y161.462 E0.04813
G1 X133.232 Y161.58 E0.0511
G1 X131.936 Y161.632 E0.05545
G1 X130.554 Y161.641 E0.05906
G1 X117.482 Y161.641 E0.5589
G1 X115.213 Y161.603 E0.09704
G1 X113.734 Y161.478 E0.06348
G1 X112.524 Y161.27 E0.05249
G1 X111.876 Y161.104 E0.02858
G1 X110.954 Y160.776 E0.04184
G1 X110.146 Y160.369 E0.03872
G1 X109.624 Y160.019 E0.02686
G1 X109.048 Y159.517 E0.03269
G1 X108.545 Y158.93 E0.03303
G1 X108.259 Y158.504 E0.02193
G1 X107.876 Y157.772 E0.03531
G1 X107.569 Y156.967 E0.03684
G1 X107.331 Y156.093 E0.03872
G1 X107.135 Y154.985 E0.04813
G1 X107.018 Y153.795 E0.0511
G1 X106.965 Y152.499 E0.05546
G1 X106.956 Y151.118 E0.05906
G1 X106.956 Y146.528 E0.19625
G1 X107.219 Y146.465 E0.01155
G1 X107.27 Y146.564 E0.00475
G1 X107.87 Y147.164 E0.03628
G1 X108.626 Y147.549 E0.03628
G1 X109.464 Y147.682 E0.03628
G1 X110.302 Y147.549 E0.03628
G1 X111.058 Y147.164 E0.03628
G1 X111.658 Y146.564 E0.03628
G1 X112.043 Y145.808 E0.03628
G1 X112.176 Y144.97 E0.03628
G1 X112.043 Y144.132 E0.03628
G1 X111.719 Y143.497 E0.03047
G1 X111.337 Y143.691 F9000
G1 F1800
G1 X111.307 Y143.631 E0.0029
G1 X110.803 Y143.127 E0.03047
G1 X110.168 Y142.803 E0.03047
G1 X109.464 Y142.692 E0.03047
G1 X109.01 Y142.764 E0.01963
G1 X108.76 Y142.803 E0.01085
G1 X108.125 Y143.127 E0.03047
G1 X107.621 Y143.631 E0.03047
G1 X107.297 Y144.266 E0.03047
G1 X107.186 Y144.97 E0.03047
G1 X107.297 Y145.674 E0.03047
G1 X107.621 Y146.309 E0.03047
G1 X108.125 Y146.813 E0.03047
G1 X108.76 Y147.137 E0.03047
G1 X109.464 Y147.248 E0.03047
G1 X110.168 Y147.137 E0.03047
G1 X110.803 Y146.813 E0.03047
G1 X111.307 Y146.309 E0.03047
G1 X111.63 Y145.674 E0.03047
G1 X111.742 Y144.97 E0.03047
G1 X111.63 Y144.266 E0.03047
G1 X111.337 Y143.691 E0.02757
G1 X110.956 Y143.886 F9000
;TYPE:External perimeter
G1 F1800
G1 X110.548 Y143.478 E0.02467
G1 X110.034 Y143.216 E0.02467
G1 X109.464 Y143.126 E0.02467
G1 X109.077 Y143.187 E0.01672
G1 X108.894 Y143.216 E0.00795
G1 X108.38 Y143.478 E0.02467
G1 X107.972 Y143.886 E0.02467
G1 X107.71 Y144.4 E0.02467
G1 X107.619 Y144.97 E0.02467
G1 X107.71 Y145.54 E0.02467
G1 X107.972 Y146.054 E0.02467
G1 X108.38 Y146.462 E0.02467
G1 X108.894 Y146.724 E0.02467
G1 X109.464 Y146.814 E0.02467
G1 X110.034 Y146.724 E0.02467
G1 X110.548 Y146.462 E0.02467
G1 X110.956 Y146.054 E0.02467
G1 X111.218 Y145.54 E0.02467
G1 X111.308 Y144.97 E0.02467
G1 X111.218 Y144.4 E0.02467
G1 X110.956 Y143.886 E0.02467
;WIPE_START
M204 S4000
G1 X111.099 Y143.513 F9000
;WIPE_END
G1 E-0.8 F3000
; acceleration to travel
M204 S3000
G1 X107.671 Y143.793 F9000
; decel to extrusion
M204 S1000
G1 X106.528 Y143.886
; end travel
G1 E0.8 F1800
;TYPE:Internal perimeter
G1 X106.528 Y136.837 E0.3014
G1 X106.566 Y134.549 E0.09781
G1 X106.694 Y133.037 E0.06489
G1 X106.908 Y131.792 E0.05401
G1 X107.082 Y131.109 E0.03015
G1 X107.426 Y130.143 E0.04382
G1 X107.857 Y129.287 E0.041
G1 X108.237 Y128.72 E0.02916
G1 X108.778 Y128.1 E0.03518
G1 X109.407 Y127.561 E0.03544
G1 X109.874 Y127.248 E0.02402
G1 X110.649 Y126.843 E0.03739
G1 X111.497 Y126.519 E0.03882
G1 X112.41 Y126.271 E0.04047
G1 X113.541 Y126.07 E0.04909
G1 X114.772 Y125.948 E0.05291
G1 X116.085 Y125.895 E0.05619
G1 X130.555 Y125.886 E0.61864
G1 X132.383 Y125.916 E0.07817
G1 X132.816 Y125.923 E0.01852
G1 X134.355 Y126.052 E0.06601
G1 X135.599 Y126.266 E0.05399
G1 X136.282 Y126.44 E0.03014
G1 X137.257 Y126.787 E0.04423
G1 X138.104 Y127.215 E0.04057
G1 X138.671 Y127.595 E0.02918
G1 X139.291 Y128.136 E0.03518
G1 X139.83 Y128.765 E0.03544
G1 X140.144 Y129.231 E0.02402
G1 X140.548 Y130.006 E0.03739
G1 X140.872 Y130.855 E0.03882
G1 X141.121 Y131.768 E0.04046
G1 X141.323 Y132.911 E0.04966
G1 X141.443 Y134.13 E0.05234
G1 X141.496 Y135.443 E0.0562
G1 X141.505 Y151.119 E0.67021
G1 X141.468 Y153.393 E0.09726
G1 X141.34 Y154.918 E0.06543
G1 X141.126 Y156.163 E0.054
G1 X140.951 Y156.846 E0.03015
G1 X140.607 Y157.812 E0.04382
G1 X140.176 Y158.668 E0.041
G1 X139.796 Y159.235 E0.02916
G1 X139.255 Y159.854 E0.03518
G1 X138.626 Y160.394 E0.03544
G1 X138.16 Y160.707 E0.02402
G1 X137.385 Y161.112 E0.03739
G1 X136.536 Y161.436 E0.03882
G1 X135.623 Y161.684 E0.04046
G1 X134.48 Y161.887 E0.04966
G1 X133.261 Y162.007 E0.05234
G1 X131.946 Y162.06 E0.0563
G1 X130.556 Y162.069 E0.05943
G1 X117.479 Y162.069 E0.55911
G1 X115.191 Y162.031 E0.09781
G1 X113.679 Y161.903 E0.06489
G1 X112.434 Y161.689 E0.05401
G1 X111.751 Y161.515 E0.03015
G1 X110.785 Y161.171 E0.04382
G1 X109.929 Y160.74 E0.041
G1 X109.362 Y160.36 E0.02916
G1 X108.743 Y159.819 E0.03518
G1 X108.203 Y159.19 E0.03544
G1 X107.89 Y158.724 E0.02402
G1 X107.485 Y157.948 E0.03739
G1 X107.161 Y157.1 E0.03882
G1 X106.913 Y156.187 E0.04046
G1 X106.71 Y155.043 E0.04966
G1 X106.59 Y153.825 E0.05234
G1 X106.537 Y152.509 E0.0563
G1 X106.528 Y151.119 E0.05943
G1 X106.528 Y143.886 E0.30927
G1 X106.099 Y143.886 F9000
;TYPE:External perimeter
G1 F1800
G1 X106.099 Y136.833 E0.30156
G1 X106.138 Y134.528 E0.09858
G1 X106.268 Y132.982 E0.0663
G1 X106.488 Y131.702 E0.05553
G1 X106.672 Y130.984 E0.03172
G1 X107.031 Y129.974 E0.0458
G1 X107.487 Y129.07 E0.04328
G1 X107.896 Y128.459 E0.03147
G1 X108.476 Y127.795 E0.03767
G1 X109.147 Y127.219 E0.03784
G1 X109.654 Y126.879 E0.02611
G1 X110.472 Y126.451 E0.03946
G1 X111.364 Y126.111 E0.0408
G1 X112.316 Y125.852 E0.0422
G1 X113.482 Y125.645 E0.05062
G1 X114.743 Y125.52 E0.05416
G1 X116.077 Y125.466 E0.05709
G1 X130.558 Y125.457 E0.61917
G1 X132.39 Y125.488 E0.07833
G1 X132.837 Y125.495 E0.01913
G1 X134.409 Y125.626 E0.06742
G1 X135.689 Y125.846 E0.05553
G1 X136.407 Y126.03 E0.03172
G1 X137.426 Y126.393 E0.04623
G1 X138.321 Y126.844 E0.04285
G1 X138.932 Y127.254 E0.03148
G1 X139.596 Y127.833 E0.03767
G1 X140.172 Y128.505 E0.03784
