; generated by SuperSlicer 2.3.56 on 2021-12-06 at 00:37:46 UTC


;
;

;
;
; 

; external perimeters extrusion width = 0.60mm
; perimeters extrusion width = 0.60mm
; infill extrusion width = 0.60mm
; solid infill extrusion width = 0.60mm
; top infill extrusion width = 0.60mm
; first layer extrusion width = 0.72mm


;TYPE:Custom
START_PRINT T_BED=60 T_EXTRUDER=200
M107
G21 ; set units to millimeters
G90 ; use absolute coordinates
M83 ; use relative distances for extrusion
; Filament gcode
M109 S200 ; set temperature and wait for it to be reached
M190 S60 ; set bed temperature and wait for it to be reached
;LAYER_CHANGE
;Z:0.44
;HEIGHT:0.44
G1 Z0.440000 F12000.000
G1 E-0.80000 F3000.000
G1 X111.090 Y32.827 F12000.000
G1 E0.80000 F1500.000
;TYPE:Skirt
;WIDTH:0.72
G1 F600.000
G1 X112.007 Y31.407 E0.19349
G1 X112.649 Y30.830 E0.09879
G1 X113.329 Y30.437 E0.08987
G1 X114.638 Y30.096 E0.15480
G1 X159.104 Y30.084 E5.08858
G1 X160.011 Y30.202 E0.10467
G1 X160.683 Y30.443 E0.08170
G1 X161.437 Y30.896 E0.10067
G1 X162.187 Y31.636 E0.12052
G1 X162.677 Y32.367 E0.10071
G1 X163.200 Y33.606 E0.15400
G1 X163.417 Y34.532 E0.10881
G1 X163.538 Y35.910 E0.15827
G1 X163.539 Y256.034 E25.19033
G1 X163.394 Y257.600 E0.18000
G1 X162.909 Y259.173 E0.18830
G1 X161.991 Y260.595 E0.19368
G1 X161.351 Y261.168 E0.09843
G1 X160.668 Y261.564 E0.09033
G1 X159.351 Y261.904 E0.15564
G1 X114.896 Y261.915 E5.08730
G1 X114.077 Y261.816 E0.09437
G1 X113.417 Y261.604 E0.07929
G1 X112.629 Y261.153 E0.10391
G1 X111.976 Y260.559 E0.10107
G1 X111.450 Y259.855 E0.10052
G1 X110.758 Y258.249 E0.20018
G1 X110.462 Y256.081 E0.25045
G1 X110.461 Y35.965 E25.18934
G1 X110.606 Y34.398 E0.18009
G1 X111.063 Y32.913 E0.17778
G1 X111.651 Y33.105 F12000.000
G1 F600.000
G1 X112.449 Y31.849 E0.17029
G1 X113.018 Y31.336 E0.08762
G1 X113.607 Y30.998 E0.07778
G1 X114.717 Y30.717 E0.13107
G1 X159.104 Y30.710 E5.07944
G1 X159.877 Y30.813 E0.08928
G1 X160.419 Y31.011 E0.06604
G1 X161.062 Y31.397 E0.08587
G1 X161.720 Y32.055 E0.10645
G1 X162.313 Y33.030 E0.13055
G1 X162.609 Y33.813 E0.09580
G1 X162.913 Y35.929 E0.24471
G1 X162.913 Y256.034 E25.18811
G1 X162.780 Y257.483 E0.16645
G1 X162.350 Y258.892 E0.16857
G1 X161.551 Y260.149 E0.17051
G1 X160.983 Y260.662 E0.08765
G1 X160.393 Y261.002 E0.07792
G1 X159.277 Y261.283 E0.13158
G1 X114.896 Y261.289 E5.07886
G1 X114.197 Y261.203 E0.08058
G1 X112.979 Y260.634 E0.15385
G1 X112.423 Y260.121 E0.08662
G1 X111.957 Y259.486 E0.09007
G1 X111.360 Y258.077 E0.17519
G1 X111.087 Y256.066 E0.23219
G1 X111.087 Y35.965 E25.18767
G1 X111.220 Y34.516 E0.16654
G1 X111.624 Y33.191 E0.15853
G1 E-0.80000 F3000.000
G1 X115.262 Y34.634 F12000.000
G1 E0.80000 F1500.000
;TYPE:Internal perimeter
G1 F600.000
G1 X158.738 Y34.634 E4.97537
G1 X158.852 Y34.952 E0.03872
G1 X158.924 Y35.255 E0.03558
G1 X158.971 Y35.599 E0.03980
G1 X158.989 Y36.001 E0.04602
G1 X158.989 Y255.998 E25.17579
G1 X158.971 Y256.399 E0.04596
G1 X158.924 Y256.744 E0.03981
G1 X158.852 Y257.047 E0.03561
G1 X158.738 Y257.366 E0.03874
G1 X115.262 Y257.366 E4.97531
G1 X115.148 Y257.047 E0.03874
G1 X115.076 Y256.744 E0.03561
G1 X115.029 Y256.399 E0.03981
G1 X115.011 Y255.998 E0.04595
G1 X115.011 Y36.001 E25.17580
G1 X115.029 Y35.599 E0.04601
G1 X115.076 Y35.255 E0.03980
G1 X115.148 Y34.952 E0.03557
G1 X115.231 Y34.718 E0.02843
G1 X114.778 Y34.228 F12000.000
G1 F600.000
G1 X114.938 Y34.008 E0.03114
G1 X159.062 Y34.008 E5.04931
G1 X159.222 Y34.228 E0.03115
G1 X159.342 Y34.465 E0.03040
G1 X159.453 Y34.774 E0.03762
G1 X159.540 Y35.140 E0.04300
G1 X159.595 Y35.543 E0.04657
G1 X159.615 Y35.987 E0.05088
G1 X159.615 Y256.012 E25.17899
G1 X159.595 Y256.456 E0.05082
G1 X159.540 Y256.859 E0.04656
G1 X159.453 Y257.225 E0.04306
G1 X159.342 Y257.534 E0.03752
G1 X159.221 Y257.771 E0.03053
G1 X159.062 Y257.991 E0.03110
G1 X114.938 Y257.991 E5.04933
G1 X114.779 Y257.771 E0.03109
G1 X114.658 Y257.534 E0.03054
G1 X114.547 Y257.225 E0.03751
G1 X114.460 Y256.859 E0.04305
G1 X114.405 Y256.456 E0.04656
G1 X114.385 Y256.012 E0.05082
G1 X114.385 Y35.987 E25.17900
G1 X114.405 Y35.543 E0.05087
G1 X114.460 Y35.140 E0.04657
G1 X114.547 Y34.774 E0.04299
G1 X114.658 Y34.465 E0.03761
G1 X114.737 Y34.308 E0.02011
G1 X114.757 Y33.412 F12000.000
;TYPE:External perimeter
G1 F600.000
G1 X114.931 Y33.382 E0.02022
G1 X159.069 Y33.382 E5.05109
G1 X159.243 Y33.412 E0.02022
G1 X159.405 Y33.497 E0.02082
G1 X159.580 Y33.658 E0.02729
G1 X159.757 Y33.900 E0.03425
G1 X159.918 Y34.216 E0.04068
G1 X160.054 Y34.596 E0.04615
G1 X160.156 Y35.025 E0.05042
G1 X160.219 Y35.487 E0.05333
G1 X160.240 Y35.973 E0.05574
G1 X160.240 Y256.026 E25.18219
G1 X160.219 Y256.512 E0.05569
G1 X160.156 Y256.974 E0.05330
G1 X160.054 Y257.403 E0.05050
G1 X159.918 Y257.782 E0.04604
G1 X159.756 Y258.099 E0.04076
G1 X159.581 Y258.341 E0.03422
G1 X159.404 Y258.502 E0.02729
G1 X159.243 Y258.587 E0.02090
G1 X159.121 Y258.608 E0.01420
G1 X159.070 Y258.617 E0.00587
G1 X114.930 Y258.617 E5.05125
G1 X114.879 Y258.608 E0.00587
G1 X114.757 Y258.587 E0.01420
G1 X114.596 Y258.502 E0.02089
G1 X114.419 Y258.341 E0.02729
G1 X114.244 Y258.099 E0.03422
G1 X114.082 Y257.782 E0.04076
G1 X113.946 Y257.403 E0.04604
G1 X113.845 Y256.974 E0.05050
G1 X113.781 Y256.512 E0.05331
G1 X113.760 Y256.026 E0.05568
G1 X113.760 Y35.973 E25.18219
G1 X113.781 Y35.487 E0.05574
G1 X113.844 Y35.025 E0.05333
G1 X113.946 Y34.596 E0.05041
G1 X114.082 Y34.216 E0.04615
G1 X114.243 Y33.900 E0.04068
G1 X114.420 Y33.658 E0.03424
G1 X114.596 Y33.497 E0.02729
G1 X114.677 Y33.454 E0.01052
G1 X114.883 Y33.536 F12000.000
G1 E-0.80000 F3000.000
G1 X158.770 Y36.243 F12000.000
G1 E0.80000 F1500.000
;TYPE:Solid infill
;WIDTH:0.719328
G1 F1800.000
G1 X157.661 Y35.134 E0.17931
G1 X156.777 Y35.134 E0.10115
G1 X158.489 Y36.846 E0.27683
G1 X158.489 Y37.731 E0.10115
G1 X155.892 Y35.134 E0.41988
G1 X155.007 Y35.134 E0.10115
G1 X158.489 Y38.616 E0.56292
G1 X158.489 Y39.500 E0.10115
G1 X154.122 Y35.134 E0.70597
G1 X153.238 Y35.134 E0.10115
G1 X158.489 Y40.385 E0.84901
G1 X158.489 Y41.270 E0.10115
G1 X152.353 Y35.134 E0.99205
G1 X151.468 Y35.134 E0.10115
G1 X158.489 Y42.154 E1.13510
G1 X158.489 Y43.039 E0.10115
G1 X150.584 Y35.134 E1.27814
G1 X149.699 Y35.134 E0.10115
G1 X158.489 Y43.924 E1.42119
G1 X158.489 Y44.808 E0.10115
G1 X148.814 Y35.134 E1.56423
G1 X147.930 Y35.134 E0.10115
G1 X158.489 Y45.693 E1.70727
G1 X158.489 Y46.578 E0.10115
G1 X147.045 Y35.134 E1.85032
G1 X146.160 Y35.134 E0.10115
G1 X158.489 Y47.463 E1.99336
G1 X158.489 Y48.347 E0.10115
G1 X145.276 Y35.134 E2.13641
G1 X144.391 Y35.134 E0.10115
G1 X158.489 Y49.232 E2.27945
G1 X158.489 Y50.117 E0.10115
G1 X143.506 Y35.134 E2.42250
G1 X142.621 Y35.134 E0.10115
G1 X158.489 Y51.001 E2.56554
G1 X158.489 Y51.886 E0.10115
G1 X141.737 Y35.134 E2.70858
G1 X140.852 Y35.134 E0.10115
G1 X158.489 Y52.771 E2.85163
G1 X158.489 Y53.655 E0.10115
G1 X139.967 Y35.134 E2.99467
G1 X139.083 Y35.134 E0.10115
G1 X158.489 Y54.540 E3.13772
G1 X158.489 Y55.425 E0.10115
G1 X138.198 Y35.134 E3.28076
G1 X137.313 Y35.134 E0.10115
G1 X158.489 Y56.309 E3.42380
G1 X158.489 Y57.194 E0.10115
G1 X136.429 Y35.134 E3.56685
G1 X135.544 Y35.134 E0.10115
G1 X158.489 Y58.079 E3.70989
G1 X158.489 Y58.964 E0.10115
G1 X134.659 Y35.134 E3.85294
G1 X133.774 Y35.134 E0.10115
G1 X158.489 Y59.848 E3.99598
G1 X158.489 Y60.733 E0.10115
G1 X132.890 Y35.134 E4.13903
G1 X132.005 Y35.134 E0.10115
G1 X158.489 Y61.618 E4.28207
G1 X158.489 Y62.502 E0.10115
G1 X131.120 Y35.134 E4.42511
G1 X130.236 Y35.134 E0.10115
G1 X158.489 Y63.387 E4.56816
G1 X158.489 Y64.272 E0.10115
G1 X129.351 Y35.134 E4.71120
G1 X128.466 Y35.134 E0.10115
G1 X158.489 Y65.156 E4.85425
G1 X158.489 Y66.041 E0.10115
G1 X127.582 Y35.134 E4.99729
G1 X126.697 Y35.134 E0.10115
G1 X158.489 Y66.926 E5.14033
G1 X158.489 Y67.811 E0.10115
G1 X125.812 Y35.134 E5.28338
G1 X124.927 Y35.134 E0.10115
G1 X158.489 Y68.695 E5.42642
G1 X158.489 Y69.580 E0.10115
G1 X124.043 Y35.134 E5.56947
G1 X123.158 Y35.134 E0.10115
G1 X158.489 Y70.465 E5.71251
G1 X158.489 Y71.349 E0.10115
G1 X122.273 Y35.134 E5.85555
G1 X121.389 Y35.134 E0.10115
G1 X158.489 Y72.234 E5.99860
G1 X158.489 Y73.119 E0.10115
G1 X120.504 Y35.134 E6.14164
G1 X119.619 Y35.134 E0.10115
G1 X158.489 Y74.003 E6.28469
G1 X158.489 Y74.888 E0.10115
G1 X118.735 Y35.134 E6.42773
G1 X117.850 Y35.134 E0.10115
G1 X158.489 Y75.773 E6.57078
G1 X158.489 Y76.658 E0.10115
G1 X116.965 Y35.134 E6.71382
G1 X116.081 Y35.134 E0.10115
G1 X158.489 Y77.542 E6.85686
G1 X158.489 Y78.427 E0.10115
G1 X115.549 Y35.487 E6.94277
G1 X115.528 Y35.644 E0.01813
G1 X115.511 Y36.012 E0.04208
G1 X115.511 Y36.334 E0.03682
G1 X158.489 Y79.312 E6.94890
G1 X158.489 Y80.196 E0.10115
G1 X115.511 Y37.219 E6.94890
G1 X115.511 Y38.104 E0.10115
G1 X158.489 Y81.081 E6.94890
G1 X158.489 Y81.966 E0.10115
G1 X115.511 Y38.988 E6.94890
G1 X115.511 Y39.873 E0.10115
G1 X158.489 Y82.850 E6.94890
G1 X158.489 Y83.735 E0.10115
G1 X115.511 Y40.758 E6.94890
G1 X115.511 Y41.642 E0.10115
G1 X158.489 Y84.620 E6.94890
G1 X158.489 Y85.504 E0.10115
G1 X115.511 Y42.527 E6.94890
G1 X115.511 Y43.412 E0.10115
G1 X158.489 Y86.389 E6.94890
G1 X158.489 Y87.274 E0.10115
G1 X115.511 Y44.296 E6.94890
G1 X115.511 Y45.181 E0.10115
G1 X158.489 Y88.159 E6.94890
G1 X158.489 Y89.043 E0.10115
G1 X115.511 Y46.066 E6.94890
G1 X115.511 Y46.951 E0.10115
G1 X158.489 Y89.928 E6.94890
G1 X158.489 Y90.813 E0.10115
G1 X115.511 Y47.835 E6.94890
G1 X115.511 Y48.720 E0.10115
G1 X158.489 Y91.697 E6.94890
G1 X158.489 Y92.582 E0.10115
G1 X115.511 Y49.605 E6.94890
G1 X115.511 Y50.489 E0.10115
G1 X158.489 Y93.467 E6.94890
G1 X158.489 Y94.351 E0.10115
G1 X115.511 Y51.374 E6.94890
G1 X115.511 Y52.259 E0.10115
G1 X158.489 Y95.236 E6.94890
G1 X158.489 Y96.121 E0.10115
G1 X115.511 Y53.143 E6.94890
G1 X115.511 Y54.028 E0.10115
G1 X158.489 Y97.006 E6.94890
G1 X158.489 Y97.890 E0.10115
G1 X115.511 Y54.913 E6.94890
G1 X115.511 Y55.798 E0.10115
G1 X158.489 Y98.775 E6.94890
G1 X158.489 Y99.660 E0.10115
G1 X115.511 Y56.682 E6.94890
G1 X115.511 Y57.567 E0.10115
G1 X158.489 Y100.544 E6.94890
G1 X158.489 Y101.429 E0.10115
G1 X115.511 Y58.452 E6.94890
G1 X115.511 Y59.336 E0.10115
G1 X158.489 Y102.314 E6.94890
G1 X158.489 Y103.198 E0.10115
G1 X115.511 Y60.221 E6.94890
G1 X115.511 Y61.106 E0.10115
G1 X158.489 Y104.083 E6.94890
G1 X158.489 Y104.968 E0.10115
G1 X115.511 Y61.990 E6.94890
G1 X115.511 Y62.875 E0.10115
G1 X158.489 Y105.853 E6.94890
G1 X158.489 Y106.737 E0.10115
G1 X115.511 Y63.760 E6.94890
G1 X115.511 Y64.644 E0.10115
G1 X158.489 Y107.622 E6.94890
G1 X158.489 Y108.507 E0.10115
G1 X115.511 Y65.529 E6.94890
G1 X115.511 Y66.414 E0.10115
G1 X158.489 Y109.391 E6.94890
G1 X158.489 Y110.276 E0.10115
G1 X115.511 Y67.299 E6.94890
G1 X115.511 Y68.183 E0.10115
G1 X158.489 Y111.161 E6.94890
G1 X158.489 Y112.045 E0.10115
G1 X115.511 Y69.068 E6.94890
G1 X115.511 Y69.953 E0.10115
G1 X158.489 Y112.930 E6.94890
G1 X158.489 Y113.815 E0.10115
G1 X115.511 Y70.837 E6.94890
G1 X115.511 Y71.722 E0.10115
G1 X158.489 Y114.699 E6.94890
G1 X158.489 Y115.584 E0.10115
G1 X115.511 Y72.607 E6.94890
G1 X115.511 Y73.491 E0.10115
G1 X158.489 Y116.469 E6.94890
G1 X158.489 Y117.354 E0.10115
G1 X115.511 Y74.376 E6.94890
G1 X115.511 Y75.261 E0.10115
G1 X158.489 Y118.238 E6.94890
G1 X158.489 Y119.123 E0.10115
G1 X115.511 Y76.146 E6.94890
G1 X115.511 Y77.030 E0.10115
G1 X158.489 Y120.008 E6.94890
G1 X158.489 Y120.892 E0.10115
G1 X115.511 Y77.915 E6.94890
G1 X115.511 Y78.800 E0.10115
G1 X158.489 Y121.777 E6.94890
G1 X158.489 Y122.662 E0.10115
G1 X115.511 Y79.684 E6.94890
G1 X115.511 Y80.569 E0.10115
G1 X158.489 Y123.546 E6.94890
G1 X158.489 Y124.431 E0.10115
G1 X115.511 Y81.454 E6.94890
G1 X115.511 Y82.338 E0.10115
G1 X158.489 Y125.316 E6.94890
G1 X158.489 Y126.201 E0.10115
G1 X115.511 Y83.223 E6.94890
G1 X115.511 Y84.108 E0.10115
G1 X158.489 Y127.085 E6.94890
G1 X158.489 Y127.970 E0.10115
G1 X115.511 Y84.993 E6.94890
G1 X115.511 Y85.877 E0.10115
G1 X158.489 Y128.855 E6.94890
G1 X158.489 Y129.739 E0.10115
G1 X115.511 Y86.762 E6.94890
G1 X115.511 Y87.647 E0.10115
G1 X158.489 Y130.624 E6.94890
G1 X158.489 Y131.509 E0.10115
G1 X115.511 Y88.531 E6.94890
G1 X115.511 Y89.416 E0.10115
G1 X158.489 Y132.393 E6.94890
G1 X158.489 Y133.278 E0.10115
G1 X115.511 Y90.301 E6.94890
G1 X115.511 Y91.185 E0.10115
G1 X158.489 Y134.163 E6.94890
G1 X158.489 Y135.047 E0.10115
G1 X115.511 Y92.070 E6.94890
G1 X115.511 Y92.955 E0.10115
G1 X158.489 Y135.932 E6.94890
G1 X158.489 Y136.817 E0.10115
G1 X115.511 Y93.839 E6.94890
G1 X115.511 Y94.724 E0.10115
G1 X158.489 Y137.702 E6.94890
G1 X158.489 Y138.586 E0.10115
G1 X115.511 Y95.609 E6.94890
G1 X115.511 Y96.494 E0.10115
G1 X158.489 Y139.471 E6.94890
G1 X158.489 Y140.356 E0.10115
G1 X115.511 Y97.378 E6.94890
G1 X115.511 Y98.263 E0.10115
G1 X158.489 Y141.240 E6.94890
G1 X158.489 Y142.125 E0.10115
G1 X115.511 Y99.148 E6.94890
G1 X115.511 Y100.032 E0.10115
G1 X158.489 Y143.010 E6.94890
G1 X158.489 Y143.894 E0.10115
G1 X115.511 Y100.917 E6.94890
G1 X115.511 Y101.802 E0.10115
G1 X158.489 Y144.779 E6.94890
G1 X158.489 Y145.664 E0.10115
G1 X115.511 Y102.686 E6.94890
G1 X115.511 Y103.571 E0.10115
G1 X158.489 Y146.549 E6.94890
G1 X158.489 Y147.433 E0.10115
G1 X115.511 Y104.456 E6.94890
G1 X115.511 Y105.341 E0.10115
G1 X158.489 Y148.318 E6.94890
G1 X158.489 Y149.203 E0.10115
G1 X115.511 Y106.225 E6.94890
G1 X115.511 Y107.110 E0.10115
G1 X158.489 Y150.087 E6.94890
G1 X158.489 Y150.972 E0.10115
G1 X115.511 Y107.995 E6.94890
G1 X115.511 Y108.879 E0.10115
G1 X158.489 Y151.857 E6.94890
G1 X158.489 Y152.741 E0.10115
G1 X115.511 Y109.764 E6.94890
G1 X115.511 Y110.649 E0.10115
G1 X158.489 Y153.626 E6.94890
G1 X158.489 Y154.511 E0.10115
G1 X115.511 Y111.533 E6.94890
G1 X115.511 Y112.418 E0.10115
G1 X158.489 Y155.396 E6.94890
G1 X158.489 Y156.280 E0.10115
G1 X115.511 Y113.303 E6.94890
G1 X115.511 Y114.188 E0.10115
G1 X158.489 Y157.165 E6.94890
G1 X158.489 Y158.050 E0.10115
G1 X115.511 Y115.072 E6.94890
G1 X115.511 Y115.957 E0.10115
G1 X158.489 Y158.934 E6.94890
G1 X158.489 Y159.819 E0.10115
G1 X115.511 Y116.842 E6.94890
G1 X115.511 Y117.726 E0.10115
G1 X158.489 Y160.704 E6.94890
G1 X158.489 Y161.588 E0.10115
G1 X115.511 Y118.611 E6.94890
G1 X115.511 Y119.496 E0.10115
G1 X158.489 Y162.473 E6.94890
G1 X158.489 Y163.358 E0.10115
G1 X115.511 Y120.380 E6.94890
G1 X115.511 Y121.265 E0.10115
G1 X158.489 Y164.242 E6.94890
G1 X158.489 Y165.127 E0.10115
G1 X115.511 Y122.150 E6.94890
G1 X115.511 Y123.034 E0.10115
G1 X158.489 Y166.012 E6.94890
G1 X158.489 Y166.897 E0.10115
G1 X115.511 Y123.919 E6.94890
G1 X115.511 Y124.804 E0.10115
G1 X158.489 Y167.781 E6.94890
G1 X158.489 Y168.666 E0.10115
G1 X115.511 Y125.689 E6.94890
G1 X115.511 Y126.573 E0.10115
G1 X158.489 Y169.551 E6.94890
G1 X158.489 Y170.435 E0.10115
G1 X115.511 Y127.458 E6.94890
G1 X115.511 Y128.343 E0.10115
G1 X158.489 Y171.320 E6.94890
G1 X158.489 Y172.205 E0.10115
G1 X115.511 Y129.227 E6.94890
G1 X115.511 Y130.112 E0.10115
G1 X158.489 Y173.089 E6.94890
G1 X158.489 Y173.974 E0.10115
G1 X115.511 Y130.997 E6.94890
G1 X115.511 Y131.881 E0.10115
G1 X158.489 Y174.859 E6.94890
G1 X158.489 Y175.744 E0.10115
G1 X115.511 Y132.766 E6.94890
G1 X115.511 Y133.651 E0.10115
G1 X158.489 Y176.628 E6.94890
G1 X158.489 Y177.513 E0.10115
G1 X115.511 Y134.536 E6.94890
G1 X115.511 Y135.420 E0.10115
G1 X158.489 Y178.398 E6.94890
G1 X158.489 Y179.282 E0.10115
G1 X115.511 Y136.305 E6.94890
G1 X115.511 Y137.190 E0.10115
G1 X158.489 Y180.167 E6.94890
G1 X158.489 Y181.052 E0.10115
G1 X115.511 Y138.074 E6.94890
G1 X115.511 Y138.959 E0.10115
G1 X158.489 Y181.936 E6.94890
G1 X158.489 Y182.821 E0.10115
G1 X115.511 Y139.844 E6.94890
G1 X115.511 Y140.728 E0.10115
G1 X158.489 Y183.706 E6.94890
G1 X158.489 Y184.591 E0.10115
G1 X115.511 Y141.613 E6.94890
G1 X115.511 Y142.498 E0.10115
G1 X158.489 Y185.475 E6.94890
G1 X158.489 Y186.360 E0.10115
G1 X115.511 Y143.382 E6.94890
G1 X115.511 Y144.267 E0.10115
G1 X158.489 Y187.245 E6.94890
G1 X158.489 Y188.129 E0.10115
G1 X115.511 Y145.152 E6.94890
G1 X115.511 Y146.037 E0.10115
G1 X158.489 Y189.014 E6.94890
G1 X158.489 Y189.899 E0.10115
G1 X115.511 Y146.921 E6.94890
