; generated by SuperSlicer 2.3.57 on 2022-04-13 at 17:17:21 UTC


;
;

;
;
; 

; external perimeters extrusion width = 0.40mm
; perimeters extrusion width = 0.45mm
; infill extrusion width = 0.72mm
; solid infill extrusion width = 0.56mm
; top infill extrusion width = 0.40mm
; support material extrusion width = 0.42mm
; first layer extrusion width = 0.48mm

; external perimeters extrusion width = 0.40mm
; perimeters extrusion width = 0.45mm
; infill extrusion width = 0.72mm
; solid infill extrusion width = 0.56mm
; top infill extrusion width = 0.40mm
; support material extrusion width = 0.42mm
; first layer extrusion width = 0.48mm

; external perimeters extrusion width = 0.40mm
; perimeters extrusion width = 0.45mm
; infill extrusion width = 0.72mm
; solid infill extrusion width = 0.56mm
; top infill extrusion width = 0.40mm
; support material extrusion width = 0.42mm
; first layer extrusion width = 0.48mm

; object:{"name":"Divider","id":"Divider.stl id:0 copy 0","object_center":[165.000000,165.000000,0.000000],"boundingbox_center":[165.000000,165.000000,1.500000],"boundingbox_size":[96.081772,81.000008,3.000000]}
; plater:{"center":[165.000000,165.000000,0.000000],"boundingbox_center":[165.000000,165.000000,1.500000],"boundingbox_size":[96.081772,81.000008,3.000000]}

;TYPE:Custom
START_PRINT T_BED=70 T_EXTRUDER=230
M107
G21 ; set units to millimeters
G90 ; use absolute coordinates
M83 ; use relative distances for extrusion
; Filament gcode
M104 S230 ; set temperature
M109 S230 ; set temperature and wait for it to be reached
M190 S70 ; set bed temperature and wait for it to be reached
M107
;LAYER_CHANGE
;Z:0.24
;HEIGHT:0.24
G1 E-1 F3000
G1 Z0.24 F9000
G1 X114.706 Y121.819
G1 E1 F1800
; External perimeter
;Skirt
SET_VELOCITY_LIMIT ACCEL=300 ACCEL_TO_DECEL=3000 SQUARE_CORNER_VELOCITY=5

; Support material

;TYPE:Skirt
;WIDTH:0.48
G1 X114.173 Y122.377 E0.033
G1 X113.77 Y123.035 E0.033
G1 X113.513 Y123.768 E0.0332
G1 X113.417 Y124.534 E0.033
G1 X113.417 Y195.563 E3.03687
G1 X113.63 Y197.656 E0.08996
G1 X114.225 Y199.647 E0.08883
G1 X114.948 Y201.144 E0.07108
G1 X116.184 Y202.934 E0.09301
G1 X117.598 Y204.419 E0.0877
G1 X118.814 Y205.417 E0.06724
G1 X120.135 Y206.298 E0.06788
G1 X122.082 Y207.309 E0.0938
G1 X123.547 Y207.888 E0.06736
G1 X125.162 Y208.373 E0.07208
G1 X126.562 Y208.684 E0.06133
G1 X127.999 Y208.898 E0.06214
G1 X129.755 Y209.03 E0.07528
G1 X199.512 Y209.043 E2.98249
G1 X201.008 Y208.99 E0.064
G1 X202.657 Y208.814 E0.07091
G1 X204.201 Y208.529 E0.0671
G1 X207.135 Y207.635 E0.13114
G1 X208.584 Y206.997 E0.06771
G1 X209.867 Y206.297 E0.06246
G1 X211.828 Y204.917 E0.10254
G1 X212.888 Y203.957 E0.06116
G1 X213.873 Y202.865 E0.06289
G1 X214.724 Y201.688 E0.06208
G1 X215.408 Y200.474 E0.05959
G1 X215.955 Y199.167 E0.06057
G1 X216.227 Y198.271 E0.04002
G1 X216.489 Y196.937 E0.05815
G1 X216.583 Y195.545 E0.05962
G1 X216.579 Y124.423 E3.04087
G1 X216.48 Y123.738 E0.02959
G1 X216.253 Y123.084 E0.02959
G1 X215.907 Y122.485 E0.02959
G1 X215.453 Y121.962 E0.02959
G1 X214.909 Y121.535 E0.02959
G1 X214.294 Y121.218 E0.02959
G1 X213.63 Y121.023 E0.02959
G1 X212.941 Y120.957 E0.02959
G1 X117.028 Y120.957 E4.10078
G1 X116.4 Y121.017 E0.02698
G1 X115.792 Y121.185 E0.02698
G1 X115.221 Y121.455 E0.02698
G1 X114.755 Y121.785 E0.02442
G1 X114.989 Y122.141 F9000
G1 F1800
G1 X114.515 Y122.636 E0.0293
G1 X114.154 Y123.224 E0.02949
G1 X113.929 Y123.871 E0.0293
G1 X113.845 Y124.551 E0.0293
G1 X113.845 Y195.561 E3.03604
G1 X114.051 Y197.574 E0.08653
G1 X114.624 Y199.492 E0.08559
G1 X115.316 Y200.924 E0.06797
G1 X116.504 Y202.649 E0.08958
G1 X117.891 Y204.107 E0.08604
G1 X119.068 Y205.073 E0.06508
G1 X120.349 Y205.927 E0.06583
G1 X122.261 Y206.919 E0.09209
G1 X123.689 Y207.483 E0.06564
G1 X125.255 Y207.955 E0.06996
G1 X126.636 Y208.262 E0.06049
G1 X128.059 Y208.474 E0.0615
G1 X129.764 Y208.602 E0.07311
G1 X199.507 Y208.614 E2.98187
G1 X200.983 Y208.563 E0.06317
G1 X202.596 Y208.39 E0.06936
G1 X204.108 Y208.11 E0.06572
G1 X206.981 Y207.235 E0.1284
G1 X208.395 Y206.612 E0.06608
G1 X209.652 Y205.926 E0.06121
G1 X211.543 Y204.596 E0.09885
G1 X212.581 Y203.658 E0.05984
G1 X213.54 Y202.596 E0.06114
G1 X214.362 Y201.458 E0.06005
G1 X215.023 Y200.285 E0.05757
G1 X215.552 Y199.021 E0.05857
G1 X215.81 Y198.173 E0.03792
G1 X216.063 Y196.888 E0.056
G1 X216.155 Y195.551 E0.05726
G1 X216.152 Y124.463 E3.03941
G1 X216.067 Y123.854 E0.02628
G1 X215.868 Y123.273 E0.02628
G1 X215.562 Y122.74 E0.02628
G1 X215.163 Y122.278 E0.02609
G1 X214.68 Y121.897 E0.02628
G1 X214.138 Y121.617 E0.02609
G1 X213.548 Y121.444 E0.02628
G1 X212.941 Y121.386 E0.02609
G1 X117.033 Y121.386 E4.10059
G1 X115.945 Y121.585 E0.0473
G1 X115.041 Y122.111 E0.04473
; INIT printing object Divider.stl id:0 copy 0
G1 E-1 F3000
; printing object Divider.stl id:0 copy 0
G1 X202.123 Y138.268 F9000
G1 E1 F1800
; External perimeter
;Perimeter
SET_VELOCITY_LIMIT ACCEL=2000 ACCEL_TO_DECEL=2000 SQUARE_CORNER_VELOCITY=5

; Overhang perimeter

;TYPE:Internal perimeter
G1 X206.049 Y138.268 E0.16786
G1 X207.72 Y138.268 E0.07143
G1 X207.72 Y125.269 E0.55582
G1 X212.272 Y125.268 E0.19465
G1 X212.272 Y195.487 E3.00224
G1 X212.257 Y195.94 E0.01935
G1 X212.214 Y196.379 E0.01886
G1 X212.141 Y196.816 E0.01896
G1 X212.038 Y197.251 E0.01911
G1 X211.907 Y197.683 E0.0193
G1 X211.747 Y198.111 E0.01954
G1 X211.558 Y198.534 E0.01981
G1 X211.34 Y198.951 E0.02011
G1 X211.094 Y199.361 E0.02045
G1 X210.82 Y199.764 E0.02081
G1 X210.518 Y200.157 E0.02119
G1 X210.19 Y200.54 E0.02158
G1 X209.835 Y200.913 E0.02199
G1 X209.455 Y201.273 E0.0224
G1 X209.049 Y201.62 E0.02281
G1 X208.62 Y201.953 E0.02322
G1 X208.168 Y202.271 E0.02363
G1 X207.695 Y202.573 E0.02402
G1 X207.2 Y202.858 E0.02441
G1 X206.686 Y203.126 E0.02477
G1 X206.154 Y203.375 E0.02512
G1 X205.605 Y203.604 E0.02545
G1 X205.047 Y203.812 E0.02547
G1 X203.864 Y204.174 E0.05286
G1 X203.274 Y204.318 E0.02596
G1 X202.036 Y204.547 E0.05383
G1 X200.779 Y204.685 E0.05409
G1 X199.495 Y204.732 E0.05491
G1 X129.856 Y204.72 E2.97747
G1 X128.59 Y204.627 E0.05426
G1 X127.344 Y204.444 E0.05386
G1 X126.129 Y204.172 E0.0532
G1 X124.953 Y203.812 E0.05259
G1 X124.395 Y203.604 E0.02547
G1 X123.846 Y203.375 E0.02545
G1 X123.314 Y203.126 E0.02512
G1 X122.8 Y202.858 E0.02477
G1 X122.305 Y202.573 E0.02441
G1 X121.832 Y202.271 E0.02402
G1 X121.38 Y201.953 E0.02363
G1 X120.951 Y201.62 E0.02322
G1 X120.545 Y201.273 E0.02281
G1 X120.165 Y200.913 E0.0224
G1 X119.81 Y200.54 E0.02199
G1 X119.482 Y200.157 E0.02159
G1 X119.18 Y199.764 E0.02119
G1 X118.906 Y199.361 E0.02081
G1 X118.66 Y198.951 E0.02045
G1 X118.442 Y198.534 E0.02012
G1 X118.253 Y198.111 E0.01981
G1 X118.093 Y197.683 E0.01954
G1 X117.962 Y197.251 E0.0193
G1 X117.859 Y196.816 E0.01911
G1 X117.786 Y196.379 E0.01896
G1 X117.743 Y195.94 E0.01886
G1 X117.728 Y195.487 E0.01936
G1 X117.728 Y125.268 E3.00223
G1 X122.28 Y125.268 E0.19465
G1 X122.28 Y138.268 E0.55582
G1 X127.877 Y138.268 E0.23929
G1 X127.877 Y125.268 E0.55582
G1 X132.43 Y125.268 E0.19465
G1 X132.43 Y183.513 E2.49026
G1 X132.447 Y184.042 E0.02263
G1 X132.501 Y184.582 E0.0232
G1 X132.591 Y185.119 E0.02327
G1 X132.716 Y185.651 E0.02337
G1 X132.876 Y186.177 E0.0235
G1 X133.07 Y186.695 E0.02366
G1 X133.297 Y187.204 E0.02384
G1 X133.558 Y187.703 E0.02406
G1 X133.85 Y188.19 E0.02429
G1 X134.173 Y188.664 E0.02455
G1 X134.526 Y189.125 E0.02482
G1 X134.909 Y189.571 E0.02511
G1 X135.319 Y190.001 E0.02541
G1 X135.756 Y190.415 E0.02572
G1 X136.218 Y190.811 E0.02604
G1 X136.705 Y191.189 E0.02635
G1 X137.215 Y191.548 E0.02667
G1 X137.747 Y191.887 E0.02698
G1 X138.3 Y192.206 E0.02729
G1 X138.872 Y192.504 E0.02758
G1 X139.462 Y192.78 E0.02786
G1 X140.069 Y193.034 E0.02813
G1 X140.691 Y193.265 E0.02838
G1 X141.327 Y193.474 E0.02861
G1 X141.975 Y193.659 E0.02882
G1 X142.638 Y193.82 E0.02918
G1 X143.641 Y194.012 E0.04364
G1 X144.657 Y194.155 E0.04389
G1 X145.355 Y194.219 E0.02994
G1 X146.718 Y194.268 E0.05832
G1 X183.282 Y194.268 E1.56332
G1 X184.651 Y194.219 E0.05858
G1 X186.021 Y194.069 E0.05891
G1 X187.366 Y193.82 E0.05847
G1 X188.667 Y193.476 E0.05753
G1 X189.309 Y193.265 E0.02888
G1 X189.931 Y193.034 E0.02838
G1 X190.538 Y192.78 E0.02813
G1 X191.128 Y192.504 E0.02786
G1 X191.7 Y192.206 E0.02758
G1 X192.253 Y191.887 E0.02728
G1 X192.785 Y191.548 E0.02698
G1 X193.295 Y191.189 E0.02667
G1 X193.782 Y190.811 E0.02635
G1 X194.244 Y190.415 E0.02604
G1 X194.681 Y190.001 E0.02572
G1 X195.091 Y189.571 E0.02541
G1 X195.474 Y189.125 E0.02511
G1 X195.827 Y188.664 E0.02483
G1 X196.15 Y188.19 E0.02455
G1 X196.442 Y187.703 E0.02429
G1 X196.703 Y187.204 E0.02406
G1 X196.93 Y186.695 E0.02384
G1 X197.124 Y186.177 E0.02366
G1 X197.284 Y185.651 E0.0235
G1 X197.409 Y185.119 E0.02337
G1 X197.499 Y184.582 E0.02327
G1 X197.553 Y184.042 E0.0232
G1 X197.57 Y183.513 E0.02263
G1 X197.57 Y125.268 E2.49026
G1 X202.123 Y125.268 E0.19465
G1 X202.123 Y138.208 E0.55326
G1 X202.551 Y137.84 F9000
; External perimeter
;ExternalPerimeter
SET_VELOCITY_LIMIT ACCEL=1000 ACCEL_TO_DECEL=1000 SQUARE_CORNER_VELOCITY=5

; Perimeter

;TYPE:External perimeter
G1 F1800
G1 X206.049 Y137.84 E0.14954
G1 X207.291 Y137.84 E0.05311
G1 X207.291 Y137.72 E0.00458
G1 X207.291 Y137.48 E0.00971
G1 X207.291 Y124.84 E0.54043
G1 X207.411 Y124.84 E0.0046
G1 X207.651 Y124.84 E0.00973
G1 X212.701 Y124.84 E0.2159
G1 X212.701 Y124.96 E0.00458
G1 X212.701 Y125.2 E0.00971
G1 X212.701 Y195.494 E3.00547
G1 X212.685 Y195.968 E0.02027
G1 X212.639 Y196.435 E0.02007
G1 X212.561 Y196.9 E0.02016
G1 X212.452 Y197.363 E0.0203
G1 X212.313 Y197.821 E0.02047
G1 X212.143 Y198.274 E0.02069
G1 X211.944 Y198.721 E0.02093
G1 X211.714 Y199.161 E0.02121
G1 X211.455 Y199.592 E0.02152
G1 X211.167 Y200.015 E0.02185
G1 X210.851 Y200.427 E0.0222
G1 X210.508 Y200.828 E0.02257
G1 X210.138 Y201.216 E0.02295
G1 X209.742 Y201.591 E0.02333
G1 X209.32 Y201.952 E0.02371
G1 X208.875 Y202.298 E0.0241
G1 X208.407 Y202.627 E0.02448
G1 X207.917 Y202.939 E0.02485
G1 X207.406 Y203.234 E0.02521
G1 X206.876 Y203.51 E0.02555
G1 X206.328 Y203.766 E0.02588
G1 X205.763 Y204.003 E0.02619
G1 X205.184 Y204.218 E0.02638
G1 X203.978 Y204.587 E0.05393
G1 X203.364 Y204.737 E0.02701
G1 X202.099 Y204.971 E0.05503
G1 X200.81 Y205.113 E0.05543
G1 X199.503 Y205.16 E0.05592
G1 X129.84 Y205.148 E2.97847
G1 X128.543 Y205.054 E0.0556
G1 X127.266 Y204.866 E0.05521
G1 X126.02 Y204.587 E0.05459
G1 X124.816 Y204.218 E0.05383
G1 X124.237 Y204.003 E0.02638
G1 X123.672 Y203.766 E0.02619
G1 X123.124 Y203.51 E0.02588
G1 X122.594 Y203.234 E0.02555
G1 X122.083 Y202.939 E0.02521
G1 X121.593 Y202.627 E0.02485
G1 X121.125 Y202.298 E0.02447
G1 X120.68 Y201.952 E0.0241
G1 X120.258 Y201.591 E0.02371
G1 X119.862 Y201.216 E0.02333
G1 X119.492 Y200.828 E0.02294
G1 X119.149 Y200.427 E0.02257
G1 X118.833 Y200.015 E0.0222
G1 X118.545 Y199.592 E0.02185
G1 X118.286 Y199.161 E0.02152
G1 X118.056 Y198.721 E0.02121
G1 X117.857 Y198.274 E0.02093
G1 X117.687 Y197.821 E0.02069
G1 X117.548 Y197.363 E0.02047
G1 X117.439 Y196.9 E0.0203
G1 X117.361 Y196.435 E0.02016
G1 X117.315 Y195.968 E0.02007
G1 X117.299 Y195.494 E0.02027
G1 X117.299 Y124.84 E3.02086
G1 X117.419 Y124.84 E0.00458
G1 X117.659 Y124.84 E0.00971
G1 X122.709 Y124.84 E0.2159
G1 X122.709 Y124.96 E0.00458
G1 X122.709 Y125.2 E0.00971
G1 X122.709 Y137.84 E0.54043
G1 X122.829 Y137.84 E0.00458
G1 X123.069 Y137.84 E0.00971
G1 X127.449 Y137.84 E0.18726
G1 X127.449 Y137.72 E0.00458
G1 X127.449 Y137.48 E0.00971
G1 X127.449 Y124.84 E0.54043
G1 X127.569 Y124.84 E0.00458
G1 X127.809 Y124.84 E0.00971
G1 X132.858 Y124.84 E0.2159
G1 X132.858 Y124.96 E0.00458
G1 X132.858 Y125.2 E0.00971
G1 X132.858 Y183.506 E2.49288
G1 X132.875 Y184.013 E0.02171
G1 X132.926 Y184.525 E0.02199
G1 X133.011 Y185.034 E0.02207
G1 X133.13 Y185.539 E0.02218
G1 X133.282 Y186.039 E0.02233
G1 X133.466 Y186.532 E0.02251
G1 X133.683 Y187.017 E0.02272
G1 X133.932 Y187.493 E0.02296
G1 X134.211 Y187.959 E0.02322
G1 X134.521 Y188.413 E0.02351
G1 X134.859 Y188.855 E0.02381
G1 X135.227 Y189.284 E0.02413
G1 X135.621 Y189.698 E0.02446
G1 X136.042 Y190.097 E0.0248
G1 X136.489 Y190.479 E0.02514
G1 X136.96 Y190.845 E0.02548
G1 X137.454 Y191.192 E0.02582
G1 X137.97 Y191.521 E0.02615
G1 X138.506 Y191.83 E0.02648
G1 X139.062 Y192.12 E0.0268
G1 X139.636 Y192.388 E0.0271
G1 X140.227 Y192.635 E0.02738
G1 X140.833 Y192.861 E0.02765
G1 X141.453 Y193.064 E0.02789
G1 X142.085 Y193.244 E0.02811
G1 X142.73 Y193.402 E0.02837
G1 X143.711 Y193.59 E0.04273
G1 X144.707 Y193.73 E0.04299
G1 X145.382 Y193.791 E0.02899
G1 X146.726 Y193.84 E0.05749
G1 X183.274 Y193.84 E1.56266
G1 X184.62 Y193.791 E0.05758
G1 X185.959 Y193.644 E0.05757
G1 X187.272 Y193.401 E0.0571
G1 X188.545 Y193.065 E0.05631
G1 X189.167 Y192.861 E0.02799
G1 X189.773 Y192.635 E0.02765
G1 X190.364 Y192.388 E0.02738
G1 X190.938 Y192.12 E0.0271
G1 X191.494 Y191.83 E0.0268
G1 X192.03 Y191.521 E0.02648
G1 X192.546 Y191.192 E0.02616
G1 X193.04 Y190.845 E0.02582
G1 X193.511 Y190.479 E0.02548
G1 X193.958 Y190.097 E0.02514
G1 X194.379 Y189.698 E0.0248
G1 X194.773 Y189.284 E0.02446
G1 X195.141 Y188.855 E0.02413
G1 X195.479 Y188.413 E0.02381
G1 X195.789 Y187.959 E0.02351
G1 X196.068 Y187.493 E0.02322
G1 X196.317 Y187.017 E0.02296
G1 X196.534 Y186.532 E0.02272
G1 X196.718 Y186.039 E0.02251
G1 X196.87 Y185.539 E0.02233
G1 X196.989 Y185.034 E0.02218
G1 X197.074 Y184.525 E0.02207
G1 X197.125 Y184.013 E0.02199
G1 X197.142 Y183.506 E0.02171
G1 X197.142 Y124.84 E2.50828
G1 X197.262 Y124.84 E0.00458
G1 X197.27 Y124.84 E-0.00019
G1 X202.551 Y124.84 E0.2258
G1 X202.551 Y124.96 E0.00458
G1 X202.551 Y125.2 E0.00971
G1 X202.551 Y137.78 E0.53786
;WIPE_START
G1 X202.551 Y138.24 F9000
;WIPE_END
G1 X202.059 Y125.745
G1 E0.00019 F1800
; External perimeter
;SolidInfill
SET_VELOCITY_LIMIT ACCEL=2000 ACCEL_TO_DECEL=2000 SQUARE_CORNER_VELOCITY=5

; Bridge infill

;TYPE:Solid infill
;WIDTH:0.473708
G1 F2400
G1 X201.83 Y125.517 E0.01362
G1 X201.224 Y125.517 E0.02557
G1 X201.874 Y126.167 E0.03878
G1 X201.874 Y126.773 E0.02557
G1 X200.618 Y125.517 E0.07494
G1 X200.013 Y125.517 E0.02557
G1 X201.874 Y127.379 E0.1111
G1 X201.874 Y127.985 E0.02557
G1 X199.407 Y125.517 E0.14727
G1 X198.801 Y125.517 E0.02557
G1 X201.874 Y128.591 E0.18343
G1 X201.874 Y129.197 E0.02557
G1 X198.195 Y125.517 E0.21959
G1 X197.819 Y125.517 E0.01586
G1 X197.819 Y125.747 E0.00971
G1 X201.874 Y129.803 E0.24201
G1 X201.874 Y130.409 E0.02557
G1 X197.819 Y126.353 E0.24201
G1 X197.819 Y126.959 E0.02557
G1 X201.874 Y131.015 E0.24201
G1 X201.874 Y131.621 E0.02557
G1 X197.819 Y127.565 E0.24201
G1 X197.819 Y128.171 E0.02557
G1 X201.874 Y132.227 E0.24201
G1 X201.874 Y132.833 E0.02557
G1 X197.819 Y128.777 E0.24201
G1 X197.819 Y129.383 E0.02557
G1 X201.874 Y133.439 E0.24201
G1 X201.874 Y134.045 E0.02557
G1 X197.819 Y129.989 E0.24201
G1 X197.819 Y130.595 E0.02557
G1 X201.874 Y134.651 E0.24201
G1 X201.874 Y135.257 E0.02557
G1 X197.819 Y131.201 E0.24201
G1 X197.819 Y131.807 E0.02557
G1 X201.874 Y135.863 E0.24201
G1 X201.874 Y136.469 E0.02557
G1 X197.819 Y132.413 E0.24201
G1 X197.819 Y133.019 E0.02557
G1 X201.874 Y137.075 E0.24201
G1 X201.874 Y137.681 E0.02557
G1 X197.634 Y133.441 E0.25301
G1 E-1 F3000
G1 X211.342 Y125.333 F9000
G1 E1 F1800
G1 F2400
G1 X212.024 Y126.015 E0.04069
G1 X212.024 Y126.621 E0.02557
G1 X210.92 Y125.517 E0.06586
G1 X210.314 Y125.517 E0.02557
G1 X212.024 Y127.227 E0.10202
G1 X212.024 Y127.833 E0.02557
G1 X209.708 Y125.517 E0.13818
G1 X209.102 Y125.517 E0.02557
G1 X212.024 Y128.439 E0.17434
G1 X212.024 Y129.045 E0.02557
G1 X208.496 Y125.517 E0.2105
G1 X207.968 Y125.517 E0.02228
G1 X207.968 Y125.595 E0.00329
G1 X212.024 Y129.651 E0.24201
G1 X212.024 Y130.257 E0.02557
G1 X207.968 Y126.201 E0.24201
G1 X207.968 Y126.807 E0.02557
G1 X212.024 Y130.863 E0.24201
G1 X212.024 Y131.469 E0.02557
G1 X207.968 Y127.413 E0.24201
G1 X207.968 Y128.019 E0.02557
G1 X212.024 Y132.075 E0.24201
G1 X212.024 Y132.681 E0.02557
G1 X207.968 Y128.625 E0.24201
G1 X207.968 Y129.231 E0.02557
G1 X212.024 Y133.286 E0.24201
G1 X212.024 Y133.892 E0.02557
G1 X207.968 Y129.837 E0.24201
G1 X207.968 Y130.443 E0.02557
G1 X212.024 Y134.498 E0.24201
G1 X212.024 Y135.104 E0.02557
