; generated by SuperSlicer 2.3.57 on 2022-01-19 at 02:19:24 UTC


;
;

;
;
; 

; external perimeters extrusion width = 0.40mm
; perimeters extrusion width = 0.40mm
; infill extrusion width = 0.40mm
; solid infill extrusion width = 0.40mm
; top infill extrusion width = 0.40mm
; first layer extrusion width = 0.48mm


;TYPE:Custom
START_PRINT T_BED=60 T_EXTRUDER=200
M107
G21 ; set units to millimeters
G90 ; use absolute coordinates
M83 ; use relative distances for extrusion
; Filament gcode
M109 S200 ; set temperature and wait for it to be reached
M190 S60 ; set bed temperature and wait for it to be reached
;LAYER_CHANGE
;Z:0.24
;HEIGHT:0.24
G1 E-0.6 F3000
G1 Z0.24 F9000
M204 S1500
G1 X82.073 Y67.659
G1 E0.6 F1800
;TYPE:Skirt
;WIDTH:0.48
G1 F600
G1 X79.135 Y71.702 E0.21152
G1 X76.567 Y76.001 E0.21194
G1 X74.4 Y80.503 E0.21153
G1 X72.579 Y85.4 E0.22114
G1 X71.313 Y90.01 E0.20234
G1 X70.398 Y95.154 E0.22116
G1 X69.978 Y99.879 E0.20078
G1 X69.971 Y104.625 E0.20088
G1 X70.398 Y109.614 E0.21196
G1 X71.313 Y114.753 E0.22092
G1 X72.642 Y119.575 E0.21172
G1 X74.401 Y124.264 E0.21201
G1 X76.583 Y128.792 E0.21274
G1 X79.272 Y133.259 E0.22069
G1 X82.068 Y137.099 E0.20106
G1 X85.185 Y140.675 E0.20079
G1 X88.954 Y144.304 E0.22146
G1 X92.873 Y147.431 E0.21223
G1 X97.058 Y150.193 E0.21225
G1 X101.673 Y152.656 E0.22142
G1 X106.038 Y154.516 E0.20083
G1 X110.554 Y155.99 E0.20107
G1 X115.633 Y157.167 E0.22067
G1 X120.607 Y157.843 E0.21251
G1 X125.592 Y158.068 E0.21119
G1 X227.245 Y158.076 E4.30278
G1 X228.615 Y157.897 E0.05848
G1 X229.906 Y157.389 E0.05872
G1 X231.094 Y156.525 E0.06217
G1 X232.018 Y155.383 E0.06217
G1 X232.617 Y154.042 E0.06217
G1 X232.849 Y152.591 E0.06217
G1 X232.849 Y52.209 E4.24896
G1 X232.718 Y51.127 E0.04613
G1 X232.381 Y50.091 E0.04613
G1 X231.854 Y49.143 E0.04588
G1 X231.152 Y48.31 E0.04613
G1 X230.302 Y47.627 E0.04613
G1 X229.337 Y47.12 E0.04613
G1 X228.293 Y46.808 E0.04613
G1 X227.208 Y46.703 E0.04613
G1 X125.6 Y46.696 E4.30088
G1 X120.789 Y46.907 E0.20381
G1 X115.663 Y47.591 E0.21893
G1 X110.571 Y48.769 E0.22119
G1 X106.045 Y50.245 E0.20155
G1 X101.681 Y52.104 E0.20074
G1 X97.243 Y54.466 E0.2128
G1 X92.894 Y57.318 E0.22017
G1 X88.981 Y60.436 E0.21176
G1 X85.361 Y63.896 E0.21198
G1 X82.112 Y67.614 E0.20898
G1 X82.273 Y67.755 F9000
M204 S500
G1 X82.434 Y67.896
G1 F600
G1 X82.41 Y67.923 E0.00156
G1 X79.492 Y71.939 E0.21013
G1 X76.944 Y76.205 E0.2103
G1 X74.793 Y80.673 E0.2099
G1 X72.992 Y85.515 E0.21867
G1 X71.732 Y90.101 E0.2013
G1 X70.825 Y95.193 E0.21892
G1 X70.406 Y99.9 E0.20005
G1 X70.4 Y104.622 E0.19986
G1 X70.825 Y109.573 E0.21036
G1 X71.731 Y114.66 E0.21869
G1 X73.05 Y119.444 E0.21008
G1 X74.796 Y124.098 E0.21037
G1 X76.952 Y128.575 E0.21035
G1 X79.553 Y132.915 E0.21418
G1 X82.342 Y136.753 E0.2008
G1 X83.717 Y138.343 E0.08897
G1 X85.706 Y140.608 E0.12759
G1 X89.129 Y143.884 E0.20057
G1 X93.122 Y147.082 E0.21654
G1 X97.274 Y149.823 E0.2106
G1 X101.842 Y152.262 E0.21917
G1 X106.19 Y154.116 E0.20009
G1 X110.684 Y155.582 E0.20008
G1 X115.712 Y156.746 E0.21845
G1 X120.648 Y157.417 E0.21084
G1 X125.592 Y157.64 E0.20949
G1 X227.241 Y157.647 E4.30259
G1 X228.508 Y157.483 E0.05407
G1 X229.692 Y157.018 E0.05383
G1 X230.798 Y156.215 E0.05786
G1 X231.654 Y155.157 E0.05762
G1 X232.208 Y153.913 E0.05762
G1 X232.421 Y152.568 E0.05762
G1 X232.421 Y52.229 E4.24717
G1 X232.301 Y51.228 E0.04268
G1 X231.99 Y50.268 E0.04268
G1 X231.501 Y49.387 E0.04268
G1 X230.851 Y48.616 E0.04268
G1 X230.065 Y47.984 E0.04268
G1 X229.178 Y47.518 E0.04244
G1 X228.212 Y47.229 E0.04268
G1 X227.208 Y47.132 E0.04268
G1 X125.604 Y47.124 E4.3007
G1 X120.819 Y47.334 E0.20272
G1 X115.743 Y48.012 E0.21678
G1 X110.703 Y49.176 E0.21895
G1 X106.193 Y50.647 E0.20078
G1 X101.85 Y52.498 E0.19985
G1 X97.459 Y54.836 E0.21056
G1 X93.143 Y57.666 E0.21845
G1 X89.265 Y60.756 E0.20989
G1 X85.673 Y64.19 E0.21034
G1 X82.474 Y67.851 E0.20578
G1 E-0.6 F3000
M204 S1500
G1 X154.292 Y105.47 F9000
M204 S500
G1 X226.111 Y143.09
G1 E0.6 F1800
;TYPE:Internal perimeter
G1 F600
G1 X226.111 Y151.336 E0.34903
G1 X125.629 Y151.328 E4.25322
G1 X121.217 Y151.13 E0.18692
G1 X116.865 Y150.54 E0.18591
G1 X112.583 Y149.562 E0.1859
G1 X108.406 Y148.205 E0.18589
G1 X104.368 Y146.478 E0.18591
G1 X100.5 Y144.397 E0.18591
G1 X96.836 Y141.977 E0.18588
G1 X93.402 Y139.239 E0.1859
G1 X90.228 Y136.203 E0.18589
G1 X88.47 Y134.191 E0.1131
G1 X87.338 Y132.896 E0.0728
G1 X85.769 Y130.734 E0.11307
G1 X84.757 Y129.342 E0.07283
G1 X83.387 Y127.049 E0.11307
G1 X82.505 Y125.572 E0.07282
G1 X81.346 Y123.166 E0.11305
G1 X80.6 Y121.615 E0.07285
G1 X79.661 Y119.115 E0.11304
G1 X79.057 Y117.503 E0.07285
G1 X77.889 Y113.269 E0.1859
G1 X77.412 Y110.642 E0.11302
G1 X77.105 Y108.948 E0.07289
G1 X76.865 Y106.289 E0.113
G1 X76.711 Y104.574 E0.07289
G1 X76.712 Y100.182 E0.1859
G1 X76.952 Y97.524 E0.11298
G1 X77.106 Y95.808 E0.07292
G1 X77.89 Y91.487 E0.18589
G1 X79.059 Y87.253 E0.1859
G1 X80.603 Y83.141 E0.1859
G1 X81.76 Y80.738 E0.11292
G1 X82.509 Y79.185 E0.07298
G1 X83.877 Y76.895 E0.11292
G1 X84.761 Y75.415 E0.07298
G1 X87.343 Y71.862 E0.18589
G1 X90.233 Y68.555 E0.18591
G1 X92.16 Y66.712 E0.11287
G1 X93.407 Y65.52 E0.07302
G1 X96.842 Y62.782 E0.18591
G1 X100.507 Y60.363 E0.1859
G1 X104.375 Y58.282 E0.1859
G1 X108.413 Y56.556 E0.1859
G1 X112.59 Y55.199 E0.18588
G1 X116.872 Y54.222 E0.18591
G1 X121.224 Y53.633 E0.18589
G1 X125.636 Y53.435 E0.18694
G1 X226.111 Y53.443 E4.25288
G1 X226.111 Y143.03 E3.79204
M204 S1500
G1 X226.325 Y143.03 F9000
M204 S500
G1 X226.54 Y143.03
G1 F600
G1 X226.54 Y151.764 E0.36971
G1 X125.619 Y151.757 E4.27176
G1 X121.179 Y151.557 E0.18814
G1 X116.788 Y150.962 E0.18754
G1 X112.469 Y149.976 E0.18753
G1 X108.256 Y148.607 E0.18752
G1 X104.182 Y146.865 E0.18754
G1 X100.28 Y144.765 E0.18754
G1 X96.583 Y142.324 E0.18751
G1 X93.12 Y139.562 E0.18753
G1 X89.918 Y136.5 E0.18752
G1 X88.147 Y134.473 E0.11392
G1 X87.003 Y133.163 E0.07362
G1 X85.422 Y130.986 E0.11389
G1 X84.399 Y129.579 E0.07364
G1 X83.019 Y127.269 E0.11388
G1 X82.127 Y125.775 E0.07364
G1 X80.96 Y123.352 E0.11386
G1 X80.205 Y121.784 E0.07367
G1 X79.26 Y119.265 E0.11386
G1 X78.649 Y117.636 E0.07366
G1 X77.471 Y113.365 E0.18753
G1 X76.991 Y110.719 E0.11383
G1 X76.68 Y109.006 E0.0737
G1 X76.439 Y106.327 E0.11382
G1 X76.283 Y104.593 E0.0737
G1 X76.284 Y100.163 E0.18753
G1 X76.525 Y97.485 E0.1138
G1 X76.681 Y95.75 E0.07374
G1 X77.472 Y91.391 E0.18752
G1 X78.652 Y87.121 E0.18753
G1 X80.209 Y82.973 E0.18753
G1 X81.374 Y80.552 E0.11373
G1 X82.131 Y78.981 E0.07379
G1 X83.509 Y76.675 E0.11373
G1 X84.403 Y75.178 E0.07379
G1 X87.008 Y71.594 E0.18752
G1 X89.923 Y68.258 E0.18754
G1 X91.864 Y66.402 E0.11368
G1 X93.125 Y65.197 E0.07383
G1 X96.59 Y62.435 E0.18754
G1 X100.287 Y59.994 E0.18753
G1 X104.189 Y57.895 E0.18753
G1 X108.263 Y56.154 E0.18752
G1 X112.476 Y54.786 E0.18751
G1 X116.796 Y53.8 E0.18754
G1 X121.186 Y53.206 E0.18752
G1 X125.627 Y53.007 E0.18816
G1 X226.539 Y53.014 E4.27142
G1 X226.54 Y142.97 E3.80763
M204 S1500
G1 X226.754 Y142.97 F9000
M204 S500
G1 X226.968 Y142.97
;TYPE:External perimeter
G1 F600
G1 X226.968 Y152.193 E0.39039
G1 X125.609 Y152.185 E4.29031
G1 X121.14 Y151.984 E0.18936
G1 X116.711 Y151.384 E0.18917
G1 X112.355 Y150.389 E0.18916
G1 X108.105 Y149.008 E0.18915
G1 X103.996 Y147.251 E0.18917
G1 X100.06 Y145.133 E0.18917
G1 X96.331 Y142.671 E0.18914
G1 X92.837 Y139.885 E0.18916
G1 X89.608 Y136.796 E0.18915
G1 X87.824 Y134.755 E0.11473
G1 X86.668 Y133.431 E0.07443
G1 X85.075 Y131.238 E0.1147
G1 X84.041 Y129.815 E0.07446
G1 X82.651 Y127.489 E0.1147
G1 X81.749 Y125.979 E0.07446
G1 X80.574 Y123.537 E0.11468
G1 X79.811 Y121.952 E0.07448
G1 X78.859 Y119.416 E0.11468
G1 X78.241 Y117.768 E0.07448
G1 X77.052 Y113.46 E0.18916
G1 X76.569 Y110.795 E0.11464
G1 X76.255 Y109.063 E0.07451
G1 X76.012 Y106.366 E0.11463
G1 X75.854 Y104.612 E0.07452
G1 X75.855 Y100.143 E0.18916
G1 X76.098 Y97.447 E0.11461
G1 X76.256 Y95.693 E0.07455
G1 X77.054 Y91.296 E0.18915
G1 X78.244 Y86.988 E0.18916
G1 X79.814 Y82.804 E0.18915
G1 X80.988 Y80.366 E0.11455
G1 X81.753 Y78.778 E0.07461
G1 X83.142 Y76.455 E0.11455
G1 X84.045 Y74.942 E0.07461
G1 X86.672 Y71.327 E0.18915
G1 X89.613 Y67.962 E0.18916
G1 X91.568 Y66.092 E0.11449
G1 X92.843 Y64.874 E0.07465
G1 X96.337 Y62.088 E0.18917
G1 X100.067 Y59.626 E0.18916
G1 X104.003 Y57.509 E0.18916
G1 X108.112 Y55.753 E0.18915
G1 X112.362 Y54.372 E0.18914
G1 X116.719 Y53.378 E0.18917
G1 X121.147 Y52.779 E0.18915
G1 X125.617 Y52.578 E0.18938
G1 X226.968 Y52.586 E4.28996
G1 X226.968 Y142.91 E3.82323
;WIPE_START
G1 X226.622 Y143.17 F9000
;WIPE_END
G1 E-0.6 F3000
M204 S1500
G1 X225.858 Y98.381 F9000
M204 S500
G1 X225.095 Y53.593
G1 E0.6 F1800
;TYPE:Solid infill
;WIDTH:0.480199
G1 X225.777 Y54.275 E0.04084
G1 X225.777 Y54.881 E0.02566
G1 X224.673 Y53.777 E0.0661
G1 X224.067 Y53.777 E0.02566
G1 X225.777 Y55.487 E0.10239
G1 X225.777 Y56.093 E0.02566
G1 X223.461 Y53.777 E0.13868
G1 X222.855 Y53.777 E0.02566
G1 X225.777 Y56.699 E0.17498
G1 X225.777 Y57.305 E0.02566
G1 X222.249 Y53.777 E0.21127
G1 X221.643 Y53.777 E0.02566
G1 X225.777 Y57.911 E0.24756
G1 X225.777 Y58.517 E0.02566
G1 X221.037 Y53.777 E0.28385
G1 X220.431 Y53.777 E0.02566
G1 X225.777 Y59.123 E0.32015
G1 X225.777 Y59.729 E0.02566
G1 X219.825 Y53.777 E0.35644
G1 X219.219 Y53.776 E0.02566
G1 X225.777 Y60.335 E0.39273
G1 X225.777 Y60.94 E0.02566
G1 X218.613 Y53.776 E0.42902
G1 X218.007 Y53.776 E0.02566
G1 X225.777 Y61.546 E0.46532
G1 X225.777 Y62.152 E0.02566
G1 X217.401 Y53.776 E0.50161
G1 X216.795 Y53.776 E0.02566
G1 X225.777 Y62.758 E0.5379
G1 X225.777 Y63.364 E0.02566
G1 X216.189 Y53.776 E0.57419
G1 X215.582 Y53.776 E0.02566
G1 X225.777 Y63.97 E0.61049
G1 X225.777 Y64.576 E0.02566
G1 X214.976 Y53.776 E0.64678
G1 X214.37 Y53.776 E0.02566
G1 X225.777 Y65.182 E0.68307
G1 X225.777 Y65.788 E0.02566
G1 X213.764 Y53.776 E0.71936
G1 X213.158 Y53.776 E0.02566
G1 X225.777 Y66.394 E0.75566
G1 X225.777 Y67 E0.02566
G1 X212.552 Y53.776 E0.79195
G1 X211.946 Y53.776 E0.02566
G1 X225.777 Y67.606 E0.82824
G1 X225.777 Y68.212 E0.02566
G1 X211.34 Y53.776 E0.86453
G1 X210.734 Y53.776 E0.02566
G1 X225.777 Y68.818 E0.90083
G1 X225.777 Y69.424 E0.02566
G1 X210.128 Y53.776 E0.93712
G1 X209.522 Y53.776 E0.02566
G1 X225.777 Y70.03 E0.97341
G1 X225.777 Y70.636 E0.02566
G1 X208.916 Y53.776 E1.0097
G1 X208.31 Y53.776 E0.02566
G1 X225.777 Y71.242 E1.04599
G1 X225.777 Y71.848 E0.02566
G1 X207.704 Y53.776 E1.08229
G1 X207.098 Y53.776 E0.02566
G1 X225.777 Y72.454 E1.11858
G1 X225.777 Y73.06 E0.02566
G1 X206.492 Y53.776 E1.15487
G1 X205.886 Y53.775 E0.02566
G1 X225.777 Y73.666 E1.19116
G1 X225.777 Y74.272 E0.02566
G1 X205.28 Y53.775 E1.22746
G1 X204.674 Y53.775 E0.02566
G1 X225.777 Y74.878 E1.26375
G1 X225.777 Y75.484 E0.02566
G1 X204.068 Y53.775 E1.30004
G1 X203.462 Y53.775 E0.02566
G1 X225.777 Y76.09 E1.33633
G1 X225.777 Y76.696 E0.02566
G1 X202.856 Y53.775 E1.37263
G1 X202.25 Y53.775 E0.02566
G1 X225.777 Y77.302 E1.40892
G1 X225.777 Y77.908 E0.02566
G1 X201.644 Y53.775 E1.44521
G1 X201.038 Y53.775 E0.02566
G1 X225.777 Y78.514 E1.4815
G1 X225.777 Y79.12 E0.02566
G1 X200.432 Y53.775 E1.5178
G1 X199.826 Y53.775 E0.02566
G1 X225.777 Y79.726 E1.55409
G1 X225.777 Y80.332 E0.02566
G1 X199.22 Y53.775 E1.59038
G1 X198.614 Y53.775 E0.02566
G1 X225.777 Y80.938 E1.62667
G1 X225.777 Y81.544 E0.02566
G1 X198.008 Y53.775 E1.66297
G1 X197.402 Y53.775 E0.02566
G1 X225.777 Y82.15 E1.69926
G1 X225.777 Y82.756 E0.02566
G1 X196.796 Y53.775 E1.73555
G1 X196.19 Y53.775 E0.02566
G1 X225.777 Y83.362 E1.77184
G1 X225.777 Y83.968 E0.02566
G1 X195.584 Y53.775 E1.80813
G1 X194.978 Y53.775 E0.02566
G1 X225.777 Y84.574 E1.84443
G1 X225.777 Y85.18 E0.02566
G1 X194.372 Y53.775 E1.88072
G1 X193.765 Y53.775 E0.02566
G1 X225.777 Y85.786 E1.91701
G1 X225.777 Y86.392 E0.02566
G1 X193.159 Y53.775 E1.9533
G1 X192.553 Y53.774 E0.02566
G1 X225.777 Y86.998 E1.9896
G1 X225.777 Y87.604 E0.02566
G1 X191.947 Y53.774 E2.02589
G1 X191.341 Y53.774 E0.02566
G1 X225.777 Y88.21 E2.06218
G1 X225.777 Y88.816 E0.02566
G1 X190.735 Y53.774 E2.09847
G1 X190.129 Y53.774 E0.02566
G1 X225.777 Y89.422 E2.13477
G1 X225.777 Y90.028 E0.02566
G1 X189.523 Y53.774 E2.17106
G1 X188.917 Y53.774 E0.02566
G1 X225.777 Y90.634 E2.20735
G1 X225.777 Y91.24 E0.02566
G1 X188.311 Y53.774 E2.24364
G1 X187.705 Y53.774 E0.02566
G1 X225.777 Y91.846 E2.27994
G1 X225.777 Y92.452 E0.02566
G1 X187.099 Y53.774 E2.31623
G1 X186.493 Y53.774 E0.02566
G1 X225.777 Y93.058 E2.35252
G1 X225.777 Y93.664 E0.02566
G1 X185.887 Y53.774 E2.38881
G1 X185.281 Y53.774 E0.02566
G1 X225.777 Y94.27 E2.42511
G1 X225.777 Y94.876 E0.02566
G1 X184.675 Y53.774 E2.4614
G1 X184.069 Y53.774 E0.02566
G1 X225.777 Y95.482 E2.49769
G1 X225.777 Y96.088 E0.02566
G1 X183.463 Y53.774 E2.53398
G1 X182.857 Y53.774 E0.02566
G1 X225.777 Y96.694 E2.57028
G1 X225.777 Y97.3 E0.02566
G1 X182.251 Y53.774 E2.60657
G1 X181.645 Y53.774 E0.02566
G1 X225.777 Y97.906 E2.64286
G1 X225.777 Y98.512 E0.02566
G1 X181.039 Y53.774 E2.67915
G1 X180.433 Y53.774 E0.02566
G1 X225.777 Y99.118 E2.71544
G1 X225.777 Y99.724 E0.02566
G1 X179.827 Y53.774 E2.75174
G1 X179.221 Y53.774 E0.02566
G1 X225.777 Y100.329 E2.78803
G1 X225.777 Y100.935 E0.02566
G1 X178.615 Y53.773 E2.82432
G1 X178.009 Y53.773 E0.02566
G1 X225.777 Y101.541 E2.86061
G1 X225.777 Y102.147 E0.02566
G1 X177.403 Y53.773 E2.89691
G1 X176.797 Y53.773 E0.02566
G1 X225.777 Y102.753 E2.9332
G1 X225.777 Y103.359 E0.02566
G1 X176.191 Y53.773 E2.96949
G1 X175.585 Y53.773 E0.02566
G1 X225.777 Y103.965 E3.00578
G1 X225.777 Y104.571 E0.02566
G1 X174.979 Y53.773 E3.04208
G1 X174.373 Y53.773 E0.02566
G1 X225.777 Y105.177 E3.07837
G1 X225.777 Y105.783 E0.02566
G1 X173.767 Y53.773 E3.11466
G1 X173.161 Y53.773 E0.02566
G1 X225.777 Y106.389 E3.15095
G1 X225.777 Y106.995 E0.02566
G1 X172.554 Y53.773 E3.18725
G1 X171.948 Y53.773 E0.02566
G1 X225.777 Y107.601 E3.22354
G1 X225.777 Y108.207 E0.02566
G1 X171.342 Y53.773 E3.25983
G1 X170.736 Y53.773 E0.02566
G1 X225.777 Y108.813 E3.29612
G1 X225.777 Y109.419 E0.02566
G1 X170.13 Y53.773 E3.33242
G1 X169.524 Y53.773 E0.02566
G1 X225.777 Y110.025 E3.36871
G1 X225.777 Y110.631 E0.02566
G1 X168.918 Y53.773 E3.405
G1 X168.312 Y53.773 E0.02566
G1 X225.777 Y111.237 E3.44129
G1 X225.777 Y111.843 E0.02566
G1 X167.706 Y53.773 E3.47758
G1 X167.1 Y53.773 E0.02566
G1 X225.777 Y112.449 E3.51388
G1 X225.777 Y113.055 E0.02566
G1 X166.494 Y53.773 E3.55017
G1 X165.888 Y53.773 E0.02566
G1 X225.777 Y113.661 E3.58646
G1 X225.777 Y114.267 E0.02566
G1 X165.282 Y53.772 E3.62275
G1 X164.676 Y53.772 E0.02566
G1 X225.777 Y114.873 E3.65905
G1 X225.777 Y115.479 E0.02566
G1 X164.07 Y53.772 E3.69534
G1 X163.464 Y53.772 E0.02566
G1 X225.777 Y116.085 E3.73163
G1 X225.777 Y116.691 E0.02566
G1 X162.858 Y53.772 E3.76792
G1 X162.252 Y53.772 E0.02566
G1 X225.777 Y117.297 E3.80422
G1 X225.777 Y117.903 E0.02566
G1 X161.646 Y53.772 E3.84051
G1 X161.04 Y53.772 E0.02566
G1 X225.777 Y118.509 E3.8768
G1 X225.777 Y119.115 E0.02566
G1 X160.434 Y53.772 E3.91309
G1 X159.828 Y53.772 E0.02566
G1 X225.777 Y119.721 E3.94939
G1 X225.777 Y120.327 E0.02566
G1 X159.222 Y53.772 E3.98568
G1 X158.616 Y53.772 E0.02566
G1 X225.777 Y120.933 E4.02197
G1 X225.777 Y121.539 E0.02566
G1 X158.01 Y53.772 E4.05826
G1 X157.404 Y53.772 E0.02566
G1 X225.777 Y122.145 E4.09456
G1 X225.777 Y122.751 E0.02566
G1 X156.798 Y53.772 E4.13085
G1 X156.192 Y53.772 E0.02566
G1 X225.777 Y123.357 E4.16714
G1 X225.777 Y123.963 E0.02566
G1 X155.586 Y53.772 E4.20343
G1 X154.98 Y53.772 E0.02566
G1 X225.777 Y124.569 E4.23973
G1 X225.777 Y125.175 E0.02566
G1 X154.374 Y53.772 E4.27602
G1 X153.768 Y53.772 E0.02566
G1 X225.777 Y125.781 E4.31231
G1 X225.777 Y126.387 E0.02566
G1 X153.162 Y53.772 E4.3486
G1 X152.556 Y53.772 E0.02566
G1 X225.777 Y126.993 E4.38489
G1 X225.777 Y127.599 E0.02566
G1 X151.95 Y53.771 E4.42119
G1 X151.343 Y53.771 E0.02566
G1 X225.777 Y128.205 E4.45748
G1 X225.777 Y128.811 E0.02566
G1 X150.737 Y53.771 E4.49377
G1 X150.131 Y53.771 E0.02566
G1 X225.777 Y129.417 E4.53006
G1 X225.777 Y130.023 E0.02566
G1 X149.525 Y53.771 E4.56636
G1 X148.919 Y53.771 E0.02566
G1 X225.777 Y130.629 E4.60265
