; generated by SuperSlicer 2.4 on 2022-05-06 at 00:55:52 UTC


;
;

;
;
; 

; external perimeters extrusion width = 0.40mm
; perimeters extrusion width = 0.40mm
; infill extrusion width = 0.72mm
; solid infill extrusion width = 0.56mm
; top infill extrusion width = 0.40mm
; first layer extrusion width = 0.48mm

; external perimeters extrusion width = 0.40mm
; perimeters extrusion width = 0.40mm
; infill extrusion width = 0.72mm
; solid infill extrusion width = 0.56mm
; top infill extrusion width = 0.40mm
; first layer extrusion width = 0.48mm

; external perimeters extrusion width = 0.40mm
; perimeters extrusion width = 0.40mm
; infill extrusion width = 0.72mm
; solid infill extrusion width = 0.56mm
; top infill extrusion width = 0.40mm
; first layer extrusion width = 0.48mm

; external perimeters extrusion width = 0.40mm
; perimeters extrusion width = 0.40mm
; infill extrusion width = 0.72mm
; solid infill extrusion width = 0.56mm
; top infill extrusion width = 0.40mm
; first layer extrusion width = 0.48mm

; object:{"name":"Probe_Dock_v2","id":"Probe_Dock_v2.1.stl id:0 copy 0","object_center":[183.673800,177.204822,0.000000],"boundingbox_center":[183.673800,177.204822,5.250023],"boundingbox_size":[36.255005,17.000031,10.500046]}
; object:{"name":"probe","id":"probe.stl id:1 copy 0","object_center":[174.656633,148.837558,0.000000],"boundingbox_center":[174.656633,148.837558,13.517153],"boundingbox_size":[19.224609,27.734489,27.034306]}
; object:{"name":"Probe_magnet_pressfit_helper","id":"Probe_magnet_pressfit_helper.stl id:2 copy 0","object_center":[143.900565,159.622304,0.000000],"boundingbox_center":[143.900565,159.622304,3.000003],"boundingbox_size":[31.403725,21.063652,6.000007]}
; object:{"name":"Probe_pressfit_holder","id":"Probe_pressfit_holder.stl id:3 copy 0","object_center":[144.546298,185.591909,0.000000],"boundingbox_center":[144.546298,185.591909,7.000004],"boundingbox_size":[30.000000,18.875549,14.000007]}
; plater:{"center":[165.000003,164.999998,0.000000],"boundingbox_center":[165.000003,164.999998,13.517153],"boundingbox_size":[73.602600,60.059370,27.034306]}

M73 P0 R63
;TYPE:Custom
START_PRINT T_BED=110 T_EXTRUDER=245
M107
G21 ; set units to millimeters
G90 ; use absolute coordinates
M83 ; use relative distances for extrusion
; Filament gcode
M104 S245 ; set temperature
M109 S245 ; set temperature and wait for it to be reached
M190 S110 ; set bed temperature and wait for it to be reached
M107
;LAYER_CHANGE
;Z:0.24
;HEIGHT:0.24
G1 Z0.24 F9000
G92 E0
G1 E-0.5 F3000
M204 S1000
G1 X126.421 Y147.153 F9000
G1 E0.5 F1800
;TYPE:Skirt
;WIDTH:0.52
G1 X125.866 Y147.749 E0.03654
G1 X125.434 Y148.359 E0.03356
G1 X124.908 Y149.458 E0.05465
G1 X124.65 Y150.447 E0.04589
G1 X124.572 Y151.194 E0.03369
G1 X124.569 Y168.518 E0.77744
G1 X125.931 Y194.621 E1.17304
G1 X126.656 Y196.634 E0.09599
G1 X127.963 Y197.733 E0.07668
G1 X129.626 Y198.128 E0.07668
G1 X159.467 Y198.128 E1.33916
G1 X160.272 Y198.039 E0.03635
G1 X200.343 Y189.103 E1.84243
G1 X201.779 Y188.439 E0.07099
G1 X202.949 Y187.079 E0.08053
G1 X203.342 Y185.416 E0.07668
G1 X203.331 Y168.915 E0.74053
G1 X202.982 Y167.348 E0.07201
G1 X187.179 Y133.6 E1.67232
G1 X186.242 Y132.365 E0.06959
G1 X184.724 Y131.58 E0.07668
G1 X183.573 Y131.387 E0.05237
G1 X180.802 Y131.374 E0.12437
G1 X166.057 Y131.374 E0.66171
G1 X164.59 Y131.579 E0.06651
G1 X128.256 Y145.98 E1.75395
G1 X127.132 Y146.581 E0.05721
G1 X126.421 Y147.153 E0.04094
G1 X126.73 Y147.503 F9000
G1 F1800
G1 X126.222 Y148.05 E0.03349
G1 X125.826 Y148.613 E0.03089
G1 X125.351 Y149.604 E0.04932
G1 X125.108 Y150.536 E0.04322
G1 X125.037 Y151.223 E0.03102
G1 X125.035 Y168.493 E0.77501
G1 X126.397 Y194.597 E1.17304
G1 X126.91 Y196.182 E0.07477
G1 X128.079 Y197.268 E0.07161
G1 X129.626 Y197.662 E0.07161
G1 X159.467 Y197.662 E1.33916
G1 X160.17 Y197.584 E0.03177
G1 X200.241 Y188.648 E1.84243
G1 X201.509 Y188.058 E0.06276
G1 X202.483 Y186.963 E0.06577
G1 X202.876 Y185.416 E0.07161
G1 X202.864 Y168.915 E0.74053
G1 X202.559 Y167.546 E0.06294
G1 X186.757 Y133.798 E1.67232
G1 X186.017 Y132.788 E0.05618
G1 X184.611 Y132.032 E0.07161
G1 X183.533 Y131.852 E0.04905
G1 X180.802 Y131.84 E0.12257
G1 X166.057 Y131.84 E0.66171
G1 X164.702 Y132.032 E0.06141
G1 X128.428 Y146.413 E1.75115
G1 X127.385 Y146.972 E0.0531
G1 X126.73 Y147.503 E0.03784
; INIT printing object Probe_Dock_v2.1.stl id:0 copy 0
G1 E-0.5 F3000
; printing object Probe_Dock_v2.1.stl id:0 copy 0
; acceleration to travel
M204 S3000
G1 X158.611 Y164.708 F9000
; decel to extrusion
M204 S1000
G1 X169.238 Y170.443
; end travel
G1 E0.5 F1800
;TYPE:Internal perimeter
;WIDTH:0.48
G1 X170.005 Y170.443 E0.03149
G1 X171.572 Y183.967 E0.55883
G1 X169.231 Y183.967 E0.09609
G1 X169.238 Y170.443 E0.55512
G1 E-0.5 F3000
; acceleration to travel
M204 S3000
G1 X190.135 Y172.011 F9000
; decel to extrusion
M204 S1000
G1 X197.1 Y172.534
; end travel
G1 E0.5 F1800
G1 X197.342 Y170.443 E0.08643
G1 X198.107 Y170.443 E0.03137
G1 X198.107 Y171.303 E0.03531
G1 X198.116 Y183.967 E0.51981
G1 X195.775 Y183.967 E0.09608
G1 X197.1 Y172.534 E0.4724
G1 E-0.5 F3000
; acceleration to travel
M204 S3000
G1 X175.882 Y170.644 F9000
; decel to extrusion
M204 S1000
G1 X168.81 Y170.014
; end travel
G1 E0.5 F1800
G1 X170.387 Y170.014 E0.06474
G1 X171.924 Y183.279 E0.54812
G1 X195.424 Y183.279 E0.96456
G1 X196.961 Y170.014 E0.54812
G1 X198.535 Y170.014 E0.06462
G1 X198.536 Y171.303 E0.05289
G1 X198.545 Y184.396 E0.5374
G1 X168.802 Y184.396 E1.22079
G1 X168.81 Y170.014 E0.59029
G1 X168.381 Y169.586 F9000
G1 F1800
G1 X170.769 Y169.586 E0.09798
G1 X172.306 Y182.851 E0.54812
G1 X195.042 Y182.851 E0.93323
G1 X196.579 Y169.586 E0.54812
G1 X198.963 Y169.586 E0.09786
G1 X198.964 Y171.302 E0.07046
G1 X198.974 Y184.824 E0.555
G1 X168.374 Y184.824 E1.25599
G1 X168.381 Y169.586 E0.62547
G1 X167.953 Y169.157 F9000
;TYPE:External perimeter
G1 F1800
G1 X171.15 Y169.157 E0.13123
G1 X171.966 Y176.198 E0.29091
G1 X172.687 Y182.422 E0.25721
G1 X194.66 Y182.422 E0.90189
G1 X195.949 Y171.302 E0.45949
G1 X196.197 Y169.157 E0.08863
G1 X199.391 Y169.157 E0.1311
G1 X199.393 Y171.302 E0.08804
G1 X199.403 Y185.253 E0.5726
G1 X167.945 Y185.253 E1.29118
G1 X167.953 Y169.157 E0.66064
;WIPE_START
M204 S5000
G1 X168.299 Y169.357 F9000
;WIPE_END
; acceleration to travel
M204 S3000
G1 X169.293 Y170.319
; decel to extrusion
M204 S1000
G1 X169.624 Y170.64
; end travel
;TYPE:Gap fill
;WIDTH:0.42066
G1 F1800
G1 X169.634 Y170.744 E0.00371
;WIDTH:0.469252
G1 X169.644 Y170.848 E0.0042
G1 X169.662 Y171.176 E0.01312
;WIDTH:0.512635
G1 X169.681 Y171.503 E0.01448
;WIDTH:0.556018
G1 X169.7 Y171.83 E0.01584
;WIDTH:0.599401
G1 X169.719 Y172.158 E0.01721
;WIDTH:0.642784
G1 X169.738 Y172.485 E0.01857
;WIDTH:0.686167
G1 X169.756 Y172.812 E0.01993
;WIDTH:0.72955
G1 X169.775 Y173.139 E0.02129
;WIDTH:0.772932
G1 X169.794 Y173.467 E0.02266
G1 X169.804 Y173.647 E0.01246
;WIDTH:0.815981
G1 X169.815 Y173.827 E0.01321
; acceleration to travel
M204 S3000
G1 X170.271 Y174.531 F9000
; decel to extrusion
M204 S1000
G1 X170.445 Y174.8
; end travel
;TYPE:Solid infill
;WIDTH:0.442781
G1 F3600
G1 X169.686 Y174.04 E0.04067
G1 X169.485 Y174.052 E0.00763
G1 X169.484 Y174.445 E0.01488
G1 X170.315 Y175.275 E0.04447
G1 X170.394 Y175.961 E0.02612
G1 X169.484 Y175.051 E0.04874
G1 X169.484 Y175.656 E0.02293
G1 X170.474 Y176.646 E0.05301
G1 X170.553 Y177.332 E0.02612
G1 X169.484 Y176.262 E0.05728
G1 X169.483 Y176.868 E0.02293
G1 X170.633 Y178.017 E0.06154
G1 X170.712 Y178.702 E0.02612
G1 X169.483 Y177.473 E0.06581
G1 X169.483 Y178.079 E0.02293
G1 X170.791 Y179.388 E0.07008
G1 X170.871 Y180.073 E0.02612
G1 X169.482 Y178.685 E0.07435
G1 X169.482 Y179.29 E0.02293
G1 X170.95 Y180.759 E0.07862
G1 X171.03 Y181.444 E0.02612
G1 X169.482 Y179.896 E0.08289
G1 X169.481 Y180.502 E0.02293
G1 X171.109 Y182.129 E0.08716
G1 X171.188 Y182.815 E0.02612
G1 X169.481 Y181.107 E0.09142
G1 X169.481 Y181.713 E0.02293
G1 X171.268 Y183.5 E0.09569
G1 X171.293 Y183.719 E0.00832
G1 X170.88 Y183.719 E0.01564
G1 X169.48 Y182.319 E0.07495
G1 X169.48 Y182.924 E0.02293
G1 X170.274 Y183.719 E0.04252
G1 X169.668 Y183.719 E0.02294
G1 X169.296 Y183.346 E0.01995
; acceleration to travel
M204 S3000
G1 X171.2 Y183.725 F9000
; decel to extrusion
M204 S1000
G1 X171.755 Y183.835
; end travel
;TYPE:Gap fill
;WIDTH:0.733647
G1 F1800
G1 X171.937 Y183.836 E0.01189
;WIDTH:0.773794
G1 X172.119 Y183.837 E0.01259
G1 X183.674 Y183.837 E0.79945
G1 X195.229 Y183.837 E0.79945
G1 X195.411 Y183.836 E0.01259
;WIDTH:0.733671
G1 X195.592 Y183.835 E0.01189
; acceleration to travel
M204 S3000
G1 X196.702 Y176.6 F9000
; decel to extrusion
M204 S1000
G1 X197.125 Y173.843
; end travel
;TYPE:Solid infill
;WIDTH:0.440614
G1 F3600
G1 X197.861 Y174.579 E0.03924
G1 X197.862 Y175.186 E0.02285
G1 X197.128 Y174.452 E0.03909
G1 X197.065 Y174.995 E0.0206
G1 X197.862 Y175.792 E0.04246
G1 X197.862 Y176.399 E0.02285
G1 X197.002 Y175.538 E0.04584
G1 X196.939 Y176.081 E0.0206
G1 X197.863 Y177.005 E0.04921
G1 X197.863 Y177.611 E0.02285
G1 X196.876 Y176.625 E0.05259
G1 X196.813 Y177.168 E0.0206
G1 X197.864 Y178.218 E0.05596
G1 X197.864 Y178.824 E0.02285
G1 X196.751 Y177.711 E0.05934
G1 X196.688 Y178.254 E0.0206
G1 X197.865 Y179.431 E0.06271
G1 X197.865 Y180.037 E0.02285
G1 X196.625 Y178.797 E0.06609
G1 X196.562 Y179.34 E0.0206
G1 X197.865 Y180.643 E0.06946
G1 X197.866 Y181.25 E0.02285
G1 X196.499 Y179.883 E0.07284
G1 X196.436 Y180.426 E0.0206
G1 X197.866 Y181.856 E0.07621
G1 X197.867 Y182.463 E0.02285
G1 X196.373 Y180.969 E0.07959
G1 X196.31 Y181.512 E0.0206
G1 X197.867 Y183.069 E0.08296
G1 X197.867 Y183.675 E0.02285
G1 X196.247 Y182.055 E0.08634
G1 X196.184 Y182.598 E0.0206
G1 X197.305 Y183.719 E0.0597
G1 X196.699 Y183.719 E0.02283
G1 X196.121 Y183.141 E0.03076
G1 X196.058 Y183.684 E0.0206
G1 X196.277 Y183.903 E0.01164
; acceleration to travel
M204 S3000
G1 X197.53 Y176.279 F9000
; decel to extrusion
M204 S1000
G1 X197.895 Y174.055
; end travel
;TYPE:Gap fill
;WIDTH:0.397447
G1 F1800
G1 X197.754 Y173.999 E0.00503
;WIDTH:0.30965
G1 X197.61 Y173.934 E0.00391
;WIDTH:0.216995
G1 X197.466 Y173.869 E0.0025
;WIDTH:0.147504
G1 X197.394 Y173.837 E0.00073
G1 X197.531 Y173.845 F9000
;WIDTH:0.815917
G1 F1800
G1 X197.541 Y173.665 E0.0132
;WIDTH:0.772805
G1 X197.551 Y173.485 E0.01246
G1 X197.57 Y173.155 E0.02282
;WIDTH:0.729029
G1 X197.589 Y172.825 E0.02143
;WIDTH:0.685253
G1 X197.608 Y172.496 E0.02005
;WIDTH:0.641477
G1 X197.627 Y172.166 E0.01866
;WIDTH:0.597701
G1 X197.646 Y171.836 E0.01728
;WIDTH:0.553925
G1 X197.665 Y171.506 E0.0159
;WIDTH:0.510149
G1 X197.684 Y171.177 E0.01451
;WIDTH:0.466372
G1 X197.703 Y170.847 E0.01313
G1 X197.712 Y170.743 E0.00414
;WIDTH:0.418119
G1 X197.722 Y170.64 E0.00366
; INIT stop printing object Probe_Dock_v2.1.stl id:0 copy 0
; INIT printing object probe.stl id:1 copy 0
G1 E-0.5 F3000
; stop printing object Probe_Dock_v2.1.stl id:0 copy 0
; printing object probe.stl id:1 copy 0
; acceleration to travel
M204 S3000
G1 X181.97 Y159.491 F9000
; decel to extrusion
M204 S1000
G1 X176.719 Y155.774
; end travel
M73 P1 R63
G1 E0.5 F1800
;TYPE:Internal perimeter
;WIDTH:0.48
G1 X176.726 Y155.868 E0.00386
G1 X176.836 Y156.362 E0.02077
G1 X177.017 Y156.835 E0.02077
G1 X177.265 Y157.276 E0.02077
G1 X177.574 Y157.677 E0.02077
G1 X177.938 Y158.028 E0.02077
G1 X178.35 Y158.322 E0.02077
G1 X178.8 Y158.554 E0.02077
G1 X179.279 Y158.717 E0.02077
G1 X179.777 Y158.809 E0.02077
G1 X180.282 Y158.828 E0.02077
G1 X180.786 Y158.772 E0.02077
G1 X181.275 Y158.644 E0.02077
G1 X181.552 Y158.526 E0.01237
G1 X181.552 Y161.075 E0.1046
G1 X168.035 Y161.075 E0.55481
G1 X168.035 Y158.538 E0.10412
G1 X168.56 Y158.717 E0.02275
G1 X169.058 Y158.809 E0.02077
G1 X169.563 Y158.828 E0.02077
G1 X170.067 Y158.772 E0.02077
G1 X170.556 Y158.644 E0.02077
G1 X171.022 Y158.446 E0.02077
G1 X171.454 Y158.183 E0.02077
G1 X171.843 Y157.859 E0.02077
G1 X172.181 Y157.482 E0.02078
G1 X172.46 Y157.06 E0.02077
G1 X172.675 Y156.602 E0.02077
G1 X172.82 Y156.117 E0.02077
G1 X172.894 Y155.616 E0.02077
G1 X172.894 Y155.11 E0.02077
G1 X172.82 Y154.61 E0.02077
G1 X172.675 Y154.125 E0.02077
G1 X172.46 Y153.667 E0.02077
G1 X172.181 Y153.245 E0.02077
G1 X171.843 Y152.868 E0.02077
G1 X171.454 Y152.544 E0.02077
G1 X171.022 Y152.28 E0.02077
G1 X170.556 Y152.082 E0.02077
G1 X170.053 Y151.951 E0.02136
G1 X169.492 Y151.902 E0.0231
G1 X169.058 Y151.918 E0.01784
G1 X168.56 Y152.009 E0.02077
G1 X168.036 Y152.188 E0.02275
G1 X168.036 Y136.599 E0.63989
G1 X181.552 Y136.599 E0.5548
G1 X181.552 Y152.2 E0.64038
G1 X181.275 Y152.082 E0.01237
G1 X180.785 Y151.954 E0.02077
G1 X180.282 Y151.899 E0.02077
G1 X179.777 Y151.918 E0.02077
G1 X179.279 Y152.009 E0.02077
G1 X178.8 Y152.173 E0.02077
G1 X178.35 Y152.404 E0.02077
G1 X177.938 Y152.699 E0.02077
G1 X177.574 Y153.05 E0.02077
G1 X177.265 Y153.451 E0.02077
G1 X177.017 Y153.892 E0.02077
G1 X176.836 Y154.365 E0.02077
G1 X176.726 Y154.858 E0.02077
G1 X176.689 Y155.363 E0.02078
G1 X176.719 Y155.774 E0.01691
G1 X177.147 Y155.743 F9000
G1 F1800
G1 X177.151 Y155.806 E0.00258
G1 X177.248 Y156.238 E0.0182
G1 X177.406 Y156.652 E0.0182
G1 X177.623 Y157.039 E0.0182
G1 X177.894 Y157.39 E0.0182
G1 X178.213 Y157.698 E0.0182
G1 X178.574 Y157.956 E0.0182
G1 X178.968 Y158.158 E0.0182
G1 X179.388 Y158.301 E0.0182
G1 X179.824 Y158.382 E0.0182
G1 X180.267 Y158.398 E0.0182
G1 X180.707 Y158.35 E0.0182
G1 X181.136 Y158.238 E0.0182
G1 X181.544 Y158.064 E0.0182
G1 X181.981 Y157.798 E0.02099
G1 X181.981 Y161.503 E0.1521
G1 X167.607 Y161.503 E0.58998
G1 X167.607 Y157.828 E0.15084
G1 X168.249 Y158.158 E0.02963
G1 X168.669 Y158.301 E0.0182
G1 X169.105 Y158.382 E0.0182
G1 X169.548 Y158.398 E0.0182
G1 X169.988 Y158.35 E0.0182
G1 X170.417 Y158.238 E0.0182
G1 X170.825 Y158.064 E0.0182
G1 X171.204 Y157.833 E0.0182
G1 X171.545 Y157.55 E0.0182
G1 X171.841 Y157.219 E0.0182
G1 X172.085 Y156.85 E0.0182
G1 X172.273 Y156.448 E0.0182
G1 X172.401 Y156.024 E0.0182
G1 X172.466 Y155.585 E0.0182
G1 X172.466 Y155.142 E0.0182
G1 X172.401 Y154.703 E0.0182
G1 X172.273 Y154.278 E0.0182
G1 X172.085 Y153.877 E0.0182
G1 X171.841 Y153.507 E0.0182
G1 X171.545 Y153.177 E0.0182
G1 X171.204 Y152.893 E0.0182
G1 X170.825 Y152.662 E0.0182
G1 X170.417 Y152.489 E0.0182
G1 X169.979 Y152.374 E0.01859
G1 X169.481 Y152.331 E0.02052
G1 X169.105 Y152.345 E0.01546
G1 X168.669 Y152.425 E0.0182
G1 X168.249 Y152.568 E0.0182
G1 X167.607 Y152.898 E0.02963
G1 X167.607 Y136.739 E0.66328
G1 X166.585 Y136.725 E0.04197
G1 X166.583 Y136.17 E0.02278
G1 X182.726 Y136.17 E0.66257
G1 X182.722 Y136.727 E0.02285
G1 X181.981 Y136.729 E0.03043
G1 X181.981 Y152.929 E0.66494
G1 X181.544 Y152.662 E0.02099
G1 X181.136 Y152.489 E0.0182
G1 X180.707 Y152.377 E0.0182
G1 X180.267 Y152.328 E0.0182
G1 X179.824 Y152.345 E0.0182
G1 X179.388 Y152.425 E0.0182
G1 X178.968 Y152.568 E0.0182
G1 X178.574 Y152.771 E0.0182
G1 X178.213 Y153.029 E0.0182
G1 X177.894 Y153.337 E0.0182
G1 X177.623 Y153.688 E0.0182
G1 X177.406 Y154.074 E0.0182
G1 X177.248 Y154.488 E0.0182
G1 X177.151 Y154.921 E0.0182
G1 X177.119 Y155.363 E0.0182
G1 X177.147 Y155.743 E0.01562
; acceleration to travel
M204 S3000
G1 X169.354 Y141.803 F9000
; decel to extrusion
M204 S1000
G1 X166.756 Y137.156
; end travel
G1 F1800
G1 X166.157 Y137.148 E0.02459
G1 X166.154 Y135.742 E0.05772
G1 X166.545 Y135.742 E0.01602
G1 X183.157 Y135.742 E0.68188
G1 X183.148 Y137.154 E0.05799
G1 X182.409 Y137.156 E0.03031
G1 X182.409 Y153.982 E0.69062
G1 X181.965 Y153.486 E0.02731
G1 X181.673 Y153.243 E0.01562
G1 X181.348 Y153.045 E0.01562
G1 X180.998 Y152.896 E0.01562
G1 X180.629 Y152.799 E0.01562
G1 X180.251 Y152.758 E0.01562
G1 X179.871 Y152.772 E0.01562
G1 X179.496 Y152.841 E0.01562
G1 X179.136 Y152.964 E0.01562
G1 X178.798 Y153.138 E0.01562
G1 X178.488 Y153.359 E0.01562
G1 X178.214 Y153.623 E0.01562
G1 X177.981 Y153.925 E0.01562
G1 X177.795 Y154.257 E0.01562
G1 X177.659 Y154.612 E0.01562
G1 X177.576 Y154.984 E0.01562
G1 X177.549 Y155.363 E0.01563
G1 X177.576 Y155.743 E0.01563
G1 X177.659 Y156.114 E0.01562
G1 X177.795 Y156.47 E0.01562
G1 X177.981 Y156.802 E0.01562
G1 X178.214 Y157.103 E0.01562
G1 X178.488 Y157.367 E0.01562
