; generated by SuperSlicer 2.4 on 2022-08-22 at 19:04:28 UTC


;
;

;
;
; 

; external perimeters extrusion width = 0.48mm
; perimeters extrusion width = 0.48mm
; infill extrusion width = 0.72mm
; solid infill extrusion width = 0.56mm
; top infill extrusion width = 0.40mm
; first layer extrusion width = 0.48mm

; external perimeters extrusion width = 0.48mm
; perimeters extrusion width = 0.48mm
; infill extrusion width = 0.72mm
; solid infill extrusion width = 0.56mm
; top infill extrusion width = 0.40mm
; first layer extrusion width = 0.48mm

; object:{"name":"duct","id":"duct.stl id:0 copy 0","object_center":[157.503762,215.355465,0.000000],"boundingbox_center":[157.503762,215.355465,8.017155],"boundingbox_size":[95.962505,95.938057,16.034310]}
; object:{"name":"duct1","id":"duct1.stl id:1 copy 0","object_center":[172.510824,114.644576,0.000000],"boundingbox_center":[172.510824,114.644576,8.017076],"boundingbox_size":[95.962487,95.938016,16.034152]}
; plater:{"center":[165.007288,165.000031,0.000000],"boundingbox_center":[165.007288,165.000031,8.017155],"boundingbox_size":[110.969558,196.648925,16.034310]}

M73 P0 R59
;TYPE:Custom
START_PRINT T_BED=110 T_EXTRUDER=245
M107
G21 ; set units to millimeters
G90 ; use absolute coordinates
M83 ; use relative distances for extrusion
; Filament gcode
M104 S245 ; set temperature
M109 S245 ; set temperature and wait for it to be reached
M190 S110 ; set bed temperature and wait for it to be reached
M107
;LAYER_CHANGE
;Z:0.2
;HEIGHT:0.2
G1 Z0.2 F9000
G92 E0
G1 E-0.5 F3000
M204 S1000
G1 X128.094 Y84.705 F9000
G1 E0.5 F1800
;TYPE:Skirt
;WIDTH:0.52
G1 X125.108 Y89.695 E0.23071
G1 X122.892 Y94.459 E0.2084
G1 X121.313 Y98.881 E0.18626
G1 X119.907 Y104.516 E0.23039
G1 X104.218 Y209.839 E4.22421
G1 X103.934 Y215.089 E0.20857
G1 X104.165 Y220.337 E0.2084
G1 X104.91 Y225.542 E0.20857
G1 X106.16 Y230.645 E0.2084
G1 X107.907 Y235.604 E0.20857
G1 X110.129 Y240.364 E0.2084
G1 X112.809 Y244.887 E0.20858
G1 X115.917 Y249.123 E0.2084
G1 X119.429 Y253.036 E0.20857
G1 X123.303 Y256.584 E0.2084
G1 X127.51 Y259.737 E0.20857
G1 X132.002 Y262.462 E0.2084
G1 X136.744 Y264.733 E0.20857
G1 X141.681 Y266.528 E0.2084
G1 X146.775 Y267.831 E0.20857
G1 X151.967 Y268.629 E0.20841
G1 X157.776 Y268.913 E0.23072
G1 X163.026 Y268.627 E0.20854
G1 X167.67 Y267.937 E0.18627
G1 X173.311 Y266.523 E0.2307
G1 X177.732 Y264.94 E0.18627
G1 X182.493 Y262.718 E0.20842
G1 X187.481 Y259.727 E0.23072
G1 X191.686 Y256.573 E0.20853
G1 X195.164 Y253.419 E0.18627
G1 X199.07 Y249.109 E0.2307
G1 X202.176 Y244.872 E0.20844
G1 X204.855 Y240.349 E0.20853
G1 X206.861 Y236.103 E0.18626
G1 X208.657 Y231.165 E0.20844
G1 X210.068 Y225.528 E0.23054
G1 X225.768 Y120.128 E4.22728
G1 X226.048 Y114.879 E0.20853
G1 X225.814 Y109.629 E0.20844
G1 X225.064 Y104.426 E0.20853
G1 X223.81 Y99.324 E0.20844
M73 P0 R59
G1 X222.06 Y94.367 E0.20853
G1 X219.834 Y89.607 E0.20844
G1 X217.151 Y85.087 E0.20853
G1 X214.038 Y80.853 E0.20847
G1 X210.526 Y76.944 E0.20847
G1 X206.648 Y73.397 E0.20847
G1 X202.439 Y70.248 E0.20853
G1 X197.944 Y67.527 E0.20844
G1 X193.201 Y65.259 E0.20854
G1 X188.262 Y63.467 E0.20844
G1 X183.168 Y62.169 E0.20854
G1 X177.415 Y61.32 E0.23068
G1 X172.164 Y61.094 E0.2085
G1 X167.475 Y61.329 E0.18626
G1 X161.723 Y62.188 E0.23071
G1 X157.169 Y63.333 E0.18626
G1 X152.213 Y65.083 E0.20851
G1 X146.957 Y67.574 E0.23071
G1 X142.933 Y69.992 E0.18625
G1 X138.699 Y73.103 E0.20842
G1 X134.394 Y77.013 E0.2307
G1 X131.243 Y80.495 E0.18627
G1 X128.094 Y84.705 E0.20856
G1 X128.478 Y84.988 F9000
G1 F1800
G1 X125.54 Y89.899 E0.227
G1 X123.341 Y94.619 E0.20655
G1 X121.763 Y99.041 E0.18626
G1 X120.379 Y104.586 E0.22671
G1 X104.69 Y209.909 E4.2242
G1 X104.411 Y215.112 E0.20671
G1 X104.641 Y220.314 E0.20655
G1 X105.382 Y225.472 E0.20671
G1 X106.623 Y230.529 E0.20655
G1 X108.356 Y235.443 E0.20671
G1 X110.56 Y240.16 E0.20655
G1 X113.218 Y244.642 E0.20671
G1 X116.3 Y248.839 E0.20655
G1 X119.782 Y252.716 E0.20671
G1 X123.623 Y256.231 E0.20655
M73 P1 R58
G1 X127.794 Y259.354 E0.20671
G1 X132.247 Y262.052 E0.20655
G1 X136.948 Y264.302 E0.20671
G1 X141.842 Y266.079 E0.20655
G1 X146.89 Y267.368 E0.2067
G1 X152.037 Y268.157 E0.20656
G1 X157.753 Y268.436 E0.22701
G1 X162.956 Y268.155 E0.20668
G1 X167.6 Y267.465 E0.18627
G1 X173.15 Y266.074 E0.22699
G1 X177.571 Y264.491 E0.18627
G1 X182.289 Y262.287 E0.20657
G1 X187.196 Y259.344 E0.227
G1 X191.366 Y256.22 E0.20667
G1 X194.844 Y253.065 E0.18627
G1 X198.686 Y248.825 E0.22699
G1 X201.767 Y244.626 E0.20659
G1 X204.423 Y240.145 E0.20667
G1 X206.43 Y235.9 E0.18626
G1 X208.208 Y231.005 E0.20658
G1 X209.596 Y225.457 E0.22684
G1 X225.296 Y120.058 E4.22725
G1 X225.572 Y114.856 E0.20667
G1 X225.337 Y109.653 E0.20659
G1 X224.593 Y104.497 E0.20667
G1 X223.347 Y99.44 E0.20659
G1 X221.611 Y94.528 E0.20667
G1 X219.403 Y89.811 E0.20659
G1 X216.742 Y85.333 E0.20667
G1 X213.655 Y81.137 E0.20662
G1 X210.173 Y77.264 E0.20661
G1 X206.328 Y73.751 E0.20662
G1 X202.155 Y70.631 E0.20667
G1 X197.699 Y67.936 E0.20659
G1 X192.998 Y65.691 E0.20668
G1 X188.102 Y63.917 E0.20658
G1 X183.053 Y62.631 E0.20668
G1 X177.392 Y61.797 E0.22697
G1 X172.188 Y61.571 E0.20665
G1 X167.499 Y61.806 E0.18626
G1 X161.839 Y62.651 E0.227
G1 X157.285 Y63.796 E0.18626
G1 X152.374 Y65.532 E0.20665
G1 X147.203 Y67.983 E0.227
G1 X142.753 Y70.686 E0.20655
G1 X138.984 Y73.486 E0.18627
G1 X134.748 Y77.333 E0.22699
G1 X131.597 Y80.815 E0.18627
G1 X128.478 Y84.988 E0.2067
G1 E-0.5 F3000
; printing object duct.stl id:0 copy 0
; acceleration to travel
M204 S3000
G1 X143.394 Y148.405 F9000
; decel to extrusion
M204 S1000
G1 X148.366 Y169.544
; end travel
G1 E0.5 F1800
;TYPE:External perimeter
;WIDTH:0.48
G1 X143.919 Y170.658 E0.1666
G1 X139.603 Y172.203 E0.16661
G1 X135.459 Y174.164 E0.16661
G1 X131.527 Y176.521 E0.16661
G1 X127.846 Y179.253 E0.16661
G1 X124.449 Y182.332 E0.16661
G1 X121.371 Y185.73 E0.16661
G1 X118.641 Y189.412 E0.16661
G1 X116.285 Y193.345 E0.16661
G1 X114.325 Y197.489 E0.16661
G1 X112.782 Y201.806 E0.16661
G1 X111.668 Y206.253 E0.16661
G1 X110.997 Y210.788 E0.16661
G1 X110.772 Y215.367 E0.16661
G1 X110.998 Y219.946 E0.16661
G1 X111.672 Y224.481 E0.16661
G1 X112.786 Y228.928 E0.16661
G1 X114.331 Y233.244 E0.16661
G1 X116.292 Y237.388 E0.16661
G1 X118.65 Y241.32 E0.16661
G1 X121.381 Y245.001 E0.16661
G1 X124.461 Y248.398 E0.16661
G1 X127.858 Y251.476 E0.16661
G1 X131.541 Y254.206 E0.16661
G1 X135.473 Y256.562 E0.16661
G1 X139.618 Y258.521 E0.1666
G1 X143.935 Y260.065 E0.16662
G1 X148.382 Y261.179 E0.16661
G1 X152.917 Y261.85 E0.16661
G1 X157.496 Y262.075 E0.16661
G1 X162.075 Y261.849 E0.16661
G1 X166.609 Y261.176 E0.16661
G1 X171.056 Y260.061 E0.16661
G1 X175.372 Y258.516 E0.16661
G1 X179.516 Y256.555 E0.16661
G1 X183.448 Y254.197 E0.16661
G1 X187.13 Y251.466 E0.16661
G1 X190.526 Y248.386 E0.16661
G1 X193.604 Y244.989 E0.16661
G1 X196.335 Y241.306 E0.16661
G1 X198.691 Y237.374 E0.16661
G1 X200.65 Y233.229 E0.16661
G1 X202.194 Y228.912 E0.16661
G1 X203.307 Y224.465 E0.16661
G1 X203.979 Y219.93 E0.16661
G1 X204.203 Y215.351 E0.16661
G1 X203.977 Y210.772 E0.16661
G1 X203.304 Y206.238 E0.16661
G1 X202.189 Y201.791 E0.16661
G1 X200.644 Y197.475 E0.16661
G1 X198.683 Y193.331 E0.16661
G1 X196.325 Y189.399 E0.16661
G1 X193.594 Y185.717 E0.16661
G1 X190.515 Y182.321 E0.16662
G1 X187.117 Y179.243 E0.16661
G1 X183.435 Y176.512 E0.16661
G1 X179.502 Y174.156 E0.16661
G1 X175.358 Y172.197 E0.16661
G1 X171.041 Y170.653 E0.16661
G1 X166.593 Y169.541 E0.16662
G1 X162.059 Y168.868 E0.1666
G1 X157.48 Y168.644 E0.16661
G1 X157.008 Y168.667 E0.01715
G1 X152.901 Y168.87 E0.14947
G1 X148.366 Y169.544 E0.16662
;WIPE_START
M204 S4000
G1 X148.097 Y169.248 F9000
;WIPE_END
M204 S1000
G1 X148.256 Y169.105
;TYPE:Internal perimeter
G1 F1800
G1 X148.278 Y169.099 E0.00081
G1 X152.856 Y168.42 E0.16823
G1 X157.479 Y168.192 E0.16822
G1 X157.911 Y168.213 E0.01571
G1 X162.103 Y168.418 E0.15251
G1 X166.682 Y169.097 E0.16824
G1 X171.172 Y170.22 E0.16822
G1 X175.53 Y171.78 E0.16823
G1 X179.715 Y173.757 E0.16822
G1 X183.685 Y176.137 E0.16823
G1 X187.404 Y178.893 E0.16822
G1 X190.834 Y182.002 E0.16823
G1 X193.943 Y185.431 E0.16823
G1 X196.701 Y189.148 E0.16823
G1 X199.082 Y193.118 E0.16822
G1 X201.061 Y197.302 E0.16823
G1 X202.622 Y201.66 E0.16822
G1 X203.747 Y206.15 E0.16823
G1 X204.427 Y210.728 E0.16822
G1 X204.655 Y215.351 E0.16823
M73 P1 R58
G1 X204.429 Y219.975 E0.16823
G1 X203.75 Y224.553 E0.16822
G1 X202.626 Y229.044 E0.16823
G1 X201.067 Y233.402 E0.16822
G1 X199.089 Y237.587 E0.16823
G1 X196.71 Y241.557 E0.16822
G1 X193.954 Y245.276 E0.16823
G1 X190.845 Y248.706 E0.16822
G1 X187.417 Y251.815 E0.16823
G1 X183.699 Y254.573 E0.16822
G1 X179.729 Y256.954 E0.16823
G1 X175.545 Y258.933 E0.16822
G1 X171.187 Y260.493 E0.16823
G1 X166.697 Y261.618 E0.16822
G1 X162.119 Y262.299 E0.16823
G1 X157.496 Y262.526 E0.16822
G1 X152.872 Y262.301 E0.16823
G1 X148.294 Y261.621 E0.16822
G1 X143.803 Y260.498 E0.16823
G1 X139.445 Y258.939 E0.16822
G1 X135.26 Y256.961 E0.16823
G1 X131.29 Y254.582 E0.16822
G1 X127.571 Y251.825 E0.16823
G1 X124.141 Y248.717 E0.16822
G1 X121.032 Y245.288 E0.16823
G1 X118.274 Y241.571 E0.16822
G1 X115.893 Y237.601 E0.16823
G1 X113.914 Y233.417 E0.16822
G1 X112.353 Y229.059 E0.16823
G1 X111.229 Y224.569 E0.16822
G1 X110.548 Y219.991 E0.16823
G1 X110.321 Y215.367 E0.16822
G1 X110.546 Y210.744 E0.16822
G1 X111.226 Y206.165 E0.16823
G1 X112.349 Y201.675 E0.16822
G1 X113.908 Y197.317 E0.16823
G1 X115.886 Y193.132 E0.16822
G1 X118.265 Y189.162 E0.16823
G1 X121.021 Y185.443 E0.16822
G1 X124.13 Y182.013 E0.16823
G1 X127.559 Y178.903 E0.16822
G1 X131.277 Y176.146 E0.16823
G1 X135.246 Y173.765 E0.16822
G1 X139.43 Y171.786 E0.16823
G1 X143.788 Y170.225 E0.16822
G1 X148.256 Y169.105 E0.16741
G1 X148.15 Y168.681 F9000
;TYPE:External perimeter
G1 F1800
G1 X148.192 Y168.67 E0.00159
G1 X152.813 Y167.984 E0.16979
G1 X157.479 Y167.754 E0.16979
G1 X157.933 Y167.776 E0.01649
G1 X162.145 Y167.983 E0.15329
G1 X166.767 Y168.668 E0.16979
G1 X171.299 Y169.802 E0.16978
G1 X175.698 Y171.375 E0.16979
G1 X179.921 Y173.372 E0.16978
G1 X183.929 Y175.773 E0.16979
G1 X187.682 Y178.555 E0.16978
G1 X191.143 Y181.692 E0.16979
G1 X194.281 Y185.153 E0.16979
G1 X197.065 Y188.905 E0.16979
G1 X199.468 Y192.911 E0.16978
G1 X201.465 Y197.134 E0.16979
G1 X203.04 Y201.532 E0.16978
G1 X204.176 Y206.064 E0.16979
G1 X204.863 Y210.685 E0.16978
G1 X205.092 Y215.351 E0.16979
G1 X204.864 Y220.017 E0.16979
G1 X204.179 Y224.638 E0.16978
G1 X203.045 Y229.171 E0.16979
G1 X201.472 Y233.569 E0.16978
G1 X199.475 Y237.793 E0.16979
G1 X197.074 Y241.8 E0.16978
G1 X194.292 Y245.553 E0.16979
G1 X191.155 Y249.015 E0.16978
G1 X187.694 Y252.153 E0.16979
G1 X183.942 Y254.936 E0.16978
G1 X179.936 Y257.339 E0.16979
G1 X175.713 Y259.337 E0.16978
G1 X171.314 Y260.912 E0.16979
G1 X166.783 Y262.047 E0.16978
G1 X162.162 Y262.734 E0.16979
G1 X157.496 Y262.964 E0.16978
G1 X152.829 Y262.736 E0.16979
G1 X148.209 Y262.051 E0.16978
G1 X143.676 Y260.917 E0.16979
G1 X139.278 Y259.343 E0.16978
G1 X135.054 Y257.347 E0.16979
G1 X131.047 Y254.945 E0.16978
G1 X127.293 Y252.164 E0.16979
G1 X123.832 Y249.026 E0.16978
G1 X120.693 Y245.566 E0.16979
G1 X117.911 Y241.814 E0.16978
G1 X115.507 Y237.807 E0.16979
G1 X113.51 Y233.584 E0.16978
G1 X111.935 Y229.186 E0.16979
G1 X110.8 Y224.654 E0.16978
G1 X110.112 Y220.034 E0.16979
G1 X109.883 Y215.367 E0.16979
G1 X110.111 Y210.701 E0.16978
G1 X110.796 Y206.08 E0.16979
G1 X111.93 Y201.548 E0.16978
G1 X113.504 Y197.149 E0.16979
G1 X115.5 Y192.926 E0.16978
G1 X117.902 Y188.918 E0.16979
G1 X120.683 Y185.165 E0.16978
G1 X123.821 Y181.704 E0.16979
G1 X127.281 Y178.565 E0.16978
G1 X131.033 Y175.782 E0.16979
G1 X135.039 Y173.379 E0.16978
G1 X139.263 Y171.382 E0.16979
G1 X143.661 Y169.806 E0.16978
G1 X148.15 Y168.681 E0.1682
;WIPE_START
M204 S4000
G1 X148.428 Y168.968 F9000
;WIPE_END
G1 E-0.5 F3000
; stop printing object duct.stl id:0 copy 0
; printing object duct1.stl id:1 copy 0
; acceleration to travel
M204 S3000
G1 X152.503 Y160.328 F9000
; decel to extrusion
M204 S1000
G1 X153.862 Y157.448
; end travel
G1 E0.5 F1800
G1 X154.658 Y157.824 E0.03199
G1 X158.976 Y159.365 E0.16662
G1 X163.424 Y160.475 E0.16661
G1 X167.959 Y161.143 E0.16661
G1 X172.538 Y161.364 E0.16661
G1 X177.117 Y161.134 E0.16661
G1 X181.651 Y160.458 E0.16661
G1 X186.097 Y159.339 E0.16661
G1 X190.412 Y157.791 E0.16661
G1 X194.554 Y155.827 E0.16661
G1 X198.485 Y153.467 E0.16661
G1 X202.164 Y150.732 E0.16661
G1 X205.558 Y147.65 E0.16661
G1 X208.634 Y144.251 E0.16661
G1 X211.361 Y140.566 E0.16661
G1 X213.714 Y136.632 E0.16661
G1 X215.671 Y132.486 E0.16661
G1 X217.211 Y128.168 E0.16661
G1 X218.321 Y123.72 E0.16661
G1 X218.989 Y119.184 E0.16661
G1 X219.21 Y114.605 E0.16661
G1 X218.981 Y110.026 E0.16661
G1 X218.304 Y105.492 E0.16661
G1 X217.186 Y101.046 E0.16661
G1 X215.638 Y96.731 E0.16661
G1 X213.673 Y92.589 E0.16661
G1 X211.312 Y88.659 E0.16661
G1 X208.579 Y84.979 E0.16661
G1 X205.497 Y81.585 E0.16662
G1 X202.097 Y78.51 E0.16661
G1 X198.412 Y75.782 E0.16661
G1 X194.478 Y73.429 E0.16661
G1 X190.332 Y71.472 E0.16661
G1 X186.014 Y69.932 E0.16661
G1 X181.566 Y68.823 E0.16662
G1 X177.03 Y68.154 E0.1666
G1 X172.451 Y67.933 E0.16661
G1 X171.98 Y67.957 E0.01715
G1 X167.873 Y68.162 E0.14947
G1 X163.338 Y68.84 E0.16662
G1 X158.893 Y69.957 E0.1666
G1 X154.577 Y71.506 E0.16661
G1 X150.435 Y73.47 E0.16661
G1 X146.505 Y75.83 E0.16661
G1 X142.825 Y78.565 E0.16661
G1 X139.431 Y81.646 E0.16661
G1 X136.356 Y85.046 E0.16661
G1 X133.628 Y88.731 E0.16661
G1 X131.275 Y92.665 E0.16661
G1 X129.319 Y96.811 E0.16661
G1 X127.779 Y101.129 E0.16661
G1 X126.669 Y105.577 E0.16661
G1 X126 Y110.113 E0.16661
G1 X125.779 Y114.692 E0.16661
G1 X126.009 Y119.271 E0.16661
G1 X126.685 Y123.805 E0.16661
G1 X127.804 Y128.251 E0.16661
G1 X129.352 Y132.566 E0.16661
G1 X131.316 Y136.708 E0.16661
G1 X133.676 Y140.638 E0.16661
G1 X136.411 Y144.318 E0.16661
G1 X139.493 Y147.712 E0.16661
G1 X142.892 Y150.787 E0.16661
G1 X146.577 Y153.515 E0.16661
G1 X150.512 Y155.868 E0.16661
G1 X153.862 Y157.448 E0.13461
;WIPE_START
M204 S4000
G1 X153.895 Y157.847 F9000
;WIPE_END
M204 S1000
G1 X153.669 Y157.857
;TYPE:Internal perimeter
G1 F1800
G1 X150.299 Y156.267 E0.13543
G1 X146.327 Y153.891 E0.16822
G1 X142.606 Y151.137 E0.16823
G1 X139.174 Y148.031 E0.16822
G1 X136.061 Y144.605 E0.16823
G1 X133.301 Y140.889 E0.16822
G1 X130.917 Y136.922 E0.16823
G1 X128.935 Y132.739 E0.16822
G1 X127.371 Y128.382 E0.16823
G1 X126.243 Y123.893 E0.16822
G1 X125.558 Y119.315 E0.16823
G1 X125.328 Y114.692 E0.16822
G1 X125.55 Y110.069 E0.16822
G1 X126.226 Y105.49 E0.16823
G1 X127.345 Y100.998 E0.16822
G1 X128.902 Y96.639 E0.16823
G1 X130.876 Y92.452 E0.16822
G1 X133.253 Y88.48 E0.16823
G1 X136.006 Y84.76 E0.16822
G1 X139.112 Y81.327 E0.16823
G1 X142.538 Y78.215 E0.16822
G1 X146.254 Y75.455 E0.16823
G1 X150.221 Y73.071 E0.16822
G1 X154.404 Y71.089 E0.16823
G1 X158.761 Y69.525 E0.16822
G1 X163.25 Y68.396 E0.16822
G1 X167.828 Y67.712 E0.16823
G1 X172.451 Y67.481 E0.16823
G1 X172.883 Y67.502 E0.01571
G1 X177.074 Y67.704 E0.15251
G1 X181.654 Y68.379 E0.16824
G1 X186.145 Y69.499 E0.16822
G1 X190.504 Y71.055 E0.16823
G1 X194.69 Y73.03 E0.16822
G1 X198.663 Y75.406 E0.16823
G1 X202.383 Y78.16 E0.16822
G1 X205.816 Y81.265 E0.16823
G1 X208.927 Y84.692 E0.16822
G1 X211.688 Y88.408 E0.16823
G1 X214.072 Y92.375 E0.16822
G1 X216.054 Y96.558 E0.16823
G1 X217.618 Y100.914 E0.16822
G1 X218.747 Y105.404 E0.16823
G1 X219.431 Y109.982 E0.16822
G1 X219.662 Y114.605 E0.16823
G1 X219.439 Y119.228 E0.16823
G1 X218.764 Y123.807 E0.16822
G1 X217.644 Y128.298 E0.16823
G1 X216.088 Y132.658 E0.16822
G1 X214.113 Y136.844 E0.16823
M73 P2 R57
G1 X211.737 Y140.816 E0.16822
G1 X208.983 Y144.537 E0.16823
G1 X205.878 Y147.969 E0.16822
G1 X202.451 Y151.082 E0.16823
M73 P2 R57
G1 X198.736 Y153.842 E0.16822
G1 X194.768 Y156.226 E0.16823
G1 X190.585 Y158.208 E0.16822
G1 X186.229 Y159.772 E0.16823
G1 X181.74 Y160.9 E0.16822
G1 X177.161 Y161.585 E0.16823
G1 X172.539 Y161.815 E0.16822
G1 X167.915 Y161.593 E0.16823
G1 X163.336 Y160.918 E0.16822
G1 X158.844 Y159.798 E0.16823
