; generated by SuperSlicer 2.4 on 2022-08-22 at 19:03:11 UTC


;
;

;
;
; 

; external perimeters extrusion width = 0.48mm
; perimeters extrusion width = 0.48mm
; infill extrusion width = 0.72mm
; solid infill extrusion width = 0.56mm
; top infill extrusion width = 0.40mm
; first layer extrusion width = 0.48mm

; object:{"name":"ductinside","id":"ductinside.stl id:0 copy 0","object_center":[165.000000,165.000000,0.000000],"boundingbox_center":[165.000000,165.000000,2.345457],"boundingbox_size":[172.071991,44.888000,4.690000]}
; plater:{"center":[165.000000,165.000000,0.000000],"boundingbox_center":[165.000000,165.000000,2.345457],"boundingbox_size":[172.071991,44.888000,4.690000]}

M73 P0 R20
;TYPE:Custom
START_PRINT T_BED=110 T_EXTRUDER=245
M107
G21 ; set units to millimeters
G90 ; use absolute coordinates
M83 ; use relative distances for extrusion
; Filament gcode
M104 S245 ; set temperature
M109 S245 ; set temperature and wait for it to be reached
M190 S110 ; set bed temperature and wait for it to be reached
M107
;LAYER_CHANGE
;Z:0.2
;HEIGHT:0.2
G1 Z0.2 F9000
G92 E0
M73 P0 R20
G1 E-0.5 F3000
M204 S1000
G1 X75.525 Y134.418 F9000
G1 E0.5 F1800
;TYPE:Skirt
;WIDTH:0.52
G1 X74.742 Y134.913 E0.03676
G1 X72.733 Y136.554 E0.1029
G1 X72.09 Y137.224 E0.03686
G1 X70.544 Y139.282 E0.1021
G1 X70.08 Y140.085 E0.03679
G1 X69.062 Y142.478 E0.10315
G1 X68.805 Y143.371 E0.03685
G1 X68.394 Y145.91 E0.10204
G1 X68.357 Y146.836 E0.03676
G1 X68.564 Y149.4 E0.10205
G1 X68.749 Y150.31 E0.03685
G1 X69.568 Y152.767 E0.10275
G1 X69.966 Y153.605 E0.0368
G1 X80.027 Y171.956 E0.8302
G1 X91.754 Y191.348 E0.89899
M73 P0 R20
G1 X92.281 Y192.112 E0.0368
G1 X94.003 Y194.057 E0.10307
G1 X94.699 Y194.673 E0.03685
G1 X96.848 Y196.151 E0.10346
G1 X97.67 Y196.58 E0.0368
G1 X100.056 Y197.481 E0.1012
G1 X100.957 Y197.704 E0.0368
G1 X103.52 Y198.016 E0.10243
G1 X226.476 Y198.06 E4.87757
G1 X229.043 Y197.748 E0.10258
G1 X229.943 Y197.525 E0.03679
G1 X232.365 Y196.605 E0.10277
G1 X233.188 Y196.173 E0.03687
G1 X235.312 Y194.703 E0.10247
G1 X236.006 Y194.087 E0.03681
G1 X237.7 Y192.177 E0.10126
G1 X238.228 Y191.415 E0.03678
G1 X249.759 Y172.367 E0.88328
G1 X259.744 Y154.215 E0.82186
G1 X260.432 Y152.809 E0.06208
G1 X261.25 Y150.357 E0.10256
G1 X261.435 Y149.448 E0.03677
G1 X261.644 Y146.903 E0.10131
G1 X261.609 Y145.975 E0.03683
G1 X261.189 Y143.386 E0.10406
G1 X260.93 Y142.495 E0.0368
G1 X259.926 Y140.139 E0.1016
G1 X259.462 Y139.334 E0.03686
G1 X257.899 Y137.255 E0.10317
G1 X257.256 Y136.587 E0.0368
G1 X255.274 Y134.967 E0.10154
G1 X254.491 Y134.47 E0.0368
G1 X252.126 Y133.349 E0.10382
G1 X251.245 Y133.057 E0.03682
G1 X248.724 Y132.545 E0.10203
G1 X247.798 Y132.471 E0.03685
G1 X226.096 Y131.995 E0.86113
G1 X104.072 Y131.953 E4.8406
M73 P1 R20
G1 X82.832 Y132.395 E0.84279
G1 X81.253 Y132.505 E0.06276
G1 X78.755 Y133.014 E0.10114
G1 X77.874 Y133.307 E0.03682
G1 X75.525 Y134.418 E0.10308
G1 X75.78 Y134.822 F9000
G1 F1800
G1 X74.997 Y135.316 E0.03676
G1 X73.077 Y136.884 E0.09832
G1 X72.434 Y137.555 E0.03686
G1 X70.957 Y139.521 E0.09755
G1 X70.493 Y140.324 E0.03679
G1 X69.521 Y142.61 E0.09856
G1 X69.263 Y143.503 E0.03685
G1 X68.871 Y145.929 E0.0975
G1 X68.834 Y146.855 E0.03676
G1 X69.031 Y149.305 E0.0975
G1 X69.216 Y150.215 E0.03685
G1 X69.999 Y152.563 E0.09818
G1 X70.397 Y153.401 E0.0368
G1 X80.445 Y171.727 E0.82907
G1 X92.147 Y191.077 E0.89708
G1 X92.674 Y191.841 E0.0368
G1 X94.319 Y193.7 E0.09849
G1 X95.015 Y194.316 E0.03685
G1 X97.068 Y195.728 E0.09885
G1 X97.891 Y196.157 E0.0368
G1 X100.171 Y197.018 E0.0967
G1 X101.071 Y197.24 E0.0368
G1 X103.52 Y197.539 E0.09787
G1 X226.476 Y197.583 E4.87756
G1 X228.929 Y197.284 E0.09802
G1 X229.829 Y197.062 E0.03679
G1 X232.143 Y196.183 E0.0982
G1 X232.966 Y195.75 E0.03687
G1 X234.995 Y194.346 E0.09791
G1 X235.689 Y193.73 E0.03681
G1 X237.308 Y191.905 E0.09675
G1 X237.836 Y191.143 E0.03678
G1 X249.35 Y172.121 E0.88209
G1 X259.326 Y153.985 E0.82109
G1 X260.001 Y152.605 E0.06096
G1 X260.783 Y150.261 E0.09799
G1 X260.968 Y149.353 E0.03677
G1 X261.167 Y146.921 E0.0968
G1 X261.132 Y145.993 E0.03683
G1 X260.731 Y143.519 E0.09943
G1 X260.472 Y142.628 E0.0368
G1 X259.512 Y140.377 E0.09707
G1 X259.048 Y139.572 E0.03686
G1 X257.556 Y137.586 E0.09857
G1 X256.912 Y136.917 E0.0368
G1 X255.019 Y135.37 E0.09702
G1 X254.235 Y134.873 E0.0368
G1 X251.976 Y133.802 E0.0992
G1 X251.095 Y133.509 E0.03682
G1 X248.686 Y133.021 E0.09748
G1 X247.76 Y132.947 E0.03685
G1 X226.096 Y132.472 E0.85963
M73 P2 R20
G1 X104.072 Y132.43 E4.8406
G1 X82.842 Y132.872 E0.84238
G1 X81.292 Y132.98 E0.06161
G1 X78.905 Y133.467 E0.09664
G1 X78.024 Y133.76 E0.03682
G1 X75.78 Y134.822 E0.09849
G1 E-0.5 F3000
; printing object ductinside.stl id:0 copy 0
; acceleration to travel
M204 S3000
G1 X170.614 Y143.663 F9000
; decel to extrusion
M204 S1000
G1 X202.225 Y146.61
; end travel
G1 E0.5 F1800
;TYPE:Internal perimeter
;WIDTH:0.48
G1 X202.2 Y147.216 E0.02204
G1 X202.332 Y147.862 E0.02395
G1 X202.614 Y148.458 E0.02396
G1 X203.029 Y148.968 E0.02391
G1 X203.56 Y149.367 E0.02413
G1 X204.167 Y149.623 E0.02394
G1 X204.814 Y149.726 E0.02382
G1 X205.468 Y149.675 E0.02385
G1 X206.095 Y149.468 E0.024
G1 X206.654 Y149.114 E0.02402
G1 X207.108 Y148.64 E0.02385
G1 X207.438 Y148.07 E0.02394
G1 X207.623 Y147.436 E0.02401
G1 X207.648 Y146.775 E0.02405
G1 X207.514 Y146.132 E0.02385
G1 X207.234 Y145.535 E0.02396
G1 X206.816 Y145.028 E0.02389
G1 X206.293 Y144.631 E0.02387
G1 X205.684 Y144.372 E0.02405
G1 X205.034 Y144.268 E0.02395
G1 X204.378 Y144.319 E0.0239
G1 X203.753 Y144.529 E0.02397
G1 X203.195 Y144.879 E0.02392
G1 X202.737 Y145.357 E0.02406
G1 X202.409 Y145.928 E0.02395
G1 X202.228 Y146.558 E0.02381
G1 X202.225 Y146.61 E0.00191
G1 X202.662 Y146.629 F9000
;TYPE:External perimeter
G1 F1800
G1 X202.639 Y147.181 E0.02009
G1 X202.749 Y147.722 E0.02008
G1 X202.986 Y148.223 E0.02012
G1 X203.334 Y148.651 E0.02005
G1 X203.779 Y148.985 E0.02022
G1 X204.288 Y149.199 E0.02006
G1 X204.832 Y149.286 E0.02003
G1 X205.382 Y149.244 E0.02003
G1 X205.907 Y149.07 E0.02011
G1 X206.375 Y148.773 E0.02014
G1 X206.756 Y148.376 E0.02001
G1 X207.033 Y147.897 E0.02011
G1 X207.188 Y147.365 E0.02013
G1 X207.209 Y146.811 E0.02014
G1 X207.097 Y146.272 E0.02004
G1 X206.862 Y145.771 E0.0201
G1 X206.511 Y145.345 E0.02004
G1 X206.072 Y145.012 E0.02004
G1 X205.563 Y144.795 E0.02012
G1 X205.016 Y144.708 E0.02012
G1 X204.466 Y144.75 E0.02005
G1 X203.941 Y144.927 E0.02011
G1 X203.474 Y145.22 E0.02007
G1 X203.09 Y145.621 E0.02016
G1 X202.815 Y146.1 E0.02009
G1 X202.662 Y146.629 E0.01999
;WIPE_START
M204 S4000
G1 X202.294 Y146.785 F9000
;WIPE_END
G1 E-0.5 F3000
; acceleration to travel
M204 S3000
G1 X233.529 Y146.83 F9000
; decel to extrusion
M204 S1000
G1 X243.941 Y146.846
; end travel
G1 E0.5 F1800
;TYPE:Internal perimeter
G1 X243.966 Y147.504 E0.02394
G1 X244.179 Y148.243 E0.02795
G1 X244.566 Y148.906 E0.0279
G1 X245.092 Y149.455 E0.02762
G1 X245.74 Y149.865 E0.0279
G1 X246.469 Y150.107 E0.02789
G1 X246.666 Y150.122 E0.0072
G1 X246.723 Y150.374 E0.00937
G1 X240.528 Y153.953 E0.26003
G1 X241.087 Y156.294 E0.08748
G1 X241.293 Y157.728 E0.05265
G1 X241.359 Y159.164 E0.05225
G1 X241.248 Y161.024 E0.06773
G1 X240.912 Y162.849 E0.06745
G1 X240.407 Y164.482 E0.06209
G1 X240.323 Y164.713 E0.00893
G1 X239.598 Y166.308 E0.06368
G1 X238.637 Y167.899 E0.06756
G1 X237.533 Y169.311 E0.06514
G1 X236.196 Y170.655 E0.06891
G1 X234.721 Y171.809 E0.06807
G1 X233.132 Y172.768 E0.06744
G1 X231.442 Y173.528 E0.06736
G1 X228.748 Y174.365 E0.10252
G1 X228.748 Y181.51 E0.25966
G1 X228.502 Y181.586 E0.00935
G1 X228.384 Y181.415 E0.00754
G1 X227.814 Y180.913 E0.02764
G1 X227.14 Y180.555 E0.02773
G1 X226.392 Y180.372 E0.02797
G1 X225.632 Y180.372 E0.02764
G1 X224.885 Y180.554 E0.02792
G1 X224.209 Y180.912 E0.02779
G1 X223.638 Y181.415 E0.02768
G1 X223.522 Y181.583 E0.00742
G1 X223.276 Y181.507 E0.00935
G1 X223.276 Y174.366 E0.2595
G1 X220.583 Y173.528 E0.10252
G1 X218.892 Y172.768 E0.06737
G1 X217.301 Y171.808 E0.06751
G1 X215.932 Y170.742 E0.06307
G1 X214.59 Y169.422 E0.0684
G1 X213.383 Y167.897 E0.07071
G1 X212.43 Y166.319 E0.06697
G1 X211.663 Y164.62 E0.06777
G1 X211.112 Y162.848 E0.06743
G1 X210.776 Y161.023 E0.06743
G1 X210.663 Y159.164 E0.06771
G1 X210.731 Y157.728 E0.05223
G1 X210.937 Y156.294 E0.05266
G1 X211.497 Y153.953 E0.08748
G1 X205.301 Y150.374 E0.26006
G1 X205.358 Y150.122 E0.00937
G1 X205.555 Y150.107 E0.0072
G1 X206.284 Y149.865 E0.02789
G1 X206.932 Y149.455 E0.0279
M73 P3 R19
G1 X207.46 Y148.905 E0.0277
G1 X207.842 Y148.243 E0.02777
G1 X208.058 Y147.506 E0.02789
G1 X208.087 Y146.738 E0.02796
G1 X207.931 Y145.993 E0.02766
G1 X207.844 Y145.806 E0.00748
G1 X208.033 Y145.633 E0.00933
G1 X214.224 Y149.209 E0.25986
G1 X216.226 Y147.348 E0.09933
G1 X217.65 Y146.303 E0.0642
G1 X219.187 Y145.425 E0.06433
G1 X220.732 Y144.763 E0.06109
G1 X222.479 Y144.238 E0.06628
G1 X224.246 Y143.927 E0.06522
G1 X226.09 Y143.826 E0.0671
G1 X227.388 Y143.904 E0.04729
G1 X227.776 Y143.927 E0.0141
G1 X229.518 Y144.231 E0.06427
G1 X231.213 Y144.733 E0.06425
G1 X232.824 Y145.418 E0.06362
G1 X234.373 Y146.303 E0.06485
G1 X235.796 Y147.348 E0.06416
G1 X237.799 Y149.209 E0.09937
G1 X243.988 Y145.635 E0.25971
G1 X244.177 Y145.809 E0.00933
G1 X244.089 Y145.995 E0.00746
G1 X243.937 Y146.74 E0.02764
G1 X243.941 Y146.846 E0.00383
G1 X244.378 Y146.829 F9000
G1 F1800
G1 X244.401 Y147.434 E0.02201
G1 X244.584 Y148.07 E0.02404
G1 X244.917 Y148.641 E0.02404
G1 X245.37 Y149.114 E0.0238
G1 X245.929 Y149.468 E0.02402
G1 X246.556 Y149.675 E0.024
G1 X247.21 Y149.726 E0.02385
G1 X247.857 Y149.623 E0.02382
G1 X248.465 Y149.366 E0.02397
G1 X248.993 Y148.967 E0.02407
G1 X249.407 Y148.459 E0.02382
G1 X249.693 Y147.862 E0.02405
G1 X249.822 Y147.216 E0.02393
G1 X249.797 Y146.558 E0.02394
G1 X249.612 Y145.927 E0.02389
G1 X249.285 Y145.357 E0.02389
G1 X248.827 Y144.88 E0.02403
G1 X248.272 Y144.529 E0.02386
G1 X247.646 Y144.319 E0.024
G1 X246.99 Y144.268 E0.02391
G1 X246.342 Y144.372 E0.02385
G1 X245.731 Y144.63 E0.02411
G1 X245.209 Y145.027 E0.02385
G1 X244.789 Y145.534 E0.02393
G1 X244.507 Y146.134 E0.02406
G1 X244.376 Y146.776 E0.02383
G1 X244.378 Y146.829 E0.00191
G1 X244.815 Y146.812 F9000
;TYPE:External perimeter
G1 F1800
G1 X244.836 Y147.364 E0.02008
G1 X244.989 Y147.897 E0.02013
G1 X245.269 Y148.376 E0.02017
G1 X245.649 Y148.773 E0.01999
G1 X246.117 Y149.07 E0.02014
G1 X246.642 Y149.244 E0.02011
G1 X247.192 Y149.286 E0.02003
G1 X247.736 Y149.199 E0.02003
G1 X248.245 Y148.985 E0.02007
G1 X248.688 Y148.65 E0.02016
G1 X249.035 Y148.223 E0.02001
G1 X249.275 Y147.722 E0.02018
G1 X249.383 Y147.181 E0.02006
G1 X249.362 Y146.629 E0.02009
G1 X249.207 Y146.1 E0.02004
G1 X248.932 Y145.621 E0.02007
G1 X248.549 Y145.221 E0.02014
G1 X248.083 Y144.927 E0.02001
G1 X247.558 Y144.75 E0.02012
G1 X247.008 Y144.708 E0.02005
G1 X246.463 Y144.795 E0.02004
G1 X245.952 Y145.012 E0.02018
G1 X245.513 Y145.345 E0.02003
G1 X245.161 Y145.77 E0.02008
G1 X244.925 Y146.272 E0.02015
G1 X244.815 Y146.812 E0.02003
;WIPE_START
M204 S4000
G1 X244.46 Y146.997 F9000
;WIPE_END
G1 E-0.5 F3000
; acceleration to travel
M204 S3000
G1 X231.388 Y172.493 F9000
; decel to extrusion
M204 S1000
G1 X227.031 Y180.992
; end travel
G1 E0.5 F1800
;TYPE:Internal perimeter
G1 X226.983 Y180.966 E0.00198
G1 X226.34 Y180.809 E0.02407
G1 X225.684 Y180.809 E0.02382
G1 X225.042 Y180.966 E0.02404
G1 X224.459 Y181.274 E0.02395
G1 X223.967 Y181.708 E0.02386
G1 X223.59 Y182.254 E0.02412
G1 X223.36 Y182.87 E0.02389
G1 X223.279 Y183.522 E0.02389
G1 X223.36 Y184.174 E0.02389
G1 X223.59 Y184.79 E0.02389
G1 X223.967 Y185.336 E0.02412
G1 X224.459 Y185.77 E0.02386
G1 X225.042 Y186.078 E0.02395
G1 X225.684 Y186.235 E0.02404
G1 X226.34 Y186.235 E0.02382
G1 X226.983 Y186.078 E0.02407
G1 X227.563 Y185.769 E0.02388
G1 X228.055 Y185.336 E0.02383
G1 X228.431 Y184.791 E0.02406
G1 X228.664 Y184.176 E0.02391
G1 X228.745 Y183.522 E0.02394
G1 X228.664 Y182.868 E0.02394
G1 X228.431 Y182.253 E0.02391
G1 X228.055 Y181.708 E0.02406
G1 X227.563 Y181.275 E0.02383
G1 X227.031 Y180.992 E0.0219
G1 X226.826 Y181.378 F9000
;TYPE:External perimeter
G1 F1800
G1 X226.287 Y181.246 E0.02017
G1 X225.737 Y181.246 E0.01999
G1 X225.198 Y181.378 E0.02016
G1 X224.709 Y181.636 E0.0201
G1 X224.296 Y182 E0.02003
G1 X223.98 Y182.458 E0.02019
G1 X223.788 Y182.975 E0.02005
G1 X223.719 Y183.522 E0.02005
G1 X223.788 Y184.069 E0.02005
G1 X223.98 Y184.586 E0.02005
G1 X224.296 Y185.044 E0.02019
G1 X224.709 Y185.408 E0.02003
G1 X225.198 Y185.666 E0.0201
G1 X225.737 Y185.798 E0.02016
G1 X226.287 Y185.798 E0.01999
G1 X226.826 Y185.666 E0.02017
G1 X227.313 Y185.408 E0.02003
G1 X227.726 Y185.044 E0.02001
G1 X228.041 Y184.587 E0.02017
G1 X228.236 Y184.07 E0.02008
G1 X228.305 Y183.522 E0.02008
G1 X228.236 Y182.974 E0.02008
G1 X228.041 Y182.457 E0.02008
G1 X227.726 Y182 E0.02017
G1 X227.313 Y181.636 E0.02001
G1 X226.826 Y181.378 E0.02003
;WIPE_START
M204 S4000
G1 X226.746 Y180.986 F9000
;WIPE_END
G1 E-0.5 F3000
; acceleration to travel
M204 S3000
G1 X228.575 Y176.503 F9000
; decel to extrusion
M204 S1000
G1 X229.185 Y175.009
; end travel
G1 E0.5 F1800
;TYPE:Internal perimeter
G1 X229.185 Y183.475 E0.3077
G1 X229.088 Y184.279 E0.02942
G1 X228.817 Y184.994 E0.02777
G1 X228.382 Y185.621 E0.02773
G1 X227.811 Y186.128 E0.02778
G1 X227.134 Y186.484 E0.02779
G1 X226.394 Y186.667 E0.02772
G1 X225.63 Y186.667 E0.02774
G1 X224.888 Y186.484 E0.02777
G1 X224.214 Y186.128 E0.02772
G1 X223.642 Y185.621 E0.0278
G1 X223.207 Y184.994 E0.02773
G1 X222.936 Y184.279 E0.02777
G1 X222.839 Y183.475 E0.02942
G1 X222.839 Y174.688 E0.31936
G1 X220.428 Y173.937 E0.09178
G1 X218.689 Y173.156 E0.06929
G1 X217.053 Y172.169 E0.06941
G1 X215.643 Y171.072 E0.06494
G1 X215.439 Y170.888 E0.00999
G1 X214.265 Y169.715 E0.06033
G1 X213.023 Y168.146 E0.0727
G1 X212.043 Y166.523 E0.06893
G1 X211.254 Y164.775 E0.06969
G1 X211.185 Y164.553 E0.00845
G1 X210.686 Y162.953 E0.06091
G1 X210.342 Y161.076 E0.06935
G1 X210.225 Y159.167 E0.06953
G1 X210.295 Y157.687 E0.05384
G1 X210.507 Y156.212 E0.05415
G1 X210.996 Y154.168 E0.07636
G1 X203.379 Y149.768 E0.31969
G1 X202.73 Y149.281 E0.02949
G1 X202.248 Y148.69 E0.02775
G1 X201.921 Y148 E0.02774
G1 X201.768 Y147.253 E0.02772
G1 X201.799 Y146.489 E0.02778
G1 X202.01 Y145.756 E0.02772
G1 X202.392 Y145.094 E0.02777
G1 X202.921 Y144.544 E0.02775
G1 X203.566 Y144.135 E0.02773
G1 X204.29 Y143.895 E0.02773
G1 X205.051 Y143.834 E0.02777
G1 X205.805 Y143.954 E0.02775
G1 X206.552 Y144.272 E0.0295
G1 X214.163 Y148.669 E0.31945
G1 X215.947 Y147.011 E0.08852
G1 X217.412 Y145.936 E0.06603
G1 X218.992 Y145.033 E0.06614
G1 X220.583 Y144.352 E0.06289
G1 X222.377 Y143.812 E0.06812
G1 X224.196 Y143.492 E0.06711
G1 X226.091 Y143.389 E0.06896
G1 X227.414 Y143.467 E0.0482
G1 X227.826 Y143.492 E0.015
G1 X229.618 Y143.805 E0.06609
G1 X231.361 Y144.321 E0.06607
G1 X233.018 Y145.026 E0.06546
G1 X234.612 Y145.936 E0.06668
G1 X236.075 Y147.011 E0.06599
G1 X237.86 Y148.669 E0.08856
G1 X245.474 Y144.272 E0.31955
G1 X246.217 Y143.954 E0.02937
G1 X246.971 Y143.834 E0.02772
G1 X247.734 Y143.895 E0.02785
G1 X248.458 Y144.135 E0.02773
G1 X249.103 Y144.544 E0.02773
G1 X249.632 Y145.094 E0.02775
G1 X250.014 Y145.757 E0.0278
G1 X250.227 Y146.489 E0.02771
G1 X250.256 Y147.252 E0.02775
G1 X250.103 Y148 E0.02775
G1 X249.776 Y148.69 E0.02774
G1 X249.294 Y149.281 E0.02775
G1 X248.645 Y149.768 E0.02949
G1 X241.029 Y154.168 E0.31966
G1 X241.517 Y156.212 E0.07636
G1 X241.728 Y157.686 E0.05414
G1 X241.797 Y159.167 E0.05386
G1 X241.682 Y161.077 E0.06954
G1 X241.337 Y162.954 E0.06936
G1 X240.822 Y164.621 E0.06342
G1 X240.728 Y164.878 E0.00994
G1 X239.986 Y166.512 E0.06523
G1 X238.998 Y168.148 E0.06944
G1 X237.862 Y169.601 E0.06705
G1 X236.486 Y170.982 E0.07084
G1 X234.97 Y172.17 E0.07002
G1 X233.336 Y173.156 E0.06936
G1 X231.597 Y173.937 E0.06928
G1 X229.185 Y174.687 E0.09178
G1 X229.185 Y175.009 E0.0117
G1 X229.622 Y175.009 F9000
;TYPE:External perimeter
G1 F1800
G1 X229.622 Y183.502 E0.30866
G1 X229.515 Y184.384 E0.03231
G1 X229.207 Y185.199 E0.03165
G1 X228.712 Y185.913 E0.03158
G1 X228.061 Y186.49 E0.03162
