; generated by SuperSlicer 2.3.57 on 2022-03-30 at 23:22:17 UTC


;
;

;
;
; 

; external perimeters extrusion width = 0.40mm
; perimeters extrusion width = 0.45mm
; infill extrusion width = 0.72mm
; solid infill extrusion width = 0.56mm
; top infill extrusion width = 0.40mm
; support material extrusion width = 0.42mm
; first layer extrusion width = 0.48mm

; external perimeters extrusion width = 0.42mm
; perimeters extrusion width = 0.45mm
; infill extrusion width = 0.72mm
; solid infill extrusion width = 0.56mm
; top infill extrusion width = 0.40mm
; support material extrusion width = 0.42mm
; first layer extrusion width = 0.48mm

; object:{"name":"Dude Chilling Park","id":"Dude Chilling Park.STL id:0 copy 0","object_center":[165.000000,165.000000,0.000000],"boundingbox_center":[165.000000,165.000000,8.819999],"boundingbox_size":[109.952072,60.043610,17.639997]}
; plater:{"center":[165.000000,165.000000,0.000000],"boundingbox_center":[165.000000,165.000000,8.819999],"boundingbox_size":[109.952072,60.043610,17.639997]}

;TYPE:Custom
START_PRINT T_BED=60 T_EXTRUDER=200
M107
G21 ; set units to millimeters
G90 ; use absolute coordinates
M83 ; use relative distances for extrusion
; Filament gcode
M109 S200 ; set temperature and wait for it to be reached
M190 S60 ; set bed temperature and wait for it to be reached
;LAYER_CHANGE
;Z:0.24
;HEIGHT:0.24
G1 E-0.8 F3000
G1 Z0.24 F9000
G1 X102.633 Y130.733
G1 E0.8 F1800
; External perimeter
;Skirt
SET_VELOCITY_LIMIT ACCEL=300 ACCEL_TO_DECEL=3000 SQUARE_CORNER_VELOCITY=5

; Support material

;TYPE:Skirt
;WIDTH:0.48
G1 X101.971 Y131.484 E0.04281
G1 X101.539 Y132.388 E0.04281
G1 X101.37 Y133.374 E0.04281
G1 X101.368 Y182.453 E2.09837
G1 X101.457 Y183.229 E0.0334
G1 X101.709 Y183.968 E0.0334
G1 X102.104 Y184.626 E0.0328
G1 X102.625 Y185.183 E0.0326
G1 X103.251 Y185.619 E0.0326
G1 X103.957 Y185.917 E0.0328
G1 X148.71 Y198.365 E1.98605
G1 X149.833 Y198.528 E0.04853
G1 X180.231 Y198.52 E1.29968
G1 X180.822 Y198.47 E0.02537
G1 X225.965 Y185.939 E2.00309
G1 X226.531 Y185.73 E0.02577
G1 X227.367 Y185.189 E0.04261
G1 X228.024 Y184.445 E0.04241
G1 X228.455 Y183.552 E0.04241
G1 X228.629 Y182.571 E0.04261
G1 X228.592 Y132.953 E2.12143
G1 X228.303 Y131.98 E0.0434
G1 X227.757 Y131.124 E0.0434
G1 X227 Y130.455 E0.0432
G1 X226.084 Y130.018 E0.0434
G1 X225.148 Y129.853 E0.04061
G1 X218.138 Y129.665 E0.29984
G1 X111.849 Y129.665 E4.54445
G1 X104.782 Y129.857 E0.30226
G1 X104.108 Y129.963 E0.02919
G1 X103.469 Y130.192 E0.02899
G1 X102.683 Y130.7 E0.04004
G1 X102.917 Y131.054 F9000
G1 F1800
G1 X102.33 Y131.719 E0.03794
G1 X101.946 Y132.524 E0.03813
G1 X101.798 Y133.399 E0.03794
G1 X101.796 Y182.447 E2.09708
G1 X101.873 Y183.128 E0.0293
G1 X102.093 Y183.777 E0.0293
G1 X102.442 Y184.362 E0.02911
G1 X102.903 Y184.857 E0.02892
G1 X103.462 Y185.246 E0.02911
G1 X104.085 Y185.508 E0.02892
G1 X148.822 Y197.952 E1.98535
G1 X149.845 Y198.099 E0.04419
G1 X180.752 Y198.047 E1.32145
G1 X226.337 Y185.348 E2.02322
G1 X227.08 Y184.871 E0.03776
G1 X227.666 Y184.21 E0.03776
G1 X228.049 Y183.414 E0.03776
G1 X228.202 Y182.54 E0.03794
G1 X228.168 Y133.018 E2.11733
G1 X227.907 Y132.143 E0.03907
G1 X227.409 Y131.376 E0.03907
G1 X226.72 Y130.783 E0.03888
G1 X225.887 Y130.406 E0.03907
G1 X225.12 Y130.281 E0.03325
G1 X218.138 Y130.094 E0.29863
G1 X111.855 Y130.094 E4.54415
G1 X104.821 Y130.284 E0.30089
G1 X104.231 Y130.374 E0.02553
G1 X103.663 Y130.574 E0.02572
G1 X102.967 Y131.021 E0.03538
; INIT printing object Dude Chilling Park.STL id:0 copy 0
G1 E-0.8 F3000
; printing object Dude Chilling Park.STL id:0 copy 0
G1 X111.867 Y182.429 F9000
G1 E0.8 F1800
; External perimeter
;SupportMaterial
SET_VELOCITY_LIMIT ACCEL=3000 ACCEL_TO_DECEL=3000 SQUARE_CORNER_VELOCITY=5

; Support material interface

;TYPE:Support material
G1 X111.867 Y182.182 E0.01059
G1 X111.14 Y182.036 E0.03168
G1 X111.1 Y182.025 E0.00179
G1 X111.01 Y181.998 E0.00402
G1 X111.01 Y182.245 E0.01059
G1 X110.153 Y182.245 E0.03664
G1 X110.153 Y181.543 E0.03003
G1 X110.103 Y181.499 E0.00281
G1 X109.887 Y181.274 E0.01334
G1 X109.843 Y181.219 E0.00303
G1 X109.668 Y180.96 E0.01334
G1 X109.634 Y180.898 E0.00303
G1 X109.505 Y180.614 E0.01334
G1 X109.482 Y180.547 E0.00303
G1 X109.403 Y180.245 E0.01334
G1 X109.391 Y180.175 E0.00303
G1 X109.366 Y179.877 E0.01277
G1 X109.364 Y179.842 E0.00152
G1 X109.364 Y136.566 E1.85029
G1 X109.366 Y136.533 E0.0014
G1 X109.387 Y136.257 E0.01182
G1 X109.398 Y136.192 E0.00281
G1 X109.465 Y135.911 E0.01236
G1 X109.485 Y135.849 E0.00281
G1 X109.596 Y135.582 E0.01236
G1 X109.626 Y135.523 E0.00281
G1 X109.777 Y135.277 E0.01236
G1 X109.816 Y135.224 E0.00281
G1 X110.003 Y135.004 E0.01236
G1 X110.05 Y134.957 E0.00281
G1 X110.153 Y134.87 E0.00579
G1 X110.153 Y133.492 E0.05889
G1 X111.01 Y133.492 E0.03664
G1 X111.01 Y134.407 E0.0391
G1 X111.238 Y134.352 E0.01005
G1 X111.303 Y134.342 E0.00281
G1 X111.579 Y134.32 E0.01182
G1 X111.611 Y134.319 E0.0014
G1 X111.867 Y134.319 E0.01091
G1 X111.867 Y133.308 E0.04321
G1 E-0.8 F3000
G1 X109.296 Y182.429 F9000
G1 E0.8 F1800
G1 X109.296 Y133.492 E2.09233
G1 X108.439 Y133.492 E0.03664
G1 X108.439 Y182.245 E2.08446
G1 X107.582 Y182.245 E0.03664
G1 X107.582 Y133.492 E2.08446
G1 X106.725 Y133.492 E0.03664
G1 X106.725 Y182.245 E2.08446
G1 X105.868 Y182.245 E0.03664
G1 X105.868 Y133.492 E2.08446
G1 X105.011 Y133.492 E0.03664
G1 X105.011 Y182.429 E2.09233
G1 E-0.8 F3000
G1 X224.989 Y182.429 F9000
G1 E0.8 F1800
G1 X224.989 Y133.492 E2.09233
G1 X224.132 Y133.492 E0.03664
G1 X224.132 Y182.245 E2.08446
G1 X223.275 Y182.245 E0.03664
G1 X223.275 Y133.492 E2.08446
G1 X222.418 Y133.492 E0.03664
G1 X222.418 Y182.245 E2.08446
G1 X221.561 Y182.245 E0.03664
G1 X221.561 Y133.492 E2.08446
G1 X220.704 Y133.492 E0.03664
G1 X220.704 Y182.245 E2.08446
G1 X219.847 Y182.245 E0.03664
G1 X219.847 Y181.543 E0.03003
G1 X219.593 Y181.732 E0.01356
G1 X219.532 Y181.769 E0.00303
G1 X219.254 Y181.91 E0.01334
G1 X219.188 Y181.937 E0.00303
G1 X218.99 Y181.998 E0.00885
G1 X218.99 Y182.245 E0.01059
G1 X218.133 Y182.245 E0.03664
G1 X218.133 Y181.994 E0.01075
G1 E-0.8 F3000
G1 X219.847 Y135.115 F9000
G1 E0.8 F1800
G1 X219.847 Y133.492 E0.06939
G1 X218.99 Y133.492 E0.03664
G1 X218.99 Y134.407 E0.0391
G1 X218.762 Y134.352 E0.01005
G1 X218.697 Y134.342 E0.00281
G1 X218.421 Y134.32 E0.01182
G1 X218.389 Y134.319 E0.0014
G1 X218.133 Y134.319 E0.01091
G1 X218.133 Y133.308 E0.04321
G1 E-0.8 F3000
G1 X150.321 Y193.788 F9000
G1 E0.8 F1800
; External perimeter
;Perimeter
SET_VELOCITY_LIMIT ACCEL=2000 ACCEL_TO_DECEL=2000 SQUARE_CORNER_VELOCITY=5

; Overhang perimeter

;TYPE:Internal perimeter
G1 X150.313 Y186.658 E0.30485
G1 X150.21 Y186.157 E0.02187
G1 X149.888 Y185.726 E0.02299
G1 X149.48 Y185.464 E0.02074
G1 X149.117 Y185.382 E0.01591
G1 X141.941 Y184.824 E0.30776
G1 X134.294 Y184.003 E0.32883
G1 X126.676 Y182.95 E0.3288
G1 X119.094 Y181.664 E0.3288
G1 X111.596 Y180.156 E0.32702
G1 X111.503 Y180.127 E0.00412
G1 X111.455 Y180.103 E0.00234
G1 X111.411 Y180.07 E0.00234
G1 X111.373 Y180.031 E0.00234
G1 X111.342 Y179.986 E0.00234
G1 X111.32 Y179.936 E0.00234
G1 X111.306 Y179.883 E0.00234
G1 X111.297 Y179.778 E0.00452
G1 X111.297 Y136.625 E1.845
G1 X111.305 Y136.528 E0.00419
G1 X111.317 Y136.478 E0.00217
G1 X111.336 Y136.431 E0.00217
G1 X111.363 Y136.388 E0.00217
G1 X111.395 Y136.35 E0.00217
G1 X111.434 Y136.317 E0.00217
G1 X111.477 Y136.29 E0.00217
G1 X111.524 Y136.271 E0.00217
G1 X111.573 Y136.259 E0.00217
G1 X111.671 Y136.251 E0.00419
G1 X218.329 Y136.251 E4.56021
G1 X218.427 Y136.259 E0.00419
G1 X218.476 Y136.271 E0.00217
G1 X218.523 Y136.29 E0.00217
G1 X218.566 Y136.317 E0.00217
G1 X218.605 Y136.35 E0.00217
G1 X218.637 Y136.388 E0.00217
G1 X218.664 Y136.431 E0.00217
G1 X218.683 Y136.478 E0.00217
G1 X218.695 Y136.528 E0.00217
G1 X218.703 Y136.625 E0.00419
G1 X218.703 Y179.778 E1.845
G1 X218.694 Y179.883 E0.00452
G1 X218.68 Y179.936 E0.00234
G1 X218.658 Y179.985 E0.00234
G1 X218.627 Y180.031 E0.00234
G1 X218.589 Y180.07 E0.00234
G1 X218.545 Y180.103 E0.00234
G1 X218.497 Y180.127 E0.00234
G1 X218.404 Y180.156 E0.00413
G1 X210.906 Y181.664 E0.32702
G1 X203.324 Y182.95 E0.3288
G1 X195.706 Y184.003 E0.3288
G1 X188.059 Y184.824 E0.32883
G1 X180.886 Y185.382 E0.30761
G1 X180.522 Y185.462 E0.01593
G1 X180.121 Y185.721 E0.0204
G1 X179.813 Y186.115 E0.02141
G1 X179.687 Y186.64 E0.02307
G1 X179.679 Y193.78 E0.30527
G1 X150.381 Y193.788 E1.25263
G1 X149.893 Y194.217 F9000
G1 F1800
G1 X149.884 Y186.702 E0.3213
G1 X149.809 Y186.337 E0.01594
G1 X149.591 Y186.045 E0.01558
G1 X149.312 Y185.865 E0.01419
G1 X149.053 Y185.807 E0.01135
G1 X141.901 Y185.251 E0.30669
G1 X134.242 Y184.429 E0.32938
G1 X126.611 Y183.373 E0.32936
G1 X119.016 Y182.085 E0.32936
G1 X111.49 Y180.572 E0.32822
G1 X111.342 Y180.526 E0.0066
G1 X111.229 Y180.469 E0.00545
G1 X111.126 Y180.393 E0.00545
G1 X111.038 Y180.301 E0.00545
G1 X110.967 Y180.195 E0.00545
G1 X110.914 Y180.079 E0.00545
G1 X110.882 Y179.955 E0.00545
G1 X110.869 Y179.796 E0.00685
G1 X110.869 Y136.608 E1.84649
G1 X110.88 Y136.46 E0.00635
G1 X110.908 Y136.346 E0.00505
G1 X110.953 Y136.236 E0.00505
G1 X111.015 Y136.136 E0.00505
G1 X111.092 Y136.046 E0.00505
G1 X111.181 Y135.969 E0.00505
G1 X111.282 Y135.907 E0.00505
G1 X111.391 Y135.862 E0.00505
G1 X111.506 Y135.835 E0.00505
G1 X111.654 Y135.823 E0.00635
G1 X218.346 Y135.823 E4.56165
G1 X218.494 Y135.835 E0.00635
G1 X218.609 Y135.862 E0.00505
G1 X218.718 Y135.907 E0.00505
G1 X218.819 Y135.969 E0.00505
G1 X218.908 Y136.046 E0.00505
G1 X218.985 Y136.136 E0.00505
G1 X219.047 Y136.236 E0.00505
G1 X219.092 Y136.346 E0.00505
G1 X219.12 Y136.46 E0.00505
G1 X219.131 Y136.608 E0.00635
G1 X219.131 Y179.796 E1.84649
G1 X219.118 Y179.955 E0.00685
G1 X219.086 Y180.079 E0.00545
G1 X219.033 Y180.195 E0.00545
G1 X218.962 Y180.301 E0.00545
G1 X218.874 Y180.393 E0.00545
G1 X218.771 Y180.469 E0.00545
G1 X218.658 Y180.526 E0.00545
G1 X218.51 Y180.572 E0.0066
G1 X210.984 Y182.085 E0.32822
G1 X203.389 Y183.373 E0.32936
G1 X195.758 Y184.429 E0.32936
G1 X188.099 Y185.251 E0.32938
G1 X180.949 Y185.806 E0.3066
G1 X180.69 Y185.864 E0.01135
G1 X180.415 Y186.041 E0.014
G1 X180.208 Y186.306 E0.01434
G1 X180.116 Y186.691 E0.01694
G1 X180.107 Y194.208 E0.32141
G1 X149.953 Y194.217 E1.28923
G1 X149.54 Y194.469 F9000
; External perimeter
;ExternalPerimeter
SET_VELOCITY_LIMIT ACCEL=1000 ACCEL_TO_DECEL=1000 SQUARE_CORNER_VELOCITY=5

; Perimeter

;TYPE:External perimeter
G1 F1800
G1 X149.476 Y194.343 E0.00603
G1 X149.465 Y194.297 E0.00203
G1 X149.456 Y186.746 E0.32285
G1 X149.408 Y186.517 E0.01001
G1 X149.294 Y186.363 E0.00818
G1 X149.144 Y186.267 E0.00764
G1 X148.989 Y186.231 E0.0068
G1 X141.862 Y185.678 E0.30563
G1 X134.189 Y184.854 E0.32993
G1 X126.546 Y183.797 E0.32992
G1 X118.938 Y182.507 E0.32992
G1 X111.384 Y180.988 E0.32941
G1 X111.182 Y180.925 E0.00907
G1 X111.003 Y180.835 E0.00857
G1 X110.842 Y180.715 E0.00857
G1 X110.703 Y180.571 E0.00857
G1 X110.591 Y180.405 E0.00857
G1 X110.509 Y180.222 E0.00857
G1 X110.458 Y180.028 E0.00857
G1 X110.44 Y179.814 E0.00919
G1 X110.44 Y136.592 E1.84799
G1 X110.456 Y136.393 E0.00851
G1 X110.499 Y136.213 E0.00794
G1 X110.57 Y136.041 E0.00794
G1 X110.667 Y135.883 E0.00794
G1 X110.788 Y135.742 E0.00793
G1 X110.929 Y135.621 E0.00794
G1 X111.087 Y135.524 E0.00794
G1 X111.258 Y135.453 E0.00794
G1 X111.439 Y135.41 E0.00794
G1 X111.637 Y135.394 E0.00851
G1 X218.363 Y135.394 E4.56309
G1 X218.561 Y135.41 E0.00851
G1 X218.742 Y135.453 E0.00794
G1 X218.913 Y135.524 E0.00793
G1 X219.071 Y135.621 E0.00794
G1 X219.212 Y135.742 E0.00794
G1 X219.333 Y135.883 E0.00794
G1 X219.43 Y136.041 E0.00794
G1 X219.501 Y136.213 E0.00794
G1 X219.544 Y136.393 E0.00794
G1 X219.56 Y136.592 E0.00851
G1 X219.56 Y179.814 E1.84799
G1 X219.542 Y180.028 E0.00919
G1 X219.491 Y180.222 E0.00857
G1 X219.409 Y180.405 E0.00857
G1 X219.297 Y180.571 E0.00857
G1 X219.158 Y180.715 E0.00857
G1 X218.997 Y180.835 E0.00857
G1 X218.818 Y180.925 E0.00857
G1 X218.616 Y180.988 E0.00907
G1 X211.062 Y182.507 E0.32941
G1 X203.454 Y183.797 E0.32992
G1 X195.811 Y184.854 E0.32992
G1 X188.138 Y185.678 E0.32993
G1 X181.012 Y186.231 E0.30559
G1 X180.857 Y186.265 E0.00678
G1 X180.708 Y186.362 E0.0076
G1 X180.603 Y186.496 E0.00727
G1 X180.544 Y186.742 E0.01081
G1 X180.535 Y194.287 E0.32261
G1 X180.494 Y194.413 E0.00563
G1 X180.417 Y194.519 E0.00562
G1 X180.311 Y194.596 E0.00562
G1 X180.186 Y194.637 E0.00562
G1 X149.903 Y194.645 E1.29477
G1 X149.75 Y194.621 E0.00661
G1 X149.633 Y194.562 E0.00561
G1 X149.582 Y194.511 E0.00306
;WIPE_START
G1 X149.604 Y194.343 F9000
;WIPE_END
G1 X218.639 Y137.19
; External perimeter
;SolidInfill
SET_VELOCITY_LIMIT ACCEL=2000 ACCEL_TO_DECEL=2000 SQUARE_CORNER_VELOCITY=5

; Bridge infill

;TYPE:Solid infill
;WIDTH:0.477951
G1 F2400
G1 X217.957 Y136.508 E0.04106
G1 X217.351 Y136.507 E0.0258
G1 X218.454 Y137.611 E0.06645
G1 X218.454 Y138.217 E0.0258
G1 X216.745 Y136.507 E0.10294
G1 X216.139 Y136.507 E0.0258
G1 X218.454 Y138.823 E0.13943
G1 X218.454 Y139.429 E0.0258
G1 X215.533 Y136.507 E0.17592
G1 X214.927 Y136.507 E0.0258
G1 X218.454 Y140.035 E0.2124
G1 X218.454 Y140.641 E0.0258
G1 X214.32 Y136.507 E0.24889
G1 X213.714 Y136.507 E0.0258
G1 X218.454 Y141.247 E0.28538
G1 X218.454 Y141.853 E0.0258
G1 X213.108 Y136.507 E0.32187
G1 X212.502 Y136.507 E0.0258
G1 X218.454 Y142.459 E0.35835
G1 X218.454 Y143.065 E0.0258
G1 X211.896 Y136.507 E0.39484
G1 X211.29 Y136.507 E0.0258
G1 X218.454 Y143.671 E0.43133
G1 X218.454 Y144.277 E0.0258
G1 X210.684 Y136.507 E0.46781
G1 X210.078 Y136.507 E0.0258
G1 X218.454 Y144.883 E0.5043
G1 X218.454 Y145.489 E0.0258
G1 X209.472 Y136.507 E0.54079
G1 X208.866 Y136.507 E0.0258
G1 X218.454 Y146.095 E0.57728
G1 X218.454 Y146.701 E0.0258
G1 X208.26 Y136.507 E0.61376
G1 X207.654 Y136.507 E0.0258
G1 X218.454 Y147.307 E0.65025
G1 X218.454 Y147.913 E0.0258
G1 X207.048 Y136.507 E0.68674
G1 X206.442 Y136.507 E0.0258
G1 X218.454 Y148.519 E0.72323
G1 X218.454 Y149.125 E0.0258
G1 X205.836 Y136.507 E0.75971
G1 X205.23 Y136.507 E0.0258
G1 X218.454 Y149.731 E0.7962
G1 X218.454 Y150.337 E0.0258
G1 X204.624 Y136.507 E0.83269
G1 X204.018 Y136.507 E0.0258
G1 X218.454 Y150.943 E0.86917
G1 X218.454 Y151.549 E0.0258
G1 X203.412 Y136.506 E0.90566
G1 X202.806 Y136.506 E0.0258
G1 X218.454 Y152.155 E0.94215
G1 X218.454 Y152.761 E0.0258
G1 X202.2 Y136.506 E0.97864
G1 X201.594 Y136.506 E0.0258
G1 X218.454 Y153.367 E1.01512
G1 X218.454 Y153.973 E0.0258
G1 X200.988 Y136.506 E1.05161
G1 X200.382 Y136.506 E0.0258
G1 X218.454 Y154.579 E1.0881
G1 X218.454 Y155.185 E0.0258
G1 X199.776 Y136.506 E1.12459
G1 X199.17 Y136.506 E0.0258
G1 X218.454 Y155.791 E1.16107
G1 X218.454 Y156.397 E0.0258
G1 X198.564 Y136.506 E1.19756
G1 X197.958 Y136.506 E0.0258
G1 X218.454 Y157.003 E1.23405
G1 X218.454 Y157.609 E0.0258
G1 X197.352 Y136.506 E1.27053
G1 X196.746 Y136.506 E0.0258
G1 X218.454 Y158.215 E1.30702
G1 X218.454 Y158.821 E0.0258
G1 X196.14 Y136.506 E1.34351
G1 X195.534 Y136.506 E0.0258
G1 X218.454 Y159.427 E1.38
G1 X218.454 Y160.033 E0.0258
G1 X194.928 Y136.506 E1.41648
G1 X194.322 Y136.506 E0.0258
G1 X218.454 Y160.639 E1.45297
G1 X218.454 Y161.245 E0.0258
G1 X193.716 Y136.506 E1.48946
G1 X193.11 Y136.506 E0.0258
G1 X218.454 Y161.851 E1.52595
G1 X218.454 Y162.457 E0.0258
G1 X192.503 Y136.506 E1.56243
G1 X191.897 Y136.506 E0.0258
G1 X218.454 Y163.063 E1.59892
G1 X218.454 Y163.669 E0.0258
G1 X191.291 Y136.506 E1.63541
G1 X190.685 Y136.506 E0.0258
G1 X218.454 Y164.275 E1.67189
G1 X218.454 Y164.88 E0.0258
G1 X190.079 Y136.506 E1.70838
G1 X189.473 Y136.505 E0.0258
G1 X218.454 Y165.486 E1.74487
G1 X218.454 Y166.092 E0.0258
G1 X188.867 Y136.505 E1.78136
G1 X188.261 Y136.505 E0.0258
G1 X218.454 Y166.698 E1.81784
G1 X218.454 Y167.304 E0.0258
G1 X187.655 Y136.505 E1.85433
G1 X187.049 Y136.505 E0.0258
G1 X218.454 Y167.91 E1.89082
G1 X218.454 Y168.516 E0.0258
G1 X186.443 Y136.505 E1.9273
G1 X185.837 Y136.505 E0.0258
G1 X218.454 Y169.122 E1.96379
G1 X218.454 Y169.728 E0.0258
G1 X185.231 Y136.505 E2.00028
G1 X184.625 Y136.505 E0.0258
G1 X218.454 Y170.334 E2.03677
G1 X218.454 Y170.94 E0.0258
G1 X184.019 Y136.505 E2.07325
G1 X183.413 Y136.505 E0.0258
