; generated by SuperSlicer 2.4 on 2022-05-31 at 05:37:13 UTC


;
;

;
;
; 

; external perimeters extrusion width = 0.40mm
; perimeters extrusion width = 0.48mm
; infill extrusion width = 0.72mm
; solid infill extrusion width = 0.56mm
; top infill extrusion width = 0.40mm
; support material extrusion width = 0.40mm
; first layer extrusion width = 0.48mm

; external perimeters extrusion width = 0.40mm
; perimeters extrusion width = 0.48mm
; infill extrusion width = 0.72mm
; solid infill extrusion width = 0.56mm
; top infill extrusion width = 0.40mm
; support material extrusion width = 0.40mm
; first layer extrusion width = 0.48mm

; object:{"name":"Dude Chilling Park","id":"Dude Chilling Park.STL id:0 copy 0","object_center":[165.000000,165.000000,0.000000],"boundingbox_center":[165.000000,165.000000,8.819999],"boundingbox_size":[109.952072,60.043610,17.639997]}
; plater:{"center":[165.000000,165.000000,0.000000],"boundingbox_center":[165.000000,165.000000,8.819999],"boundingbox_size":[109.952072,60.043610,17.639997]}

M73 P0 R83
M73 C75
;TYPE:Custom
START_PRINT T_BED=60 T_EXTRUDER=200
M107
G21 ; set units to millimeters
G90 ; use absolute coordinates
M83 ; use relative distances for extrusion
; Filament gcode
M109 S200 ; set temperature and wait for it to be reached
M190 S60 ; set bed temperature and wait for it to be reached
M107
;LAYER_CHANGE
;Z:0.24
;HEIGHT:0.24
G1 Z0.24 F9000
G92 E0
M73 P0 R82
M73 C1
G1 E-0.8 F3000
M204 S1000
G1 X108.215 Y132.758 F9000
G1 E0.8 F1800
;TYPE:Skirt
;WIDTH:0.52
G1 X107.318 Y133.808 E0.06326
G1 X106.938 Y134.516 E0.03681
G1 X106.673 Y135.275 E0.03681
G1 X106.512 Y136.292 E0.04717
G1 X106.501 Y179.824 E1.99429
G1 X106.641 Y181 E0.05425
G1 X107.009 Y182.044 E0.05073
G1 X107.449 Y182.791 E0.03973
G1 X108.009 Y183.454 E0.03973
G1 X108.673 Y184.012 E0.03974
G1 X109.853 Y184.635 E0.06112
G1 X148.433 Y198.337 E1.87558
G1 X149.093 Y198.505 E0.03118
G1 X149.889 Y198.585 E0.03666
G1 X180.225 Y198.576 E1.38973
G1 X181.367 Y198.394 E0.05297
G1 X220.578 Y184.45 E1.90655
G1 X221.52 Y183.868 E0.05073
G1 X222.157 Y183.279 E0.03974
G1 X222.686 Y182.591 E0.03973
G1 X223.09 Y181.824 E0.03972
G1 X223.299 Y181.233 E0.02872
G1 X223.486 Y180.138 E0.05093
G1 X223.499 Y136.582 E1.99535
G1 X223.379 Y135.492 E0.05025
G1 X223.148 Y134.723 E0.0368
G1 X222.799 Y133.999 E0.03681
G1 X222.196 Y133.169 E0.047
G1 X221.146 Y132.272 E0.06326
G1 X220.438 Y131.892 E0.0368
G1 X219.462 Y131.575 E0.04701
G1 X218.663 Y131.466 E0.03697
G1 X111.628 Y131.455 E4.90344
G1 X110.538 Y131.575 E0.05024
G1 X109.562 Y131.892 E0.047
G1 X108.854 Y132.272 E0.0368
G1 X108.215 Y132.758 E0.03681
G1 X108.518 Y133.113 F9000
G1 F1800
G1 X107.716 Y134.052 E0.05658
G1 X107.369 Y134.695 E0.03345
G1 X107.126 Y135.384 E0.03345
G1 X106.977 Y136.328 E0.04382
G1 X106.967 Y179.824 E1.99262
G1 X107.092 Y180.883 E0.04883
G1 X107.335 Y181.632 E0.03611
G1 X107.836 Y182.53 E0.04711
G1 X108.346 Y183.131 E0.03612
G1 X108.951 Y183.637 E0.03612
G1 X110.009 Y184.195 E0.05481
G1 X148.589 Y197.898 E1.87558
G1 X149.889 Y198.119 E0.06039
G1 X180.225 Y198.109 E1.38973
G1 X181.223 Y197.951 E0.04629
G1 X220.368 Y184.034 E1.90326
G1 X221.243 Y183.494 E0.04712
G1 X221.82 Y182.957 E0.03612
G1 X222.299 Y182.331 E0.03612
G1 X222.847 Y181.116 E0.06105
G1 X223.021 Y180.098 E0.04731
G1 X223.033 Y136.582 E1.99354
G1 X222.926 Y135.601 E0.04523
G1 X222.717 Y134.901 E0.03345
G1 X222.401 Y134.243 E0.03346
G1 X221.841 Y133.472 E0.04365
G1 X220.902 Y132.67 E0.05657
G1 X220.26 Y132.323 E0.03345
G1 X219.353 Y132.028 E0.04365
G1 X218.626 Y131.931 E0.03362
G1 X111.628 Y131.921 E4.90177
G1 X110.647 Y132.028 E0.04522
G1 X109.74 Y132.323 E0.04365
G1 X109.098 Y132.67 E0.03345
G1 X108.518 Y133.113 E0.03345
G1 E-0.8 F3000
; printing object Dude Chilling Park.STL id:0 copy 0
; acceleration to travel
M204 S3000
G1 X110.68 Y135.545 F9000
; decel to extrusion
M204 S1000
G1 X111.401 Y136.355
; end travel
G1 E0.8 F1800
;TYPE:Internal perimeter
;WIDTH:0.48
G1 X111.436 Y136.32 E0.00209
G1 X111.524 Y136.276 E0.0041
G1 X111.686 Y136.251 E0.00688
G1 X218.402 Y136.261 E4.47144
G1 X218.526 Y136.297 E0.0054
G1 X218.623 Y136.368 E0.00502
G1 X218.679 Y136.478 E0.00518
G1 X218.703 Y136.64 E0.00688
G1 X218.703 Y179.778 E1.80747
G1 X218.695 Y179.864 E0.00366
G1 X218.654 Y179.983 E0.00528
G1 X218.586 Y180.067 E0.0045
G1 X218.479 Y180.133 E0.00527
G1 X218.404 Y180.156 E0.00327
G1 X210.906 Y181.664 E0.32048
G1 X203.324 Y182.95 E0.32223
G1 X195.706 Y184.003 E0.32222
G1 X188.058 Y184.824 E0.32229
M73 P1 R82
G1 X180.477 Y185.424 E0.31866
G1 X179.805 Y186.053 E0.03856
G1 X179.687 Y186.659 E0.02588
G1 X179.678 Y193.779 E0.29834
G1 X150.322 Y193.788 E1.23002
G1 X150.313 Y186.659 E0.29872
G1 X150.195 Y186.053 E0.02588
G1 X149.523 Y185.424 E0.03856
G1 X141.942 Y184.824 E0.31866
G1 X134.294 Y184.003 E0.32229
G1 X126.676 Y182.95 E0.32222
G1 X119.094 Y181.664 E0.32223
G1 X111.596 Y180.156 E0.32048
G1 X111.521 Y180.133 E0.00327
G1 X111.414 Y180.067 E0.00527
G1 X111.33 Y179.962 E0.00562
G1 X111.297 Y179.761 E0.00853
G1 X111.297 Y136.64 E1.80679
G1 X111.321 Y136.478 E0.00688
G1 X111.366 Y136.391 E0.0041
G1 X111.401 Y136.355 E0.00209
G1 X111.092 Y136.046 F9000
G1 F1800
G1 X111.181 Y135.969 E0.00495
G1 X111.282 Y135.907 E0.00495
G1 X111.391 Y135.862 E0.00495
G1 X111.506 Y135.835 E0.00495
G1 X111.654 Y135.823 E0.00622
G1 X218.346 Y135.823 E4.47042
G1 X218.464 Y135.832 E0.00497
G1 X218.614 Y135.864 E0.00641
G1 X218.718 Y135.907 E0.00472
G1 X218.819 Y135.969 E0.00495
G1 X218.908 Y136.046 E0.00495
G1 X218.985 Y136.136 E0.00495
G1 X219.047 Y136.236 E0.00495
G1 X219.092 Y136.346 E0.00495
G1 X219.12 Y136.46 E0.00495
G1 X219.131 Y136.608 E0.00622
G1 X219.131 Y179.796 E1.80956
G1 X219.118 Y179.955 E0.00671
G1 X219.086 Y180.079 E0.00534
G1 X219.033 Y180.195 E0.00534
G1 X218.962 Y180.301 E0.00534
G1 X218.874 Y180.393 E0.00534
G1 X218.771 Y180.469 E0.00534
G1 X218.658 Y180.526 E0.00534
G1 X218.51 Y180.572 E0.00647
G1 X210.984 Y182.085 E0.32165
G1 X203.389 Y183.373 E0.32278
G1 X195.758 Y184.429 E0.32277
G1 X188.098 Y185.251 E0.32281
G1 X180.66 Y185.839 E0.31263
G1 X180.199 Y186.27 E0.02646
G1 X180.116 Y186.7 E0.01835
G1 X180.106 Y194.208 E0.31456
G1 X149.894 Y194.217 E1.26588
G1 X149.884 Y186.7 E0.31495
G1 X149.801 Y186.27 E0.01835
G1 X149.34 Y185.839 E0.02645
G1 X141.902 Y185.251 E0.31263
G1 X134.242 Y184.429 E0.32281
G1 X126.611 Y183.373 E0.32277
G1 X119.016 Y182.085 E0.32278
G1 X111.49 Y180.572 E0.32165
G1 X111.342 Y180.526 E0.00647
G1 X111.229 Y180.469 E0.00534
G1 X111.126 Y180.393 E0.00534
G1 X111.038 Y180.301 E0.00534
G1 X110.967 Y180.195 E0.00534
G1 X110.914 Y180.079 E0.00534
G1 X110.882 Y179.955 E0.00534
G1 X110.869 Y179.796 E0.00671
G1 X110.869 Y136.608 E1.80956
G1 X110.88 Y136.46 E0.00622
G1 X110.908 Y136.346 E0.00495
G1 X110.953 Y136.236 E0.00495
G1 X111.015 Y136.136 E0.00495
G1 X111.092 Y136.046 E0.00495
G1 X110.788 Y135.742 F9000
;TYPE:External perimeter
G1 F1800
G1 X110.929 Y135.621 E0.00778
G1 X111.087 Y135.524 E0.00778
G1 X111.258 Y135.453 E0.00778
G1 X111.439 Y135.41 E0.00778
G1 X111.637 Y135.394 E0.00834
G1 X218.363 Y135.394 E4.47183
G1 X218.526 Y135.407 E0.00687
G1 X218.742 Y135.453 E0.00923
G1 X218.913 Y135.524 E0.00778
G1 X219.071 Y135.621 E0.00778
G1 X219.212 Y135.742 E0.00778
G1 X219.333 Y135.883 E0.00778
G1 X219.43 Y136.041 E0.00778
G1 X219.501 Y136.213 E0.00778
G1 X219.544 Y136.393 E0.00778
G1 X219.56 Y136.592 E0.00834
G1 X219.56 Y179.814 E1.81103
G1 X219.542 Y180.028 E0.009
G1 X219.491 Y180.222 E0.0084
G1 X219.409 Y180.405 E0.0084
G1 X219.297 Y180.571 E0.0084
G1 X219.158 Y180.715 E0.0084
G1 X218.997 Y180.835 E0.0084
G1 X218.818 Y180.925 E0.0084
G1 X218.616 Y180.988 E0.00889
G1 X211.062 Y182.507 E0.32282
G1 X203.454 Y183.797 E0.32332
G1 X195.811 Y184.854 E0.32332
G1 X188.138 Y185.678 E0.32334
G1 X180.843 Y186.254 E0.30659
G1 X180.593 Y186.488 E0.01435
G1 X180.544 Y186.742 E0.01082
G1 X180.534 Y194.287 E0.31616
G1 X180.494 Y194.412 E0.00551
G1 X180.417 Y194.518 E0.0055
G1 X180.31 Y194.595 E0.0055
G1 X180.186 Y194.636 E0.0055
G1 X149.907 Y194.645 E1.2687
G1 X149.737 Y194.618 E0.0072
G1 X149.583 Y194.518 E0.00768
G1 X149.506 Y194.412 E0.0055
G1 X149.466 Y194.287 E0.00551
G1 X149.456 Y186.742 E0.31616
G1 X149.407 Y186.488 E0.01081
G1 X149.157 Y186.254 E0.01435
G1 X141.862 Y185.678 E0.30659
G1 X134.189 Y184.854 E0.32334
G1 X126.546 Y183.797 E0.32332
G1 X118.938 Y182.507 E0.32332
G1 X111.384 Y180.988 E0.32282
G1 X111.182 Y180.925 E0.00889
G1 X111.003 Y180.835 E0.00839
G1 X110.842 Y180.715 E0.0084
G1 X110.703 Y180.571 E0.00839
G1 X110.591 Y180.405 E0.0084
G1 X110.509 Y180.222 E0.0084
G1 X110.458 Y180.028 E0.0084
G1 X110.44 Y179.814 E0.009
G1 X110.44 Y136.592 E1.81103
G1 X110.456 Y136.393 E0.00834
G1 X110.499 Y136.213 E0.00778
G1 X110.57 Y136.041 E0.00778
G1 X110.667 Y135.883 E0.00778
G1 X110.788 Y135.742 E0.00778
;WIPE_START
M204 S4000
G1 X111.171 Y135.855 F9000
;WIPE_END
; acceleration to travel
M204 S3000
G1 X188.992 Y137.024
; decel to extrusion
M204 S1000
G1 X218.639 Y137.47
; end travel
;TYPE:Solid infill
;WIDTH:0.477952
G1 F3600
G1 X217.678 Y136.509 E0.05668
G1 X217.072 Y136.509 E0.02528
G1 X218.454 Y137.892 E0.08156
G1 X218.454 Y138.498 E0.02528
G1 X216.466 Y136.509 E0.11731
G1 X215.86 Y136.51 E0.02528
G1 X218.454 Y139.104 E0.15306
G1 X218.454 Y139.71 E0.02528
G1 X215.254 Y136.51 E0.18881
G1 X214.649 Y136.51 E0.02528
G1 X218.454 Y140.316 E0.22456
G1 X218.454 Y140.921 E0.02528
G1 X214.043 Y136.51 E0.26031
M73 P1 R81
G1 X213.437 Y136.51 E0.02528
G1 X218.454 Y141.527 E0.29606
G1 X218.454 Y142.133 E0.02528
G1 X212.831 Y136.51 E0.33181
G1 X212.225 Y136.51 E0.02528
G1 X218.454 Y142.739 E0.36756
G1 X218.454 Y143.345 E0.02528
G1 X211.619 Y136.51 E0.40331
G1 X211.013 Y136.51 E0.02528
G1 X218.454 Y143.951 E0.43906
G1 X218.454 Y144.557 E0.02528
G1 X210.407 Y136.51 E0.47481
G1 X209.801 Y136.51 E0.02528
G1 X218.454 Y145.163 E0.51056
G1 X218.454 Y145.769 E0.02528
G1 X209.195 Y136.51 E0.54631
G1 X208.59 Y136.511 E0.02528
G1 X218.454 Y146.375 E0.58206
G1 X218.454 Y146.981 E0.02528
G1 X207.984 Y136.511 E0.61781
G1 X207.378 Y136.511 E0.02528
G1 X218.454 Y147.587 E0.65356
G1 X218.454 Y148.193 E0.02528
G1 X206.772 Y136.511 E0.68931
G1 X206.166 Y136.511 E0.02528
G1 X218.454 Y148.799 E0.72506
G1 X218.454 Y149.405 E0.02528
G1 X205.56 Y136.511 E0.76081
G1 X204.954 Y136.511 E0.02528
G1 X218.454 Y150.011 E0.79656
G1 X218.454 Y150.617 E0.02528
G1 X204.348 Y136.511 E0.83231
G1 X203.742 Y136.511 E0.02528
G1 X218.454 Y151.223 E0.86806
G1 X218.454 Y151.829 E0.02528
G1 X203.136 Y136.511 E0.90381
G1 X202.531 Y136.511 E0.02528
G1 X218.454 Y152.435 E0.93956
G1 X218.454 Y153.041 E0.02528
G1 X201.925 Y136.511 E0.97531
G1 X201.319 Y136.512 E0.02528
G1 X218.454 Y153.647 E1.01106
G1 X218.454 Y154.253 E0.02528
G1 X200.713 Y136.512 E1.04681
G1 X200.107 Y136.512 E0.02528
G1 X218.454 Y154.859 E1.08256
G1 X218.454 Y155.465 E0.02528
G1 X199.501 Y136.512 E1.11831
G1 X198.895 Y136.512 E0.02528
G1 X218.454 Y156.071 E1.15406
G1 X218.454 Y156.677 E0.02528
G1 X198.289 Y136.512 E1.18981
G1 X197.683 Y136.512 E0.02528
G1 X218.454 Y157.283 E1.22556
G1 X218.454 Y157.889 E0.02528
G1 X197.077 Y136.512 E1.26131
G1 X196.472 Y136.512 E0.02528
G1 X218.454 Y158.495 E1.29706
G1 X218.454 Y159.101 E0.02528
G1 X195.866 Y136.512 E1.33281
G1 X195.26 Y136.512 E0.02528
G1 X218.454 Y159.707 E1.36856
G1 X218.454 Y160.313 E0.02528
G1 X194.654 Y136.512 E1.40431
G1 X194.048 Y136.513 E0.02528
G1 X218.454 Y160.919 E1.44006
G1 X218.454 Y161.525 E0.02528
G1 X193.442 Y136.513 E1.47581
G1 X192.836 Y136.513 E0.02528
G1 X218.454 Y162.131 E1.51156
G1 X218.454 Y162.737 E0.02528
G1 X192.23 Y136.513 E1.54731
G1 X191.624 Y136.513 E0.02528
G1 X218.454 Y163.343 E1.58306
G1 X218.454 Y163.949 E0.02528
G1 X191.019 Y136.513 E1.61881
G1 X190.413 Y136.513 E0.02528
G1 X218.454 Y164.555 E1.65456
G1 X218.454 Y165.161 E0.02528
G1 X189.807 Y136.513 E1.69031
G1 X189.201 Y136.513 E0.02528
G1 X218.454 Y165.767 E1.72606
G1 X218.454 Y166.373 E0.02528
G1 X188.595 Y136.513 E1.76181
G1 X187.989 Y136.513 E0.02528
G1 X218.454 Y166.979 E1.79756
G1 X218.454 Y167.585 E0.02528
G1 X187.383 Y136.513 E1.83331
G1 X186.777 Y136.514 E0.02528
G1 X218.454 Y168.191 E1.86906
M73 P2 R81
G1 X218.454 Y168.797 E0.02528
G1 X186.171 Y136.514 E1.90481
G1 X185.565 Y136.514 E0.02528
G1 X218.454 Y169.403 E1.94056
G1 X218.454 Y170.009 E0.02528
G1 X184.96 Y136.514 E1.97631
G1 X184.354 Y136.514 E0.02528
G1 X218.454 Y170.615 E2.01206
G1 X218.454 Y171.221 E0.02528
G1 X183.748 Y136.514 E2.04781
G1 X183.142 Y136.514 E0.02528
G1 X218.454 Y171.827 E2.08356
G1 X218.454 Y172.433 E0.02528
G1 X182.536 Y136.514 E2.11931
G1 X181.93 Y136.514 E0.02528
G1 X218.454 Y173.039 E2.15506
G1 X218.454 Y173.645 E0.02528
G1 X181.324 Y136.514 E2.19081
G1 X180.718 Y136.514 E0.02528
G1 X218.454 Y174.251 E2.22656
G1 X218.454 Y174.857 E0.02528
G1 X180.112 Y136.515 E2.26231
G1 X179.506 Y136.515 E0.02528
G1 X218.454 Y175.463 E2.29806
G1 X218.454 Y176.069 E0.02528
G1 X178.901 Y136.515 E2.33381
G1 X178.295 Y136.515 E0.02528
G1 X218.454 Y176.675 E2.36956
G1 X218.454 Y177.28 E0.02528
G1 X177.689 Y136.515 E2.40531
G1 X177.083 Y136.515 E0.02528
G1 X218.454 Y177.886 E2.44106
G1 X218.454 Y178.492 E0.02528
G1 X176.477 Y136.515 E2.47681
G1 X175.871 Y136.515 E0.02528
G1 X218.454 Y179.098 E2.51256
G1 X218.454 Y179.704 E0.02528
G1 X175.265 Y136.515 E2.54831
G1 X174.659 Y136.515 E0.02528
G1 X218.095 Y179.951 E2.56287
G1 X217.584 Y180.046 E0.02169
G1 X174.053 Y136.515 E2.56847
G1 X173.447 Y136.515 E0.02528
G1 X217.073 Y180.141 E2.57407
G1 X216.562 Y180.236 E0.02169
G1 X172.842 Y136.516 E2.57967
G1 X172.236 Y136.516 E0.02528
G1 X216.051 Y180.331 E2.58527
G1 X215.54 Y180.426 E0.02169
G1 X171.63 Y136.516 E2.59087
G1 X171.024 Y136.516 E0.02528
G1 X215.029 Y180.521 E2.59647
G1 X214.518 Y180.616 E0.02169
G1 X170.418 Y136.516 E2.60207
G1 X169.812 Y136.516 E0.02528
G1 X214.007 Y180.711 E2.60767
G1 X213.496 Y180.806 E0.02169
G1 X169.206 Y136.516 E2.61327
G1 X168.6 Y136.516 E0.02528
G1 X212.985 Y180.901 E2.61887
G1 X212.474 Y180.996 E0.02169
G1 X167.994 Y136.516 E2.62446
G1 X167.388 Y136.516 E0.02528
G1 X211.963 Y181.091 E2.63006
G1 X211.452 Y181.186 E0.02169
G1 X166.783 Y136.516 E2.63566
G1 X166.177 Y136.516 E0.02528
G1 X210.941 Y181.281 E2.64126
G1 X210.43 Y181.376 E0.02169
G1 X165.571 Y136.517 E2.64686
G1 X164.965 Y136.517 E0.02528
G1 X209.919 Y181.471 E2.65246
G1 X209.408 Y181.566 E0.02169
G1 X164.359 Y136.517 E2.65806
M73 P2 R80
G1 X163.753 Y136.517 E0.02528
G1 X208.897 Y181.661 E2.66366
G1 X208.386 Y181.756 E0.02169
G1 X163.147 Y136.517 E2.66926
G1 X162.541 Y136.517 E0.02528
G1 X207.875 Y181.851 E2.67486
G1 X207.364 Y181.946 E0.02169
G1 X161.935 Y136.517 E2.68046
G1 X161.329 Y136.517 E0.02528
G1 X206.853 Y182.041 E2.68605
G1 X206.342 Y182.136 E0.02169
G1 X160.724 Y136.517 E2.69165
G1 X160.118 Y136.517 E0.02528
G1 X205.831 Y182.231 E2.69725
G1 X205.32 Y182.326 E0.02169
G1 X159.512 Y136.517 E2.70285
G1 X158.906 Y136.517 E0.02528
G1 X204.809 Y182.421 E2.70845
G1 X204.298 Y182.516 E0.02169
G1 X158.3 Y136.518 E2.71405
M73 P3 R80
G1 X157.694 Y136.518 E0.02528
G1 X203.787 Y182.611 E2.71965
G1 X203.276 Y182.705 E0.0217
G1 X157.088 Y136.518 E2.72523
G1 X156.482 Y136.518 E0.02528
G1 X202.744 Y182.779 E2.72957
G1 X202.211 Y182.853 E0.02242
G1 X155.876 Y136.518 E2.73391
G1 X155.27 Y136.518 E0.02528
G1 X201.679 Y182.926 E2.73825
G1 X201.147 Y183 E0.02242
G1 X154.665 Y136.518 E2.74259
G1 X154.059 Y136.518 E0.02528
G1 X200.614 Y183.074 E2.74693
G1 X200.082 Y183.147 E0.02242
G1 X153.453 Y136.518 E2.75127
G1 X152.847 Y136.518 E0.02528
G1 X199.549 Y183.221 E2.7556
G1 X199.017 Y183.295 E0.02242
G1 X152.241 Y136.518 E2.75994
G1 X151.635 Y136.518 E0.02528
G1 X198.485 Y183.368 E2.76428
G1 X197.952 Y183.442 E0.02242
G1 X151.029 Y136.519 E2.76862
G1 X150.423 Y136.519 E0.02528
G1 X197.42 Y183.515 E2.77296
G1 X196.888 Y183.589 E0.02242
G1 X149.817 Y136.519 E2.7773
G1 X149.211 Y136.519 E0.02528
G1 X196.355 Y183.663 E2.78164
G1 X195.823 Y183.736 E0.02242
G1 X148.606 Y136.519 E2.78598
G1 X148 Y136.519 E0.02528
G1 X195.275 Y183.794 E2.78938
G1 X194.72 Y183.846 E0.02323
G1 X147.394 Y136.519 E2.79242
