; generated by SuperSlicer 2.3.57 on 2022-04-15 at 21:39:37 UTC


;
;

;
;
; 

; external perimeters extrusion width = 0.40mm
; perimeters extrusion width = 0.45mm
; infill extrusion width = 0.72mm
; solid infill extrusion width = 0.56mm
; top infill extrusion width = 0.40mm
; support material extrusion width = 0.42mm
; first layer extrusion width = 0.48mm

; object:{"name":"Mouse_base_20_notch","id":"Mouse_base_20_notch.stl id:0 copy 0","object_center":[152.500004,150.000065,0.000000],"boundingbox_center":[152.500004,150.000065,15.815415],"boundingbox_size":[80.514648,108.809677,31.630831]}
; plater:{"center":[152.500004,150.000065,0.000000],"boundingbox_center":[152.500004,150.000065,15.815415],"boundingbox_size":[80.514648,108.809677,31.630831]}

;TYPE:Custom
START_PRINT T_BED=60 T_EXTRUDER=200
M107
G21 ; set units to millimeters
G90 ; use absolute coordinates
M83 ; use relative distances for extrusion
; Filament gcode
M104 S200 ; set temperature
M109 S200 ; set temperature and wait for it to be reached
M190 S60 ; set bed temperature and wait for it to be reached
M107
;LAYER_CHANGE
;Z:0.24
;HEIGHT:0.24
G1 E-0.6 F3000
G1 Z0.24 F9000
G1 X121.983 Y109.853
G1 E0.6 F1800
; External perimeter
;Skirt
SET_VELOCITY_LIMIT ACCEL=300 ACCEL_TO_DECEL=3000 SQUARE_CORNER_VELOCITY=5

; Support material

;TYPE:Skirt
;WIDTH:0.48
G1 X120.93 Y111.023 E0.06732
G1 X119.876 Y112.346 E0.0723
G1 X118.512 Y114.269 E0.10082
G1 X117.233 Y116.336 E0.10393
G1 X116.097 Y118.433 E0.10196
G1 X115.071 Y120.595 E0.10231
G1 X114.168 Y122.777 E0.10096
G1 X113.363 Y125.008 E0.1014
G1 X112.656 Y127.267 E0.10124
G1 X111.868 Y130.243 E0.13162
G1 X111.372 Y132.525 E0.09985
G1 X110.963 Y134.874 E0.10193
G1 X110.661 Y137.206 E0.10055
G1 X110.362 Y141.871 E0.19986
G1 X110.344 Y144.227 E0.10073
G1 X110.432 Y147.275 E0.13034
G1 X110.801 Y151.915 E0.19903
G1 X111.221 Y154.972 E0.13192
G1 X111.645 Y157.281 E0.10039
G1 X112.16 Y159.569 E0.1003
G1 X112.857 Y162.177 E0.11541
G1 X113.66 Y164.784 E0.11661
G1 X114.677 Y167.684 E0.13139
G1 X115.688 Y170.234 E0.11729
G1 X116.77 Y172.675 E0.11417
G1 X118.938 Y176.861 E0.20154
G1 X120.134 Y178.872 E0.10004
G1 X121.802 Y181.424 E0.13037
G1 X124.601 Y185.207 E0.20121
G1 X126.549 Y187.558 E0.13054
G1 X128.158 Y189.354 E0.10309
G1 X130.943 Y192.106 E0.1674
G1 X132.215 Y193.18 E0.07117
G1 X133.564 Y194.189 E0.07204
G1 X134.982 Y195.104 E0.07213
G1 X136.466 Y195.916 E0.07235
G1 X137.994 Y196.623 E0.07199
G1 X139.566 Y197.236 E0.07214
G1 X141.13 Y197.751 E0.07037
G1 X143.428 Y198.364 E0.10169
G1 X145.757 Y198.835 E0.10159
G1 X147.393 Y199.078 E0.07071
G1 X149.03 Y199.247 E0.07039
G1 X151.412 Y199.369 E0.10195
G1 X153.809 Y199.346 E0.10251
G1 X156.252 Y199.171 E0.10473
G1 X157.914 Y198.952 E0.07165
G1 X160.279 Y198.46 E0.10332
G1 X161.974 Y197.924 E0.07599
G1 X163.041 Y197.472 E0.04953
G1 X164.563 Y196.609 E0.07481
G1 X165.564 Y195.843 E0.05391
G1 X166.254 Y195.181 E0.04086
G1 X166.845 Y194.48 E0.03924
G1 X167.524 Y193.451 E0.0527
G1 X188.04 Y152.586 E1.95503
G1 X188.926 Y150.104 E0.11266
G1 X189.47 Y147.554 E0.11147
G1 X189.631 Y145.634 E0.08241
G1 X189.512 Y143.091 E0.10885
G1 X189.196 Y141.25 E0.07986
G1 X188.488 Y138.819 E0.10825
G1 X187.49 Y136.514 E0.10742
G1 X186.578 Y134.9 E0.07923
G1 X185.57 Y133.446 E0.07565
G1 X183.998 Y131.559 E0.10502
G1 X181.331 Y128.804 E0.16393
G1 X179.144 Y126.699 E0.12978
G1 X155.808 Y104.971 E1.36328
G1 X153.344 Y102.896 E0.13775
G1 X152.437 Y102.288 E0.04665
G1 X151.52 Y101.789 E0.04465
G1 X150.57 Y101.389 E0.04407
G1 X149.6 Y101.092 E0.04338
G1 X147.612 Y100.75 E0.08623
G1 X145.077 Y100.655 E0.10848
G1 X141.869 Y100.862 E0.13746
G1 X139.528 Y101.171 E0.10096
G1 X135.633 Y101.924 E0.16961
G1 X133.267 Y102.561 E0.10475
G1 X131.699 Y103.097 E0.07087
G1 X129.28 Y104.154 E0.11284
G1 X127.771 Y104.995 E0.07389
G1 X126.368 Y105.921 E0.07188
G1 X125.015 Y106.955 E0.07278
G1 X123.726 Y108.076 E0.07305
G1 X122.538 Y109.238 E0.07104
G1 X122.024 Y109.809 E0.03284
G1 X122.342 Y110.095 F9000
G1 F1800
G1 X121.255 Y111.302 E0.06942
G1 X120.221 Y112.6 E0.07095
G1 X118.865 Y114.512 E0.10024
G1 X117.604 Y116.549 E0.10242
G1 X116.478 Y118.63 E0.10116
G1 X115.462 Y120.772 E0.1014
G1 X114.565 Y122.936 E0.10012
G1 X113.768 Y125.149 E0.10057
G1 X113.068 Y127.384 E0.10014
G1 X112.285 Y130.344 E0.13092
G1 X111.792 Y132.61 E0.09913
G1 X111.387 Y134.938 E0.10106
G1 X111.088 Y137.252 E0.09975
G1 X110.79 Y141.884 E0.19845
G1 X110.772 Y144.221 E0.0999
G1 X110.86 Y147.256 E0.12984
G1 X111.226 Y151.864 E0.19764
G1 X111.644 Y154.904 E0.13119
G1 X112.065 Y157.196 E0.09965
G1 X112.576 Y159.465 E0.09942
G1 X113.269 Y162.06 E0.11484
G1 X114.067 Y164.648 E0.1158
G1 X115.077 Y167.532 E0.13067
G1 X116.082 Y170.067 E0.11659
G1 X117.158 Y172.494 E0.11353
G1 X119.311 Y176.648 E0.20002
G1 X120.496 Y178.643 E0.09921
G1 X122.156 Y181.183 E0.12972
G1 X124.935 Y184.938 E0.19975
G1 X126.875 Y187.279 E0.13
G1 X128.463 Y189.053 E0.1018
G1 X131.228 Y191.786 E0.16621
G1 X132.48 Y192.844 E0.07009
G1 X133.806 Y193.835 E0.07078
G1 X135.202 Y194.736 E0.07102
G1 X136.657 Y195.533 E0.07095
G1 X138.161 Y196.228 E0.07082
G1 X139.708 Y196.832 E0.07104
G1 X141.25 Y197.339 E0.06936
G1 X143.526 Y197.947 E0.10074
G1 X145.833 Y198.414 E0.10063
G1 X147.44 Y198.652 E0.06945
G1 X149.059 Y198.819 E0.06962
G1 X151.416 Y198.941 E0.1009
G1 X153.792 Y198.918 E0.10159
G1 X156.205 Y198.745 E0.10343
G1 X157.837 Y198.531 E0.07035
G1 X160.168 Y198.046 E0.10179
G1 X161.824 Y197.523 E0.07425
G1 X162.839 Y197.095 E0.0471
G1 X164.324 Y196.254 E0.07297
G1 X165.277 Y195.525 E0.0513
G1 X165.942 Y194.887 E0.03939
G1 X166.514 Y194.208 E0.03799
G1 X167.159 Y193.225 E0.05025
G1 X187.647 Y152.416 E1.95237
G1 X188.514 Y149.987 E0.11027
G1 X189.047 Y147.489 E0.1092
G1 X189.203 Y145.63 E0.07975
G1 X189.086 Y143.137 E0.10672
G1 X188.78 Y141.35 E0.0775
G1 X188.085 Y138.964 E0.10625
G1 X187.105 Y136.701 E0.10546
G1 X186.214 Y135.125 E0.0774
G1 X185.231 Y133.708 E0.07371
G1 X183.68 Y131.846 E0.10365
G1 X181.028 Y129.107 E0.16299
G1 X178.85 Y127.01 E0.12925
G1 X155.52 Y105.288 E1.36293
G1 X153.088 Y103.239 E0.13597
G1 X151.336 Y102.176 E0.08763
G1 X150.422 Y101.791 E0.04239
G1 X149.484 Y101.504 E0.04195
G1 X147.566 Y101.176 E0.08316
G1 X145.079 Y101.083 E0.10643
G1 X141.908 Y101.288 E0.13587
G1 X139.585 Y101.595 E0.10017
G1 X135.726 Y102.342 E0.16805
G1 X133.389 Y102.972 E0.10348
G1 X131.84 Y103.501 E0.06999
G1 X129.475 Y104.536 E0.1104
G1 X127.989 Y105.364 E0.07272
G1 X126.614 Y106.272 E0.07044
G1 X125.287 Y107.286 E0.07138
G1 X124.019 Y108.389 E0.07188
G1 X122.848 Y109.533 E0.06996
G1 X122.382 Y110.051 E0.0298
; INIT printing object Mouse_base_20_notch.stl id:0 copy 0
G1 E-0.6 F3000
; printing object Mouse_base_20_notch.stl id:0 copy 0
G1 X125.488 Y113.015 F9000
G1 E0.6 F1800
; External perimeter
;Perimeter
SET_VELOCITY_LIMIT ACCEL=2000 ACCEL_TO_DECEL=2000 SQUARE_CORNER_VELOCITY=5

; Overhang perimeter

;TYPE:Internal perimeter
G1 X125.96 Y112.517 E0.02934
G1 X126.964 Y111.538 E0.05996
G1 X128.012 Y110.628 E0.05933
G1 X129.111 Y109.787 E0.05919
G1 X130.232 Y109.046 E0.05742
G1 X130.837 Y108.694 E0.02994
G1 X131.438 Y108.375 E0.0291
G1 X132.052 Y108.078 E0.02916
G1 X132.68 Y107.804 E0.02928
G1 X133.287 Y107.562 E0.02795
G1 X134.634 Y107.1 E0.06089
G1 X135.991 Y106.716 E0.06027
G1 X136.668 Y106.549 E0.02984
G1 X138.064 Y106.244 E0.06111
G1 X140.184 Y105.865 E0.09204
G1 X142.326 Y105.58 E0.09239
G1 X143.729 Y105.455 E0.06024
G1 X144.425 Y105.416 E0.02981
G1 X145.09 Y105.395 E0.02843
G1 X145.912 Y105.397 E0.03515
G1 X146.486 Y105.416 E0.02456
G1 X147.148 Y105.467 E0.02839
G1 X147.782 Y105.551 E0.02733
G1 X148.379 Y105.672 E0.02606
G1 X148.952 Y105.846 E0.02561
G1 X149.463 Y106.06 E0.02368
G1 X149.979 Y106.342 E0.02513
G1 X150.491 Y106.681 E0.02627
G1 X151.155 Y107.193 E0.03586
G1 X151.687 Y107.641 E0.02973
G1 X152.596 Y108.456 E0.05221
G1 X156.881 Y112.519 E0.25245
G1 X159.593 Y115.054 E0.15872
G1 X172.934 Y127.375 E0.77647
G1 X175.874 Y130.13 E0.17225
G1 X177.985 Y132.161 E0.12528
G1 X179.528 Y133.715 E0.09359
G1 X180.487 Y134.743 E0.06011
G1 X180.944 Y135.262 E0.02959
G1 X181.817 Y136.341 E0.05932
G1 X182.205 Y136.877 E0.02829
G1 X182.571 Y137.431 E0.0284
G1 X182.911 Y138.001 E0.02837
G1 X183.239 Y138.611 E0.02962
G1 X183.52 Y139.188 E0.02744
G1 X183.787 Y139.801 E0.02857
G1 X184.027 Y140.422 E0.0285
G1 X184.24 Y141.053 E0.02847
G1 X184.426 Y141.691 E0.02841
G1 X184.582 Y142.335 E0.02832
G1 X184.708 Y142.982 E0.02821
G1 X184.803 Y143.633 E0.02811
G1 X184.866 Y144.284 E0.02796
G1 X184.896 Y144.949 E0.02846
G1 X184.892 Y145.563 E0.02625
G1 X184.854 Y146.205 E0.02751
G1 X184.783 Y146.846 E0.02755
G1 X184.673 Y147.525 E0.02944
G1 X184.535 Y148.169 E0.02813
G1 X184.367 Y148.808 E0.02825
G1 X184.171 Y149.44 E0.02831
G1 X183.948 Y150.065 E0.02838
G1 X183.692 Y150.699 E0.02919
G1 X183.416 Y151.314 E0.02885
G1 X183.12 Y151.914 E0.0286
G1 X182.445 Y153.119 E0.05905
G1 X182.091 Y153.683 E0.02845
G1 X181.303 Y154.813 E0.0589
G1 X180.449 Y155.885 E0.0586
G1 X179.529 Y156.902 E0.05864
G1 X178.547 Y157.859 E0.05863
G1 X177.501 Y158.758 E0.05898
G1 X176.958 Y159.182 E0.02943
G1 X175.825 Y159.995 E0.05962
G1 X174.63 Y160.79 E0.06139
G1 X172.131 Y162.4 E0.12711
G1 X170.855 Y163.272 E0.06607
G1 X169.599 Y164.223 E0.06735
G1 X168.974 Y164.751 E0.03497
G1 X168.371 Y165.307 E0.03506
G1 X167.785 Y165.902 E0.03571
G1 X167.236 Y166.523 E0.03542
G1 X166.717 Y167.182 E0.0359
G1 X166.236 Y167.873 E0.03599
G1 X165.796 Y168.59 E0.03596
G1 X165.401 Y169.329 E0.03581
G1 X165.049 Y170.085 E0.03568
G1 X164.74 Y170.853 E0.03539
G1 X164.472 Y171.628 E0.03507
G1 X164.24 Y172.405 E0.03469
G1 X164.033 Y173.213 E0.03565
G1 X163.869 Y173.948 E0.03221
G1 X163.593 Y175.473 E0.06626
G1 X163.479 Y176.275 E0.03464
G1 X163.31 Y177.813 E0.06615
G1 X163.205 Y179.354 E0.06602
G1 X163.174 Y180.139 E0.0336
G1 X163.162 Y181.681 E0.06595
G1 X163.182 Y182.498 E0.03492
G1 X163.277 Y184.002 E0.06444
G1 X163.358 Y184.814 E0.03491
G1 X163.752 Y187.786 E0.12819
G1 X163.819 Y188.404 E0.02655
G1 X163.856 Y189.054 E0.02785
G1 X163.839 Y189.644 E0.02525
G1 X163.767 Y190.131 E0.02103
G1 X163.627 Y190.614 E0.02151
G1 X163.422 Y191.072 E0.02144
G1 X163.137 Y191.526 E0.02292
G1 X162.797 Y191.935 E0.02274
G1 X162.419 Y192.295 E0.0223
G1 X161.96 Y192.647 E0.02475
G1 X161.469 Y192.953 E0.02471
G1 X160.93 Y193.228 E0.02587
G1 X160.354 Y193.47 E0.02672
G1 X159.753 Y193.679 E0.02723
G1 X159.109 Y193.866 E0.02867
G1 X158.464 Y194.024 E0.02841
G1 X157.106 Y194.281 E0.05909
G1 X155.722 Y194.461 E0.05965
G1 X155.032 Y194.525 E0.02962
G1 X153.618 Y194.61 E0.06056
G1 X152.199 Y194.637 E0.06069
G1 X151.472 Y194.63 E0.03107
G1 X150.772 Y194.608 E0.02996
G1 X149.384 Y194.52 E0.05947
G1 X147.949 Y194.371 E0.06169
G1 X146.581 Y194.168 E0.0591
G1 X145.898 Y194.045 E0.02968
G1 X144.511 Y193.749 E0.06063
G1 X143.137 Y193.398 E0.06063
G1 X142.474 Y193.205 E0.02951
G1 X141.142 Y192.766 E0.06
G1 X139.851 Y192.261 E0.05926
G1 X138.602 Y191.684 E0.0588
G1 X137.402 Y191.028 E0.05848
G1 X136.828 Y190.672 E0.02888
G1 X136.271 Y190.298 E0.02871
G1 X135.163 Y189.469 E0.05915
G1 X134.102 Y188.572 E0.05941
G1 X133.078 Y187.616 E0.05991
G1 X131.585 Y186.08 E0.09156
G1 X130.142 Y184.467 E0.09255
G1 X129.212 Y183.368 E0.06156
G1 X128.304 Y182.248 E0.06163
G1 X126.985 Y180.528 E0.09268
G1 X125.712 Y178.745 E0.09366
G1 X124.925 Y177.572 E0.0604
G1 X124.154 Y176.361 E0.0614
G1 X123.05 Y174.503 E0.09237
G1 X122.022 Y172.609 E0.09215
G1 X121.066 Y170.674 E0.09229
G1 X120.472 Y169.366 E0.06141
G1 X120.059 Y168.401 E0.04488
G1 X119.638 Y167.375 E0.04744
G1 X119.118 Y166.027 E0.06176
G1 X118.626 Y164.668 E0.06179
G1 X118.163 Y163.303 E0.06165
G1 X117.411 Y160.863 E0.10916
G1 X117.122 Y159.832 E0.04576
G1 X116.763 Y158.436 E0.06166
G1 X116.292 Y156.344 E0.09167
G1 X115.901 Y154.224 E0.09218
G1 X115.683 Y152.771 E0.0628
G1 X115.51 Y151.382 E0.05986
G1 X115.304 Y149.225 E0.09263
G1 X115.167 Y147.059 E0.09281
G1 X115.111 Y145.615 E0.06176
G1 X115.083 Y144.174 E0.06161
G1 X115.1 Y142.008 E0.09264
G1 X115.194 Y139.854 E0.09216
G1 X115.374 Y137.713 E0.09186
G1 X115.649 Y135.585 E0.09177
G1 X116.018 Y133.466 E0.09192
G1 X116.475 Y131.357 E0.09227
G1 X116.825 Y129.965 E0.06137
G1 X117.21 Y128.582 E0.06139
G1 X117.855 Y126.522 E0.0923
G1 X118.583 Y124.5 E0.09188
G1 X119.405 Y122.516 E0.09183
G1 X119.997 Y121.237 E0.06023
G1 X120.317 Y120.591 E0.03082
G1 X120.987 Y119.325 E0.06125
G1 X121.332 Y118.716 E0.02993
G1 X122.071 Y117.493 E0.06112
G1 X122.455 Y116.899 E0.0302
G1 X122.845 Y116.323 E0.02977
G1 X123.671 Y115.185 E0.06011
G1 X124.556 Y114.075 E0.0607
G1 X125.448 Y113.06 E0.05777
G1 X125.126 Y112.777 F9000
G1 F1800
G1 X125.171 Y112.726 E0.00291
G1 X125.655 Y112.216 E0.03005
G1 X126.674 Y111.223 E0.06085
G1 X127.741 Y110.296 E0.06043
G1 X128.863 Y109.438 E0.06039
G1 X129.447 Y109.037 E0.0303
G1 X130.006 Y108.682 E0.02829
G1 X130.628 Y108.319 E0.03082
G1 X131.244 Y107.992 E0.02981
G1 X131.873 Y107.689 E0.02985
G1 X132.515 Y107.408 E0.02993
G1 X133.138 Y107.16 E0.0287
G1 X134.506 Y106.691 E0.06182
G1 X135.881 Y106.302 E0.06108
G1 X136.571 Y106.131 E0.03039
G1 X137.981 Y105.823 E0.06171
G1 X140.118 Y105.441 E0.0928
G1 X142.278 Y105.154 E0.0932
G1 X143.698 Y105.027 E0.06094
G1 X144.406 Y104.987 E0.03034
G1 X145.084 Y104.966 E0.02896
G1 X145.92 Y104.968 E0.03575
G1 X146.51 Y104.988 E0.02524
G1 X147.192 Y105.041 E0.02928
G1 X147.853 Y105.128 E0.02847
G1 X148.484 Y105.256 E0.02755
G1 X149.098 Y105.442 E0.02741
G1 X149.649 Y105.674 E0.02557
G1 X150.2 Y105.975 E0.02684
G1 X150.74 Y106.332 E0.02771
G1 X151.424 Y106.859 E0.03691
G1 X151.968 Y107.317 E0.03041
G1 X152.886 Y108.141 E0.05274
G1 X157.175 Y112.207 E0.25264
G1 X159.884 Y114.74 E0.1586
G1 X173.226 Y127.061 E0.77649
G1 X176.169 Y129.819 E0.17244
G1 X178.286 Y131.856 E0.12561
G1 X179.837 Y133.418 E0.09409
G1 X180.804 Y134.455 E0.06066
G1 X181.272 Y134.986 E0.03024
G1 X182.157 Y136.08 E0.0602
G1 X182.557 Y136.633 E0.02917
G1 X182.934 Y137.203 E0.0292
G1 X183.284 Y137.789 E0.02919
G1 X183.621 Y138.415 E0.0304
G1 X183.909 Y139.009 E0.0282
G1 X184.183 Y139.638 E0.02933
G1 X184.43 Y140.276 E0.02928
G1 X184.649 Y140.925 E0.02926
G1 X184.84 Y141.581 E0.02921
G1 X185.001 Y142.243 E0.02915
G1 X185.131 Y142.91 E0.02906
G1 X185.229 Y143.581 E0.02898
G1 X185.294 Y144.254 E0.02888
G1 X185.325 Y144.941 E0.02941
G1 X185.321 Y145.577 E0.0272
G1 X185.282 Y146.241 E0.02846
G1 X185.208 Y146.904 E0.0285
G1 X185.094 Y147.605 E0.03036
G1 X184.952 Y148.268 E0.029
G1 X184.779 Y148.926 E0.02908
G1 X184.577 Y149.576 E0.0291
G1 X184.348 Y150.217 E0.02913
G1 X184.087 Y150.866 E0.02992
G1 X183.804 Y151.497 E0.02954
G1 X183.499 Y152.114 E0.02942
G1 X182.814 Y153.338 E0.05999
G1 X182.449 Y153.919 E0.02935
G1 X181.647 Y155.069 E0.05993
G1 X180.776 Y156.162 E0.05976
G1 X179.838 Y157.199 E0.05979
G1 X178.837 Y158.176 E0.05978
G1 X177.772 Y159.09 E0.05999
G1 X177.215 Y159.525 E0.03023
G1 X176.069 Y160.348 E0.06031
G1 X174.865 Y161.149 E0.06185
G1 X172.368 Y162.758 E0.127
G1 X171.105 Y163.62 E0.06537
G1 X169.867 Y164.558 E0.06642
G1 X169.258 Y165.072 E0.03409
G1 X168.669 Y165.615 E0.03422
G1 X168.098 Y166.194 E0.03477
G1 X167.565 Y166.797 E0.03441
G1 X167.061 Y167.437 E0.03484
G1 X166.594 Y168.107 E0.03491
G1 X166.168 Y168.803 E0.03489
G1 X165.785 Y169.52 E0.03476
G1 X165.442 Y170.256 E0.03468
G1 X165.142 Y171.003 E0.03445
G1 X164.88 Y171.759 E0.03422
G1 X164.653 Y172.52 E0.03393
G1 X164.45 Y173.313 E0.035
G1 X164.289 Y174.033 E0.03155
G1 X164.017 Y175.542 E0.06555
G1 X163.904 Y176.329 E0.034
G1 X163.737 Y177.851 E0.06548
G1 X163.633 Y179.377 E0.06538
G1 X163.603 Y180.149 E0.03305
G1 X163.59 Y181.678 E0.06536
G1 X163.61 Y182.479 E0.03427
G1 X163.704 Y183.967 E0.06375
G1 X163.784 Y184.765 E0.03428
G1 X164.178 Y187.735 E0.12812
G1 X164.246 Y188.369 E0.02723
G1 X164.285 Y189.048 E0.0291
G1 X164.266 Y189.682 E0.02713
G1 X164.186 Y190.222 E0.02335
G1 X164.03 Y190.762 E0.02402
G1 X163.801 Y191.275 E0.02401
G1 X163.485 Y191.778 E0.02542
G1 X163.111 Y192.229 E0.02502
G1 X162.698 Y192.621 E0.02436
G1 X162.204 Y193 E0.02661
G1 X161.681 Y193.326 E0.02638
