; generated by SuperSlicer 2.4 on 2022-06-26 at 16:51:00 UTC


;
;

;
;
; 

; external perimeters extrusion width = 0.40mm
; perimeters extrusion width = 0.48mm
; infill extrusion width = 0.72mm
; solid infill extrusion width = 0.56mm
; top infill extrusion width = 0.40mm
; first layer extrusion width = 0.48mm

; object:{"name":"BunkerMFloor","id":"BunkerMFloor.stl id:0 copy 0","object_center":[165.000009,164.999998,0.000000],"boundingbox_center":[165.000009,164.999998,8.558218],"boundingbox_size":[280.633783,280.632197,17.116436]}
; plater:{"center":[165.000009,164.999998,0.000000],"boundingbox_center":[165.000009,164.999998,8.558218],"boundingbox_size":[280.633783,280.632197,17.116436]}

M73 P0 R208
;TYPE:Custom
START_PRINT T_BED=60 T_EXTRUDER=200
M107
G21 ; set units to millimeters
G90 ; use absolute coordinates
M83 ; use relative distances for extrusion
; Filament gcode
M109 S200 ; set temperature and wait for it to be reached
M190 S60 ; set bed temperature and wait for it to be reached
M107
;LAYER_CHANGE
;Z:0.24
;HEIGHT:0.24
G1 Z0.24 F9000
G92 E0
M73 P0 R207
G1 E-0.8 F3000
M204 S1000
G1 X129.78 Y129.78 F9000
G1 E0.8 F1800
;TYPE:Skirt
;WIDTH:0.52
G1 X22.21 Y237.35 E6.9692
G1 X21.166 Y239.425 E0.10641
G1 X21.314 Y241.127 E0.07828
G1 X22.21 Y242.582 E0.07828
G1 X87.419 Y307.791 E4.22471
G1 X89.494 Y308.834 E0.10641
G1 X91.196 Y308.687 E0.07828
G1 X92.651 Y307.791 E0.07828
G1 X307.791 Y92.65 E13.93845
G1 X308.835 Y90.575 E0.10641
G1 X308.688 Y88.873 E0.07828
G1 X307.791 Y87.418 E0.07828
G1 X242.583 Y22.209 E4.2247
G1 X240.508 Y21.166 E0.10641
G1 X238.806 Y21.313 E0.07828
G1 X237.351 Y22.209 E0.07828
G1 X129.78 Y129.78 E6.96925
G1 X130.11 Y130.11 F9000
G1 F1800
G1 X22.54 Y237.68 E6.9692
G1 X21.665 Y239.286 E0.08377
G1 X21.725 Y240.88 E0.07311
G1 X22.54 Y242.252 E0.07311
G1 X87.748 Y307.461 E4.22471
G1 X89.354 Y308.335 E0.08377
G1 X90.949 Y308.276 E0.07311
G1 X92.321 Y307.461 E0.07311
G1 X307.462 Y92.32 E13.93845
G1 X308.336 Y90.714 E0.08377
G1 X308.277 Y89.12 E0.07311
G1 X307.462 Y87.748 E0.07311
G1 X242.253 Y22.539 E4.2247
G1 X240.647 Y21.665 E0.08377
G1 X239.053 Y21.724 E0.07311
G1 X237.681 Y22.539 E0.07311
G1 X130.11 Y130.11 E6.96925
G1 E-0.8 F3000
; printing object BunkerMFloor.stl id:0 copy 0
; acceleration to travel
M204 S3000
G1 X213.152 Y69.289 F9000
; decel to extrusion
M204 S1000
G1 X240.833 Y49.015
; end travel
G1 E0.8 F1800
;TYPE:Internal perimeter
;WIDTH:0.48
G1 X281.705 Y89.888 E2.42194
M73 P0 R206
G1 X286.447 Y72.857 E0.74075
G1 X303.624 Y90.034 E1.01786
G1 X90.035 Y303.623 E12.65646
G1 X72.857 Y286.446 E1.01786
G1 X89.889 Y281.704 E0.74075
G1 X49.779 Y241.595 E2.37672
G1 X47.978 Y239.794 E0.10673
G1 X43.237 Y256.825 E0.74075
G1 X26.377 Y239.966 E0.999
G1 X239.967 Y26.377 E12.65646
G1 X256.826 Y43.236 E0.999
G1 X239.795 Y47.977 E0.74075
G1 X240.833 Y49.015 E0.0615
G1 X241.136 Y48.712 F9000
G1 F1800
G1 X241.899 Y49.475 E0.04523
G1 X281.489 Y89.066 E2.34597
G1 X286.231 Y72.035 E0.74075
G1 X304.23 Y90.034 E1.06656
G1 X90.035 Y304.229 E12.69237
G1 X72.035 Y286.23 E1.06656
G1 X89.067 Y281.488 E0.74075
G1 X49.476 Y241.898 E2.34597
G1 X48.194 Y240.616 E0.07598
G1 X43.453 Y257.647 E0.74075
G1 X25.771 Y239.966 E1.04771
M73 P1 R206
G1 X239.967 Y25.771 E12.69237
G1 X257.648 Y43.452 E1.04771
G1 X240.617 Y48.193 E0.74075
G1 X241.136 Y48.712 E0.03075
G1 X241.439 Y48.409 F9000
;TYPE:External perimeter
G1 F1800
G1 X242.202 Y49.172 E0.04523
G1 X281.273 Y88.244 E2.31522
M73 P1 R205
G1 X286.015 Y71.213 E0.74075
G1 X304.836 Y90.034 E1.11527
G1 X90.035 Y304.835 E12.72828
G1 X71.213 Y286.014 E1.11527
G1 X88.245 Y281.273 E0.74075
G1 X49.173 Y242.201 E2.31522
G1 X48.41 Y241.438 E0.04523
G1 X43.669 Y258.469 E0.74075
G1 X25.166 Y239.966 E1.09641
G1 X239.967 Y25.165 E12.72828
G1 X240.075 Y25.273 E0.00639
G1 X258.47 Y43.668 E1.09002
G1 X241.439 Y48.409 E0.74075
;WIPE_START
M204 S4000
G1 X241.112 Y48.64 F9000
;WIPE_END
G1 E-0.8 F3000
; acceleration to travel
M204 S3000
G1 X286.215 Y78.714 F9000
; decel to extrusion
M204 S1000
G1 X303.397 Y90.17
; end travel
G1 E0.8 F1800
;TYPE:Solid infill
;WIDTH:0.47856
G1 F3600
G1 X286.569 Y73.343 E0.99414
G1 X286.437 Y73.817 E0.02055
G1 X302.964 Y90.343 E0.97634
G1 X302.661 Y90.646 E0.0179
G1 X286.305 Y74.291 E0.96623
G1 X286.173 Y74.765 E0.02055
G1 X302.358 Y90.949 E0.95613
G1 X302.055 Y91.252 E0.0179
G1 X286.042 Y75.239 E0.94603
G1 X285.91 Y75.713 E0.02055
G1 X301.752 Y91.555 E0.93592
G1 X301.449 Y91.858 E0.0179
G1 X285.778 Y76.187 E0.92582
G1 X285.646 Y76.661 E0.02055
G1 X301.146 Y92.161 E0.91571
G1 X300.843 Y92.464 E0.0179
G1 X285.514 Y77.135 E0.90561
G1 X285.382 Y77.609 E0.02055
G1 X300.54 Y92.767 E0.89551
G1 X300.237 Y93.07 E0.0179
G1 X285.25 Y78.083 E0.8854
G1 X285.118 Y78.557 E0.02055
G1 X299.934 Y93.373 E0.8753
G1 X299.631 Y93.676 E0.0179
G1 X284.986 Y79.031 E0.8652
G1 X284.854 Y79.505 E0.02055
G1 X299.328 Y93.979 E0.85509
G1 X299.025 Y94.282 E0.0179
G1 X284.722 Y79.979 E0.84499
G1 X284.59 Y80.453 E0.02055
G1 X298.722 Y94.585 E0.83488
G1 X298.419 Y94.888 E0.0179
G1 X284.458 Y80.927 E0.82478
G1 X284.326 Y81.401 E0.02055
G1 X298.116 Y95.191 E0.81468
G1 X297.813 Y95.494 E0.0179
G1 X284.194 Y81.875 E0.80457
G1 X284.062 Y82.349 E0.02055
G1 X297.51 Y95.797 E0.79447
G1 X297.207 Y96.1 E0.0179
G1 X283.93 Y82.823 E0.78436
G1 X283.798 Y83.297 E0.02055
G1 X296.904 Y96.403 E0.77426
G1 X296.601 Y96.706 E0.0179
G1 X283.666 Y83.771 E0.76416
G1 X283.534 Y84.245 E0.02055
G1 X296.298 Y97.009 E0.75405
G1 X295.995 Y97.312 E0.0179
G1 X283.402 Y84.719 E0.74395
G1 X283.27 Y85.193 E0.02055
G1 X295.692 Y97.615 E0.73385
G1 X295.389 Y97.918 E0.0179
G1 X283.138 Y85.667 E0.72374
G1 X283.006 Y86.141 E0.02055
G1 X295.086 Y98.221 E0.71364
G1 X294.783 Y98.524 E0.0179
G1 X282.874 Y86.615 E0.70353
G1 X282.742 Y87.089 E0.02055
G1 X294.48 Y98.827 E0.69343
G1 X294.177 Y99.13 E0.0179
G1 X282.61 Y87.563 E0.68333
G1 X282.478 Y88.037 E0.02055
G1 X293.874 Y99.433 E0.67322
G1 X293.571 Y99.736 E0.0179
G1 X282.346 Y88.511 E0.66312
G1 X282.214 Y88.985 E0.02055
G1 X293.268 Y100.039 E0.65302
G1 X292.965 Y100.342 E0.0179
G1 X281.933 Y89.31 E0.65175
G1 E-0.8 F3000
; acceleration to travel
M204 S3000
G1 X262.85 Y54.775 F9000
; decel to extrusion
M204 S1000
G1 X256.489 Y43.263
; end travel
G1 E0.8 F1800
G1 F3600
G1 X239.961 Y26.734 E0.97648
G1 X239.658 Y27.037 E0.0179
G1 X255.866 Y43.245 E0.95754
G1 X255.392 Y43.377 E0.02055
G1 X239.355 Y27.34 E0.94743
G1 X239.052 Y27.643 E0.0179
G1 X254.918 Y43.509 E0.93733
G1 X254.444 Y43.641 E0.02055
G1 X238.749 Y27.946 E0.92723
G1 X238.446 Y28.249 E0.0179
G1 X253.97 Y43.773 E0.91712
G1 X253.496 Y43.905 E0.02055
G1 X238.143 Y28.552 E0.90702
G1 X237.84 Y28.855 E0.0179
G1 X253.022 Y44.037 E0.89691
G1 X252.548 Y44.169 E0.02055
G1 X237.537 Y29.158 E0.88681
G1 X237.234 Y29.461 E0.0179
G1 X252.074 Y44.301 E0.87671
G1 X251.6 Y44.433 E0.02055
G1 X236.931 Y29.764 E0.8666
G1 X236.628 Y30.067 E0.0179
G1 X251.126 Y44.565 E0.8565
G1 X250.652 Y44.697 E0.02055
G1 X236.325 Y30.37 E0.8464
G1 X236.022 Y30.673 E0.0179
G1 X250.178 Y44.829 E0.83629
G1 X249.704 Y44.961 E0.02055
G1 X235.719 Y30.976 E0.82619
G1 X235.416 Y31.279 E0.0179
G1 X249.23 Y45.093 E0.81608
G1 X248.756 Y45.225 E0.02055
G1 X235.113 Y31.582 E0.80598
G1 X234.81 Y31.885 E0.0179
G1 X248.282 Y45.357 E0.79588
G1 X247.808 Y45.489 E0.02055
G1 X234.507 Y32.188 E0.78577
G1 X234.204 Y32.491 E0.0179
G1 X247.333 Y45.621 E0.77567
G1 X246.859 Y45.753 E0.02055
G1 X233.901 Y32.794 E0.76557
G1 X233.598 Y33.097 E0.0179
G1 X246.385 Y45.885 E0.75546
G1 X245.911 Y46.016 E0.02055
G1 X233.295 Y33.4 E0.74536
G1 X232.992 Y33.703 E0.0179
G1 X245.437 Y46.148 E0.73525
G1 X244.963 Y46.28 E0.02055
G1 X232.689 Y34.006 E0.72515
G1 X232.386 Y34.309 E0.0179
G1 X244.489 Y46.412 E0.71505
G1 X244.015 Y46.544 E0.02055
G1 X232.083 Y34.612 E0.70494
G1 X231.78 Y34.915 E0.0179
G1 X243.541 Y46.676 E0.69484
G1 X243.067 Y46.808 E0.02055
G1 X231.477 Y35.218 E0.68474
G1 X231.174 Y35.521 E0.0179
G1 X242.593 Y46.94 E0.67463
G1 X242.119 Y47.072 E0.02055
G1 X230.871 Y35.824 E0.66453
G1 X230.568 Y36.127 E0.0179
G1 X241.645 Y47.204 E0.65442
G1 X241.171 Y47.336 E0.02055
G1 X230.265 Y36.43 E0.64432
G1 X229.962 Y36.733 E0.0179
G1 X240.697 Y47.468 E0.63422
G1 X240.223 Y47.6 E0.02055
G1 X229.659 Y37.036 E0.62411
G1 X229.356 Y37.339 E0.0179
G1 X239.749 Y47.732 E0.61401
G1 X239.318 Y47.852 E0.0187
G1 X281.83 Y90.364 E2.51156
G1 X281.951 Y89.933 E0.0187
G1 X292.662 Y100.645 E0.63281
G1 X292.359 Y100.948 E0.0179
G1 X229.053 Y37.642 E3.74
G1 X228.75 Y37.945 E0.0179
G1 X292.056 Y101.251 E3.74
M73 P1 R204
G1 X291.753 Y101.554 E0.0179
G1 X228.447 Y38.248 E3.74
G1 X228.144 Y38.551 E0.0179
G1 X291.45 Y101.857 E3.74
G1 X291.147 Y102.16 E0.0179
G1 X227.841 Y38.854 E3.74
G1 X227.538 Y39.157 E0.0179
G1 X290.844 Y102.463 E3.74
G1 X290.541 Y102.766 E0.0179
G1 X227.235 Y39.46 E3.74
G1 X226.932 Y39.763 E0.0179
G1 X290.238 Y103.069 E3.74
G1 X289.935 Y103.372 E0.0179
G1 X226.629 Y40.066 E3.74
G1 X226.326 Y40.369 E0.0179
G1 X289.632 Y103.675 E3.74
G1 X289.329 Y103.978 E0.0179
G1 X226.023 Y40.672 E3.74
G1 X225.72 Y40.975 E0.0179
G1 X289.026 Y104.281 E3.74
G1 X288.723 Y104.584 E0.0179
G1 X225.417 Y41.278 E3.74
G1 X225.114 Y41.581 E0.0179
G1 X288.42 Y104.887 E3.74
G1 X288.117 Y105.19 E0.0179
G1 X224.811 Y41.884 E3.74
G1 X224.508 Y42.187 E0.0179
G1 X287.814 Y105.493 E3.74
G1 X287.511 Y105.796 E0.0179
G1 X224.205 Y42.49 E3.74
G1 X223.902 Y42.793 E0.0179
G1 X287.208 Y106.099 E3.74
G1 X286.905 Y106.402 E0.0179
G1 X223.599 Y43.096 E3.74
G1 X223.296 Y43.399 E0.0179
G1 X286.602 Y106.705 E3.74
G1 X286.299 Y107.007 E0.0179
G1 X222.993 Y43.702 E3.74
G1 X222.69 Y44.005 E0.0179
G1 X285.996 Y107.31 E3.74
G1 X285.693 Y107.613 E0.0179
G1 X222.387 Y44.308 E3.74
G1 X222.084 Y44.611 E0.0179
G1 X285.39 Y107.916 E3.74
G1 X285.087 Y108.219 E0.0179
G1 X221.781 Y44.914 E3.74
G1 X221.478 Y45.217 E0.0179
G1 X284.784 Y108.522 E3.74
G1 X284.481 Y108.825 E0.0179
G1 X221.175 Y45.52 E3.74
G1 X220.872 Y45.823 E0.0179
G1 X284.178 Y109.128 E3.74
G1 X283.875 Y109.431 E0.0179
G1 X220.569 Y46.126 E3.74
G1 X220.266 Y46.429 E0.0179
G1 X283.572 Y109.734 E3.74
G1 X283.269 Y110.037 E0.0179
G1 X219.963 Y46.732 E3.74
G1 X219.66 Y47.035 E0.0179
G1 X282.966 Y110.34 E3.74
G1 X282.663 Y110.643 E0.0179
G1 X219.357 Y47.338 E3.74
G1 X219.054 Y47.641 E0.0179
G1 X282.36 Y110.946 E3.74
G1 X282.057 Y111.249 E0.0179
G1 X218.751 Y47.944 E3.74
M73 P2 R204
G1 X218.448 Y48.247 E0.0179
G1 X281.754 Y111.552 E3.74
G1 X281.451 Y111.855 E0.0179
G1 X218.145 Y48.55 E3.74
G1 X217.842 Y48.853 E0.0179
G1 X281.148 Y112.158 E3.74
G1 X280.845 Y112.461 E0.0179
G1 X217.539 Y49.156 E3.74
G1 X217.236 Y49.459 E0.0179
G1 X280.542 Y112.764 E3.74
G1 X280.239 Y113.067 E0.0179
G1 X216.933 Y49.762 E3.74
M73 P2 R203
G1 X216.63 Y50.065 E0.0179
G1 X279.936 Y113.37 E3.74
G1 X279.633 Y113.673 E0.0179
G1 X216.327 Y50.368 E3.74
G1 X216.024 Y50.671 E0.0179
G1 X279.33 Y113.976 E3.74
G1 X279.027 Y114.279 E0.0179
G1 X215.721 Y50.974 E3.74
G1 X215.418 Y51.277 E0.0179
G1 X278.724 Y114.582 E3.74
G1 X278.421 Y114.885 E0.0179
G1 X215.116 Y51.58 E3.74
G1 X214.813 Y51.883 E0.0179
G1 X278.118 Y115.188 E3.74
G1 X277.815 Y115.491 E0.0179
G1 X214.51 Y52.186 E3.74
G1 X214.207 Y52.489 E0.0179
G1 X277.512 Y115.794 E3.74
G1 X277.209 Y116.097 E0.0179
G1 X213.904 Y52.792 E3.74
G1 X213.601 Y53.095 E0.0179
G1 X276.906 Y116.4 E3.74
G1 X276.603 Y116.703 E0.0179
G1 X213.298 Y53.398 E3.74
G1 X212.995 Y53.7 E0.0179
G1 X276.3 Y117.006 E3.74
G1 X275.997 Y117.309 E0.0179
G1 X212.692 Y54.003 E3.74
G1 X212.389 Y54.306 E0.0179
G1 X275.694 Y117.612 E3.74
G1 X275.391 Y117.915 E0.0179
G1 X212.086 Y54.609 E3.74
G1 X211.783 Y54.912 E0.0179
G1 X275.088 Y118.218 E3.74
G1 X274.785 Y118.521 E0.0179
G1 X211.48 Y55.215 E3.74
G1 X211.177 Y55.518 E0.0179
G1 X274.482 Y118.824 E3.74
G1 X274.179 Y119.127 E0.0179
G1 X210.874 Y55.821 E3.74
G1 X210.571 Y56.124 E0.0179
G1 X273.876 Y119.43 E3.74
G1 X273.573 Y119.733 E0.0179
G1 X210.268 Y56.427 E3.74
G1 X209.965 Y56.73 E0.0179
G1 X273.27 Y120.036 E3.74
G1 X272.967 Y120.339 E0.0179
G1 X209.662 Y57.033 E3.74
G1 X209.359 Y57.336 E0.0179
G1 X272.664 Y120.642 E3.74
G1 X272.361 Y120.945 E0.0179
G1 X209.056 Y57.639 E3.74
G1 X208.753 Y57.942 E0.0179
G1 X272.058 Y121.248 E3.74
G1 X271.755 Y121.551 E0.0179
G1 X208.45 Y58.245 E3.74
G1 X208.147 Y58.548 E0.0179
G1 X271.452 Y121.854 E3.74
G1 X271.149 Y122.157 E0.0179
G1 X207.844 Y58.851 E3.74
G1 X207.541 Y59.154 E0.0179
G1 X270.846 Y122.46 E3.74
G1 X270.543 Y122.763 E0.0179
G1 X207.238 Y59.457 E3.74
G1 X206.935 Y59.76 E0.0179
G1 X270.24 Y123.066 E3.74
G1 X269.937 Y123.369 E0.0179
G1 X206.632 Y60.063 E3.74
G1 X206.329 Y60.366 E0.0179
G1 X269.634 Y123.672 E3.74
G1 X269.331 Y123.975 E0.0179
G1 X206.026 Y60.669 E3.74
G1 X205.723 Y60.972 E0.0179
G1 X269.028 Y124.278 E3.74
G1 X268.726 Y124.581 E0.0179
G1 X205.42 Y61.275 E3.74
M73 P2 R202
G1 X205.117 Y61.578 E0.0179
G1 X268.423 Y124.884 E3.74
G1 X268.12 Y125.187 E0.0179
G1 X204.814 Y61.881 E3.74
G1 X204.511 Y62.184 E0.0179
G1 X267.817 Y125.49 E3.74
G1 X267.514 Y125.793 E0.0179
G1 X204.208 Y62.487 E3.74
G1 X203.905 Y62.79 E0.0179
G1 X267.211 Y126.096 E3.74
G1 X266.908 Y126.399 E0.0179
G1 X203.602 Y63.093 E3.74
G1 X203.299 Y63.396 E0.0179
G1 X266.605 Y126.702 E3.74
G1 X266.302 Y127.005 E0.0179
G1 X202.996 Y63.699 E3.74
G1 X202.693 Y64.002 E0.0179
G1 X265.999 Y127.308 E3.74
G1 X265.696 Y127.611 E0.0179
G1 X202.39 Y64.305 E3.74
G1 X202.087 Y64.608 E0.0179
G1 X265.393 Y127.914 E3.74
G1 X265.09 Y128.217 E0.0179
G1 X201.784 Y64.911 E3.74
G1 X201.481 Y65.214 E0.0179
G1 X264.787 Y128.52 E3.74
G1 X264.484 Y128.823 E0.0179
G1 X201.178 Y65.517 E3.74
G1 X200.875 Y65.82 E0.0179
G1 X264.181 Y129.126 E3.74
G1 X263.878 Y129.429 E0.0179
G1 X200.572 Y66.123 E3.74
G1 X200.269 Y66.426 E0.0179
G1 X263.575 Y129.732 E3.74
G1 X263.272 Y130.035 E0.0179
G1 X199.966 Y66.729 E3.74
G1 X199.663 Y67.032 E0.0179
G1 X262.969 Y130.338 E3.74
G1 X262.666 Y130.641 E0.0179
G1 X199.36 Y67.335 E3.74
G1 X199.057 Y67.638 E0.0179
G1 X262.363 Y130.944 E3.74
G1 X262.06 Y131.247 E0.0179
G1 X198.754 Y67.941 E3.74
G1 X198.451 Y68.244 E0.0179
G1 X261.757 Y131.55 E3.74
G1 X261.454 Y131.853 E0.0179
G1 X198.148 Y68.547 E3.74
G1 X197.845 Y68.85 E0.0179
G1 X261.151 Y132.156 E3.74
G1 X260.848 Y132.459 E0.0179
G1 X197.542 Y69.153 E3.74
G1 X197.239 Y69.456 E0.0179
G1 X260.545 Y132.762 E3.74
G1 X260.242 Y133.065 E0.0179
G1 X196.936 Y69.759 E3.74
G1 X196.633 Y70.062 E0.0179
G1 X259.939 Y133.368 E3.74
G1 X259.636 Y133.671 E0.0179
G1 X196.33 Y70.365 E3.74
G1 X196.027 Y70.668 E0.0179
G1 X259.333 Y133.974 E3.74
G1 X259.03 Y134.277 E0.0179
G1 X195.724 Y70.971 E3.74
G1 X195.421 Y71.274 E0.0179
G1 X258.727 Y134.58 E3.74
G1 X258.424 Y134.883 E0.0179
G1 X195.118 Y71.577 E3.74
G1 X194.815 Y71.88 E0.0179
G1 X258.121 Y135.186 E3.74
G1 X257.818 Y135.489 E0.0179
G1 X194.512 Y72.183 E3.74
G1 X194.209 Y72.486 E0.0179
G1 X257.515 Y135.792 E3.74
M73 P3 R202
G1 X257.212 Y136.095 E0.0179
G1 X193.906 Y72.789 E3.74
G1 X193.603 Y73.092 E0.0179
G1 X256.909 Y136.398 E3.74
M73 P3 R201
G1 X256.606 Y136.701 E0.0179
G1 X193.3 Y73.395 E3.74
G1 X192.997 Y73.698 E0.0179
G1 X256.303 Y137.004 E3.74
G1 X256 Y137.307 E0.0179
G1 X192.694 Y74.001 E3.74
G1 X192.391 Y74.304 E0.0179
G1 X255.697 Y137.61 E3.74
G1 X255.394 Y137.913 E0.0179
G1 X192.088 Y74.607 E3.74
G1 X191.785 Y74.91 E0.0179
G1 X255.091 Y138.216 E3.74
G1 X254.788 Y138.519 E0.0179
G1 X191.482 Y75.213 E3.74
G1 X191.179 Y75.516 E0.0179
G1 X254.485 Y138.822 E3.74
G1 X254.182 Y139.125 E0.0179
G1 X190.876 Y75.819 E3.74
G1 X190.573 Y76.122 E0.0179
G1 X253.879 Y139.428 E3.74
G1 X253.576 Y139.731 E0.0179
G1 X190.27 Y76.425 E3.74
G1 X189.967 Y76.728 E0.0179
G1 X253.273 Y140.034 E3.74
G1 X252.97 Y140.337 E0.0179
G1 X189.664 Y77.031 E3.74
G1 X189.361 Y77.334 E0.0179
G1 X252.667 Y140.64 E3.74
G1 X252.364 Y140.943 E0.0179
G1 X189.058 Y77.637 E3.74
G1 X188.755 Y77.94 E0.0179
G1 X252.061 Y141.246 E3.74
G1 X251.758 Y141.549 E0.0179
G1 X188.452 Y78.243 E3.74
G1 X188.149 Y78.546 E0.0179
G1 X251.455 Y141.852 E3.74
G1 X251.152 Y142.155 E0.0179
G1 X187.846 Y78.849 E3.74
G1 X187.543 Y79.152 E0.0179
G1 X250.849 Y142.458 E3.74
G1 X250.546 Y142.761 E0.0179
G1 X187.24 Y79.455 E3.74
