; generated by SuperSlicer 2.3.57 on 2022-01-14 at 00:16:38 UTC


;
;

;
;
; 

; external perimeters extrusion width = 0.40mm
; perimeters extrusion width = 0.40mm
; infill extrusion width = 0.40mm
; solid infill extrusion width = 0.40mm
; top infill extrusion width = 0.40mm
; support material extrusion width = 0.40mm
; first layer extrusion width = 0.48mm

; external perimeters extrusion width = 0.40mm
; perimeters extrusion width = 0.40mm
; infill extrusion width = 0.40mm
; solid infill extrusion width = 0.40mm
; top infill extrusion width = 0.40mm
; support material extrusion width = 0.40mm
; first layer extrusion width = 0.48mm

; external perimeters extrusion width = 0.40mm
; perimeters extrusion width = 0.40mm
; infill extrusion width = 0.40mm
; solid infill extrusion width = 0.40mm
; top infill extrusion width = 0.40mm
; support material extrusion width = 0.40mm
; first layer extrusion width = 0.48mm

; external perimeters extrusion width = 0.40mm
; perimeters extrusion width = 0.40mm
; infill extrusion width = 0.40mm
; solid infill extrusion width = 0.40mm
; top infill extrusion width = 0.40mm
; support material extrusion width = 0.40mm
; first layer extrusion width = 0.48mm

; external perimeters extrusion width = 0.40mm
; perimeters extrusion width = 0.40mm
; infill extrusion width = 0.40mm
; solid infill extrusion width = 0.40mm
; top infill extrusion width = 0.40mm
; support material extrusion width = 0.40mm
; first layer extrusion width = 0.48mm


;TYPE:Custom
START_PRINT T_BED=70 T_EXTRUDER=230
M107
G21 ; set units to millimeters
G90 ; use absolute coordinates
M83 ; use relative distances for extrusion
M109 S230 ; set temperature and wait for it to be reached
M190 S70 ; set bed temperature and wait for it to be reached
;LAYER_CHANGE
;Z:0.24
;HEIGHT:0.24
G1 E-1.2 F3000
G1 Z0.24 F12000
M204 S1500
G1 X123.639 Y96.733
G1 E1.2 F1800
;TYPE:Skirt
;WIDTH:0.52
G1 F1500
G1 X123.084 Y97.553 E0.04631
G1 X122.797 Y98.347 E0.03947
G1 X122.697 Y99.186 E0.03947
G1 X122.698 Y210.855 E5.22014
G1 X122.85 Y211.852 E0.04719
G1 X123.266 Y212.772 E0.04719
G1 X123.915 Y213.545 E0.04719
G1 X124.753 Y214.116 E0.04741
G1 X125.543 Y214.402 E0.03925
G1 X126.376 Y214.503 E0.03925
G1 X183.813 Y214.497 E2.68497
G1 X184.48 Y214.397 E0.03151
G1 X194.815 Y211.798 E0.4982
G1 X195.466 Y211.498 E0.0335
G1 X196.047 Y211.079 E0.0335
G1 X196.537 Y210.555 E0.0335
G1 X196.916 Y209.947 E0.0335
G1 X197.204 Y209.148 E0.03969
G1 X197.303 Y208.31 E0.03947
G1 X197.278 Y101.275 E5.00352
G1 X197.041 Y100.332 E0.04543
G1 X196.564 Y99.48 E0.04565
G1 X195.884 Y98.786 E0.04543
G1 X195.043 Y98.29 E0.04565
G1 X184.476 Y95.602 E0.50971
G1 X183.605 Y95.497 E0.04102
G1 X126.274 Y95.499 E2.68001
G1 X125.298 Y95.665 E0.04631
G1 X124.396 Y96.087 E0.04653
G1 X123.685 Y96.694 E0.04372
G1 X123.84 Y96.866 F12000
M204 S1000
G1 X123.995 Y97.038
G1 F1500
G1 X123.504 Y97.76 E0.04079
G1 X123.253 Y98.456 E0.03461
G1 X123.166 Y99.191 E0.03461
G1 X123.166 Y210.842 E5.21931
G1 X123.297 Y211.714 E0.0412
G1 X123.662 Y212.521 E0.04141
G1 X124.228 Y213.196 E0.0412
G1 X124.96 Y213.696 E0.04141
G1 X125.652 Y213.946 E0.0344
G1 X126.382 Y214.034 E0.0344
G1 X183.779 Y214.029 E2.68311
G1 X184.371 Y213.941 E0.028
G1 X194.632 Y211.365 E0.49453
G1 X195.211 Y211.105 E0.02965
G1 X195.724 Y210.739 E0.02945
G1 X196.159 Y210.278 E0.02965
G1 X196.496 Y209.74 E0.02965
G1 X196.747 Y209.044 E0.03461
G1 X196.834 Y208.309 E0.03461
G1 X196.814 Y101.336 E5.00063
G1 X196.603 Y100.498 E0.04038
G1 X196.178 Y99.746 E0.04038
G1 X195.569 Y99.134 E0.04038
G1 X194.819 Y98.704 E0.04038
G1 X184.366 Y96.058 E0.50408
G1 X183.604 Y95.966 E0.03585
G1 X126.305 Y95.967 E2.67857
G1 X125.444 Y96.11 E0.04079
G1 X124.656 Y96.476 E0.04059
G1 X124.04 Y96.999 E0.03778
G1 E-1.2 F3000
M204 S1500
G1 X125.502 Y98.46 F12000
M204 S1000
G1 X126.963 Y99.922
G1 E1.2 F1800
;WIDTH:0.48
G1 F1500
G1 X127.226 Y99.659 E0.01588
G1 X127.541 Y99.529 E0.01458
G1 X138.059 Y99.529 E0.44972
G1 X138.374 Y99.659 E0.01458
G1 X138.741 Y100.026 E0.02217
G1 X138.871 Y100.341 E0.01458
G1 X138.871 Y102.029 E0.07217
G1 X148.059 Y102.029 E0.39284
G1 X148.374 Y102.159 E0.01458
G1 X148.741 Y102.526 E0.02217
G1 X148.871 Y102.841 E0.01458
G1 X148.871 Y118.359 E0.6635
G1 X148.741 Y118.674 E0.01458
G1 X148.374 Y119.041 E0.02217
G1 X148.059 Y119.171 E0.01458
G1 X138.871 Y119.171 E0.39284
G1 X138.871 Y120.859 E0.07217
G1 X138.741 Y121.174 E0.01458
G1 X138.374 Y121.541 E0.02217
G1 X138.059 Y121.671 E0.01458
G1 X127.541 Y121.671 E0.44972
G1 X127.226 Y121.541 E0.01458
G1 X126.859 Y121.174 E0.02217
G1 X126.729 Y120.859 E0.01458
G1 X126.729 Y100.341 E0.87728
G1 X126.859 Y100.026 E0.01458
G1 X126.921 Y99.964 E0.00372
M204 S1500
G1 X127.072 Y100.116 F12000
M204 S1000
G1 X127.222 Y100.269
G1 F1500
G1 X127.469 Y100.022 E0.01488
G1 X127.626 Y99.957 E0.00729
G1 X137.974 Y99.957 E0.44243
G1 X138.131 Y100.022 E0.00729
G1 X138.378 Y100.269 E0.01488
G1 X138.443 Y100.426 E0.00729
G1 X138.443 Y102.457 E0.08685
G1 X147.974 Y102.457 E0.40751
G1 X148.131 Y102.522 E0.00729
G1 X148.378 Y102.769 E0.01488
G1 X148.443 Y102.926 E0.00729
G1 X148.443 Y118.274 E0.65621
G1 X148.378 Y118.431 E0.00729
G1 X148.131 Y118.678 E0.01488
G1 X147.974 Y118.743 E0.00729
G1 X138.443 Y118.743 E0.40751
G1 X138.443 Y120.774 E0.08685
G1 X138.378 Y120.931 E0.00729
G1 X138.131 Y121.178 E0.01488
G1 X137.974 Y121.243 E0.00729
G1 X127.626 Y121.243 E0.44243
G1 X127.469 Y121.178 E0.00729
G1 X127.222 Y120.931 E0.01488
G1 X127.157 Y120.774 E0.00729
G1 X127.157 Y100.426 E0.86999
G1 X127.2 Y100.324 E0.00472
M204 S1500
G1 X127.393 Y100.418 F12000
M204 S1000
G1 X127.586 Y100.511
G1 F1500
G1 X127.711 Y100.386 E0.00759
G1 X137.889 Y100.386 E0.43514
G1 X138.014 Y100.511 E0.00759
G1 X138.014 Y102.886 E0.10152
G1 X147.889 Y102.886 E0.42219
G1 X148.014 Y103.011 E0.00759
G1 X148.014 Y118.189 E0.64892
G1 X147.889 Y118.314 E0.00759
G1 X138.014 Y118.314 E0.42219
G1 X138.014 Y120.689 E0.10152
G1 X137.889 Y120.814 E0.00759
G1 X127.711 Y120.814 E0.43514
G1 X127.586 Y120.689 E0.00759
G1 X127.586 Y100.571 E0.86013
G1 E-1.2 F3000
M204 S1500
G1 X132.573 Y101.956 F12000
M204 S1000
G1 X137.56 Y103.34
G1 E1.2 F1800
;TYPE:External perimeter
G1 F1500
G1 X147.56 Y103.34 E0.39335
G1 X147.56 Y117.86 E0.57114
G1 X137.56 Y117.86 E0.39335
G1 X137.56 Y120.36 E0.09834
G1 X128.04 Y120.36 E0.37447
G1 X128.04 Y100.84 E0.76782
G1 X137.56 Y100.84 E0.37447
G1 X137.56 Y103.28 E0.09598
;WIPE_START
M204 S2000
G1 X137.56 Y103.74 F12000
;WIPE_END
M204 S1500
G1 X137.346 Y103.754
M204 S1000
G1 X137.132 Y103.768
;TYPE:Internal perimeter
G1 F1500
G1 X147.132 Y103.768 E0.39335
G1 X147.132 Y117.432 E0.53743
G1 X137.132 Y117.432 E0.39335
G1 X137.132 Y119.932 E0.09834
G1 X128.468 Y119.932 E0.34076
G1 X128.468 Y101.268 E0.73411
G1 X137.132 Y101.268 E0.34076
G1 X137.132 Y103.708 E0.09598
M204 S1500
G1 X136.917 Y103.953 F12000
M204 S1000
G1 X136.703 Y104.197
G1 F1500
G1 X146.703 Y104.197 E0.39335
G1 X146.703 Y117.003 E0.50373
G1 X136.703 Y117.003 E0.39335
G1 X136.703 Y119.503 E0.09834
G1 X128.897 Y119.503 E0.30705
G1 X128.897 Y101.697 E0.7004
G1 X136.703 Y101.697 E0.30705
G1 X136.703 Y104.137 E0.09598
M204 S1500
G1 X136.32 Y102.981 F12000
M204 S1000
G1 X135.936 Y101.826
;TYPE:Solid infill
;WIDTH:0.479629
G1 F1800
G1 X136.39 Y102.279 E0.02522
G1 X136.39 Y102.885 E0.02382
G1 X135.515 Y102.01 E0.04866
G1 X134.909 Y102.01 E0.02382
G1 X136.39 Y103.491 E0.08235
G1 X136.39 Y104.097 E0.02382
G1 X134.303 Y102.01 E0.11603
G1 X133.697 Y102.01 E0.02382
G1 X146.39 Y114.703 E0.70557
G1 X146.39 Y114.097 E0.02382
G1 X136.803 Y104.51 E0.53292
G1 X137.409 Y104.51 E0.02382
G1 X146.39 Y113.491 E0.49924
G1 X146.39 Y112.885 E0.02382
G1 X138.015 Y104.51 E0.46555
G1 X138.621 Y104.51 E0.02382
G1 X146.39 Y112.279 E0.43187
G1 X146.39 Y111.673 E0.02382
G1 X139.227 Y104.51 E0.39818
G1 X139.833 Y104.51 E0.02382
G1 X146.39 Y111.067 E0.3645
G1 X146.39 Y110.461 E0.02382
G1 X140.439 Y104.51 E0.33082
G1 X141.045 Y104.51 E0.02382
G1 X146.39 Y109.855 E0.29713
G1 X146.39 Y109.249 E0.02382
G1 X141.651 Y104.51 E0.26345
G1 X142.257 Y104.51 E0.02382
G1 X146.39 Y108.643 E0.22977
G1 X146.39 Y108.037 E0.02382
G1 X142.863 Y104.51 E0.19608
G1 X143.469 Y104.51 E0.02382
G1 X146.39 Y107.431 E0.1624
G1 X146.39 Y106.825 E0.02382
G1 X144.075 Y104.51 E0.12872
G1 X144.681 Y104.51 E0.02382
G1 X146.39 Y106.219 E0.09503
G1 X146.39 Y105.613 E0.02382
G1 X145.287 Y104.51 E0.06135
G1 X145.893 Y104.51 E0.02382
G1 X146.574 Y105.192 E0.03791
M204 S1500
G1 X146.574 Y110.343 F12000
M204 S1000
G1 X146.574 Y115.493
G1 F1800
G1 X133.091 Y102.01 E0.74949
G1 X132.485 Y102.01 E0.02382
G1 X146.39 Y115.915 E0.77293
G1 X146.39 Y116.521 E0.02382
G1 X131.879 Y102.01 E0.80662
G1 X131.273 Y102.01 E0.02382
G1 X145.953 Y116.69 E0.81601
G1 X145.347 Y116.69 E0.02382
G1 X130.667 Y102.01 E0.81601
G1 X130.061 Y102.01 E0.02382
G1 X144.741 Y116.69 E0.81601
G1 X144.135 Y116.69 E0.02382
G1 X129.455 Y102.01 E0.81601
G1 X129.21 Y102.01 E0.00964
G1 X129.21 Y102.371 E0.01418
G1 X143.529 Y116.69 E0.79596
G1 X142.923 Y116.69 E0.02382
G1 X129.21 Y102.977 E0.76227
G1 X129.21 Y103.583 E0.02382
G1 X142.317 Y116.69 E0.72859
G1 X141.711 Y116.69 E0.02382
G1 X129.21 Y104.189 E0.69491
G1 X129.21 Y104.795 E0.02382
G1 X141.105 Y116.69 E0.66122
G1 X140.499 Y116.69 E0.02382
G1 X129.21 Y105.401 E0.62754
G1 X129.21 Y106.007 E0.02382
G1 X139.893 Y116.69 E0.59386
G1 X139.288 Y116.69 E0.02382
G1 X129.21 Y106.612 E0.56017
G1 X129.21 Y107.218 E0.02382
G1 X138.682 Y116.69 E0.52649
G1 X138.076 Y116.69 E0.02382
G1 X129.21 Y107.824 E0.4928
G1 X129.21 Y108.43 E0.02382
G1 X137.47 Y116.69 E0.45912
G1 X136.864 Y116.69 E0.02382
G1 X129.21 Y109.036 E0.42544
G1 X129.21 Y109.642 E0.02382
G1 X136.39 Y116.823 E0.39913
G1 X136.39 Y117.429 E0.02382
G1 X129.21 Y110.248 E0.39913
G1 X129.21 Y110.854 E0.02382
G1 X136.39 Y118.035 E0.39913
G1 X136.39 Y118.641 E0.02382
G1 X129.21 Y111.46 E0.39913
G1 X129.21 Y112.066 E0.02382
G1 X136.334 Y119.19 E0.39598
G1 X135.728 Y119.19 E0.02382
G1 X129.21 Y112.672 E0.3623
G1 X129.21 Y113.278 E0.02382
G1 X135.122 Y119.19 E0.32861
G1 X134.516 Y119.19 E0.02382
G1 X129.21 Y113.884 E0.29493
G1 X129.21 Y114.49 E0.02382
G1 X133.91 Y119.19 E0.26125
G1 X133.304 Y119.19 E0.02382
G1 X129.21 Y115.096 E0.22756
G1 X129.21 Y115.702 E0.02382
G1 X132.698 Y119.19 E0.19388
G1 X132.092 Y119.19 E0.02382
G1 X129.21 Y116.308 E0.1602
G1 X129.21 Y116.914 E0.02382
G1 X131.486 Y119.19 E0.12651
G1 X130.88 Y119.19 E0.02382
G1 X129.21 Y117.52 E0.09283
G1 X129.21 Y118.126 E0.02382
G1 X130.274 Y119.19 E0.05915
G1 X129.668 Y119.19 E0.02382
G1 X129.026 Y118.548 E0.0357
;LAYER_CHANGE
;Z:0.44
;HEIGHT:0.2
G1 E-1.2 F3000
M204 S2000
G1 Z0.44 F12000
M204 S1500
G1 X132.909 Y110.031
M204 S1000
G1 X136.793 Y101.514
G1 E1.2 F1800
;TYPE:Internal perimeter
;WIDTH:0.4
G1 F5400
G1 X136.793 Y119.686 E0.49638
G1 X128.714 Y119.686 E0.22068
G1 X128.714 Y101.514 E0.49638
G1 X136.733 Y101.514 E0.21904
M204 S1500
G1 X136.988 Y101.336 F12000
M204 S1000
G1 X137.243 Y101.157
G1 F5400
G1 X137.243 Y101.85 E0.01893
G1 X137.15 Y101.85 E0.00254
G1 X137.15 Y119.35 E0.47803
G1 X137.243 Y119.35 E0.00254
G1 X137.243 Y120.043 E0.01893
G1 X128.357 Y120.043 E0.24273
G1 X128.357 Y101.157 E0.51589
G1 X137.183 Y101.157 E0.24109
G1 E-1.2 F3000
M204 S1500
G1 X139.681 Y106.926 F12000
M204 S1000
G1 X142.18 Y112.695
G1 E1.2 F1800
;TYPE:External perimeter
G1 F2857.1989
G1 X142.097 Y112.748 E0.00268
G1 X142.035 Y112.811 E0.00242
G1 X141.988 Y112.883 E0.00236
G1 X141.955 Y112.962 E0.00232
G1 X141.935 Y113.043 E0.00228
G1 X141.926 Y113.113 E0.00192
G1 X141.924 Y113.18 E0.00183
G1 X141.924 Y115.842 E0.07273
G1 X141.935 Y115.968 E0.00345
G1 X141.97 Y116.083 E0.00329
G1 X142.026 Y116.178 E0.00301
G1 X142.097 Y116.25 E0.00274
G1 X142.173 Y116.299 E0.00248
G1 X142.256 Y116.333 E0.00245
G1 X142.352 Y116.353 E0.00268
G1 X142.456 Y116.36 E0.00285
G1 X142.583 Y116.348 E0.00348
G1 X142.695 Y116.311 E0.00322
G1 X142.786 Y116.253 E0.00295
G1 X142.854 Y116.182 E0.00268
G1 X142.9 Y116.107 E0.00241
G1 X142.931 Y116.027 E0.00234
G1 X142.949 Y115.945 E0.00229
G1 X142.956 Y115.882 E0.00174
G1 X142.958 Y115.822 E0.00163
G1 X142.958 Y113.154 E0.07289
G1 X142.947 Y113.031 E0.00337
G1 X142.911 Y112.917 E0.00325
G1 X142.854 Y112.825 E0.00298
G1 X142.784 Y112.755 E0.0027
G1 X142.708 Y112.707 E0.00244
G1 X142.628 Y112.674 E0.00238
G1 X142.545 Y112.655 E0.00232
G1 X142.481 Y112.648 E0.00176
G1 X142.411 Y112.645 E0.00191
G1 X142.289 Y112.657 E0.00335
G1 X142.236 Y112.675 E0.00152
;WIPE_START
M204 S2000
G1 X142.096 Y112.643 F12000
;WIPE_END
G1 E-1.2 F3000
M204 S1500
G1 X142.779 Y108.77 F12000
M204 S1000
G1 X143.461 Y104.898
G1 E1.2 F1800
G1 F4640.9944
G1 X143.361 Y104.791 E0.004
G1 X143.07 Y104.574 E0.0099
G1 X142.773 Y104.43 E0.00901
G1 X142.47 Y104.349 E0.00858
G1 X142.159 Y104.323 E0.00853
G1 X141.385 Y104.323 E0.02112
G1 X141.08 Y104.353 E0.00839
G1 X140.776 Y104.448 E0.0087
G1 X140.46 Y104.622 E0.00985
G1 X140.263 Y104.774 E0.0068
G1 X140.074 Y104.956 E0.00717
G1 X139.876 Y105.212 E0.00884
G1 X139.731 Y105.503 E0.00886
G1 X139.645 Y105.822 E0.00903
G1 X139.617 Y106.164 E0.00939
G1 X139.647 Y106.567 E0.01104
G1 X139.739 Y106.923 E0.01003
G1 X139.875 Y107.196 E0.00832
G1 X139.959 Y107.313 E0.00396
G1 X140.052 Y107.418 E0.00382
G1 X140.361 Y107.691 E0.01127
G1 X140.685 Y107.892 E0.0104
G1 X140.987 Y108.005 E0.00879
G1 X141.179 Y108.042 E0.00534
G1 X141.362 Y108.054 E0.00503
G1 X142.195 Y108.054 E0.02275
G1 X142.509 Y108.024 E0.00862
G1 X142.821 Y107.93 E0.00889
G1 X143.144 Y107.757 E0.01001
G1 X143.396 Y107.561 E0.00874
G1 X143.476 Y107.478 E0.00314
G1 X143.561 Y107.571 E0.00343
G1 X143.838 Y107.777 E0.00943
G1 X144.171 Y107.935 E0.01006
G1 X144.526 Y108.025 E0.01002
G1 X144.913 Y108.055 E0.01059
G1 X145.251 Y108.024 E0.00926
G1 X145.566 Y107.93 E0.00899
G1 X145.864 Y107.763 E0.00934
G1 X146.07 Y107.588 E0.00738
G1 X146.253 Y107.378 E0.00761
G1 X146.456 Y107.062 E0.01028
G1 X146.595 Y106.73 E0.00983
G1 X146.657 Y106.457 E0.00763
G1 X146.678 Y106.18 E0.00761
G1 X146.652 Y105.844 E0.00919
G1 X146.572 Y105.535 E0.00873
G1 X146.438 Y105.257 E0.00843
G1 X146.212 Y104.948 E0.01044
G1 X145.951 Y104.701 E0.00982
G1 X145.674 Y104.524 E0.009
G1 X145.34 Y104.397 E0.00975
G1 X145.085 Y104.347 E0.00709
G1 X144.818 Y104.331 E0.0073
G1 X144.448 Y104.361 E0.01016
G1 X144.105 Y104.453 E0.00969
G1 X143.812 Y104.598 E0.00891
G1 X143.539 Y104.809 E0.00944
G1 X143.501 Y104.852 E0.00159
;WIPE_START
M204 S2000
G1 X143.423 Y104.756 F12000
;WIPE_END
G1 E-1.2 F3000
M204 S1500
G1 X140.512 Y104.028 F12000
M204 S1000
G1 X137.6 Y103.3
G1 E1.2 F1800
G1 F4800
G1 X147.6 Y103.3 E0.27316
G1 X147.6 Y117.9 E0.39881
G1 X137.6 Y117.9 E0.27316
G1 X137.6 Y120.4 E0.06829
G1 X128 Y120.4 E0.26223
G1 X128 Y100.8 E0.53539
G1 X137.6 Y100.8 E0.26223
G1 X137.6 Y103.24 E0.06665
;WIPE_START
M204 S2000
G1 X137.6 Y103.7 F12000
;WIPE_END
G1 E-1.2 F3000
M204 S1500
G1 X135.964 Y119.579 F12000
G1 E1.2 F1800
;TYPE:Solid infill
;WIDTH:0.402606
G1 F5400
G1 X136.532 Y119.01 E0.0221
G1 X136.532 Y118.505 E0.01388
G1 X135.613 Y119.425 E0.03576
G1 X135.108 Y119.425 E0.01388
G1 X136.514 Y118.018 E0.0547
G1 X136.514 Y117.513 E0.01388
G1 X134.603 Y119.425 E0.07434
G1 X134.098 Y119.425 E0.01388
G1 X136.514 Y117.008 E0.09397
G1 X136.514 Y116.503 E0.01388
G1 X133.593 Y119.425 E0.11361
G1 X133.088 Y119.425 E0.01388
G1 X136.514 Y115.998 E0.13324
G1 X136.514 Y115.493 E0.01388
G1 X132.583 Y119.425 E0.15288
G1 X132.078 Y119.425 E0.01388
G1 X136.514 Y114.988 E0.17251
G1 X136.514 Y114.483 E0.01388
G1 X131.573 Y119.425 E0.19215
G1 X131.068 Y119.425 E0.01388
G1 X136.514 Y113.978 E0.21178
G1 X136.514 Y113.473 E0.01388
G1 X130.563 Y119.425 E0.23142
G1 X130.058 Y119.425 E0.01388
G1 X136.514 Y112.968 E0.25105
G1 X136.514 Y112.463 E0.01388
G1 X129.553 Y119.425 E0.27069
G1 X129.048 Y119.425 E0.01388
G1 X136.514 Y111.958 E0.29032
G1 X136.514 Y111.53 E0.01177
G1 X136.514 Y111.454 E0.00211
G1 X128.975 Y118.993 E0.29316
G1 X128.975 Y118.488 E0.01388
G1 X136.514 Y110.949 E0.29316
G1 X136.514 Y110.444 E0.01388
G1 X128.975 Y117.983 E0.29316
G1 X128.975 Y117.478 E0.01388
G1 X136.514 Y109.939 E0.29316
G1 X136.514 Y109.67 E0.00739
