; generated by SuperSlicer 2.4 on 2022-05-04 at 22:14:56 UTC


;
;

;
;
; 

; external perimeters extrusion width = 0.40mm
; perimeters extrusion width = 0.40mm
; infill extrusion width = 0.72mm
; solid infill extrusion width = 0.56mm
; top infill extrusion width = 0.40mm
; first layer extrusion width = 0.48mm

; external perimeters extrusion width = 0.40mm
; perimeters extrusion width = 0.40mm
; infill extrusion width = 0.72mm
; solid infill extrusion width = 0.56mm
; top infill extrusion width = 0.40mm
; first layer extrusion width = 0.48mm

; external perimeters extrusion width = 0.40mm
; perimeters extrusion width = 0.40mm
; infill extrusion width = 0.72mm
; solid infill extrusion width = 0.56mm
; top infill extrusion width = 0.40mm
; first layer extrusion width = 0.48mm

; object:{"name":"filament_flow_test","id":"filament_flow_test id:0 copy 0","object_center":[144.999999,144.999996,0.000000],"boundingbox_center":[144.999999,144.999996,0.725000],"boundingbox_size":[20.000000,20.000000,1.450000]}
; object:{"name":"filament_flow_test","id":"filament_flow_test id:1 copy 0","object_center":[184.999999,185.000002,0.000000],"boundingbox_center":[184.999999,185.000002,0.725000],"boundingbox_size":[20.000000,20.000000,1.450000]}
; object:{"name":"filament_flow_test","id":"filament_flow_test id:2 copy 0","object_center":[145.000001,184.999994,0.000000],"boundingbox_center":[145.000001,184.999994,0.725000],"boundingbox_size":[20.000000,20.000000,1.450000]}
; plater:{"center":[164.999999,164.999999,0.000000],"boundingbox_center":[164.999999,164.999999,0.725000],"boundingbox_size":[60.000000,60.000006,1.450000]}

M73 P0 R13
;TYPE:Custom
START_PRINT T_BED=110 T_EXTRUDER=245
M107
G21 ; set units to millimeters
G90 ; use absolute coordinates
M83 ; use relative distances for extrusion
; Filament gcode
M109 S245 ; set temperature and wait for it to be reached
M190 S110 ; set bed temperature and wait for it to be reached
M107
;LAYER_CHANGE
;Z:0.24
;HEIGHT:0.24
G1 Z0.24 F9000
G92 E0
G1 E-0.5 F3000
M204 S1000
G1 X131.495 Y130.73 F9000
G1 E0.5 F1800
;TYPE:Skirt
;WIDTH:0.52
G1 X130.395 Y132.037 E0.07988
G1 X130 Y133.7 E0.07988
G1 X130 Y196.3 E2.92634
G1 X130.73 Y198.505 E0.10858
G1 X132.037 Y199.605 E0.07988
G1 X133.7 Y200 E0.07988
G1 X186.3 Y200 E2.45887
M73 P0 R12
G1 X187.197 Y199.889 E0.04226
G1 X197.197 Y197.389 E0.48185
G1 X198.505 Y196.77 E0.06764
G1 X199.605 Y195.463 E0.07988
G1 X200 Y193.8 E0.07988
G1 X200 Y176.2 E0.82274
G1 X199.813 Y175.039 E0.05499
G1 X198.916 Y173.584 E0.07988
G1 X158.916 Y133.584 E2.64439
M73 P1 R12
G1 X157.197 Y132.611 E0.09233
G1 X147.197 Y130.111 E0.48185
G1 X146.3 Y130 E0.04226
G1 X133.7 Y130 E0.58901
G1 X131.495 Y130.73 E0.10858
G1 X131.864 Y131.072 F9000
G1 F1800
G1 X130.861 Y132.154 E0.06895
G1 X130.467 Y133.7 E0.0746
G1 X130.467 Y196.3 E2.92634
G1 X130.984 Y198.054 E0.08548
G1 X132.154 Y199.139 E0.0746
G1 X133.7 Y199.533 E0.0746
G1 X186.3 Y199.533 E2.45887
G1 X187.084 Y199.437 E0.03693
G1 X197.084 Y196.937 E0.48185
G1 X198.054 Y196.516 E0.04941
G1 X199.139 Y195.346 E0.0746
G1 X199.533 Y193.8 E0.0746
G1 X199.533 Y176.2 E0.82274
G1 X199.401 Y175.286 E0.04318
G1 X198.586 Y173.914 E0.0746
G1 X158.586 Y133.914 E2.64439
M73 P2 R12
G1 X157.084 Y133.063 E0.08069
G1 X147.084 Y130.563 E0.48185
G1 X146.3 Y130.467 E0.03693
G1 X133.7 Y130.467 E0.58901
G1 X131.946 Y130.984 E0.08548
G1 X131.864 Y131.072 E0.00565
G1 E-0.5 F3000
; acceleration to travel
M204 S3000
G1 X133.863 Y133.391 F9000
; decel to extrusion
M204 S1000
G1 X134.529 Y134.164
; end travel
G1 E0.5 F1800
;WIDTH:0.48
;HEIGHT:0.25
G1 X134.842 Y134.034 E0.01503
G1 X145.158 Y134.034 E0.45714
G1 X145.471 Y134.164 E0.01503
G1 X145.836 Y134.529 E0.02286
G1 X145.966 Y134.842 E0.01503
G1 X145.966 Y136.534 E0.07498
G1 X155.158 Y136.534 E0.40733
G1 X155.471 Y136.664 E0.01503
G1 X155.836 Y137.029 E0.02286
G1 X155.966 Y137.342 E0.01503
G1 X155.966 Y152.658 E0.6787
G1 X155.836 Y152.971 E0.01503
G1 X155.471 Y153.336 E0.02286
G1 X155.158 Y153.466 E0.01503
G1 X145.966 Y153.466 E0.40733
G1 X145.966 Y155.158 E0.07498
G1 X145.836 Y155.471 E0.01503
G1 X145.471 Y155.836 E0.02286
G1 X145.158 Y155.966 E0.01503
G1 X134.842 Y155.966 E0.45714
G1 X134.529 Y155.836 E0.01503
G1 X134.164 Y155.471 E0.02286
G1 X134.034 Y155.158 E0.01503
G1 X134.034 Y134.842 E0.90027
G1 X134.164 Y134.529 E0.01503
G1 X134.529 Y134.164 E0.02286
G1 X134.77 Y134.525 F9000
G1 F1800
G1 X134.927 Y134.46 E0.00752
G1 X145.073 Y134.46 E0.44962
G1 X145.23 Y134.525 E0.00752
G1 X145.475 Y134.77 E0.01534
G1 X145.54 Y134.927 E0.00752
G1 X145.54 Y136.96 E0.09012
G1 X155.073 Y136.96 E0.42247
G1 X155.23 Y137.025 E0.00752
G1 X155.475 Y137.27 E0.01534
G1 X155.54 Y137.427 E0.00752
G1 X155.54 Y152.573 E0.67119
G1 X155.475 Y152.73 E0.00752
G1 X155.23 Y152.975 E0.01534
G1 X155.073 Y153.04 E0.00752
G1 X145.54 Y153.04 E0.42247
G1 X145.54 Y155.073 E0.09012
G1 X145.475 Y155.23 E0.00752
G1 X145.23 Y155.475 E0.01534
G1 X145.073 Y155.54 E0.00752
G1 X134.927 Y155.54 E0.44962
G1 X134.77 Y155.475 E0.00752
G1 X134.525 Y155.23 E0.01534
G1 X134.46 Y155.073 E0.00752
G1 X134.46 Y134.927 E0.89276
M73 P3 R12
G1 X134.525 Y134.77 E0.00752
G1 X134.77 Y134.525 E0.01534
G1 X135.012 Y134.887 F9000
G1 F1800
G1 X144.988 Y134.887 E0.4421
G1 X145.113 Y135.012 E0.00783
G1 X145.113 Y137.387 E0.10525
G1 X154.988 Y137.387 E0.43761
G1 X155.113 Y137.512 E0.00783
G1 X155.113 Y152.488 E0.66367
G1 X154.988 Y152.613 E0.00783
G1 X145.113 Y152.613 E0.43761
G1 X145.113 Y154.988 E0.10525
G1 X144.988 Y155.113 E0.00783
G1 X135.012 Y155.113 E0.4421
G1 X134.887 Y154.988 E0.00783
G1 X134.887 Y135.012 E0.88524
G1 X135.012 Y134.887 E0.00783
; INIT printing object filament_flow_test id:0 copy 0
; printing object filament_flow_test id:0 copy 0
G1 X135.34 Y135.34 F9000
;TYPE:External perimeter
;HEIGHT:0.24
G1 F1800
G1 X144.66 Y135.34 E0.37457
G1 X144.66 Y137.84 E0.10048
G1 X154.66 Y137.84 E0.4019
G1 X154.66 Y152.16 E0.57552
G1 X144.66 Y152.16 E0.4019
G1 X144.66 Y154.66 E0.10048
G1 X135.34 Y154.66 E0.37457
G1 X135.34 Y135.34 E0.77647
;WIPE_START
M204 S5000
G1 X135.686 Y135.54 F9000
;WIPE_END
M204 S1000
G1 X135.768 Y135.768
;TYPE:Internal perimeter
G1 F1800
G1 X144.232 Y135.768 E0.34013
G1 X144.232 Y138.268 E0.10048
G1 X154.232 Y138.268 E0.4019
G1 X154.232 Y151.732 E0.54108
G1 X144.232 Y151.732 E0.4019
G1 X144.232 Y154.232 E0.10048
G1 X135.768 Y154.232 E0.34013
G1 X135.768 Y135.768 E0.74203
M73 P4 R12
G1 X136.197 Y136.197 F9000
G1 F1800
G1 X143.803 Y136.197 E0.30569
G1 X143.803 Y138.697 E0.10048
G1 X153.803 Y138.697 E0.4019
G1 X153.803 Y151.303 E0.50664
G1 X143.803 Y151.303 E0.4019
G1 X143.803 Y153.803 E0.10048
G1 X136.197 Y153.803 E0.30569
G1 X136.197 Y136.197 E0.70759
; acceleration to travel
M204 S3000
G1 X148.9 Y138.681 F9000
; decel to extrusion
M204 S1000
G1 X153.739 Y139.627
; end travel
;TYPE:Solid infill
;WIDTH:0.470921
G1 F3600
G1 X153.057 Y138.945 E0.03803
G1 X152.451 Y138.945 E0.02389
G1 X153.555 Y140.049 E0.06154
G1 X153.555 Y140.655 E0.02389
G1 X151.845 Y138.945 E0.09533
G1 X151.239 Y138.945 E0.02389
G1 X153.555 Y141.261 E0.12913
G1 X153.555 Y141.867 E0.02389
G1 X150.633 Y138.945 E0.16292
G1 X150.027 Y138.945 E0.02389
G1 X153.555 Y142.473 E0.19671
G1 X153.555 Y143.079 E0.02389
G1 X149.421 Y138.945 E0.2305
G1 X148.815 Y138.945 E0.02389
G1 X153.555 Y143.685 E0.26429
G1 X153.555 Y144.291 E0.02389
G1 X148.209 Y138.945 E0.29808
G1 X147.603 Y138.945 E0.02389
G1 X153.555 Y144.897 E0.33187
G1 X153.555 Y145.503 E0.02389
G1 X146.997 Y138.945 E0.36566
G1 X146.391 Y138.945 E0.02389
G1 X153.555 Y146.109 E0.39945
G1 X153.555 Y146.715 E0.02389
G1 X145.785 Y138.945 E0.43325
G1 X145.179 Y138.945 E0.02389
G1 X153.555 Y147.321 E0.46704
G1 X153.555 Y147.927 E0.02389
G1 X144.389 Y138.761 E0.5111
; acceleration to travel
M204 S3000
G1 X143.901 Y137.365 F9000
; decel to extrusion
M204 S1000
G1 X143.739 Y136.899
; end travel
G1 F3600
G1 X143.285 Y136.445 E0.0253
G1 X142.679 Y136.445 E0.02389
G1 X143.555 Y137.321 E0.04882
G1 X143.555 Y137.927 E0.02389
G1 X142.073 Y136.445 E0.08261
G1 X141.467 Y136.445 E0.02389
G1 X143.555 Y138.533 E0.1164
G1 X143.555 Y138.945 E0.01627
G1 X143.967 Y138.945 E0.01627
G1 X153.555 Y148.533 E0.53462
G1 X153.555 Y149.139 E0.02389
G1 X140.861 Y136.445 E0.70782
G1 X140.255 Y136.445 E0.02389
G1 X153.555 Y149.745 E0.74161
G1 X153.555 Y150.351 E0.02389
G1 X139.649 Y136.445 E0.7754
G1 X139.043 Y136.445 E0.02389
G1 X153.555 Y150.957 E0.80919
M73 P5 R12
G1 X153.555 Y151.054 E0.00385
G1 X153.046 Y151.054 E0.02004
G1 X138.437 Y136.445 E0.81463
G1 X137.831 Y136.445 E0.02389
G1 X152.44 Y151.054 E0.81463
G1 X151.834 Y151.054 E0.02389
G1 X137.225 Y136.445 E0.81463
G1 X136.619 Y136.445 E0.02389
G1 X151.228 Y151.054 E0.81463
G1 X150.622 Y151.054 E0.02389
G1 X136.445 Y136.878 E0.79053
G1 X136.445 Y137.484 E0.02389
G1 X150.016 Y151.054 E0.75674
G1 X149.41 Y151.054 E0.02389
G1 X136.445 Y138.09 E0.72295
G1 X136.445 Y138.696 E0.02389
G1 X148.804 Y151.054 E0.68915
G1 X148.198 Y151.054 E0.02389
G1 X136.445 Y139.302 E0.65536
G1 X136.445 Y139.908 E0.02389
G1 X147.592 Y151.054 E0.62157
G1 X146.986 Y151.054 E0.02389
G1 X136.445 Y140.514 E0.58778
G1 X136.445 Y141.12 E0.02389
G1 X146.38 Y151.054 E0.55399
G1 X145.774 Y151.054 E0.02389
G1 X136.445 Y141.726 E0.5202
G1 X136.445 Y142.332 E0.02389
G1 X145.168 Y151.054 E0.48641
G1 X144.562 Y151.054 E0.02389
G1 X136.445 Y142.938 E0.45262
G1 X136.445 Y143.544 E0.02389
G1 X143.956 Y151.054 E0.41883
G1 X143.555 Y151.054 E0.01585
G1 X143.555 Y151.259 E0.00805
G1 X136.445 Y144.15 E0.39642
G1 X136.445 Y144.756 E0.02389
G1 X143.555 Y151.865 E0.39642
G1 X143.555 Y152.471 E0.02389
G1 X136.445 Y145.362 E0.39642
G1 X136.445 Y145.968 E0.02389
G1 X143.555 Y153.077 E0.39642
G1 X143.555 Y153.554 E0.01885
G1 X143.426 Y153.554 E0.00505
G1 X136.445 Y146.574 E0.38928
G1 X136.445 Y147.179 E0.02389
G1 X142.82 Y153.554 E0.35549
G1 X142.215 Y153.554 E0.02389
G1 X136.445 Y147.785 E0.32169
G1 X136.445 Y148.391 E0.02389
G1 X141.609 Y153.554 E0.2879
G1 X141.003 Y153.554 E0.02389
G1 X136.445 Y148.997 E0.25411
G1 X136.445 Y149.603 E0.02389
G1 X140.397 Y153.554 E0.22032
M73 P6 R12
G1 X139.791 Y153.554 E0.02389
G1 X136.445 Y150.209 E0.18653
G1 X136.445 Y150.815 E0.02389
G1 X139.185 Y153.554 E0.15274
G1 X138.579 Y153.554 E0.02389
G1 X136.445 Y151.421 E0.11895
G1 X136.445 Y152.027 E0.02389
G1 X137.973 Y153.554 E0.08516
G1 X137.367 Y153.554 E0.02389
G1 X136.445 Y152.633 E0.05137
G1 X136.445 Y153.239 E0.02389
G1 X136.945 Y153.739 E0.02785
; INIT stop printing object filament_flow_test id:0 copy 0
M106 S61.2
;LAYER_CHANGE
;Z:0.44
;HEIGHT:0.2
; stop printing object filament_flow_test id:0 copy 0
M204 S5000
G1 Z0.44 F9000
G92 E0
; INIT printing object filament_flow_test id:0 copy 0
G1 E-0.5 F3000
; printing object filament_flow_test id:0 copy 0
; acceleration to travel
M204 S3000
G1 X140.686 Y145.22 F9000
; decel to extrusion
M204 S2000
G1 X143.96 Y137.767
; end travel
G1 E0.5 F1800
;TYPE:Internal perimeter
;WIDTH:0.4
G1 F5400
G1 X143.96 Y154.019 E0.4536
G1 X135.981 Y154.019 E0.22269
G1 X135.981 Y135.981 E0.50345
G1 X143.96 Y135.981 E0.22269
G1 X143.96 Y137.767 E0.04984
G1 X144.317 Y137.767 F9000
G1 F5400
G1 X144.317 Y153.683 E0.44423
G1 X144.376 Y153.683 E0.00166
G1 X144.376 Y154.376 E0.01934
G1 X135.624 Y154.376 E0.24428
G1 X135.624 Y135.624 E0.52338
G1 X144.376 Y135.624 E0.24428
G1 X144.376 Y136.317 E0.01934
G1 X144.317 Y136.317 E0.00166
G1 X144.317 Y137.767 E0.04047
G1 E-0.5 F3000
; acceleration to travel
M204 S3000
G1 X148.403 Y145.313 F9000
; decel to extrusion
M204 S1000
G1 X149.337 Y147.039
; end travel
G1 E0.5 F1800
;TYPE:External perimeter
G1 F2330.3374
G1 X149.181 Y147.164 E0.00557
G1 X149.091 Y147.336 E0.00543
G1 X149.059 Y147.504 E0.00477
G1 X149.057 Y150.257 E0.07684
G1 X149.103 Y150.512 E0.00722
G1 X149.248 Y150.703 E0.00668
G1 X149.434 Y150.799 E0.00584
G1 X149.479 Y150.805 E0.00127
G1 X149.648 Y150.828 E0.00476
G1 X149.812 Y150.812 E0.00461
G1 X150.029 Y150.712 E0.00667
G1 X150.165 Y150.536 E0.00622
G1 X150.223 Y150.299 E0.0068
G1 X150.225 Y147.538 E0.07707
G1 X150.178 Y147.288 E0.00709
G1 X150.024 Y147.092 E0.00696
G1 X149.761 Y146.985 E0.00792
G1 X149.486 Y146.988 E0.00768
G1 X149.337 Y147.039 E0.00441
;WIPE_START
M204 S5000
G1 X149.161 Y146.946 F9000
;WIPE_END
G1 E-0.5 F3000
; acceleration to travel
M204 S3000
G1 X150.649 Y142.932 F9000
; decel to extrusion
M204 S1000
G1 X151.241 Y141.336
; end travel
G1 E0.5 F1800
G1 F4200
G1 X151.241 Y140.677 E0.01839
G1 X151.229 Y140.53 E0.00413
G1 X151.211 Y140.322 E0.00581
G1 X151.114 Y139.978 E0.00998
G1 X150.944 Y139.648 E0.01036
G1 X150.865 Y139.545 E0.00362
G1 X150.787 Y139.442 E0.00362
G1 X150.602 Y139.254 E0.00736
G1 X150.297 Y139.022 E0.0107
G1 X150.188 Y138.968 E0.00338
G1 X149.972 Y138.86 E0.00674
G1 X149.691 Y138.781 E0.00816
G1 X149.461 Y138.76 E0.00644
G1 X149.415 Y138.756 E0.00129
G1 X148.498 Y138.756 E0.02558
G1 X148.204 Y138.788 E0.00827
G1 X148.024 Y138.848 E0.00528
G1 X147.904 Y138.888 E0.00353
G1 X147.614 Y139.05 E0.00927
G1 X147.218 Y139.39 E0.01457
G1 X147.02 Y139.64 E0.00891
G1 X146.873 Y139.932 E0.00913
G1 X146.772 Y140.298 E0.01059
G1 X146.743 Y140.53 E0.00652
G1 X146.733 Y140.775 E0.00685
G1 X146.764 Y141.112 E0.00945
G1 X146.862 Y141.44 E0.00954
G1 X147.035 Y141.762 E0.0102
G1 X147.275 Y142.056 E0.0106
G1 X147.554 Y142.298 E0.01031
G1 X147.859 Y142.474 E0.00983
G1 X148.169 Y142.575 E0.00909
G1 X148.499 Y142.609 E0.00926
G1 X150.823 Y142.609 E0.06486
G1 X151.227 Y142.58 E0.01131
G1 X151.328 Y142.557 E0.00288
G1 X151.634 Y142.489 E0.00875
G1 X152.072 Y142.318 E0.01312
G1 X152.351 Y142.159 E0.00896
G1 X152.49 Y142.079 E0.00448
G1 X152.895 Y141.771 E0.01421
G1 X153.226 Y141.442 E0.01303
G1 X153.509 Y141.056 E0.01336
G1 X153.685 Y140.744 E0.00999
G1 X153.901 Y140.213 E0.01601
G1 X153.914 Y139.891 E0.00899
G1 X153.863 Y139.731 E0.00467
G1 X153.792 Y139.64 E0.00322
G1 X153.728 Y139.558 E0.0029
G1 X153.549 Y139.467 E0.00559
G1 X153.5 Y139.458 E0.00141
G1 X153.364 Y139.433 E0.00386
G1 X153.215 Y139.456 E0.00419
G1 X153.067 Y139.479 E0.00419
G1 X152.848 Y139.693 E0.00854
G1 X152.727 Y139.978 E0.00863
G1 X152.613 Y140.245 E0.00809
G1 X152.568 Y140.322 E0.00251
G1 X152.513 Y140.416 E0.00303
G1 X152.442 Y140.537 E0.00392
G1 X152.246 Y140.772 E0.00852
G1 X151.994 Y140.992 E0.00934
G1 X151.72 Y141.165 E0.00904
G1 X151.397 Y141.301 E0.0098
G1 X151.241 Y141.336 E0.00444
;WIPE_START
M204 S5000
G1 X151.416 Y140.976 F9000
;WIPE_END
G1 E-0.5 F3000
; acceleration to travel
M204 S3000
G1 X146.404 Y138.569 F9000
; decel to extrusion
M204 S1000
G1 X144.733 Y137.767
; end travel
G1 E0.5 F1800
G1 F4200
G1 X154.733 Y137.767 E0.2791
G1 X154.733 Y152.233 E0.40376
G1 X144.733 Y152.233 E0.2791
G1 X144.733 Y154.733 E0.06977
G1 X135.267 Y154.733 E0.26421
G1 X135.267 Y135.267 E0.54331
G1 X144.733 Y135.267 E0.26421
G1 X144.733 Y137.767 E0.06977
;WIPE_START
M204 S5000
G1 X144.733 Y138.167 F9000
;WIPE_END
G1 E-0.5 F3000
; acceleration to travel
M204 S3000
G1 X139.688 Y137.337 F9000
; decel to extrusion
M204 S2000
G1 X136.01 Y136.732
; end travel
G1 E0.5 F1800
;TYPE:Solid infill
;WIDTH:0.551869
G1 F4800
G1 X136.51 Y136.233 E0.02815
G1 X137.241 Y136.233 E0.02913
G1 X136.233 Y137.241 E0.05682
G1 X136.233 Y137.973 E0.02913
G1 X137.973 Y136.233 E0.09801
G1 X138.704 Y136.233 E0.02913
G1 X136.233 Y138.704 E0.13919
G1 X136.233 Y139.435 E0.02913
G1 X139.435 Y136.233 E0.18038
G1 X140.166 Y136.233 E0.02913
G1 X136.233 Y140.166 E0.22157
G1 X136.233 Y140.898 E0.02913
G1 X140.898 Y136.233 E0.26276
G1 X141.629 Y136.233 E0.02913
G1 X136.233 Y141.629 E0.30395
G1 X136.233 Y142.36 E0.02913
G1 X142.36 Y136.233 E0.34514
G1 X143.091 Y136.233 E0.02913
G1 X136.233 Y143.091 E0.38633
G1 X136.233 Y143.823 E0.02913
G1 X143.708 Y136.348 E0.42104
G1 X143.708 Y137.079 E0.02913
G1 X136.233 Y144.554 E0.42104
G1 X136.233 Y145.285 E0.02913
G1 X143.604 Y137.914 E0.41522
G1 X143.604 Y138.645 E0.02913
G1 X136.233 Y146.017 E0.41522
G1 X136.233 Y146.748 E0.02913
G1 X143.604 Y139.376 E0.41522
G1 X143.604 Y140.107 E0.02913
G1 X136.233 Y147.479 E0.41522
M73 P7 R12
G1 X136.233 Y148.21 E0.02913
G1 X143.604 Y140.839 E0.41522
G1 X143.604 Y141.57 E0.02913
