; generated by SuperSlicer 2.3.57 on 2022-01-07 at 06:13:22 UTC


;
;

;
;
; 

; external perimeters extrusion width = 0.40mm
; perimeters extrusion width = 0.40mm
; infill extrusion width = 0.40mm
; solid infill extrusion width = 0.40mm
; top infill extrusion width = 0.40mm
; support material extrusion width = 0.40mm
; first layer extrusion width = 0.48mm

; external perimeters extrusion width = 0.40mm
; perimeters extrusion width = 0.40mm
; infill extrusion width = 0.40mm
; solid infill extrusion width = 0.40mm
; top infill extrusion width = 0.40mm
; support material extrusion width = 0.40mm
; first layer extrusion width = 0.48mm

; external perimeters extrusion width = 0.40mm
; perimeters extrusion width = 0.40mm
; infill extrusion width = 0.40mm
; solid infill extrusion width = 0.40mm
; top infill extrusion width = 0.40mm
; support material extrusion width = 0.40mm
; first layer extrusion width = 0.48mm

; external perimeters extrusion width = 0.40mm
; perimeters extrusion width = 0.40mm
; infill extrusion width = 0.40mm
; solid infill extrusion width = 0.40mm
; top infill extrusion width = 0.40mm
; support material extrusion width = 0.40mm
; first layer extrusion width = 0.48mm

; external perimeters extrusion width = 0.40mm
; perimeters extrusion width = 0.40mm
; infill extrusion width = 0.40mm
; solid infill extrusion width = 0.40mm
; top infill extrusion width = 0.40mm
; support material extrusion width = 0.40mm
; first layer extrusion width = 0.48mm


;TYPE:Custom
START_PRINT T_BED=60 T_EXTRUDER=200
M107
G21 ; set units to millimeters
G90 ; use absolute coordinates
M83 ; use relative distances for extrusion
M109 S200 ; set temperature and wait for it to be reached
M190 S60 ; set bed temperature and wait for it to be reached
;LAYER_CHANGE
;Z:0.24
;HEIGHT:0.24
G1 E-0.45 F4800
G1 Z0.24 F12000
M204 S1500
G1 X123.283 Y96.428
G1 E0.45 F1920
;TYPE:Skirt
;WIDTH:0.52
G1 F1500
G1 X122.659 Y97.354 E0.05221
G1 X122.34 Y98.245 E0.04425
G1 X122.229 Y99.185 E0.04425
G1 X122.229 Y210.868 E5.22083
G1 X122.403 Y211.992 E0.05314
G1 X122.876 Y213.031 E0.05337
G1 X123.609 Y213.9 E0.05314
G1 X124.554 Y214.541 E0.05337
G1 X125.44 Y214.859 E0.04401
G1 X126.37 Y214.971 E0.04378
G1 X183.85 Y214.964 E2.687
G1 X184.592 Y214.852 E0.0351
G1 X195.003 Y212.228 E0.50188
G1 X195.728 Y211.888 E0.03745
G1 X196.374 Y211.415 E0.03745
G1 X196.919 Y210.827 E0.03745
G1 X197.341 Y210.146 E0.03745
G1 X197.66 Y209.255 E0.04425
G1 X197.771 Y208.315 E0.04425
G1 X197.742 Y101.206 E5.00697
G1 X197.476 Y100.158 E0.05057
G1 X196.949 Y99.213 E0.05057
G1 X196.197 Y98.436 E0.05057
G1 X195.27 Y97.878 E0.05057
G1 X194.631 Y97.658 E0.03157
G1 X184.59 Y95.148 E0.48386
G1 X183.605 Y95.029 E0.04636
G1 X126.241 Y95.032 E2.68159
G1 X125.141 Y95.223 E0.05221
G1 X124.131 Y95.7 E0.05221
G1 X123.329 Y96.389 E0.0494
G1 X123.639 Y96.733 F12000
G1 F1500
G1 X123.084 Y97.553 E0.04631
G1 X122.797 Y98.347 E0.03947
G1 X122.697 Y99.186 E0.03947
G1 X122.698 Y210.855 E5.22014
G1 X122.85 Y211.852 E0.04719
G1 X123.266 Y212.772 E0.04719
G1 X123.915 Y213.545 E0.04719
G1 X124.753 Y214.116 E0.04741
G1 X125.543 Y214.402 E0.03925
G1 X126.376 Y214.503 E0.03925
G1 X183.813 Y214.497 E2.68497
G1 X184.48 Y214.397 E0.03151
G1 X194.815 Y211.798 E0.4982
G1 X195.466 Y211.498 E0.0335
G1 X196.047 Y211.079 E0.0335
G1 X196.537 Y210.555 E0.0335
G1 X196.916 Y209.947 E0.0335
G1 X197.204 Y209.148 E0.03969
G1 X197.303 Y208.31 E0.03947
G1 X197.278 Y101.275 E5.00352
G1 X197.041 Y100.332 E0.04543
G1 X196.564 Y99.48 E0.04565
G1 X195.884 Y98.786 E0.04543
G1 X195.043 Y98.29 E0.04565
G1 X184.476 Y95.602 E0.50971
G1 X183.605 Y95.497 E0.04102
G1 X126.274 Y95.499 E2.68001
G1 X125.298 Y95.665 E0.04631
G1 X124.396 Y96.087 E0.04653
G1 X123.685 Y96.694 E0.04372
G1 X123.995 Y97.038 F12000
G1 F1500
G1 X123.504 Y97.76 E0.04079
G1 X123.253 Y98.456 E0.03461
G1 X123.166 Y99.191 E0.03461
G1 X123.166 Y210.842 E5.21931
G1 X123.297 Y211.714 E0.0412
G1 X123.662 Y212.521 E0.04141
G1 X124.228 Y213.196 E0.0412
G1 X124.96 Y213.696 E0.04141
G1 X125.652 Y213.946 E0.0344
G1 X126.382 Y214.034 E0.0344
G1 X183.779 Y214.029 E2.68311
G1 X184.371 Y213.941 E0.028
G1 X194.632 Y211.365 E0.49453
G1 X195.211 Y211.105 E0.02965
G1 X195.724 Y210.739 E0.02945
G1 X196.159 Y210.278 E0.02965
G1 X196.496 Y209.74 E0.02965
G1 X196.747 Y209.044 E0.03461
G1 X196.834 Y208.309 E0.03461
G1 X196.814 Y101.336 E5.00063
G1 X196.603 Y100.498 E0.04038
G1 X196.178 Y99.746 E0.04038
G1 X195.569 Y99.134 E0.04038
G1 X194.819 Y98.704 E0.04038
G1 X184.366 Y96.058 E0.50408
G1 X183.604 Y95.966 E0.03585
G1 X126.305 Y95.967 E2.67857
G1 X125.444 Y96.11 E0.04079
G1 X124.656 Y96.476 E0.04059
G1 X124.04 Y96.999 E0.03778
G1 E-0.315 F4800
;WIPE_START
G1 F9600
G1 X123.885 Y97.22 E-0.12825
;WIPE_END
G1 E-0.00675 F4800
G1 X126.963 Y99.922 F12000
G1 E0.45 F1920
;WIDTH:0.48
G1 F1500
G1 X127.226 Y99.659 E0.01588
G1 X127.541 Y99.529 E0.01458
G1 X138.059 Y99.529 E0.44972
G1 X138.374 Y99.659 E0.01458
G1 X138.741 Y100.026 E0.02217
G1 X138.871 Y100.341 E0.01458
G1 X138.871 Y102.029 E0.07217
G1 X148.059 Y102.029 E0.39284
G1 X148.374 Y102.159 E0.01458
G1 X148.741 Y102.526 E0.02217
G1 X148.871 Y102.841 E0.01458
G1 X148.871 Y118.359 E0.6635
G1 X148.741 Y118.674 E0.01458
G1 X148.374 Y119.041 E0.02217
G1 X148.059 Y119.171 E0.01458
G1 X138.871 Y119.171 E0.39284
G1 X138.871 Y120.859 E0.07217
G1 X138.741 Y121.174 E0.01458
G1 X138.374 Y121.541 E0.02217
G1 X138.059 Y121.671 E0.01458
G1 X127.541 Y121.671 E0.44972
G1 X127.226 Y121.541 E0.01458
G1 X126.859 Y121.174 E0.02217
G1 X126.729 Y120.859 E0.01458
G1 X126.729 Y100.341 E0.87728
G1 X126.859 Y100.026 E0.01458
G1 X126.921 Y99.964 E0.00372
G1 X127.222 Y100.269 F12000
G1 F1500
G1 X127.469 Y100.022 E0.01488
G1 X127.626 Y99.957 E0.00729
G1 X137.974 Y99.957 E0.44243
G1 X138.131 Y100.022 E0.00729
G1 X138.378 Y100.269 E0.01488
G1 X138.443 Y100.426 E0.00729
G1 X138.443 Y102.457 E0.08685
G1 X147.974 Y102.457 E0.40751
G1 X148.131 Y102.522 E0.00729
G1 X148.378 Y102.769 E0.01488
G1 X148.443 Y102.926 E0.00729
G1 X148.443 Y118.274 E0.65621
G1 X148.378 Y118.431 E0.00729
G1 X148.131 Y118.678 E0.01488
G1 X147.974 Y118.743 E0.00729
G1 X138.443 Y118.743 E0.40751
G1 X138.443 Y120.774 E0.08685
G1 X138.378 Y120.931 E0.00729
G1 X138.131 Y121.178 E0.01488
G1 X137.974 Y121.243 E0.00729
G1 X127.626 Y121.243 E0.44243
G1 X127.469 Y121.178 E0.00729
G1 X127.222 Y120.931 E0.01488
G1 X127.157 Y120.774 E0.00729
G1 X127.157 Y100.426 E0.86999
G1 X127.2 Y100.324 E0.00472
G1 X127.586 Y100.511 F12000
G1 F1500
G1 X127.711 Y100.386 E0.00759
G1 X137.889 Y100.386 E0.43514
G1 X138.014 Y100.511 E0.00759
G1 X138.014 Y102.886 E0.10152
G1 X147.889 Y102.886 E0.42219
G1 X148.014 Y103.011 E0.00759
G1 X148.014 Y118.189 E0.64892
G1 X147.889 Y118.314 E0.00759
G1 X138.014 Y118.314 E0.42219
G1 X138.014 Y120.689 E0.10152
G1 X137.889 Y120.814 E0.00759
G1 X127.711 Y120.814 E0.43514
G1 X127.586 Y120.689 E0.00759
G1 X127.586 Y100.571 E0.86013
G1 E-0.315 F4800
;WIPE_START
G1 F9600
G1 X127.711 Y100.386 E-0.10639
G1 X127.757 Y100.386 E-0.02186
;WIPE_END
G1 E-0.00675 F4800
G1 X137.56 Y103.34 F12000
G1 E0.45 F1920
;TYPE:External perimeter
G1 F1500
G1 X147.56 Y103.34 E0.34204
G1 X147.56 Y117.86 E0.49665
G1 X137.56 Y117.86 E0.34204
G1 X137.56 Y120.36 E0.08551
G1 X128.04 Y120.36 E0.32563
G1 X128.04 Y100.84 E0.66767
G1 X137.56 Y100.84 E0.32563
G1 X137.56 Y103.28 E0.08346
;WIPE_START
M204 S3000
G1 X137.56 Y103.74 F12000
;WIPE_END
M204 S1500
G1 X137.132 Y103.768
;TYPE:Internal perimeter
G1 F1500
G1 X147.132 Y103.768 E0.34204
G1 X147.132 Y117.432 E0.46733
G1 X137.132 Y117.432 E0.34204
G1 X137.132 Y119.932 E0.08551
G1 X128.468 Y119.932 E0.29631
G1 X128.468 Y101.268 E0.63836
G1 X137.132 Y101.268 E0.29631
G1 X137.132 Y103.708 E0.08346
G1 X136.703 Y104.197 F12000
G1 F1500
G1 X146.703 Y104.197 E0.34204
G1 X146.703 Y117.003 E0.43802
G1 X136.703 Y117.003 E0.34204
G1 X136.703 Y119.503 E0.08551
G1 X128.897 Y119.503 E0.267
G1 X128.897 Y101.697 E0.60904
G1 X136.703 Y101.697 E0.267
G1 X136.703 Y104.137 E0.08346
G1 X135.936 Y101.826 F12000
;TYPE:Solid infill
;WIDTH:0.479629
G1 F1800
G1 X136.39 Y102.279 E0.02193
G1 X136.39 Y102.885 E0.02071
G1 X135.515 Y102.01 E0.04232
G1 X134.909 Y102.01 E0.02071
G1 X136.39 Y103.491 E0.07161
G1 X136.39 Y104.097 E0.02071
G1 X134.303 Y102.01 E0.1009
G1 X133.697 Y102.01 E0.02071
G1 X146.39 Y114.703 E0.61354
G1 X146.39 Y114.097 E0.02071
G1 X136.803 Y104.51 E0.46341
G1 X137.409 Y104.51 E0.02071
G1 X146.39 Y113.491 E0.43412
G1 X146.39 Y112.885 E0.02071
G1 X138.015 Y104.51 E0.40483
G1 X138.621 Y104.51 E0.02071
G1 X146.39 Y112.279 E0.37554
G1 X146.39 Y111.673 E0.02071
G1 X139.227 Y104.51 E0.34625
G1 X139.833 Y104.51 E0.02071
G1 X146.39 Y111.067 E0.31696
G1 X146.39 Y110.461 E0.02071
G1 X140.439 Y104.51 E0.28767
G1 X141.045 Y104.51 E0.02071
G1 X146.39 Y109.855 E0.25838
G1 X146.39 Y109.249 E0.02071
G1 X141.651 Y104.51 E0.22909
G1 X142.257 Y104.51 E0.02071
G1 X146.39 Y108.643 E0.1998
G1 X146.39 Y108.037 E0.02071
G1 X142.863 Y104.51 E0.17051
G1 X143.469 Y104.51 E0.02071
G1 X146.39 Y107.431 E0.14122
G1 X146.39 Y106.825 E0.02071
G1 X144.075 Y104.51 E0.11193
G1 X144.681 Y104.51 E0.02071
G1 X146.39 Y106.219 E0.08264
G1 X146.39 Y105.613 E0.02071
G1 X145.287 Y104.51 E0.05335
G1 X145.893 Y104.51 E0.02071
G1 X146.574 Y105.192 E0.03296
G1 X146.574 Y115.493 F12000
G1 F1800
G1 X133.091 Y102.01 E0.65173
G1 X132.485 Y102.01 E0.02071
G1 X146.39 Y115.915 E0.67212
G1 X146.39 Y116.521 E0.02071
G1 X131.879 Y102.01 E0.70141
G1 X131.273 Y102.01 E0.02071
G1 X145.953 Y116.69 E0.70958
G1 X145.347 Y116.69 E0.02071
G1 X130.667 Y102.01 E0.70958
G1 X130.061 Y102.01 E0.02071
G1 X144.741 Y116.69 E0.70958
G1 X144.135 Y116.69 E0.02071
G1 X129.455 Y102.01 E0.70958
G1 X129.21 Y102.01 E0.00838
G1 X129.21 Y102.371 E0.01233
G1 X143.529 Y116.69 E0.69214
G1 X142.923 Y116.69 E0.02071
G1 X129.21 Y102.977 E0.66285
G1 X129.21 Y103.583 E0.02071
G1 X142.317 Y116.69 E0.63356
G1 X141.711 Y116.69 E0.02071
G1 X129.21 Y104.189 E0.60427
G1 X129.21 Y104.795 E0.02071
G1 X141.105 Y116.69 E0.57498
G1 X140.499 Y116.69 E0.02071
G1 X129.21 Y105.401 E0.54569
G1 X129.21 Y106.007 E0.02071
G1 X139.893 Y116.69 E0.5164
G1 X139.288 Y116.69 E0.02071
G1 X129.21 Y106.612 E0.48711
G1 X129.21 Y107.218 E0.02071
G1 X138.682 Y116.69 E0.45782
G1 X138.076 Y116.69 E0.02071
G1 X129.21 Y107.824 E0.42853
G1 X129.21 Y108.43 E0.02071
G1 X137.47 Y116.69 E0.39924
G1 X136.864 Y116.69 E0.02071
G1 X129.21 Y109.036 E0.36995
G1 X129.21 Y109.642 E0.02071
G1 X136.39 Y116.823 E0.34707
G1 X136.39 Y117.429 E0.02071
G1 X129.21 Y110.248 E0.34707
G1 X129.21 Y110.854 E0.02071
G1 X136.39 Y118.035 E0.34707
G1 X136.39 Y118.641 E0.02071
G1 X129.21 Y111.46 E0.34707
G1 X129.21 Y112.066 E0.02071
G1 X136.334 Y119.19 E0.34433
G1 X135.728 Y119.19 E0.02071
G1 X129.21 Y112.672 E0.31504
G1 X129.21 Y113.278 E0.02071
G1 X135.122 Y119.19 E0.28575
G1 X134.516 Y119.19 E0.02071
G1 X129.21 Y113.884 E0.25646
G1 X129.21 Y114.49 E0.02071
G1 X133.91 Y119.19 E0.22717
G1 X133.304 Y119.19 E0.02071
G1 X129.21 Y115.096 E0.19788
G1 X129.21 Y115.702 E0.02071
G1 X132.698 Y119.19 E0.16859
G1 X132.092 Y119.19 E0.02071
G1 X129.21 Y116.308 E0.1393
G1 X129.21 Y116.914 E0.02071
G1 X131.486 Y119.19 E0.11001
G1 X130.88 Y119.19 E0.02071
G1 X129.21 Y117.52 E0.08072
G1 X129.21 Y118.126 E0.02071
G1 X130.274 Y119.19 E0.05143
G1 X129.668 Y119.19 E0.02071
G1 X129.026 Y118.548 E0.03105
;LAYER_CHANGE
;Z:0.44
;HEIGHT:0.2
G1 E-0.315 F4800
;WIPE_START
G1 F9600
M204 S3000
G1 X129.216 Y118.739 E-0.12825
;WIPE_END
G1 E-0.00675 F4800
G1 Z0.44 F12000
M204 S1500
G1 X136.793 Y101.514
G1 E0.45 F1920
;TYPE:Internal perimeter
;WIDTH:0.4
G1 F5400
G1 X136.793 Y119.686 E0.43163
G1 X128.714 Y119.686 E0.1919
G1 X128.714 Y101.514 E0.43163
G1 X136.733 Y101.514 E0.19047
G1 X137.243 Y101.157 F12000
G1 F5400
G1 X137.243 Y101.85 E0.01646
G1 X137.15 Y101.85 E0.00221
G1 X137.15 Y119.35 E0.41568
G1 X137.243 Y119.35 E0.00221
G1 X137.243 Y120.043 E0.01646
G1 X128.357 Y120.043 E0.21107
G1 X128.357 Y101.157 E0.4486
G1 X137.183 Y101.157 E0.20964
G1 E-0.315 F4800
;WIPE_START
G1 F9600
G1 X137.206 Y101.426 E-0.12825
;WIPE_END
G1 E-0.00675 F4800
G1 X142.18 Y112.695 F12000
G1 E0.45 F1920
;TYPE:External perimeter
G1 F2857.1989
G1 X142.097 Y112.748 E0.00233
G1 X142.035 Y112.811 E0.00211
G1 X141.988 Y112.883 E0.00205
G1 X141.955 Y112.962 E0.00202
G1 X141.935 Y113.043 E0.00198
G1 X141.926 Y113.113 E0.00167
G1 X141.924 Y113.18 E0.00159
G1 X141.924 Y115.842 E0.06324
G1 X141.935 Y115.968 E0.003
G1 X141.97 Y116.083 E0.00286
G1 X142.026 Y116.178 E0.00262
G1 X142.097 Y116.25 E0.00239
G1 X142.173 Y116.299 E0.00216
G1 X142.256 Y116.333 E0.00213
G1 X142.352 Y116.353 E0.00233
G1 X142.456 Y116.36 E0.00248
G1 X142.583 Y116.348 E0.00303
G1 X142.695 Y116.311 E0.0028
G1 X142.786 Y116.253 E0.00257
G1 X142.854 Y116.182 E0.00233
G1 X142.9 Y116.107 E0.0021
G1 X142.931 Y116.027 E0.00204
G1 X142.949 Y115.945 E0.00199
G1 X142.956 Y115.882 E0.00151
G1 X142.958 Y115.822 E0.00142
G1 X142.958 Y113.154 E0.06338
G1 X142.947 Y113.031 E0.00293
G1 X142.911 Y112.917 E0.00282
G1 X142.854 Y112.825 E0.00259
G1 X142.784 Y112.755 E0.00235
G1 X142.708 Y112.707 E0.00212
G1 X142.628 Y112.674 E0.00207
G1 X142.545 Y112.655 E0.00202
G1 X142.481 Y112.648 E0.00153
G1 X142.411 Y112.645 E0.00166
G1 X142.289 Y112.657 E0.00292
G1 X142.236 Y112.675 E0.00132
;WIPE_START
M204 S3000
G1 X142.096 Y112.643 F12000
;WIPE_END
G1 E-0.315 F4800
;WIPE_START
G1 F9600
M204 S1500
G1 X141.97 Y112.591 E-0.06464
G1 X141.878 Y112.685 E-0.06227
G1 X141.877 Y112.687 E-0.00134
;WIPE_END
G1 E-0.00675 F4800
G1 X140.617 Y110.765 F12000
G1 E0.45 F1920
G1 F4800
G1 X140.617 Y109.027 E0.04129
G1 X140.606 Y108.9 E0.00303
G1 X140.571 Y108.784 E0.00288
G1 X140.515 Y108.688 E0.00263
G1 X140.445 Y108.615 E0.0024
G1 X140.369 Y108.565 E0.00217
G1 X140.286 Y108.531 E0.00214
G1 X140.189 Y108.509 E0.00234
G1 X140.084 Y108.503 E0.00251
G1 X139.963 Y108.515 E0.00289
G1 X139.863 Y108.55 E0.0025
G1 X139.78 Y108.602 E0.00235
G1 X139.711 Y108.672 E0.00233
G1 X139.661 Y108.754 E0.00229
G1 X139.627 Y108.844 E0.00228
G1 X139.606 Y108.951 E0.00257
G1 X139.6 Y109.059 E0.00258
G1 X139.6 Y111.636 E0.06122
G1 X139.62 Y111.836 E0.00477
G1 X139.664 Y111.965 E0.00324
G1 X139.725 Y112.06 E0.00268
G1 X139.795 Y112.128 E0.00232
G1 X139.873 Y112.175 E0.00215
G1 X139.954 Y112.203 E0.00204
G1 X140.019 Y112.214 E0.00157
G1 X140.085 Y112.218 E0.00156
G1 X140.194 Y112.209 E0.00261
G1 X140.301 Y112.181 E0.00264
G1 X140.395 Y112.137 E0.00246
G1 X144.219 Y109.764 E0.1069
G1 X144.451 Y109.639 E0.00628
G1 X144.648 Y109.57 E0.00495
G1 X144.813 Y109.548 E0.00396
G1 X145.007 Y109.57 E0.00463
G1 X145.182 Y109.634 E0.00442
G1 X145.341 Y109.743 E0.00459
G1 X145.471 Y109.883 E0.00452
G1 X145.55 Y110.025 E0.00387
G1 X145.596 Y110.173 E0.0037
G1 X145.611 Y110.269 E0.00231
G1 X145.616 Y110.371 E0.00241
G1 X145.593 Y110.561 E0.00454
G1 X145.537 Y110.711 E0.0038
G1 X145.456 Y110.838 E0.00359
G1 X145.341 Y110.962 E0.00403
G1 X145.189 Y111.081 E0.00457
G1 X144.988 Y111.201 E0.00557
G1 X144.814 Y111.314 E0.00492
G1 X144.709 Y111.422 E0.0036
G1 X144.652 Y111.521 E0.0027
G1 X144.628 Y111.6 E0.00197
G1 X144.62 Y111.677 E0.00185
G1 X144.631 Y111.821 E0.00342
G1 X144.67 Y111.95 E0.00321
G1 X144.728 Y112.049 E0.00272
G1 X144.804 Y112.124 E0.00255
G1 X144.895 Y112.178 E0.00251
G1 X144.991 Y112.209 E0.0024
G1 X145.061 Y112.22 E0.00168
G1 X145.137 Y112.224 E0.00179
G1 X145.243 Y112.211 E0.00254
G1 X145.356 Y112.175 E0.00282
G1 X145.477 Y112.122 E0.00313
G1 X145.829 Y111.913 E0.00973
G1 X146.116 Y111.677 E0.00882
G1 X146.33 Y111.415 E0.00805
G1 X146.51 Y111.075 E0.00912
G1 X146.619 Y110.723 E0.00876
G1 X146.655 Y110.359 E0.00868
G1 X146.624 Y109.991 E0.00878
G1 X146.532 Y109.653 E0.00831
G1 X146.387 Y109.364 E0.00768
G1 X146.188 Y109.107 E0.00773
G1 X145.937 Y108.884 E0.00798
G1 X145.628 Y108.691 E0.00864
G1 X145.305 Y108.563 E0.00826
G1 X145.06 Y108.511 E0.00594
G1 X144.808 Y108.494 E0.006
G1 X144.457 Y108.53 E0.0084
G1 X144.107 Y108.638 E0.0087
G1 X143.77 Y108.811 E0.00899
G1 X140.668 Y110.733 E0.08668
;WIPE_START
M204 S3000
G1 X140.75 Y110.388 F12000
;WIPE_END
G1 E-0.315 F4800
;WIPE_START
G1 F9600
M204 S1500
