; generated by SuperSlicer 2.4 on 2022-05-04 at 21:51:35 UTC


;
;

;
;
; 

; external perimeters extrusion width = 0.40mm
; perimeters extrusion width = 0.40mm
; infill extrusion width = 0.72mm
; solid infill extrusion width = 0.56mm
; top infill extrusion width = 0.40mm
; first layer extrusion width = 0.48mm

; external perimeters extrusion width = 0.40mm
; perimeters extrusion width = 0.40mm
; infill extrusion width = 0.72mm
; solid infill extrusion width = 0.56mm
; top infill extrusion width = 0.40mm
; first layer extrusion width = 0.48mm

; external perimeters extrusion width = 0.40mm
; perimeters extrusion width = 0.40mm
; infill extrusion width = 0.72mm
; solid infill extrusion width = 0.56mm
; top infill extrusion width = 0.40mm
; first layer extrusion width = 0.48mm

; external perimeters extrusion width = 0.40mm
; perimeters extrusion width = 0.40mm
; infill extrusion width = 0.72mm
; solid infill extrusion width = 0.56mm
; top infill extrusion width = 0.40mm
; first layer extrusion width = 0.48mm

; external perimeters extrusion width = 0.40mm
; perimeters extrusion width = 0.40mm
; infill extrusion width = 0.72mm
; solid infill extrusion width = 0.56mm
; top infill extrusion width = 0.40mm
; first layer extrusion width = 0.48mm

; object:{"name":"filament_flow_test","id":"filament_flow_test id:0 copy 0","object_center":[147.799999,120.599998,0.000000],"boundingbox_center":[147.799999,120.599998,0.725000],"boundingbox_size":[20.000000,20.000000,1.450000]}
; object:{"name":"filament_flow_test","id":"filament_flow_test id:1 copy 0","object_center":[147.799999,165.000000,0.000000],"boundingbox_center":[147.799999,165.000000,0.725000],"boundingbox_size":[20.000000,20.000000,1.450000]}
; object:{"name":"filament_flow_test","id":"filament_flow_test id:2 copy 0","object_center":[147.799999,209.400002,0.000000],"boundingbox_center":[147.799999,209.400002,0.725000],"boundingbox_size":[20.000000,20.000000,1.450000]}
; object:{"name":"filament_flow_test","id":"filament_flow_test id:3 copy 0","object_center":[192.200001,120.599998,0.000000],"boundingbox_center":[192.200001,120.599998,0.725000],"boundingbox_size":[20.000000,20.000000,1.450000]}
; object:{"name":"filament_flow_test","id":"filament_flow_test id:4 copy 0","object_center":[192.200001,209.400002,0.000000],"boundingbox_center":[192.200001,209.400002,0.725000],"boundingbox_size":[20.000000,20.000000,1.450000]}
; plater:{"center":[170.000000,165.000000,0.000000],"boundingbox_center":[170.000000,165.000000,0.725000],"boundingbox_size":[64.400002,108.800003,1.450000]}

M73 P0 R18
;TYPE:Custom
START_PRINT T_BED=110 T_EXTRUDER=245
M107
G21 ; set units to millimeters
G90 ; use absolute coordinates
M83 ; use relative distances for extrusion
; Filament gcode
M104 S245 ; set temperature
M109 S245 ; set temperature and wait for it to be reached
M190 S110 ; set bed temperature and wait for it to be reached
M107
;LAYER_CHANGE
;Z:0.24
;HEIGHT:0.24
G1 Z0.24 F9000
G92 E0
G1 E-0.5 F3000
M204 S1000
G1 X133.195 Y107.637 F9000
G1 E0.5 F1800
;TYPE:Skirt
;WIDTH:0.52
G1 X132.8 Y109.3 E0.07988
G1 X132.8 Y220.7 E5.20758
G1 X133.53 Y222.905 E0.10858
G1 X134.837 Y224.005 E0.07988
G1 X136.5 Y224.4 E0.07988
G1 X193.5 Y224.4 E2.66456
G1 X194.397 Y224.289 E0.04226
G1 X204.397 Y221.789 E0.48185
G1 X205.705 Y221.17 E0.06764
G1 X206.805 Y219.863 E0.07988
G1 X207.2 Y218.2 E0.07988
G1 X207.2 Y111.8 E4.97385
M73 P1 R18
G1 X206.917 Y110.381 E0.06764
G1 X205.914 Y108.997 E0.07988
G1 X204.397 Y108.211 E0.07988
G1 X194.397 Y105.711 E0.48185
G1 X193.5 Y105.6 E0.04226
G1 X136.5 Y105.6 E2.66456
G1 X134.295 Y106.33 E0.10858
G1 X133.195 Y107.637 E0.07988
G1 X133.66 Y107.756 F9000
G1 F1800
G1 X133.267 Y109.3 E0.07448
G1 X133.267 Y220.7 E5.20758
M73 P1 R17
G1 X133.784 Y222.454 E0.08548
G1 X134.954 Y223.539 E0.0746
G1 X136.5 Y223.933 E0.0746
G1 X193.5 Y223.933 E2.66456
G1 X194.284 Y223.837 E0.03693
G1 X204.284 Y221.337 E0.48185
G1 X205.254 Y220.916 E0.04941
G1 X206.339 Y219.746 E0.0746
G1 X206.733 Y218.2 E0.0746
G1 X206.733 Y111.8 E4.97385
M73 P2 R17
G1 X206.56 Y110.757 E0.04941
G1 X205.689 Y109.42 E0.0746
G1 X204.284 Y108.663 E0.0746
G1 X194.284 Y106.163 E0.48185
G1 X193.5 Y106.067 E0.03693
G1 X136.5 Y106.067 E2.66456
G1 X134.746 Y106.584 E0.08548
G1 X133.66 Y107.756 E0.0747
G1 E-0.5 F3000
; acceleration to travel
M204 S3000
G1 X136.138 Y109.535 F9000
; decel to extrusion
M204 S1000
G1 X136.964 Y110.129
; end travel
G1 E0.5 F1800
;WIDTH:0.48
;HEIGHT:0.25
G1 X137.329 Y109.764 E0.02286
G1 X137.642 Y109.634 E0.01503
G1 X147.958 Y109.634 E0.45714
G1 X148.271 Y109.764 E0.01503
G1 X148.636 Y110.129 E0.02286
G1 X148.766 Y110.442 E0.01503
G1 X148.766 Y112.134 E0.07498
G1 X157.958 Y112.134 E0.40733
G1 X158.271 Y112.264 E0.01503
G1 X158.636 Y112.629 E0.02286
G1 X158.766 Y112.942 E0.01503
G1 X158.766 Y128.258 E0.6787
G1 X158.636 Y128.571 E0.01503
G1 X158.271 Y128.936 E0.02286
G1 X157.958 Y129.066 E0.01503
G1 X148.766 Y129.066 E0.40733
G1 X148.766 Y130.758 E0.07498
G1 X148.636 Y131.071 E0.01503
G1 X148.271 Y131.436 E0.02286
G1 X147.958 Y131.566 E0.01503
G1 X137.642 Y131.566 E0.45714
G1 X137.329 Y131.436 E0.01503
G1 X136.964 Y131.071 E0.02286
G1 X136.834 Y130.758 E0.01503
G1 X136.834 Y110.442 E0.90027
G1 X136.964 Y110.129 E0.01503
G1 X137.325 Y110.37 F9000
G1 F1800
G1 X137.57 Y110.125 E0.01534
G1 X137.727 Y110.06 E0.00752
G1 X147.873 Y110.06 E0.44962
G1 X148.03 Y110.125 E0.00752
G1 X148.275 Y110.37 E0.01534
G1 X148.34 Y110.527 E0.00752
G1 X148.34 Y112.56 E0.09012
G1 X157.873 Y112.56 E0.42247
G1 X158.03 Y112.625 E0.00752
G1 X158.275 Y112.87 E0.01534
G1 X158.34 Y113.027 E0.00752
G1 X158.34 Y128.173 E0.67119
G1 X158.275 Y128.33 E0.00752
G1 X158.03 Y128.575 E0.01534
G1 X157.873 Y128.64 E0.00752
G1 X148.34 Y128.64 E0.42247
G1 X148.34 Y130.673 E0.09012
G1 X148.275 Y130.83 E0.00752
G1 X148.03 Y131.075 E0.01534
G1 X147.873 Y131.14 E0.00752
G1 X137.727 Y131.14 E0.44962
G1 X137.57 Y131.075 E0.00752
G1 X137.325 Y130.83 E0.01534
G1 X137.26 Y130.673 E0.00752
G1 X137.26 Y110.527 E0.89276
G1 X137.325 Y110.37 E0.00752
G1 X137.687 Y110.612 F9000
G1 F1800
G1 X137.812 Y110.487 E0.00783
G1 X147.788 Y110.487 E0.4421
G1 X147.913 Y110.612 E0.00783
G1 X147.913 Y112.987 E0.10525
G1 X157.788 Y112.987 E0.43761
M73 P3 R17
G1 X157.913 Y113.112 E0.00783
G1 X157.913 Y128.088 E0.66367
G1 X157.788 Y128.213 E0.00783
G1 X147.913 Y128.213 E0.43761
G1 X147.913 Y130.588 E0.10525
G1 X147.788 Y130.713 E0.00783
G1 X137.812 Y130.713 E0.4421
G1 X137.687 Y130.588 E0.00783
G1 X137.687 Y110.612 E0.88524
; INIT printing object filament_flow_test id:0 copy 0
; printing object filament_flow_test id:0 copy 0
G1 X138.14 Y110.94 F9000
;TYPE:External perimeter
;HEIGHT:0.24
G1 F1800
G1 X147.46 Y110.94 E0.31878
G1 X147.46 Y113.44 E0.08551
G1 X157.46 Y113.44 E0.34204
G1 X157.46 Y127.76 E0.48981
G1 X147.46 Y127.76 E0.34204
G1 X147.46 Y130.26 E0.08551
G1 X138.14 Y130.26 E0.31878
G1 X138.14 Y110.94 E0.66083
;WIPE_START
M204 S5000
G1 X138.486 Y111.14 F9000
;WIPE_END
M204 S1000
G1 X138.568 Y111.368
;TYPE:Internal perimeter
G1 F1800
G1 X147.032 Y111.368 E0.28947
G1 X147.032 Y113.868 E0.08551
G1 X157.032 Y113.868 E0.34204
G1 X157.032 Y127.332 E0.46049
G1 X147.032 Y127.332 E0.34204
G1 X147.032 Y129.832 E0.08551
G1 X138.568 Y129.832 E0.28947
G1 X138.568 Y111.368 E0.63152
G1 X138.997 Y111.797 F9000
G1 F1800
G1 X146.603 Y111.797 E0.26016
G1 X146.603 Y114.297 E0.08551
G1 X156.603 Y114.297 E0.34204
G1 X156.603 Y126.903 E0.43118
G1 X146.603 Y126.903 E0.34204
G1 X146.603 Y129.403 E0.08551
G1 X138.997 Y129.403 E0.26016
G1 X138.997 Y111.797 E0.6022
; acceleration to travel
M204 S3000
G1 X151.7 Y114.281 F9000
; decel to extrusion
M204 S1000
G1 X156.539 Y115.227
; end travel
;TYPE:Solid infill
;WIDTH:0.470921
G1 F3600
G1 X155.857 Y114.545 E0.03236
G1 X155.251 Y114.545 E0.02034
G1 X156.355 Y115.649 E0.05238
G1 X156.355 Y116.255 E0.02034
G1 X154.645 Y114.545 E0.08114
G1 X154.039 Y114.545 E0.02034
G1 X156.355 Y116.861 E0.10989
G1 X156.355 Y117.467 E0.02034
G1 X153.433 Y114.545 E0.13865
G1 X152.827 Y114.545 E0.02034
G1 X156.355 Y118.073 E0.16741
G1 X156.355 Y118.679 E0.02034
G1 X152.221 Y114.545 E0.19617
M73 P4 R17
G1 X151.615 Y114.545 E0.02034
G1 X156.355 Y119.285 E0.22493
G1 X156.355 Y119.891 E0.02034
G1 X151.009 Y114.545 E0.25369
G1 X150.403 Y114.545 E0.02034
G1 X156.355 Y120.497 E0.28244
G1 X156.355 Y121.103 E0.02034
G1 X149.797 Y114.545 E0.3112
G1 X149.191 Y114.545 E0.02034
G1 X156.355 Y121.709 E0.33996
G1 X156.355 Y122.315 E0.02034
G1 X148.585 Y114.545 E0.36872
G1 X147.979 Y114.545 E0.02034
G1 X156.355 Y122.921 E0.39748
G1 X156.355 Y123.527 E0.02034
G1 X147.189 Y114.361 E0.43498
; acceleration to travel
M204 S3000
G1 X146.701 Y112.965 F9000
; decel to extrusion
M204 S1000
G1 X146.539 Y112.499
; end travel
G1 F3600
G1 X146.085 Y112.045 E0.02153
G1 X145.479 Y112.045 E0.02034
G1 X146.355 Y112.921 E0.04155
G1 X146.355 Y113.527 E0.02034
G1 X144.873 Y112.045 E0.07031
G1 X144.267 Y112.045 E0.02034
G1 X146.355 Y114.133 E0.09906
G1 X146.355 Y114.545 E0.01384
G1 X146.767 Y114.545 E0.01384
G1 X156.355 Y124.133 E0.45499
G1 X156.355 Y124.739 E0.02034
G1 X143.661 Y112.045 E0.6024
G1 X143.055 Y112.045 E0.02034
G1 X156.355 Y125.345 E0.63115
G1 X156.355 Y125.951 E0.02034
G1 X142.449 Y112.045 E0.65991
G1 X141.843 Y112.045 E0.02034
G1 X156.355 Y126.557 E0.68867
G1 X156.355 Y126.655 E0.00328
G1 X155.846 Y126.655 E0.01706
G1 X141.237 Y112.045 E0.6933
G1 X140.631 Y112.045 E0.02034
G1 X155.24 Y126.655 E0.6933
G1 X154.634 Y126.655 E0.02034
G1 X140.025 Y112.045 E0.6933
G1 X139.419 Y112.045 E0.02034
G1 X154.028 Y126.655 E0.6933
G1 X153.422 Y126.655 E0.02034
G1 X139.245 Y112.478 E0.67279
G1 X139.245 Y113.084 E0.02034
G1 X152.816 Y126.655 E0.64403
G1 X152.21 Y126.655 E0.02034
G1 X139.245 Y113.69 E0.61527
G1 X139.245 Y114.296 E0.02034
G1 X151.604 Y126.655 E0.58651
G1 X150.998 Y126.655 E0.02034
G1 X139.245 Y114.902 E0.55776
G1 X139.245 Y115.508 E0.02034
G1 X150.392 Y126.655 E0.529
G1 X149.786 Y126.655 E0.02034
G1 X139.245 Y116.114 E0.50024
G1 X139.245 Y116.72 E0.02034
G1 X149.18 Y126.655 E0.47148
G1 X148.574 Y126.655 E0.02034
G1 X139.245 Y117.326 E0.44272
G1 X139.245 Y117.932 E0.02034
G1 X147.968 Y126.655 E0.41396
G1 X147.362 Y126.655 E0.02034
G1 X139.245 Y118.538 E0.38521
G1 X139.245 Y119.144 E0.02034
G1 X146.756 Y126.655 E0.35645
G1 X146.355 Y126.655 E0.01349
G1 X146.355 Y126.859 E0.00685
G1 X139.245 Y119.75 E0.33737
G1 X139.245 Y120.356 E0.02034
G1 X146.355 Y127.465 E0.33737
G1 X146.355 Y128.071 E0.02034
G1 X139.245 Y120.962 E0.33737
G1 X139.245 Y121.568 E0.02034
G1 X146.355 Y128.677 E0.33737
G1 X146.355 Y129.155 E0.01604
G1 X146.226 Y129.155 E0.0043
G1 X139.245 Y122.174 E0.3313
M73 P5 R17
G1 X139.245 Y122.779 E0.02034
G1 X145.62 Y129.155 E0.30254
G1 X145.015 Y129.155 E0.02034
G1 X139.245 Y123.385 E0.27378
G1 X139.245 Y123.991 E0.02034
G1 X144.409 Y129.155 E0.24502
G1 X143.803 Y129.155 E0.02034
G1 X139.245 Y124.597 E0.21627
G1 X139.245 Y125.203 E0.02034
G1 X143.197 Y129.155 E0.18751
G1 X142.591 Y129.155 E0.02034
G1 X139.245 Y125.809 E0.15875
G1 X139.245 Y126.415 E0.02034
G1 X141.985 Y129.155 E0.12999
G1 X141.379 Y129.155 E0.02034
G1 X139.245 Y127.021 E0.10123
G1 X139.245 Y127.627 E0.02034
G1 X140.773 Y129.155 E0.07247
G1 X140.167 Y129.155 E0.02034
G1 X139.245 Y128.233 E0.04372
G1 X139.245 Y128.839 E0.02034
G1 X139.745 Y129.339 E0.0237
; INIT stop printing object filament_flow_test id:0 copy 0
M106 S25.5
;LAYER_CHANGE
;Z:0.44
;HEIGHT:0.2
; stop printing object filament_flow_test id:0 copy 0
M204 S5000
G1 Z0.44 F9000
G92 E0
; INIT printing object filament_flow_test id:0 copy 0
G1 E-0.5 F3000
; printing object filament_flow_test id:0 copy 0
; acceleration to travel
M204 S3000
G1 X143.486 Y120.82 F9000
; decel to extrusion
M204 S2000
G1 X146.76 Y113.367
; end travel
G1 E0.5 F1800
;TYPE:Internal perimeter
;WIDTH:0.4
G1 F5400
G1 X146.76 Y129.619 E0.38605
G1 X138.781 Y129.619 E0.18952
G1 X138.781 Y111.581 E0.42847
G1 X146.76 Y111.581 E0.18952
G1 X146.76 Y113.367 E0.04242
G1 X147.117 Y113.367 F9000
G1 F5400
G1 X147.117 Y129.283 E0.37807
G1 X147.176 Y129.283 E0.00141
G1 X147.176 Y129.976 E0.01646
G1 X138.424 Y129.976 E0.2079
G1 X138.424 Y111.224 E0.44543
G1 X147.176 Y111.224 E0.2079
G1 X147.176 Y111.917 E0.01646
G1 X147.117 Y111.917 E0.00141
G1 X147.117 Y113.367 E0.03444
G1 E-0.5 F3000
; acceleration to travel
M204 S3000
G1 X151.203 Y120.913 F9000
; decel to extrusion
M204 S1000
G1 X152.137 Y122.639
; end travel
G1 E0.5 F1800
;TYPE:External perimeter
G1 F2330.3374
G1 X151.981 Y122.764 E0.00474
G1 X151.891 Y122.936 E0.00462
G1 X151.859 Y123.104 E0.00406
G1 X151.857 Y125.857 E0.0654
G1 X151.903 Y126.112 E0.00615
G1 X152.048 Y126.303 E0.00569
G1 X152.234 Y126.399 E0.00497
G1 X152.279 Y126.405 E0.00108
G1 X152.448 Y126.428 E0.00405
G1 X152.612 Y126.412 E0.00392
G1 X152.829 Y126.312 E0.00567
G1 X152.965 Y126.136 E0.0053
G1 X153.023 Y125.899 E0.00579
G1 X153.025 Y123.138 E0.06559
G1 X152.978 Y122.888 E0.00604
G1 X152.824 Y122.692 E0.00592
G1 X152.561 Y122.585 E0.00674
G1 X152.286 Y122.588 E0.00654
G1 X152.137 Y122.639 E0.00375
;WIPE_START
M204 S5000
G1 X151.961 Y122.546 F9000
;WIPE_END
G1 E-0.5 F3000
; acceleration to travel
M204 S3000
G1 X151.046 Y121.187 F9000
; decel to extrusion
M204 S1000
G1 X150.682 Y120.646
; end travel
G1 E0.5 F1800
G1 F4200
G1 X150.675 Y118.883 E0.04188
G1 X150.57 Y118.633 E0.00644
G1 X150.313 Y118.459 E0.00736
G1 X149.953 Y118.442 E0.00857
G1 X149.833 Y118.499 E0.00316
G1 X149.721 Y118.551 E0.00293
G1 X149.562 Y118.809 E0.00719
G1 X149.533 Y119.049 E0.00573
G1 X149.533 Y121.64 E0.06154
G1 X149.556 Y121.864 E0.00536
G1 X149.666 Y122.104 E0.00626
G1 X149.794 Y122.203 E0.00385
G1 X149.837 Y122.236 E0.00129
G1 X149.91 Y122.256 E0.0018
G1 X150.011 Y122.283 E0.00247
G1 X150.212 Y122.276 E0.00478
G1 X150.416 Y122.203 E0.00516
G1 X154.252 Y119.822 E0.10725
G1 X154.478 Y119.7 E0.00611
G1 X154.544 Y119.677 E0.00164
G1 X154.663 Y119.635 E0.00302
G1 X154.814 Y119.615 E0.0036
G1 X154.992 Y119.635 E0.00425
G1 X155.151 Y119.694 E0.00403
G1 X155.298 Y119.794 E0.00422
G1 X155.416 Y119.922 E0.00415
G1 X155.489 Y120.051 E0.00351
G1 X155.529 Y120.181 E0.00324
G1 X155.548 Y120.375 E0.00462
G1 X155.528 Y120.545 E0.00406
G1 X155.477 Y120.681 E0.00344
G1 X155.403 Y120.797 E0.00327
G1 X155.327 Y120.879 E0.00265
G1 X155.295 Y120.913 E0.0011
G1 X155.188 Y120.997 E0.00325
G1 X155.15 Y121.027 E0.00114
G1 X154.774 Y121.26 E0.01051
G1 X154.638 Y121.399 E0.00462
G1 X154.546 Y121.656 E0.00649
G1 X154.6 Y121.964 E0.00743
G1 X154.684 Y122.105 E0.00389
G1 X154.859 Y122.24 E0.00525
G1 X155.056 Y122.289 E0.00482
G1 X155.257 Y122.278 E0.00479
G1 X155.367 Y122.236 E0.0028
G1 X155.501 Y122.185 E0.00341
G1 X155.868 Y121.967 E0.01012
G1 X156.163 Y121.724 E0.00909
G1 X156.386 Y121.452 E0.00837
G1 X156.572 Y121.101 E0.00943
G1 X156.684 Y120.736 E0.00907
G1 X156.722 Y120.36 E0.00899
G1 X156.69 Y119.979 E0.00907
G1 X156.612 Y119.694 E0.00702
G1 X156.594 Y119.629 E0.0016
G1 X156.444 Y119.328 E0.00799
G1 X156.237 Y119.061 E0.00804
G1 X155.977 Y118.83 E0.00826
G1 X155.658 Y118.631 E0.00892
G1 X155.324 Y118.499 E0.00853
G1 X155.069 Y118.445 E0.00619
G1 X155.031 Y118.442 E0.00092
G1 X154.807 Y118.427 E0.00532
G1 X154.443 Y118.464 E0.00869
G1 X154.081 Y118.576 E0.009
G1 X153.737 Y118.753 E0.00919
G1 X150.682 Y120.646 E0.08538
;WIPE_START
M204 S5000
G1 X150.814 Y120.269 F9000
;WIPE_END
G1 E-0.5 F3000
; acceleration to travel
M204 S3000
G1 X151.313 Y118.476 F9000
; decel to extrusion
M204 S1000
G1 X151.472 Y117.904
; end travel
G1 E0.5 F1800
G1 F3850.6176
G1 X151.624 Y117.946 E0.00373
G1 X152.264 Y118.079 E0.01553
G1 X152.681 Y118.135 E0.01
G1 X153.111 Y118.154 E0.01022
G1 X153.201 Y118.15 E0.00214
G1 X153.562 Y118.134 E0.00858
G1 X153.863 Y118.093 E0.00722
G1 X154.014 Y118.073 E0.00361
G1 X154.849 Y117.898 E0.02028
G1 X155.198 Y117.791 E0.00867
G1 X155.464 Y117.71 E0.00661
G1 X155.784 Y117.576 E0.00823
G1 X156.059 Y117.426 E0.00745
G1 X156.197 Y117.32 E0.00412
G1 X156.313 Y117.231 E0.00348
G1 X156.512 Y116.986 E0.00751
G1 X156.645 Y116.704 E0.00741
G1 X156.703 Y116.459 E0.00596
G1 X156.713 Y116.315 E0.00343
