; generated by SuperSlicer 2.3.57 on 2022-04-12 at 23:18:36 UTC


;
;

;
;
; 

; external perimeters extrusion width = 0.40mm
; perimeters extrusion width = 0.45mm
; infill extrusion width = 0.72mm
; solid infill extrusion width = 0.56mm
; top infill extrusion width = 0.40mm
; support material extrusion width = 0.42mm
; first layer extrusion width = 0.48mm

; external perimeters extrusion width = 0.10mm
; perimeters extrusion width = 0.45mm
; infill extrusion width = 0.72mm
; solid infill extrusion width = 0.56mm
; top infill extrusion width = 0.40mm
; support material extrusion width = 0.42mm
; first layer extrusion width = 0.48mm

; external perimeters extrusion width = 0.40mm
; perimeters extrusion width = 0.45mm
; infill extrusion width = 0.72mm
; solid infill extrusion width = 0.56mm
; top infill extrusion width = 0.40mm
; support material extrusion width = 0.42mm
; first layer extrusion width = 0.48mm

; object:{"name":"Untitled","id":"Untitled.stl id:0 copy 0","object_center":[152.500000,150.000000,0.000000],"boundingbox_center":[152.500000,150.000000,16.000000],"boundingbox_size":[53.000000,109.000000,32.000000]}
; plater:{"center":[152.500000,150.000000,0.000000],"boundingbox_center":[152.500000,150.000000,16.000000],"boundingbox_size":[53.000000,109.000000,32.000000]}

;TYPE:Custom
START_PRINT T_BED=60 T_EXTRUDER=220
M107
G21 ; set units to millimeters
G90 ; use absolute coordinates
M83 ; use relative distances for extrusion
; Filament gcode
M109 S220 ; set temperature and wait for it to be reached
M190 S60 ; set bed temperature and wait for it to be reached
;LAYER_CHANGE
;Z:0.24
;HEIGHT:0.24
G1 E-0.6 F3000
G1 Z0.24 F9000
G1 X123.342 Y93.22
G1 E0.6 F1800
; External perimeter
;Skirt
SET_VELOCITY_LIMIT ACCEL=300 ACCEL_TO_DECEL=3000 SQUARE_CORNER_VELOCITY=5

; Support material

;TYPE:Skirt
;WIDTH:0.48
G1 X122.802 Y94.052 E0.04241
G1 X122.546 Y94.8 E0.0338
G1 X122.457 Y95.591 E0.034
G1 X122.458 Y204.454 E4.65452
G1 X122.614 Y205.457 E0.0434
G1 X123.041 Y206.378 E0.0434
G1 X123.702 Y207.142 E0.0432
G1 X124.552 Y207.698 E0.0434
G1 X125.296 Y207.953 E0.0336
G1 X126.076 Y208.043 E0.0336
G1 X179.011 Y208.041 E2.26324
G1 X179.993 Y207.875 E0.04261
G1 X180.898 Y207.446 E0.04281
G1 X181.652 Y206.787 E0.04281
G1 X182.198 Y205.948 E0.04281
G1 X182.454 Y205.2 E0.0338
G1 X182.543 Y204.409 E0.034
G1 X182.541 Y95.494 E4.65674
G1 X182.453 Y94.798 E0.02999
G1 X182.234 Y94.132 E0.02999
G1 X181.893 Y93.524 E0.02979
G1 X181.44 Y92.989 E0.02999
G1 X180.896 Y92.553 E0.02979
G1 X180.275 Y92.227 E0.02999
G1 X179.603 Y92.026 E0.02999
G1 X178.905 Y91.957 E0.02999
G1 X125.966 Y91.96 E2.26344
G1 X124.989 Y92.131 E0.04241
G1 X124.09 Y92.562 E0.04261
G1 X123.387 Y93.181 E0.04004
G1 X123.673 Y93.492 F9000
G1 F1800
G1 X123.193 Y94.228 E0.03757
G1 X122.965 Y94.893 E0.03005
G1 X122.886 Y95.591 E0.03005
G1 X122.886 Y204.444 E4.65405
G1 X123.023 Y205.33 E0.03832
G1 X123.397 Y206.139 E0.03813
G1 X123.982 Y206.818 E0.03832
G1 X124.728 Y207.307 E0.03813
G1 X125.388 Y207.534 E0.02986
G1 X126.082 Y207.614 E0.02986
G1 X178.988 Y207.613 E2.26202
G1 X179.859 Y207.468 E0.03776
G1 X180.658 Y207.091 E0.03776
G1 X181.324 Y206.511 E0.03776
G1 X181.807 Y205.772 E0.03776
G1 X182.035 Y205.107 E0.03005
G1 X182.114 Y204.409 E0.03005
G1 X182.113 Y95.516 E4.65575
G1 X182.037 Y94.902 E0.02647
G1 X181.845 Y94.313 E0.02647
G1 X181.544 Y93.772 E0.02647
G1 X181.145 Y93.299 E0.02647
G1 X180.662 Y92.912 E0.02647
G1 X180.114 Y92.624 E0.02647
G1 X179.521 Y92.446 E0.02647
G1 X178.904 Y92.386 E0.02647
G1 X125.994 Y92.387 E2.2622
G1 X125.128 Y92.536 E0.03757
G1 X124.335 Y92.914 E0.03757
G1 X123.718 Y93.453 E0.035
; INIT printing object Untitled.stl id:0 copy 0
G1 E-0.6 F3000
; printing object Untitled.stl id:0 copy 0
G1 X127.803 Y97.303 F9000
G1 E0.6 F1800
; External perimeter
;Perimeter
SET_VELOCITY_LIMIT ACCEL=2000 ACCEL_TO_DECEL=2000 SQUARE_CORNER_VELOCITY=5

; Overhang perimeter

;TYPE:Internal perimeter
G1 X127.803 Y202.697 E4.50617
G1 X177.197 Y202.697 E2.11186
G1 X177.197 Y97.303 E4.50617
G1 X127.863 Y97.303 E2.1093
G1 X128.232 Y97.732 F9000
G1 F1800
G1 X128.232 Y202.268 E4.46953
G1 X176.768 Y202.268 E2.07522
G1 X176.768 Y97.732 E4.46953
G1 X128.292 Y97.732 E2.07266
G1 X128.66 Y98.16 F9000
; External perimeter
;ExternalPerimeter
SET_VELOCITY_LIMIT ACCEL=1000 ACCEL_TO_DECEL=1000 SQUARE_CORNER_VELOCITY=5

; Perimeter

;TYPE:External perimeter
G1 F1800
G1 X128.66 Y201.84 E4.43289
G1 X128.78 Y201.84 E0.00458
G1 X129.02 Y201.84 E0.00971
G1 X176.34 Y201.84 E2.02319
G1 X176.34 Y201.72 E0.00458
G1 X176.34 Y201.48 E0.00971
G1 X176.34 Y98.16 E4.41749
G1 X176.22 Y98.16 E0.00458
G1 X175.98 Y98.16 E0.00971
G1 X128.72 Y98.16 E2.02062
;WIPE_START
G1 X128.26 Y98.16 F9000
;WIPE_END
G1 E-0.6 F3000
G1 X177.803 Y203.303 F9000
G1 E0.6 F1800
; External perimeter
;Perimeter
SET_VELOCITY_LIMIT ACCEL=2000 ACCEL_TO_DECEL=2000 SQUARE_CORNER_VELOCITY=5

; Overhang perimeter

;TYPE:Internal perimeter
G1 X127.197 Y203.303 E2.16368
G1 X127.197 Y96.697 E4.55799
G1 X177.803 Y96.697 E2.16368
G1 X177.803 Y203.243 E4.55542
G1 X178.232 Y203.732 F9000
G1 F1800
G1 X126.768 Y203.732 E2.20032
G1 X126.768 Y96.268 E4.59463
G1 X178.232 Y96.268 E2.20032
G1 X178.232 Y203.672 E4.59207
G1 X178.66 Y204.16 F9000
; External perimeter
;ExternalPerimeter
SET_VELOCITY_LIMIT ACCEL=1000 ACCEL_TO_DECEL=1000 SQUARE_CORNER_VELOCITY=5

; Perimeter

;TYPE:External perimeter
G1 F1800
G1 X126.34 Y204.16 E2.23697
G1 X126.34 Y204.04 E0.00458
G1 X126.34 Y203.8 E0.00971
G1 X126.34 Y95.84 E4.61588
G1 X126.46 Y95.84 E0.00458
G1 X126.7 Y95.84 E0.00971
G1 X178.66 Y95.84 E2.22157
G1 X178.66 Y95.96 E0.00458
G1 X178.66 Y96.2 E0.00971
G1 X178.66 Y204.1 E4.61331
;WIPE_START
G1 X178.314 Y203.96 F9000
;WIPE_END
G1 X177.482 Y202.982
; External perimeter
;GapFill
SET_VELOCITY_LIMIT ACCEL=2000 ACCEL_TO_DECEL=2000 SQUARE_CORNER_VELOCITY=5

; Skirt

;TYPE:Gap fill
;WIDTH:0.281783
G1 F1800
G1 X177.5 Y202.894 E0.00206
G1 X177.5 Y97.106 E2.43072
;WIDTH:0.327018
G1 X177.394 Y97 E0.00412
;WIDTH:0.263588
G1 X127.606 Y97 E1.0536
;WIDTH:0.327019
G1 X127.5 Y97.106 E0.00412
;WIDTH:0.26359
G1 X127.5 Y202.894 E2.23869
;WIDTH:0.327016
G1 X127.606 Y203 E0.00412
;WIDTH:0.263588
G1 X177.394 Y203 E1.0536
G1 X177.423 Y202.994 E0.00063
; INIT stop printing object Untitled.stl id:0 copy 0
;LAYER_CHANGE
;Z:0.44
;HEIGHT:0.2
G1 E-0.6 F3000
; stop printing object Untitled.stl id:0 copy 0
G1 Z0.44 F9000
; INIT printing object Untitled.stl id:0 copy 0
; printing object Untitled.stl id:0 copy 0
G1 X177.039 Y202.539
G1 E0.6 F1800
; External perimeter
;Perimeter
SET_VELOCITY_LIMIT ACCEL=2000 ACCEL_TO_DECEL=2000 SQUARE_CORNER_VELOCITY=5

; Overhang perimeter

;TYPE:Internal perimeter
;WIDTH:0.45
G1 F6000
G1 X177.039 Y97.461 E3.55678
G1 X127.961 Y97.461 E1.66124
G1 X127.961 Y202.539 E3.55678
G1 X176.979 Y202.539 E1.65921
G1 X176.632 Y202.132 F9000
G1 F6000
G1 X176.632 Y97.868 E3.52922
G1 X128.368 Y97.868 E1.63368
G1 X128.368 Y202.132 E3.52922
G1 X176.572 Y202.132 E1.63165
G1 X176.25 Y201.75 F9000
; External perimeter
;ExternalPerimeter
SET_VELOCITY_LIMIT ACCEL=1000 ACCEL_TO_DECEL=1000 SQUARE_CORNER_VELOCITY=5

; Perimeter

;TYPE:External perimeter
;WIDTH:0.4
G1 F4800
G1 X176.25 Y98.25 E3.07305
G1 X176.15 Y98.25 E0.00265
G1 X175.95 Y98.25 E0.00562
G1 X128.75 Y98.25 E1.40143
G1 X128.75 Y98.35 E0.00265
G1 X128.75 Y98.55 E0.00562
G1 X128.75 Y201.75 E3.06414
G1 X128.85 Y201.75 E0.00265
G1 X129.05 Y201.75 E0.00562
G1 X176.19 Y201.75 E1.39965
;WIPE_START
G1 X176.65 Y201.75 F9000
;WIPE_END
G1 X177.554 Y203.054
; External perimeter
;Perimeter
SET_VELOCITY_LIMIT ACCEL=2000 ACCEL_TO_DECEL=2000 SQUARE_CORNER_VELOCITY=5

; Overhang perimeter

;TYPE:Internal perimeter
;WIDTH:0.45
G1 F6000
G1 X127.446 Y203.054 E1.69608
G1 X127.446 Y96.946 E3.59161
G1 X177.554 Y96.946 E1.69608
G1 X177.554 Y202.994 E3.58958
G1 X177.961 Y203.461 F9000
G1 F6000
G1 X127.039 Y203.461 E1.72364
G1 X127.039 Y96.539 E3.61917
G1 X177.961 Y96.539 E1.72364
G1 X177.961 Y203.401 E3.61714
G1 X178.368 Y203.868 F9000
G1 F6000
G1 X126.632 Y203.868 E1.7512
G1 X126.632 Y96.132 E3.64673
G1 X178.368 Y96.132 E1.7512
G1 X178.368 Y203.808 E3.6447
G1 X178.75 Y204.25 F9000
; External perimeter
;ExternalPerimeter
SET_VELOCITY_LIMIT ACCEL=1000 ACCEL_TO_DECEL=1000 SQUARE_CORNER_VELOCITY=5

; Perimeter

;TYPE:External perimeter
;WIDTH:0.4
G1 F4800
G1 X126.25 Y204.25 E1.55879
G1 X126.25 Y204.15 E0.00265
G1 X126.25 Y203.95 E0.00562
G1 X126.25 Y95.75 E3.2126
G1 X126.35 Y95.75 E0.00265
G1 X126.55 Y95.75 E0.00562
G1 X178.75 Y95.75 E1.54989
G1 X178.75 Y95.85 E0.00265
G1 X178.75 Y96.05 E0.00562
G1 X178.75 Y204.19 E3.21082
;WIPE_START
G1 X178.404 Y204.05 F9000
;WIPE_END
G1 X177.284 Y202.784
; External perimeter
;GapFill
SET_VELOCITY_LIMIT ACCEL=2000 ACCEL_TO_DECEL=2000 SQUARE_CORNER_VELOCITY=5

; Skirt

;TYPE:Gap fill
;WIDTH:0.194849
G1 F1800
G1 X177.296 Y202.726 E0.00075
G1 X177.296 Y97.274 E1.33218
;WIDTH:0.224694
G1 X177.226 Y97.204 E0.0015
;WIDTH:0.182846
G1 X127.774 Y97.204 E0.57538
;WIDTH:0.224694
G1 X127.704 Y97.274 E0.0015
;WIDTH:0.182846
G1 X127.704 Y202.726 E1.22693
;WIDTH:0.224693
G1 X127.774 Y202.796 E0.0015
;WIDTH:0.182846
G1 X177.226 Y202.796 E0.57537
; INIT stop printing object Untitled.stl id:0 copy 0
;LAYER_CHANGE
;Z:0.64
;HEIGHT:0.2
G1 E-0.6 F3000
; stop printing object Untitled.stl id:0 copy 0
G1 Z0.64 F9000
; INIT printing object Untitled.stl id:0 copy 0
; printing object Untitled.stl id:0 copy 0
G1 X176.989 Y202.489
G1 E0.6 F1800
; External perimeter
;Perimeter
SET_VELOCITY_LIMIT ACCEL=2000 ACCEL_TO_DECEL=2000 SQUARE_CORNER_VELOCITY=5

; Overhang perimeter

;TYPE:Internal perimeter
;WIDTH:0.45
G1 F6000
G1 X176.989 Y97.511 E3.55339
G1 X128.011 Y97.511 E1.65786
G1 X128.011 Y202.489 E3.55339
G1 X176.929 Y202.489 E1.65583
G1 X176.582 Y202.082 F9000
G1 F6000
G1 X176.582 Y97.918 E3.52583
G1 X128.418 Y97.918 E1.6303
G1 X128.418 Y202.082 E3.52583
G1 X176.522 Y202.082 E1.62827
G1 X176.2 Y201.7 F9000
; External perimeter
;ExternalPerimeter
SET_VELOCITY_LIMIT ACCEL=1000 ACCEL_TO_DECEL=1000 SQUARE_CORNER_VELOCITY=5

; Perimeter

;TYPE:External perimeter
;WIDTH:0.4
G1 F4800
G1 X176.2 Y98.3 E3.07008
G1 X176.1 Y98.3 E0.00265
G1 X175.9 Y98.3 E0.00562
G1 X128.8 Y98.3 E1.39846
G1 X128.8 Y98.4 E0.00265
G1 X128.8 Y98.6 E0.00562
G1 X128.8 Y201.7 E3.06117
G1 X128.9 Y201.7 E0.00265
G1 X129.1 Y201.7 E0.00562
G1 X176.14 Y201.7 E1.39668
;WIPE_START
G1 X176.6 Y201.7 F9000
;WIPE_END
G1 X177.604 Y203.104
; External perimeter
;Perimeter
SET_VELOCITY_LIMIT ACCEL=2000 ACCEL_TO_DECEL=2000 SQUARE_CORNER_VELOCITY=5

; Overhang perimeter

;TYPE:Internal perimeter
;WIDTH:0.45
G1 F6000
G1 X127.396 Y203.104 E1.69947
G1 X127.396 Y96.896 E3.595
G1 X177.604 Y96.896 E1.69947
G1 X177.604 Y203.044 E3.59297
G1 X178.011 Y203.511 F9000
G1 F6000
G1 X126.989 Y203.511 E1.72702
G1 X126.989 Y96.489 E3.62256
G1 X178.011 Y96.489 E1.72702
G1 X178.011 Y203.451 E3.62053
G1 X178.418 Y203.918 F9000
G1 F6000
G1 X126.582 Y203.918 E1.75458
G1 X126.582 Y96.082 E3.65011
G1 X178.418 Y96.082 E1.75458
G1 X178.418 Y203.858 E3.64808
G1 X178.8 Y204.3 F9000
; External perimeter
;ExternalPerimeter
SET_VELOCITY_LIMIT ACCEL=1000 ACCEL_TO_DECEL=1000 SQUARE_CORNER_VELOCITY=5

; Perimeter

;TYPE:External perimeter
;WIDTH:0.4
G1 F4800
G1 X126.2 Y204.3 E1.56176
G1 X126.2 Y204.2 E0.00265
G1 X126.2 Y204 E0.00562
G1 X126.2 Y95.7 E3.21557
G1 X126.3 Y95.7 E0.00265
G1 X126.5 Y95.7 E0.00562
G1 X178.8 Y95.7 E1.55285
G1 X178.8 Y95.8 E0.00265
G1 X178.8 Y96 E0.00562
G1 X178.8 Y204.24 E3.21379
;WIPE_START
G1 X178.454 Y204.1 F9000
;WIPE_END
G1 X177.276 Y202.776
; External perimeter
;GapFill
SET_VELOCITY_LIMIT ACCEL=2000 ACCEL_TO_DECEL=2000 SQUARE_CORNER_VELOCITY=5

; Skirt

;TYPE:Gap fill
;WIDTH:0.303429
G1 F1800
G1 X177.296 Y202.676 E0.0022
G1 X177.296 Y97.324 E2.28209
G1 X177.276 Y97.224 E0.0022
G1 X177.176 Y97.204 E0.0022
G1 X127.824 Y97.204 E1.06905
G1 X127.724 Y97.224 E0.0022
G1 X127.704 Y97.324 E0.0022
G1 X127.704 Y202.676 E2.28209
G1 X127.724 Y202.776 E0.0022
G1 X127.824 Y202.796 E0.0022
G1 X177.176 Y202.796 E1.06905
G1 X177.217 Y202.788 E0.0009
; INIT stop printing object Untitled.stl id:0 copy 0
;LAYER_CHANGE
;Z:0.84
;HEIGHT:0.2
G1 E-0.6 F3000
; stop printing object Untitled.stl id:0 copy 0
G1 Z0.84 F9000
; INIT printing object Untitled.stl id:0 copy 0
; printing object Untitled.stl id:0 copy 0
G1 X176.989 Y202.489
G1 E0.6 F1800
; External perimeter
;Perimeter
SET_VELOCITY_LIMIT ACCEL=2000 ACCEL_TO_DECEL=2000 SQUARE_CORNER_VELOCITY=5

; Overhang perimeter

;TYPE:Internal perimeter
;WIDTH:0.45
G1 F6000
G1 X176.989 Y97.511 E3.55339
G1 X128.011 Y97.511 E1.65786
G1 X128.011 Y202.489 E3.55339
G1 X176.929 Y202.489 E1.65583
G1 X176.582 Y202.082 F9000
G1 F6000
G1 X176.582 Y97.918 E3.52583
G1 X128.418 Y97.918 E1.6303
G1 X128.418 Y202.082 E3.52583
G1 X176.522 Y202.082 E1.62827
G1 X176.2 Y201.7 F9000
; External perimeter
;ExternalPerimeter
SET_VELOCITY_LIMIT ACCEL=1000 ACCEL_TO_DECEL=1000 SQUARE_CORNER_VELOCITY=5

; Perimeter

;TYPE:External perimeter
;WIDTH:0.4
G1 F4800
G1 X176.2 Y98.3 E3.07008
G1 X176.1 Y98.3 E0.00265
G1 X175.9 Y98.3 E0.00562
G1 X128.8 Y98.3 E1.39846
G1 X128.8 Y98.4 E0.00265
G1 X128.8 Y98.6 E0.00562
G1 X128.8 Y201.7 E3.06117
G1 X128.9 Y201.7 E0.00265
G1 X129.1 Y201.7 E0.00562
G1 X176.14 Y201.7 E1.39668
;WIPE_START
G1 X176.6 Y201.7 F9000
;WIPE_END
G1 X177.604 Y203.104
; External perimeter
;Perimeter
SET_VELOCITY_LIMIT ACCEL=2000 ACCEL_TO_DECEL=2000 SQUARE_CORNER_VELOCITY=5

; Overhang perimeter

;TYPE:Internal perimeter
;WIDTH:0.45
G1 F6000
G1 X127.396 Y203.104 E1.69947
G1 X127.396 Y96.896 E3.595
G1 X177.604 Y96.896 E1.69947
G1 X177.604 Y203.044 E3.59297
G1 X178.011 Y203.511 F9000
G1 F6000
G1 X126.989 Y203.511 E1.72702
G1 X126.989 Y96.489 E3.62256
G1 X178.011 Y96.489 E1.72702
G1 X178.011 Y203.451 E3.62053
G1 X178.418 Y203.918 F9000
G1 F6000
G1 X126.582 Y203.918 E1.75458
G1 X126.582 Y96.082 E3.65011
G1 X178.418 Y96.082 E1.75458
G1 X178.418 Y203.858 E3.64808
G1 X178.8 Y204.3 F9000
; External perimeter
;ExternalPerimeter
SET_VELOCITY_LIMIT ACCEL=1000 ACCEL_TO_DECEL=1000 SQUARE_CORNER_VELOCITY=5

; Perimeter

;TYPE:External perimeter
;WIDTH:0.4
G1 F4800
G1 X126.2 Y204.3 E1.56176
G1 X126.2 Y204.2 E0.00265
G1 X126.2 Y204 E0.00562
G1 X126.2 Y95.7 E3.21557
G1 X126.3 Y95.7 E0.00265
G1 X126.5 Y95.7 E0.00562
G1 X178.8 Y95.7 E1.55285
G1 X178.8 Y95.8 E0.00265
G1 X178.8 Y96 E0.00562
G1 X178.8 Y204.24 E3.21379
;WIPE_START
G1 X178.454 Y204.1 F9000
;WIPE_END
G1 X177.276 Y202.776
; External perimeter
;GapFill
SET_VELOCITY_LIMIT ACCEL=2000 ACCEL_TO_DECEL=2000 SQUARE_CORNER_VELOCITY=5

; Skirt

;TYPE:Gap fill
;WIDTH:0.303429
G1 F1800
G1 X177.296 Y202.676 E0.0022
G1 X177.296 Y97.324 E2.28209
G1 X177.276 Y97.224 E0.0022
G1 X177.176 Y97.204 E0.0022
G1 X127.824 Y97.204 E1.06905
G1 X127.724 Y97.224 E0.0022
G1 X127.704 Y97.324 E0.0022
G1 X127.704 Y202.676 E2.28209
G1 X127.724 Y202.776 E0.0022
G1 X127.824 Y202.796 E0.0022
G1 X177.176 Y202.796 E1.06905
G1 X177.217 Y202.788 E0.0009
; INIT stop printing object Untitled.stl id:0 copy 0
;LAYER_CHANGE
;Z:1.04
;HEIGHT:0.2
G1 E-0.6 F3000
; stop printing object Untitled.stl id:0 copy 0
G1 Z1.04 F9000
; INIT printing object Untitled.stl id:0 copy 0
; printing object Untitled.stl id:0 copy 0
G1 X176.989 Y202.489
G1 E0.6 F1800
; External perimeter
;Perimeter
SET_VELOCITY_LIMIT ACCEL=2000 ACCEL_TO_DECEL=2000 SQUARE_CORNER_VELOCITY=5

; Overhang perimeter

;TYPE:Internal perimeter
;WIDTH:0.45
G1 F6000
G1 X176.989 Y97.511 E3.55339
G1 X128.011 Y97.511 E1.65786
G1 X128.011 Y202.489 E3.55339
G1 X176.929 Y202.489 E1.65583
G1 X176.582 Y202.082 F9000
G1 F6000
G1 X176.582 Y97.918 E3.52583
G1 X128.418 Y97.918 E1.6303
G1 X128.418 Y202.082 E3.52583
G1 X176.522 Y202.082 E1.62827
G1 X176.2 Y201.7 F9000
; External perimeter
;ExternalPerimeter
SET_VELOCITY_LIMIT ACCEL=1000 ACCEL_TO_DECEL=1000 SQUARE_CORNER_VELOCITY=5

; Perimeter

;TYPE:External perimeter
;WIDTH:0.4
G1 F4800
G1 X176.2 Y98.3 E3.07008
G1 X176.1 Y98.3 E0.00265
G1 X175.9 Y98.3 E0.00562
G1 X128.8 Y98.3 E1.39846
G1 X128.8 Y98.4 E0.00265
G1 X128.8 Y98.6 E0.00562
G1 X128.8 Y201.7 E3.06117
G1 X128.9 Y201.7 E0.00265
