; generated by SuperSlicer 2.3.57 on 2022-04-13 at 01:31:06 UTC


;
;

;
;
; 

; external perimeters extrusion width = 0.40mm
; perimeters extrusion width = 0.45mm
; infill extrusion width = 0.72mm
; solid infill extrusion width = 0.56mm
; top infill extrusion width = 0.40mm
; support material extrusion width = 0.42mm
; first layer extrusion width = 0.48mm

; external perimeters extrusion width = 0.40mm
; perimeters extrusion width = 0.45mm
; infill extrusion width = 0.72mm
; solid infill extrusion width = 0.56mm
; top infill extrusion width = 0.40mm
; support material extrusion width = 0.42mm
; first layer extrusion width = 0.48mm

; external perimeters extrusion width = 0.40mm
; perimeters extrusion width = 0.45mm
; infill extrusion width = 0.72mm
; solid infill extrusion width = 0.56mm
; top infill extrusion width = 0.40mm
; support material extrusion width = 0.42mm
; first layer extrusion width = 0.48mm

; object:{"name":"snapware_X-Large_Divider","id":"snapware_X-Large_Divider.stl id:0 copy 0","object_center":[152.500000,150.000000,0.000000],"boundingbox_center":[152.500000,150.000000,1.500000],"boundingbox_size":[91.000000,115.000000,3.000000]}
; plater:{"center":[152.500000,150.000000,0.000000],"boundingbox_center":[152.500000,150.000000,1.500000],"boundingbox_size":[91.000000,115.000000,3.000000]}

;TYPE:Custom
START_PRINT T_BED=60 T_EXTRUDER=200
M107
G21 ; set units to millimeters
G90 ; use absolute coordinates
M83 ; use relative distances for extrusion
; Filament gcode
M104 S200 ; set temperature
M109 S200 ; set temperature and wait for it to be reached
M190 S60 ; set bed temperature and wait for it to be reached
;LAYER_CHANGE
;Z:0.24
;HEIGHT:0.24
G1 E-0.6 F3000
G1 Z0.24 F9000
G1 X106.468 Y93.09
G1 E0.6 F1800
; External perimeter
;Skirt
SET_VELOCITY_LIMIT ACCEL=300 ACCEL_TO_DECEL=3000 SQUARE_CORNER_VELOCITY=5

; Support material

;TYPE:Skirt
;WIDTH:0.48
G1 X105.591 Y94.097 E0.05708
G1 X104.644 Y95.55 E0.07418
G1 X103.963 Y97.114 E0.07291
G1 X103.615 Y98.452 E0.05912
G1 X103.458 Y100.093 E0.07048
G1 X103.458 Y199.914 E4.26789
G1 X103.537 Y201.055 E0.0489
G1 X103.768 Y202.236 E0.05148
G1 X104.14 Y203.372 E0.05111
G1 X104.668 Y204.494 E0.053
G1 X105.284 Y205.486 E0.04992
G1 X106.059 Y206.47 E0.05357
G1 X106.908 Y207.337 E0.05188
G1 X108.153 Y208.344 E0.06846
G1 X109.428 Y209.144 E0.06435
G1 X110.411 Y209.643 E0.04714
G1 X111.638 Y210.136 E0.05655
G1 X113.924 Y210.753 E0.10122
G1 X115.148 Y210.939 E0.05293
G1 X116.466 Y211.033 E0.05649
G1 X197.964 Y211.042 E3.48449
G1 X198.785 Y210.934 E0.03541
G1 X199.556 Y210.645 E0.03521
G1 X200.246 Y210.187 E0.03541
G1 X200.812 Y209.589 E0.03521
G1 X201.352 Y208.563 E0.04958
G1 X201.543 Y207.424 E0.04938
G1 X201.542 Y92.513 E4.91307
G1 X201.457 Y91.816 E0.02999
G1 X201.239 Y91.145 E0.03019
G1 X200.899 Y90.532 E0.02999
G1 X200.446 Y89.995 E0.02999
G1 X199.9 Y89.555 E0.02999
G1 X199.279 Y89.228 E0.02999
G1 X198.603 Y89.026 E0.03019
G1 X197.905 Y88.957 E0.02999
G1 X115.822 Y89 E3.50946
G1 X114.455 Y89.155 E0.05883
G1 X112.702 Y89.53 E0.07668
G1 X111.016 Y90.098 E0.07607
G1 X109.864 Y90.621 E0.0541
G1 X108.393 Y91.491 E0.07306
G1 X107.692 Y91.999 E0.03701
G1 X106.512 Y93.05 E0.06755
G1 X106.797 Y93.369 F9000
G1 F1800
G1 X106.771 Y93.392 E0.00148
G1 X105.935 Y94.352 E0.0544
G1 X105.02 Y95.755 E0.07162
G1 X104.367 Y97.257 E0.07003
G1 X104.037 Y98.524 E0.05599
G1 X103.886 Y100.106 E0.06795
G1 X103.887 Y199.904 E4.26691
G1 X103.961 Y200.995 E0.04673
G1 X104.181 Y202.124 E0.04918
G1 X104.537 Y203.211 E0.0489
G1 X105.042 Y204.285 E0.05075
G1 X105.633 Y205.238 E0.04795
G1 X106.378 Y206.184 E0.05148
G1 X107.196 Y207.021 E0.05003
G1 X108.404 Y207.996 E0.06637
G1 X109.623 Y208.763 E0.06159
G1 X110.584 Y209.251 E0.04607
G1 X111.769 Y209.728 E0.05461
G1 X114 Y210.332 E0.09881
G1 X115.192 Y210.513 E0.05155
G1 X116.468 Y210.605 E0.05473
G1 X197.948 Y210.614 E3.48371
G1 X198.672 Y210.52 E0.03118
G1 X199.355 Y210.266 E0.03118
G1 X199.964 Y209.864 E0.03118
G1 X200.466 Y209.336 E0.03118
G1 X200.944 Y208.431 E0.04375
G1 X201.114 Y207.418 E0.04393
G1 X201.113 Y92.53 E4.9121
G1 X201.04 Y91.915 E0.02647
G1 X200.849 Y91.321 E0.02666
G1 X200.547 Y90.776 E0.02666
G1 X200.148 Y90.302 E0.02647
G1 X199.662 Y89.912 E0.02666
G1 X199.114 Y89.624 E0.02647
G1 X198.521 Y89.446 E0.02647
G1 X197.904 Y89.386 E0.02647
G1 X115.854 Y89.427 E3.50811
G1 X114.528 Y89.577 E0.05707
G1 X112.814 Y89.943 E0.07491
G1 X111.17 Y90.498 E0.07421
G1 X110.061 Y91.002 E0.05206
G1 X108.622 Y91.852 E0.07146
G1 X107.965 Y92.328 E0.03469
G1 X106.842 Y93.329 E0.06433
; INIT printing object snapware_X-Large_Divider.stl id:0 copy 0
G1 E-0.6 F3000
; printing object snapware_X-Large_Divider.stl id:0 copy 0
G1 X183.803 Y94.753 F9000
G1 E0.6 F1800
; External perimeter
;Perimeter
SET_VELOCITY_LIMIT ACCEL=2000 ACCEL_TO_DECEL=2000 SQUARE_CORNER_VELOCITY=5

; Overhang perimeter

;TYPE:Internal perimeter
G1 X183.803 Y99.447 E0.20069
G1 X196.803 Y99.447 E0.55582
G1 X196.803 Y100.503 E0.04515
G1 X128.978 Y100.503 E2.89987
G1 X127.93 Y100.543 E0.04488
G1 X126.868 Y100.663 E0.04566
G1 X125.826 Y100.863 E0.0454
G1 X124.81 Y101.142 E0.04501
G1 X123.842 Y101.493 E0.04403
G1 X123.348 Y101.708 E0.02303
G1 X122.45 Y102.168 E0.04313
G1 X121.611 Y102.696 E0.04239
G1 X121.19 Y103.003 E0.02231
G1 X120.451 Y103.628 E0.04135
G1 X119.781 Y104.32 E0.0412
G1 X119.197 Y105.068 E0.04056
G1 X118.715 Y105.85 E0.03928
G1 X118.492 Y106.292 E0.02118
G1 X118.166 Y107.116 E0.03787
G1 X118.028 Y107.587 E0.02098
G1 X117.859 Y108.463 E0.03813
G1 X117.803 Y109.33 E0.03716
G1 X117.803 Y190.67 E3.47774
G1 X117.858 Y191.52 E0.03642
G1 X117.935 Y192.003 E0.0209
G1 X118.16 Y192.868 E0.03823
G1 X118.492 Y193.708 E0.03861
G1 X118.708 Y194.136 E0.02051
G1 X118.949 Y194.553 E0.02058
G1 X119.478 Y195.312 E0.03958
G1 X120.097 Y196.023 E0.04028
G1 X120.462 Y196.381 E0.02188
G1 X121.19 Y196.997 E0.04075
G1 X121.611 Y197.304 E0.02231
G1 X122.45 Y197.832 E0.04239
G1 X123.358 Y198.298 E0.04362
G1 X124.316 Y198.69 E0.04424
G1 X125.304 Y199.004 E0.04432
G1 X125.836 Y199.139 E0.02348
G1 X126.858 Y199.335 E0.04449
G1 X127.408 Y199.408 E0.0237
G1 X128.464 Y199.488 E0.0453
G1 X196.803 Y199.497 E2.92186
G1 X196.803 Y200.553 E0.04516
G1 X183.803 Y200.553 E0.55582
G1 X183.803 Y205.247 E0.20069
G1 X196.803 Y205.247 E0.55582
G1 X196.803 Y206.303 E0.04515
G1 X116.555 Y206.294 E3.43106
G1 X115.668 Y206.227 E0.038
G1 X114.796 Y206.094 E0.03771
G1 X113.948 Y205.897 E0.03723
G1 X113.133 Y205.638 E0.03656
G1 X112.36 Y205.321 E0.03574
G1 X111.636 Y204.95 E0.03478
G1 X110.969 Y204.53 E0.03369
G1 X110.354 Y204.059 E0.03311
G1 X110.098 Y203.831 E0.01466
G1 X109.589 Y203.306 E0.03127
G1 X109.165 Y202.762 E0.02949
G1 X108.816 Y202.198 E0.02836
G1 X108.546 Y201.618 E0.02735
G1 X108.353 Y201.028 E0.02654
G1 X108.238 Y200.432 E0.02596
G1 X108.197 Y199.797 E0.02723
G1 X108.197 Y100.186 E4.25891
G1 X108.207 Y99.885 E0.01289
G1 X108.286 Y99.269 E0.02653
G1 X108.444 Y98.66 E0.02693
G1 X108.539 Y98.397 E0.01193
G1 X108.823 Y97.788 E0.02874
G1 X108.972 Y97.531 E0.0127
G1 X109.367 Y96.963 E0.02959
G1 X109.839 Y96.422 E0.03068
G1 X110.078 Y96.187 E0.01432
G1 X110.668 Y95.688 E0.03307
G1 X110.958 Y95.477 E0.01532
G1 X111.646 Y95.044 E0.03476
G1 X111.98 Y94.863 E0.01624
G1 X112.741 Y94.514 E0.03579
G1 X113.546 Y94.221 E0.03664
G1 X113.938 Y94.106 E0.01745
G1 X114.807 Y93.904 E0.03814
G1 X115.219 Y93.833 E0.01791
G1 X116.11 Y93.731 E0.03833
G1 X117.022 Y93.697 E0.039
G1 X196.803 Y93.697 E3.41109
G1 X196.803 Y94.753 E0.04515
G1 X183.863 Y94.753 E0.55326
G1 X184.232 Y95.182 F9000
G1 F1800
G1 X184.232 Y99.018 E0.16405
G1 X197.232 Y99.018 E0.55582
G1 X197.232 Y100.932 E0.08179
G1 X128.986 Y100.932 E2.91785
G1 X127.962 Y100.97 E0.04384
G1 X126.933 Y101.087 E0.04427
G1 X125.923 Y101.281 E0.04398
G1 X124.94 Y101.551 E0.04356
G1 X124.001 Y101.891 E0.04272
G1 X123.531 Y102.095 E0.02188
G1 X122.663 Y102.54 E0.04174
G1 X121.852 Y103.05 E0.04095
G1 X121.455 Y103.34 E0.02103
G1 X120.744 Y103.941 E0.03977
G1 X120.105 Y104.602 E0.03932
G1 X119.549 Y105.313 E0.03858
G1 X119.089 Y106.059 E0.03748
G1 X118.883 Y106.468 E0.01957
G1 X118.572 Y107.255 E0.03621
G1 X118.445 Y107.688 E0.01928
G1 X118.285 Y108.517 E0.03611
G1 X118.232 Y109.344 E0.03541
G1 X118.232 Y190.656 E3.47656
G1 X118.284 Y191.472 E0.03495
G1 X118.355 Y191.915 E0.01916
G1 X118.568 Y192.735 E0.03624
G1 X118.883 Y193.532 E0.03666
G1 X119.085 Y193.933 E0.01916
G1 X119.31 Y194.323 E0.01928
G1 X119.816 Y195.048 E0.03781
G1 X120.409 Y195.729 E0.03858
G1 X120.751 Y196.064 E0.02049
G1 X121.455 Y196.66 E0.03941
G1 X121.852 Y196.95 E0.02102
G1 X122.663 Y197.46 E0.04095
G1 X123.538 Y197.908 E0.04204
G1 X124.462 Y198.287 E0.04272
G1 X125.421 Y198.591 E0.04303
G1 X125.929 Y198.72 E0.02241
G1 X126.927 Y198.912 E0.04343
G1 X127.452 Y198.982 E0.02266
G1 X128.48 Y199.059 E0.04409
G1 X197.232 Y199.068 E2.93949
G1 X197.232 Y200.982 E0.0818
G1 X184.232 Y200.982 E0.55582
G1 X184.232 Y204.818 E0.16405
G1 X197.232 Y204.818 E0.55582
G1 X197.232 Y206.731 E0.08179
G1 X116.538 Y206.722 E3.45007
G1 X115.62 Y206.653 E0.03939
G1 X114.715 Y206.515 E0.03911
G1 X113.835 Y206.31 E0.03866
G1 X112.987 Y206.041 E0.03804
G1 X112.18 Y205.711 E0.03726
G1 X111.423 Y205.323 E0.03636
G1 X110.724 Y204.882 E0.03535
G1 X110.081 Y204.39 E0.03462
G1 X109.801 Y204.141 E0.01601
G1 X109.266 Y203.588 E0.03293
G1 X108.812 Y203.008 E0.03147
G1 X108.439 Y202.402 E0.03044
G1 X108.147 Y201.776 E0.02953
G1 X107.937 Y201.136 E0.02879
G1 X107.812 Y200.487 E0.02827
G1 X107.768 Y199.81 E0.02898
G1 X107.768 Y100.179 E4.25979
G1 X107.779 Y99.85 E0.01406
G1 X107.864 Y99.188 E0.02856
G1 X108.034 Y98.533 E0.02893
G1 X108.142 Y98.233 E0.01361
G1 X108.443 Y97.59 E0.03037
G1 X108.61 Y97.3 E0.01428
G1 X109.029 Y96.699 E0.03136
G1 X109.527 Y96.128 E0.03238
G1 X109.789 Y95.87 E0.01571
G1 X110.403 Y95.351 E0.0344
G1 X110.717 Y95.122 E0.01661
G1 X111.43 Y94.673 E0.036
G1 X111.789 Y94.48 E0.01744
G1 X112.578 Y94.117 E0.03714
G1 X113.412 Y93.814 E0.03795
G1 X113.828 Y93.691 E0.01854
G1 X114.722 Y93.483 E0.03922
G1 X115.159 Y93.408 E0.01896
G1 X116.078 Y93.304 E0.03955
G1 X117.014 Y93.268 E0.04004
G1 X197.232 Y93.268 E3.42976
G1 X197.232 Y95.182 E0.08179
G1 X184.292 Y95.182 E0.55326
G1 X184.66 Y95.61 F9000
; External perimeter
;ExternalPerimeter
SET_VELOCITY_LIMIT ACCEL=1000 ACCEL_TO_DECEL=1000 SQUARE_CORNER_VELOCITY=5

; Perimeter

;TYPE:External perimeter
G1 F1800
G1 X184.66 Y98.59 E0.12741
G1 X184.78 Y98.59 E0.00458
G1 X185.02 Y98.59 E0.00971
G1 X197.66 Y98.59 E0.54043
G1 X197.66 Y98.71 E0.00458
G1 X197.66 Y98.95 E0.00971
G1 X197.66 Y101.36 E0.10304
G1 X197.54 Y101.36 E0.00458
G1 X197.3 Y101.36 E0.00971
G1 X128.995 Y101.36 E2.92043
G1 X127.994 Y101.398 E0.0428
G1 X126.998 Y101.511 E0.04288
G1 X126.02 Y101.699 E0.04257
G1 X125.07 Y101.959 E0.04211
G1 X124.159 Y102.29 E0.04142
G1 X123.715 Y102.483 E0.02073
G1 X122.875 Y102.913 E0.04035
G1 X122.093 Y103.405 E0.03951
G1 X121.72 Y103.677 E0.01974
G1 X121.037 Y104.254 E0.0382
G1 X120.429 Y104.884 E0.03744
G1 X119.901 Y105.558 E0.03659
G1 X119.463 Y106.268 E0.03567
G1 X119.275 Y106.643 E0.01796
G1 X118.977 Y107.395 E0.03455
G1 X118.862 Y107.789 E0.01758
G1 X118.71 Y108.572 E0.03408
G1 X118.66 Y109.357 E0.03365
G1 X118.66 Y190.643 E3.47539
G1 X118.71 Y191.424 E0.03349
G1 X118.775 Y191.827 E0.01742
G1 X118.976 Y192.602 E0.03424
G1 X119.275 Y193.357 E0.03471
G1 X119.462 Y193.729 E0.01781
G1 X119.672 Y194.093 E0.01797
G1 X120.154 Y194.784 E0.03605
G1 X120.721 Y195.435 E0.03688
G1 X121.04 Y195.748 E0.01909
G1 X121.72 Y196.323 E0.03807
G1 X122.092 Y196.595 E0.01974
G1 X122.875 Y197.087 E0.03951
G1 X123.717 Y197.518 E0.04045
G1 X124.608 Y197.884 E0.0412
G1 X125.539 Y198.179 E0.04174
G1 X126.022 Y198.302 E0.02133
G1 X126.996 Y198.489 E0.04237
G1 X127.497 Y198.555 E0.02161
G1 X128.496 Y198.631 E0.04288
G1 X197.66 Y198.64 E2.95712
G1 X197.66 Y198.76 E0.0046
G1 X197.66 Y199 E0.00973
G1 X197.66 Y201.41 E0.10304
G1 X197.54 Y201.41 E0.00458
G1 X197.3 Y201.41 E0.00971
G1 X184.66 Y201.41 E0.54043
G1 X184.66 Y201.53 E0.00458
G1 X184.66 Y201.77 E0.00971
G1 X184.66 Y204.39 E0.11202
G1 X184.78 Y204.39 E0.00458
G1 X185.02 Y204.39 E0.00971
G1 X197.66 Y204.39 E0.54043
G1 X197.66 Y204.51 E0.00458
G1 X197.66 Y204.75 E0.00971
G1 X197.66 Y207.16 E0.10304
G1 X197.54 Y207.16 E0.00458
G1 X197.3 Y207.16 E0.00971
G1 X116.522 Y207.151 E3.45369
G1 X115.571 Y207.079 E0.04078
G1 X114.634 Y206.936 E0.04051
G1 X113.721 Y206.724 E0.04009
G1 X112.841 Y206.444 E0.03951
G1 X112.001 Y206.1 E0.03878
G1 X111.211 Y205.696 E0.03794
G1 X110.479 Y205.235 E0.03701
G1 X109.808 Y204.72 E0.03613
G1 X109.504 Y204.451 E0.01737
G1 X108.942 Y203.869 E0.03458
G1 X108.46 Y203.253 E0.03345
G1 X108.061 Y202.606 E0.03252
G1 X107.747 Y201.934 E0.0317
G1 X107.522 Y201.244 E0.03104
G1 X107.386 Y200.541 E0.03058
G1 X107.34 Y199.824 E0.03074
G1 X107.34 Y100.172 E4.26066
G1 X107.351 Y99.816 E0.01523
G1 X107.443 Y99.106 E0.03059
G1 X107.624 Y98.406 E0.03094
G1 X107.746 Y98.07 E0.01529
G1 X108.062 Y97.391 E0.032
G1 X108.248 Y97.07 E0.01586
G1 X108.691 Y96.435 E0.03312
G1 X109.215 Y95.834 E0.03408
G1 X109.5 Y95.554 E0.0171
G1 X110.138 Y95.014 E0.03574
G1 X110.476 Y94.767 E0.0179
G1 X111.214 Y94.303 E0.03724
G1 X111.597 Y94.096 E0.01864
G1 X112.415 Y93.72 E0.03849
G1 X113.278 Y93.407 E0.03926
G1 X113.719 Y93.277 E0.01963
G1 X114.637 Y93.063 E0.04029
G1 X115.098 Y92.984 E0.02002
G1 X116.045 Y92.876 E0.04076
G1 X117.005 Y92.84 E0.04107
G1 X197.66 Y92.84 E3.44842
G1 X197.66 Y92.96 E0.00458
G1 X197.66 Y93.2 E0.00971
G1 X197.66 Y95.61 E0.10304
G1 X197.54 Y95.61 E0.00458
G1 X197.3 Y95.61 E0.00971
G1 X184.72 Y95.61 E0.53786
;WIPE_START
G1 X184.26 Y95.61 F9000
;WIPE_END
G1 X183.739 Y94.816
; External perimeter
;SolidInfill
SET_VELOCITY_LIMIT ACCEL=2000 ACCEL_TO_DECEL=2000 SQUARE_CORNER_VELOCITY=5

; Bridge infill

;TYPE:Solid infill
;WIDTH:0.471622
G1 F2400
G1 X182.868 Y93.945 E0.05172
G1 X182.262 Y93.945 E0.02546
G1 X183.555 Y95.238 E0.07678
G1 X183.555 Y95.844 E0.02546
G1 X181.656 Y93.945 E0.11278
G1 X181.05 Y93.945 E0.02546
G1 X183.555 Y96.45 E0.14878
G1 X183.555 Y97.056 E0.02546
G1 X180.444 Y93.945 E0.18478
G1 X179.838 Y93.945 E0.02546
G1 X183.555 Y97.662 E0.22078
G1 X183.555 Y98.268 E0.02546
G1 X179.232 Y93.945 E0.25679
G1 X178.626 Y93.945 E0.02546
G1 X183.555 Y98.874 E0.29279
G1 X183.555 Y99.438 E0.02372
G1 X183.513 Y99.438 E0.00174
G1 X178.02 Y93.945 E0.32633
G1 X177.414 Y93.945 E0.02546
G1 X183.366 Y99.897 E0.35358
G1 X183.366 Y100.255 E0.01502
G1 X183.117 Y100.255 E0.01044
G1 X176.808 Y93.945 E0.37482
G1 X176.202 Y93.945 E0.02546
G1 X182.511 Y100.255 E0.37482
G1 X181.905 Y100.255 E0.02546
G1 X175.596 Y93.945 E0.37482
G1 X174.99 Y93.945 E0.02546
G1 X181.299 Y100.255 E0.37482
G1 X180.693 Y100.255 E0.02546
G1 X174.384 Y93.945 E0.37482
G1 X173.778 Y93.945 E0.02546
G1 X180.087 Y100.255 E0.37482
G1 X179.481 Y100.255 E0.02546
G1 X173.172 Y93.945 E0.37482
G1 X172.566 Y93.945 E0.02546
G1 X178.875 Y100.255 E0.37482
G1 X178.269 Y100.255 E0.02546
G1 X171.96 Y93.945 E0.37482
G1 X171.354 Y93.945 E0.02546
G1 X177.663 Y100.255 E0.37482
G1 X177.057 Y100.255 E0.02546
G1 X170.748 Y93.945 E0.37482
G1 X170.142 Y93.945 E0.02546
G1 X176.451 Y100.255 E0.37482
G1 X175.846 Y100.255 E0.02546
G1 X169.537 Y93.945 E0.37482
G1 X168.931 Y93.945 E0.02546
G1 X175.24 Y100.255 E0.37482
G1 X174.634 Y100.255 E0.02546
G1 X168.325 Y93.945 E0.37482
G1 X167.719 Y93.945 E0.02546
G1 X174.028 Y100.255 E0.37482
G1 X173.422 Y100.255 E0.02546
G1 X167.113 Y93.945 E0.37482
G1 X166.507 Y93.945 E0.02546
G1 X172.816 Y100.255 E0.37482
G1 X172.21 Y100.255 E0.02546
G1 X165.901 Y93.945 E0.37482
G1 X165.295 Y93.945 E0.02546
G1 X171.604 Y100.255 E0.37482
G1 X170.998 Y100.255 E0.02546
G1 X164.689 Y93.945 E0.37482
G1 X164.083 Y93.945 E0.02546
G1 X170.392 Y100.255 E0.37482
G1 X169.786 Y100.255 E0.02546
G1 X163.477 Y93.945 E0.37482
G1 X162.871 Y93.945 E0.02546
G1 X169.18 Y100.255 E0.37482
G1 X168.574 Y100.255 E0.02546
G1 X162.265 Y93.945 E0.37482
G1 X161.659 Y93.945 E0.02546
G1 X167.968 Y100.255 E0.37482
G1 X167.362 Y100.255 E0.02546
G1 X161.053 Y93.945 E0.37482
G1 X160.447 Y93.945 E0.02546
G1 X166.756 Y100.255 E0.37482
