; generated by SuperSlicer 2.4 on 2022-04-22 at 02:28:36 UTC


;
;

;
;
; 

; external perimeters extrusion width = 0.40mm
; perimeters extrusion width = 0.45mm
; infill extrusion width = 0.72mm
; solid infill extrusion width = 0.56mm
; top infill extrusion width = 0.40mm
; support material extrusion width = 0.42mm
; first layer extrusion width = 0.48mm

; object:{"name":"Framer","id":"Framer.stl id:0 copy 0","object_center":[165.000004,165.000000,0.000000],"boundingbox_center":[165.000004,165.000000,17.500000],"boundingbox_size":[241.945213,130.000000,35.000000]}
; plater:{"center":[165.000004,165.000000,0.000000],"boundingbox_center":[165.000004,165.000000,17.500000],"boundingbox_size":[241.945213,130.000000,35.000000]}

M73 P0 R298
;TYPE:Custom
START_PRINT T_BED=70 T_EXTRUDER=230
M107
G21 ; set units to millimeters
G90 ; use absolute coordinates
M83 ; use relative distances for extrusion
; Filament gcode
M109 S230 ; set temperature and wait for it to be reached
M190 S70 ; set bed temperature and wait for it to be reached
M107
;LAYER_CHANGE
;Z:0.24
;HEIGHT:0.24
G1 E-1 F3000
G1 Z0.24 F9000
G92 E0
; INIT printing object Framer.stl id:0 copy 0
; printing object Framer.stl id:0 copy 0
M204 S500
G1 X85.776 Y103.16
G1 E1 F1800
;TYPE:Internal perimeter
;WIDTH:0.48
G1 X85.776 Y125.803 E0.96811
G1 X45.83 Y125.803 E1.70788
G1 X45.83 Y204.197 E3.35177
G1 X85.776 Y204.197 E1.70788
G1 X85.776 Y227.697 E1.00475
G1 X119.17 Y227.697 E1.42777
G1 X119.17 Y217.697 E0.42755
G1 X152.17 Y217.697 E1.41093
G1 X152.17 Y213.697 E0.17102
G1 X186.17 Y213.697 E1.45369
G1 X186.17 Y198.197 E0.66271
G1 X220.17 Y198.197 E1.45369
G1 X220.17 Y184.697 E0.5772
G1 X284.17 Y184.697 E2.73635
G1 X284.17 Y145.303 E1.68431
G1 X220.17 Y145.303 E2.73635
G1 X220.17 Y131.803 E0.5772
G1 X186.17 Y131.803 E1.45369
G1 X186.17 Y116.303 E0.66271
G1 X152.17 Y116.303 E1.45369
G1 X152.17 Y112.303 E0.17102
G1 X119.17 Y112.303 E1.41093
G1 X119.17 Y102.303 E0.42755
G1 X85.776 Y102.303 E1.42777
G1 X85.776 Y103.1 E0.03408
G1 X86.204 Y103.16 F9000
G1 F1800
G1 X86.204 Y126.232 E0.98643
G1 X46.259 Y126.232 E1.70788
G1 X46.259 Y203.768 E3.31513
M73 P0 R297
G1 X86.204 Y203.768 E1.70788
G1 X86.204 Y227.268 E1.00475
G1 X118.741 Y227.268 E1.39113
G1 X118.741 Y217.268 E0.42755
G1 X151.741 Y217.268 E1.41093
G1 X151.741 Y213.268 E0.17102
G1 X185.741 Y213.268 E1.45369
G1 X185.741 Y197.768 E0.66271
G1 X219.741 Y197.768 E1.45369
G1 X219.741 Y184.268 E0.5772
G1 X283.741 Y184.268 E2.73635
G1 X283.741 Y145.732 E1.64767
G1 X219.741 Y145.732 E2.73635
G1 X219.741 Y132.232 E0.5772
G1 X185.741 Y132.232 E1.45369
G1 X185.741 Y116.732 E0.66271
G1 X151.741 Y116.732 E1.45369
G1 X151.741 Y112.732 E0.17102
G1 X118.741 Y112.732 E1.41093
G1 X118.741 Y102.732 E0.42755
G1 X86.204 Y102.732 E1.39113
G1 X86.204 Y103.1 E0.01576
G1 X86.633 Y103.16 F9000
;TYPE:External perimeter
G1 F1800
G1 X86.633 Y126.66 E1.00475
G1 X46.687 Y126.66 E1.70788
G1 X46.687 Y203.34 E3.27849
G1 X86.633 Y203.34 E1.70788
G1 X86.633 Y226.84 E1.00475
G1 X118.313 Y226.84 E1.35449
G1 X118.313 Y216.84 E0.42755
G1 X151.313 Y216.84 E1.41093
G1 X151.313 Y212.84 E0.17102
G1 X185.313 Y212.84 E1.45369
G1 X185.313 Y197.34 E0.66271
G1 X219.313 Y197.34 E1.45369
G1 X219.313 Y183.84 E0.5772
G1 X283.313 Y183.84 E2.73635
G1 X283.313 Y146.16 E1.61103
G1 X219.313 Y146.16 E2.73635
G1 X219.313 Y132.66 E0.5772
G1 X185.313 Y132.66 E1.45369
G1 X185.313 Y117.16 E0.66271
G1 X151.313 Y117.16 E1.45369
G1 X151.313 Y113.16 E0.17102
G1 X118.313 Y113.16 E1.41093
G1 X118.313 Y103.16 E0.42755
G1 X86.693 Y103.16 E1.35193
;WIPE_START
G1 X86.233 Y103.16 F9000
;WIPE_END
G1 E-1 F3000
; acceleration to travel
M204 S2500
G1 X114.899 Y109.857 F9000
; decel to extrusion
M204 S500
G1 X120.633 Y111.197
; end travel
G1 E1 F1800
;TYPE:Internal perimeter
G1 X152.776 Y111.197 E1.37429
G1 X152.776 Y115.197 E0.17102
G1 X186.776 Y115.197 E1.45369
G1 X186.776 Y130.697 E0.66271
G1 X220.776 Y130.697 E1.45369
G1 X220.776 Y144.197 E0.5772
G1 X284.776 Y144.197 E2.73635
G1 X284.776 Y185.803 E1.77888
G1 X220.776 Y185.803 E2.73635
G1 X220.776 Y199.303 E0.5772
G1 X186.776 Y199.303 E1.45369
G1 X186.776 Y214.803 E0.66271
G1 X152.776 Y214.803 E1.45369
G1 X152.776 Y218.803 E0.17102
G1 X119.776 Y218.803 E1.41093
M73 P0 R296
G1 X119.776 Y228.803 E0.42755
G1 X85.17 Y228.803 E1.4796
G1 X85.17 Y205.303 E1.00475
G1 X45.224 Y205.303 E1.70788
G1 X45.224 Y124.697 E3.44635
G1 X85.17 Y124.697 E1.70788
G1 X85.17 Y101.197 E1.00475
G1 X119.776 Y101.197 E1.4796
G1 X119.776 Y111.197 E0.42755
G1 X120.573 Y111.197 E0.03408
G1 X120.633 Y110.768 F9000
G1 F1800
G1 X153.204 Y110.768 E1.39261
G1 X153.204 Y114.768 E0.17102
G1 X187.204 Y114.768 E1.45369
G1 X187.204 Y130.268 E0.66271
G1 X221.204 Y130.268 E1.45369
G1 X221.204 Y143.768 E0.5772
G1 X285.204 Y143.768 E2.73635
G1 X285.204 Y186.232 E1.81553
G1 X221.204 Y186.232 E2.73635
G1 X221.204 Y199.732 E0.5772
G1 X187.204 Y199.732 E1.45369
G1 X187.204 Y215.232 E0.66271
G1 X153.204 Y215.232 E1.45369
G1 X153.204 Y219.232 E0.17102
G1 X120.204 Y219.232 E1.41093
G1 X120.204 Y229.232 E0.42755
G1 X84.741 Y229.232 E1.51624
G1 X84.741 Y205.732 E1.00475
G1 X44.796 Y205.732 E1.70788
G1 X44.796 Y124.268 E3.48299
G1 X84.741 Y124.268 E1.70788
G1 X84.741 Y100.768 E1.00475
G1 X120.204 Y100.768 E1.51624
G1 X120.204 Y110.768 E0.42755
G1 X120.573 Y110.768 E0.01576
G1 X120.633 Y110.34 F9000
;TYPE:External perimeter
G1 F1800
G1 X153.633 Y110.34 E1.41093
G1 X153.633 Y114.34 E0.17102
G1 X187.633 Y114.34 E1.45369
G1 X187.633 Y129.84 E0.66271
G1 X221.633 Y129.84 E1.45369
G1 X221.633 Y143.34 E0.5772
G1 X285.633 Y143.34 E2.73635
G1 X285.633 Y186.66 E1.85217
G1 X221.633 Y186.66 E2.73635
G1 X221.633 Y200.16 E0.5772
G1 X187.633 Y200.16 E1.45369
G1 X187.633 Y215.66 E0.66271
G1 X153.633 Y215.66 E1.45369
G1 X153.633 Y219.66 E0.17102
G1 X120.633 Y219.66 E1.41093
G1 X120.633 Y229.66 E0.42755
G1 X84.313 Y229.66 E1.55288
G1 X84.313 Y206.16 E1.00475
G1 X44.367 Y206.16 E1.70788
G1 X44.367 Y123.84 E3.51963
G1 X84.313 Y123.84 E1.70788
G1 X84.313 Y100.34 E1.00475
G1 X120.633 Y100.34 E1.55288
M73 P0 R295
G1 X120.633 Y110.28 E0.42499
;WIPE_START
G1 X120.633 Y110.74 F9000
;WIPE_END
G1 X120.633 Y111.75
;TYPE:Gap fill
;WIDTH:0.763592
G1 F1800
G1 X152.223 Y111.75 E2.24455
;WIDTH:0.643628
G1 X152.346 Y111.873 E0.01031
;WIDTH:0.475678
G1 X152.367 Y111.894 E0.00123
;WIDTH:0.390844
G1 X152.455 Y112.071 E0.00669
;WIDTH:0.263592
G1 X152.473 Y112.106 E0.00084
G1 X152.473 Y115.394 E0.06958
;WIDTH:0.348427
G1 X152.561 Y115.571 E0.00585
;WIDTH:0.475678
G1 X152.579 Y115.606 E0.00167
;WIDTH:0.595642
G1 X152.702 Y115.729 E0.00947
;WIDTH:0.763592
G1 X152.723 Y115.75 E0.00207
G1 X186.223 Y115.75 E2.38026
;WIDTH:0.643635
G1 X186.346 Y115.873 E0.01031
;WIDTH:0.475694
G1 X186.367 Y115.894 E0.00123
;WIDTH:0.390856
G1 X186.455 Y116.071 E0.00669
;WIDTH:0.263598
G1 X186.473 Y116.106 E0.00084
G1 X186.473 Y130.894 E0.31295
;WIDTH:0.348437
G1 X186.561 Y131.071 E0.00585
;WIDTH:0.475694
G1 X186.579 Y131.106 E0.00167
;WIDTH:0.595651
G1 X186.702 Y131.229 E0.00947
;WIDTH:0.763592
G1 X186.723 Y131.25 E0.00207
G1 X220.223 Y131.25 E2.38026
;WIDTH:0.643629
G1 X220.346 Y131.373 E0.01031
;WIDTH:0.475678
G1 X220.367 Y131.394 E0.00123
;WIDTH:0.390843
G1 X220.455 Y131.571 E0.00669
;WIDTH:0.26359
G1 X220.473 Y131.606 E0.00084
G1 X220.473 Y144.394 E0.27062
;WIDTH:0.348426
G1 X220.561 Y144.571 E0.00585
;WIDTH:0.475678
G1 X220.579 Y144.606 E0.00167
;WIDTH:0.595642
G1 X220.702 Y144.729 E0.00947
;WIDTH:0.763592
G1 X220.723 Y144.75 E0.00207
G1 X284.223 Y144.75 E4.51183
;WIDTH:0.643629
G1 X284.346 Y144.873 E0.01031
;WIDTH:0.475678
G1 X284.367 Y144.894 E0.00123
;WIDTH:0.390843
G1 X284.455 Y145.071 E0.00669
;WIDTH:0.26359
G1 X284.473 Y145.106 E0.00084
G1 X284.473 Y184.894 E0.84199
;WIDTH:0.348426
G1 X284.384 Y185.071 E0.00585
;WIDTH:0.475678
G1 X284.367 Y185.106 E0.00167
;WIDTH:0.595642
G1 X284.243 Y185.229 E0.00947
;WIDTH:0.763592
G1 X284.223 Y185.25 E0.00207
G1 X220.723 Y185.25 E4.51183
;WIDTH:0.643629
G1 X220.599 Y185.373 E0.01031
;WIDTH:0.475678
G1 X220.579 Y185.394 E0.00123
;WIDTH:0.390843
G1 X220.49 Y185.571 E0.00669
;WIDTH:0.26359
G1 X220.473 Y185.606 E0.00084
G1 X220.473 Y198.394 E0.27062
;WIDTH:0.348426
G1 X220.384 Y198.571 E0.00585
;WIDTH:0.475678
G1 X220.367 Y198.606 E0.00167
;WIDTH:0.595642
G1 X220.243 Y198.729 E0.00947
;WIDTH:0.763592
G1 X220.223 Y198.75 E0.00207
G1 X186.723 Y198.75 E2.38026
;WIDTH:0.643635
G1 X186.599 Y198.873 E0.01031
;WIDTH:0.475694
G1 X186.579 Y198.894 E0.00123
;WIDTH:0.390856
G1 X186.49 Y199.071 E0.00669
;WIDTH:0.263598
G1 X186.473 Y199.106 E0.00084
G1 X186.473 Y213.894 E0.31295
;WIDTH:0.348437
G1 X186.384 Y214.071 E0.00585
;WIDTH:0.475694
G1 X186.367 Y214.106 E0.00167
;WIDTH:0.595651
G1 X186.243 Y214.229 E0.00947
;WIDTH:0.763592
G1 X186.223 Y214.25 E0.00207
G1 X152.723 Y214.25 E2.38026
;WIDTH:0.643628
G1 X152.599 Y214.373 E0.01031
;WIDTH:0.475678
G1 X152.579 Y214.394 E0.00123
;WIDTH:0.390843
G1 X152.49 Y214.571 E0.00669
;WIDTH:0.263592
G1 X152.473 Y214.606 E0.00084
G1 X152.473 Y217.894 E0.06958
;WIDTH:0.348427
G1 X152.384 Y218.071 E0.00585
;WIDTH:0.475678
G1 X152.367 Y218.106 E0.00167
;WIDTH:0.595643
G1 X152.243 Y218.229 E0.00947
;WIDTH:0.763592
G1 X152.223 Y218.25 E0.00207
G1 X119.723 Y218.25 E2.3092
;WIDTH:0.643628
G1 X119.599 Y218.373 E0.01031
;WIDTH:0.475678
G1 X119.579 Y218.394 E0.00123
;WIDTH:0.390843
G1 X119.49 Y218.571 E0.00669
;WIDTH:0.263592
G1 X119.473 Y218.606 E0.00084
G1 X119.473 Y227.894 E0.19655
;WIDTH:0.348427
G1 X119.384 Y228.071 E0.00585
;WIDTH:0.475678
G1 X119.367 Y228.106 E0.00167
;WIDTH:0.595643
G1 X119.243 Y228.229 E0.00947
;WIDTH:0.763592
G1 X119.223 Y228.25 E0.00207
G1 X85.723 Y228.25 E2.38026
;WIDTH:0.643629
G1 X85.599 Y228.127 E0.01031
;WIDTH:0.475678
G1 X85.579 Y228.106 E0.00123
;WIDTH:0.390844
G1 X85.49 Y227.929 E0.00669
;WIDTH:0.263592
G1 X85.473 Y227.894 E0.00084
G1 X85.473 Y205.106 E0.48224
;WIDTH:0.348427
G1 X85.384 Y204.929 E0.00585
;WIDTH:0.475678
G1 X85.367 Y204.894 E0.00167
;WIDTH:0.595642
G1 X85.243 Y204.771 E0.00947
;WIDTH:0.763592
G1 X85.223 Y204.75 E0.00207
G1 X45.777 Y204.75 E2.80268
;WIDTH:0.643629
G1 X45.654 Y204.627 E0.01031
;WIDTH:0.475678
G1 X45.633 Y204.606 E0.00123
;WIDTH:0.390844
G1 X45.545 Y204.429 E0.00669
;WIDTH:0.263592
G1 X45.527 Y204.394 E0.00084
G1 X45.527 Y125.606 E1.66733
;WIDTH:0.348427
G1 X45.616 Y125.429 E0.00585
;WIDTH:0.475678
G1 X45.633 Y125.394 E0.00167
;WIDTH:0.595641
G1 X45.757 Y125.271 E0.00947
;WIDTH:0.76359
G1 X45.777 Y125.25 E0.00207
;WIDTH:0.763592
G1 X85.223 Y125.25 E2.80268
;WIDTH:0.643629
G1 X85.346 Y125.127 E0.01031
;WIDTH:0.475678
G1 X85.367 Y125.106 E0.00123
;WIDTH:0.390844
G1 X85.455 Y124.929 E0.00669
;WIDTH:0.263592
G1 X85.473 Y124.894 E0.00084
G1 X85.473 Y102.106 E0.48224
;WIDTH:0.348427
G1 X85.561 Y101.929 E0.00585
;WIDTH:0.475678
G1 X85.579 Y101.894 E0.00167
;WIDTH:0.595642
G1 X85.702 Y101.771 E0.00947
;WIDTH:0.763592
G1 X85.723 Y101.75 E0.00207
G1 X119.223 Y101.75 E2.38026
;WIDTH:0.643629
G1 X119.346 Y101.873 E0.01031
;WIDTH:0.475678
G1 X119.367 Y101.894 E0.00123
;WIDTH:0.390844
G1 X119.455 Y102.071 E0.00669
;WIDTH:0.263592
G1 X119.473 Y102.106 E0.00084
G1 X119.473 Y111.394 E0.19655
;WIDTH:0.348427
G1 X119.561 Y111.571 E0.00585
;WIDTH:0.475678
G1 X119.579 Y111.606 E0.00167
;WIDTH:0.595642
G1 X119.702 Y111.729 E0.00947
;WIDTH:0.763592
G1 X119.723 Y111.75 E0.00207
G1 X120.573 Y111.75 E0.06039
; INIT stop printing object Framer.stl id:0 copy 0
;LAYER_CHANGE
;Z:0.44
;HEIGHT:0.2
G1 E-1 F3000
; stop printing object Framer.stl id:0 copy 0
G1 Z0.44 F9000
G92 E0
; INIT printing object Framer.stl id:0 copy 0
; printing object Framer.stl id:0 copy 0
; acceleration to travel
M204 S2500
G1 X119.385 Y105.199
; decel to extrusion
M204 S500
G1 X119.028 Y103.233
; end travel
G1 E1 F1800
;TYPE:Internal perimeter
;WIDTH:0.45
G1 F5400
G1 X119.028 Y102.444 E0.02671
G1 X85.917 Y102.444 E1.12079
G1 X85.917 Y125.944 E0.79545
G1 X45.972 Y125.944 E1.3521
G1 X45.972 Y204.056 E2.64399
M73 P1 R295
G1 X85.917 Y204.056 E1.3521
G1 X85.917 Y227.556 E0.79545
G1 X119.028 Y227.556 E1.12079
G1 X119.028 Y217.556 E0.33849
G1 X152.028 Y217.556 E1.11701
G1 X152.028 Y213.556 E0.1354
G1 X186.028 Y213.556 E1.15086
G1 X186.028 Y198.056 E0.52466
G1 X220.028 Y198.056 E1.15086
G1 X220.028 Y184.556 E0.45696
G1 X284.028 Y184.556 E2.16632
G1 X284.028 Y145.444 E1.32388
G1 X220.028 Y145.444 E2.16632
G1 X220.028 Y131.944 E0.45696
G1 X186.028 Y131.944 E1.15086
G1 X186.028 Y116.444 E0.52466
G1 X152.028 Y116.444 E1.15086
G1 X152.028 Y112.444 E0.1354
G1 X119.028 Y112.444 E1.11701
G1 X119.028 Y103.293 E0.30975
G1 X118.621 Y103.233 F9000
G1 F5400
G1 X118.621 Y102.851 E0.01293
G1 X86.324 Y102.851 E1.09323
G1 X86.324 Y126.351 E0.79545
G1 X46.379 Y126.351 E1.3521
G1 X46.379 Y203.649 E2.61643
G1 X86.324 Y203.649 E1.3521
G1 X86.324 Y227.149 E0.79545
G1 X118.621 Y227.149 E1.09323
G1 X118.621 Y217.149 E0.33849
G1 X151.621 Y217.149 E1.11701
G1 X151.621 Y213.149 E0.1354
G1 X185.621 Y213.149 E1.15086
G1 X185.621 Y197.649 E0.52466
G1 X219.621 Y197.649 E1.15086
G1 X219.621 Y184.149 E0.45696
G1 X283.621 Y184.149 E2.16632
G1 X283.621 Y145.851 E1.29632
G1 X219.621 Y145.851 E2.16632
G1 X219.621 Y132.351 E0.45696
G1 X185.621 Y132.351 E1.15086
G1 X185.621 Y116.851 E0.52466
G1 X151.621 Y116.851 E1.15086
G1 X151.621 Y112.851 E0.1354
G1 X118.621 Y112.851 E1.11701
G1 X118.621 Y103.293 E0.32352
G1 X118.239 Y103.233 F9000
;TYPE:External perimeter
;WIDTH:0.4
G1 F4800
G1 X86.706 Y103.233 E0.93627
G1 X86.706 Y126.733 E0.69775
G1 X46.761 Y126.733 E1.18602
G1 X46.761 Y203.267 E2.27237
G1 X86.706 Y203.267 E1.18602
G1 X86.706 Y226.767 E0.69775
G1 X118.239 Y226.767 E0.93627
G1 X118.239 Y216.767 E0.29691
G1 X151.239 Y216.767 E0.97981
G1 X151.239 Y212.767 E0.11877
G1 X185.239 Y212.767 E1.0095
G1 X185.239 Y197.267 E0.46022
G1 X219.239 Y197.267 E1.0095
G1 X219.239 Y183.767 E0.40083
G1 X283.239 Y183.767 E1.90024
G1 X283.239 Y146.233 E1.11441
G1 X219.239 Y146.233 E1.90024
G1 X219.239 Y132.733 E0.40083
G1 X185.239 Y132.733 E1.0095
G1 X185.239 Y117.233 E0.46022
G1 X151.239 Y117.233 E1.0095
M73 P1 R294
G1 X151.239 Y113.233 E0.11877
G1 X118.239 Y113.233 E0.97981
G1 X118.239 Y103.293 E0.29513
;WIPE_START
G1 X118.239 Y102.833 F9000
;WIPE_END
; acceleration to travel
M204 S2500
G1 X120.255 Y109.553
; decel to extrusion
M204 S500
G1 X120.706 Y111.056
; end travel
;TYPE:Internal perimeter
;WIDTH:0.45
G1 F5400
G1 X152.917 Y111.056 E1.0903
G1 X152.917 Y115.056 E0.1354
G1 X186.917 Y115.056 E1.15086
G1 X186.917 Y130.556 E0.52466
G1 X220.917 Y130.556 E1.15086
G1 X220.917 Y144.056 E0.45696
G1 X284.917 Y144.056 E2.16632
G1 X284.917 Y185.944 E1.41787
G1 X220.917 Y185.944 E2.16632
G1 X220.917 Y199.444 E0.45696
G1 X186.917 Y199.444 E1.15086
G1 X186.917 Y214.944 E0.52466
G1 X152.917 Y214.944 E1.15086
G1 X152.917 Y218.944 E0.1354
G1 X119.917 Y218.944 E1.11701
G1 X119.917 Y228.944 E0.33849
G1 X85.028 Y228.944 E1.18093
G1 X85.028 Y205.444 E0.79545
G1 X45.083 Y205.444 E1.3521
G1 X45.083 Y124.556 E2.73797
G1 X85.028 Y124.556 E1.3521
G1 X85.028 Y101.056 E0.79545
G1 X119.917 Y101.056 E1.18093
G1 X119.917 Y111.056 E0.33849
G1 X120.646 Y111.056 E0.02468
G1 X120.706 Y110.649 F9000
G1 F5400
G1 X153.324 Y110.649 E1.10408
G1 X153.324 Y114.649 E0.1354
G1 X187.324 Y114.649 E1.15086
G1 X187.324 Y130.149 E0.52466
G1 X221.324 Y130.149 E1.15086
G1 X221.324 Y143.649 E0.45696
G1 X285.324 Y143.649 E2.16632
G1 X285.324 Y186.351 E1.44543
G1 X221.324 Y186.351 E2.16632
G1 X221.324 Y199.851 E0.45696
G1 X187.324 Y199.851 E1.15086
G1 X187.324 Y215.351 E0.52466
G1 X153.324 Y215.351 E1.15086
G1 X153.324 Y219.351 E0.1354
G1 X120.324 Y219.351 E1.11701
G1 X120.324 Y229.351 E0.33849
G1 X84.621 Y229.351 E1.20849
G1 X84.621 Y205.851 E0.79545
G1 X44.676 Y205.851 E1.3521
G1 X44.676 Y124.149 E2.76553
G1 X84.621 Y124.149 E1.3521
G1 X84.621 Y100.649 E0.79545
G1 X120.324 Y100.649 E1.20849
G1 X120.324 Y110.649 E0.33849
G1 X120.646 Y110.649 E0.0109
G1 X120.706 Y110.267 F9000
;TYPE:External perimeter
;WIDTH:0.4
G1 F4800
G1 X153.706 Y110.267 E0.97981
G1 X153.706 Y114.267 E0.11877
G1 X187.706 Y114.267 E1.0095
G1 X187.706 Y129.767 E0.46022
G1 X221.706 Y129.767 E1.0095
