; generated by SuperSlicer 2.3.57 on 2022-01-23 at 21:03:18 UTC


;
;

;
;
; 

; external perimeters extrusion width = 0.40mm
; perimeters extrusion width = 0.40mm
; infill extrusion width = 0.40mm
; solid infill extrusion width = 0.40mm
; top infill extrusion width = 0.40mm
; support material extrusion width = 0.40mm
; first layer extrusion width = 0.48mm


;TYPE:Custom
START_PRINT T_BED=60 T_EXTRUDER=200
M107
G21 ; set units to millimeters
G90 ; use absolute coordinates
M83 ; use relative distances for extrusion
; Filament gcode
M104 S200 ; set temperature
M109 S200 ; set temperature and wait for it to be reached
M190 S60 ; set bed temperature and wait for it to be reached
;LAYER_CHANGE
;Z:0.24
;HEIGHT:0.24
G1 E-0.6 F3000
G1 Z0.24 F9000
M204 S1500
G1 X128.466 Y106.289
G1 E0.6 F1800
;TYPE:Skirt
;WIDTH:0.48
G1 F600
G1 X128.023 Y106.895 E0.03209
G1 X127.664 Y107.555 E0.03209
G1 X127.282 Y108.687 E0.05109
G1 X127.147 Y109.88 E0.05134
G1 X127.149 Y190.081 E3.42902
G1 X127.228 Y190.857 E0.03335
G1 X127.413 Y191.614 E0.03335
G1 X127.701 Y192.339 E0.03335
G1 X128.085 Y193.017 E0.03335
G1 X128.56 Y193.636 E0.03335
G1 X129.116 Y194.184 E0.03335
G1 X129.741 Y194.649 E0.03335
G1 X130.43 Y195.027 E0.0336
G1 X131.409 Y195.372 E0.04435
G1 X132.428 Y195.532 E0.0441
G1 X141.265 Y195.727 E0.37795
G1 X172.518 Y195.719 E1.33622
G1 X173.274 Y195.626 E0.03259
G1 X174.017 Y195.431 E0.03284
G1 X174.727 Y195.136 E0.03284
G1 X175.384 Y194.751 E0.03259
G1 X175.984 Y194.28 E0.03259
G1 X176.515 Y193.733 E0.03259
G1 X176.968 Y193.12 E0.03259
G1 X177.336 Y192.445 E0.03284
G1 X177.718 Y191.313 E0.05109
G1 X177.853 Y190.12 E0.05134
G1 X177.844 Y109.585 E3.44333
G1 X177.683 Y108.536 E0.04535
G1 X177.325 Y107.531 E0.0456
G1 X176.785 Y106.612 E0.0456
G1 X176.082 Y105.81 E0.0456
G1 X175.241 Y105.155 E0.0456
G1 X174.296 Y104.672 E0.04535
G1 X173.278 Y104.374 E0.04535
G1 X172.217 Y104.272 E0.0456
G1 X132.377 Y104.287 E1.70337
G1 X131.628 Y104.393 E0.03234
G1 X130.905 Y104.596 E0.03209
G1 X130.216 Y104.893 E0.03209
G1 X129.572 Y105.279 E0.03209
G1 X128.985 Y105.747 E0.03209
G1 X128.507 Y106.246 E0.02953
G1 X128.656 Y106.399 F9000
M204 S500
G1 X128.805 Y106.552
G1 F600
G1 X128.058 Y107.723 E0.0594
G1 X127.7 Y108.779 E0.04767
G1 X127.575 Y109.887 E0.04767
G1 X127.577 Y190.053 E3.42754
G1 X127.648 Y190.771 E0.03085
G1 X127.817 Y191.472 E0.03085
G1 X128.082 Y192.144 E0.03085
G1 X128.437 Y192.772 E0.03085
G1 X128.875 Y193.345 E0.03085
G1 X129.388 Y193.853 E0.03085
G1 X129.966 Y194.284 E0.03085
G1 X130.598 Y194.632 E0.03085
G1 X131.511 Y194.956 E0.04143
G1 X132.463 Y195.105 E0.04119
G1 X141.28 Y195.299 E0.37707
G1 X172.475 Y195.292 E1.33375
G1 X173.862 Y195.031 E0.06036
G1 X175.128 Y194.406 E0.06036
G1 X176.181 Y193.466 E0.06036
G1 X176.942 Y192.277 E0.06036
G1 X177.3 Y191.221 E0.04767
G1 X177.425 Y190.113 E0.04767
G1 X177.417 Y109.634 E3.44092
G1 X177.271 Y108.659 E0.04215
G1 X176.945 Y107.729 E0.04215
G1 X176.449 Y106.877 E0.04215
G1 X175.801 Y106.134 E0.04215
G1 X175.025 Y105.526 E0.04215
G1 X174.149 Y105.074 E0.04215
G1 X173.198 Y104.795 E0.04239
G1 X172.216 Y104.701 E0.04215
G1 X132.435 Y104.713 E1.70088
G1 X131.074 Y104.991 E0.0594
G1 X129.834 Y105.619 E0.0594
G1 X128.849 Y106.511 E0.05683
G1 E-0.6 F3000
M204 S1500
G1 X144.028 Y146.8 F9000
M204 S500
G1 X159.207 Y187.089
G1 E0.6 F1800
;TYPE:Support material interface
;WIDTH:0.4
G1 F600
G1 X159.207 Y113.065 E2.57403
G1 X158.65 Y113.065 E0.01937
G1 X158.65 Y186.935 E2.56869
G1 X158.093 Y186.935 E0.01937
G1 X158.093 Y113.065 E2.56869
G1 X157.536 Y113.065 E0.01937
G1 X157.536 Y186.935 E2.56869
G1 X156.979 Y186.935 E0.01937
G1 X156.979 Y185.771 E0.04046
G1 X156.421 Y185.771 E0.01937
G1 X156.421 Y186.935 E0.04046
G1 X155.864 Y186.935 E0.01937
G1 X155.864 Y185.618 E0.0458
G1 E-0.6 F3000
M204 S1500
G1 X156.421 Y150.019 F9000
M204 S500
G1 X156.979 Y114.421
G1 E0.6 F1800
G1 F600
G1 X156.979 Y113.065 E0.04715
G1 X156.421 Y113.065 E0.01937
G1 X156.421 Y114.229 E0.04046
G1 X155.864 Y114.229 E0.01937
G1 X155.864 Y112.911 E0.0458
G1 E-0.6 F3000
M204 S1500
G1 X147.464 Y150 F9000
M204 S500
G1 X139.064 Y187.089
G1 E0.6 F1800
G1 F600
G1 X139.064 Y185.771 E0.0458
G1 X138.507 Y185.771 E0.01937
G1 X138.507 Y186.935 E0.04046
G1 X137.95 Y186.935 E0.01937
G1 X137.95 Y185.771 E0.04046
G1 X137.393 Y185.771 E0.01937
G1 X137.393 Y186.935 E0.04046
G1 X136.836 Y186.935 E0.01937
G1 X136.836 Y113.065 E2.56869
G1 X137.393 Y113.065 E0.01937
G1 X137.393 Y114.229 E0.04046
G1 X137.95 Y114.229 E0.01937
G1 X137.95 Y113.065 E0.04046
G1 X138.507 Y113.065 E0.01937
G1 X138.507 Y114.229 E0.04046
G1 X139.064 Y114.229 E0.01937
G1 X139.064 Y112.911 E0.0458
G1 E-0.6 F3000
M204 S1500
G1 X137.672 Y150 F9000
M204 S500
G1 X136.279 Y187.089
G1 E0.6 F1800
G1 F600
G1 X136.279 Y113.065 E2.57403
G1 X135.722 Y113.065 E0.01937
G1 X135.722 Y187.089 E2.57403
M204 S1500
G1 X138.541 Y188.587 F9000
M204 S500
G1 X141.359 Y190.085
;TYPE:Support material
;WIDTH:0.48
G1 F600
G1 X141.359 Y185.806 E0.18296
G1 X140.502 Y185.806 E0.03664
G1 X140.502 Y189.901 E0.17508
G1 X139.645 Y189.901 E0.03664
G1 X139.645 Y185.806 E0.17508
G1 X139.456 Y185.806 E0.00809
G1 X139.456 Y187.312 E0.06441
G1 X138.788 Y187.312 E0.02855
G1 X138.788 Y189.901 E0.11067
G1 X137.931 Y189.901 E0.03664
G1 X137.931 Y187.312 E0.11067
G1 X137.074 Y187.312 E0.03664
G1 X137.074 Y189.901 E0.11067
G1 X136.217 Y189.901 E0.03664
G1 X136.217 Y187.128 E0.11855
G1 E-0.6 F3000
M204 S1500
G1 X138.788 Y150.753 F9000
M204 S500
G1 X141.359 Y114.379
G1 E0.6 F1800
G1 F600
G1 X141.359 Y110.099 E0.18296
G1 X140.502 Y110.099 E0.03664
G1 X140.502 Y114.194 E0.17508
G1 X139.645 Y114.194 E0.03664
G1 X139.645 Y110.099 E0.17508
G1 X138.788 Y110.099 E0.03664
G1 X138.788 Y112.688 E0.11067
G1 X137.931 Y112.688 E0.03664
G1 X137.931 Y110.099 E0.11067
G1 X137.074 Y110.099 E0.03664
G1 X137.074 Y112.688 E0.11067
G1 X136.217 Y112.688 E0.03664
G1 X136.217 Y110.099 E0.11067
G1 X135.36 Y110.099 E0.03664
G1 X135.36 Y189.901 E3.41194
G1 X134.503 Y189.901 E0.03664
G1 X134.503 Y110.099 E3.41194
G1 X133.646 Y110.099 E0.03664
G1 X133.646 Y189.901 E3.41194
G1 X132.789 Y189.901 E0.03664
G1 X132.789 Y109.915 E3.41982
G1 E-0.6 F3000
M204 S1500
G1 X152.5 Y150 F9000
M204 S500
G1 X172.211 Y190.085
G1 E0.6 F1800
G1 F600
G1 X172.211 Y173.884 E0.69268
G1 X171.354 Y173.884 E0.03664
G1 X171.354 Y189.901 E0.68481
G1 X170.497 Y189.901 E0.03664
G1 X170.497 Y173.884 E0.68481
G1 X169.64 Y173.884 E0.03664
G1 X169.64 Y189.901 E0.68481
G1 X168.783 Y189.901 E0.03664
G1 X168.783 Y160.456 E1.25894
G1 X167.926 Y160.456 E0.03664
G1 X167.926 Y189.901 E1.25894
G1 X167.069 Y189.901 E0.03664
G1 X167.069 Y160.456 E1.25894
G1 X166.212 Y160.456 E0.03664
G1 X166.212 Y189.901 E1.25894
G1 X165.355 Y189.901 E0.03664
G1 X165.355 Y110.099 E3.41194
G1 X166.212 Y110.099 E0.03664
G1 X166.212 Y139.544 E1.25894
G1 X167.069 Y139.544 E0.03664
G1 X167.069 Y110.099 E1.25894
G1 X167.926 Y110.099 E0.03664
G1 X167.926 Y139.544 E1.25894
G1 X168.783 Y139.544 E0.03664
G1 X168.783 Y110.099 E1.25894
G1 X169.64 Y110.099 E0.03664
G1 X169.64 Y126.116 E0.68481
G1 X170.497 Y126.116 E0.03664
G1 X170.497 Y110.099 E0.68481
G1 X171.354 Y110.099 E0.03664
G1 X171.354 Y126.116 E0.68481
G1 X172.211 Y126.116 E0.03664
G1 X172.211 Y109.915 E0.69268
G1 E-0.6 F3000
M204 S1500
G1 X168.354 Y150 F9000
M204 S500
G1 X164.498 Y190.085
G1 E0.6 F1800
G1 F600
G1 X164.498 Y110.099 E3.41982
G1 X163.641 Y110.099 E0.03664
G1 X163.641 Y189.901 E3.41194
G1 X162.784 Y189.901 E0.03664
G1 X162.784 Y110.099 E3.41194
G1 X161.927 Y110.099 E0.03664
G1 X161.927 Y189.901 E3.41194
G1 X161.07 Y189.901 E0.03664
G1 X161.07 Y110.099 E3.41194
G1 X160.213 Y110.099 E0.03664
G1 X160.213 Y189.901 E3.41194
G1 X159.356 Y189.901 E0.03664
G1 X159.356 Y187.312 E0.11067
G1 X158.499 Y187.312 E0.03664
G1 X158.499 Y189.901 E0.11067
G1 X157.642 Y189.901 E0.03664
G1 X157.642 Y187.312 E0.11067
G1 X156.785 Y187.312 E0.03664
G1 X156.785 Y189.901 E0.11067
G1 X155.928 Y189.901 E0.03664
G1 X155.928 Y187.312 E0.11067
G1 X155.473 Y187.312 E0.01946
G1 X155.473 Y185.806 E0.06441
G1 X155.071 Y185.806 E0.01718
G1 X155.071 Y189.901 E0.17508
G1 X154.214 Y189.901 E0.03664
G1 X154.214 Y185.806 E0.17508
G1 X153.357 Y185.806 E0.03664
G1 X153.357 Y190.085 E0.18296
G1 E-0.6 F3000
M204 S1500
G1 X156.356 Y151.479 F9000
M204 S500
G1 X159.356 Y112.872
G1 E0.6 F1800
G1 F600
G1 X159.356 Y110.099 E0.11855
G1 X158.499 Y110.099 E0.03664
G1 X158.499 Y112.688 E0.11067
G1 X157.642 Y112.688 E0.03664
G1 X157.642 Y110.099 E0.11067
G1 X156.785 Y110.099 E0.03664
G1 X156.785 Y112.688 E0.11067
G1 X155.928 Y112.688 E0.03664
G1 X155.928 Y110.099 E0.11067
G1 X155.071 Y110.099 E0.03664
G1 X155.071 Y114.194 E0.17508
G1 X154.214 Y114.194 E0.03664
G1 X154.214 Y110.099 E0.17508
G1 X153.357 Y110.099 E0.03664
G1 X153.357 Y114.379 E0.18296
G1 E-0.6 F3000
M204 S1500
G1 X145.644 Y149.979 F9000
M204 S500
G1 X137.931 Y185.579
G1 E0.6 F1800
G1 F600
G1 X137.931 Y114.421 E3.04236
G1 E-0.6 F3000
M204 S1500
G1 X147.358 Y150 F9000
M204 S500
G1 X156.785 Y185.579
G1 E0.6 F1800
G1 F600
G1 X156.785 Y114.421 E3.04236
G1 E-0.6 F3000
M204 S1500
G1 X151.967 Y115.259 F9000
M204 S500
G1 X147.149 Y116.097
G1 E0.6 F1800
;TYPE:Internal perimeter
G1 F600
G1 X154.497 Y116.097 E0.31414
G1 X154.497 Y117.903 E0.07722
G1 X147.989 Y117.903 E0.27823
G1 X147.989 Y146.097 E1.20545
G1 X154.497 Y146.097 E0.27823
G1 X154.497 Y153.903 E0.33375
G1 X147.989 Y153.903 E0.27823
G1 X147.989 Y182.097 E1.20545
G1 X154.497 Y182.097 E0.27823
G1 X154.497 Y183.903 E0.07722
G1 X139.859 Y183.903 E0.62583
G1 X139.859 Y116.097 E2.89908
G1 X147.089 Y116.097 E0.30912
M204 S1500
G1 X147.089 Y115.883 F9000
M204 S500
G1 X147.089 Y115.668
G1 F600
G1 X154.925 Y115.668 E0.33503
G1 X154.925 Y118.332 E0.11386
G1 X148.418 Y118.332 E0.27823
G1 X148.418 Y145.668 E1.16881
G1 X154.925 Y145.668 E0.27823
G1 X154.925 Y154.332 E0.37039
G1 X148.418 Y154.332 E0.27823
G1 X148.418 Y181.668 E1.16881
G1 X154.925 Y181.668 E0.27823
G1 X154.925 Y184.332 E0.11386
G1 X139.431 Y184.332 E0.66247
G1 X139.431 Y115.668 E2.93572
G1 X147.029 Y115.668 E0.32487
G1 E-0.6 F3000
M204 S1500
G1 X150.678 Y143.027 F9000
M204 S500
G1 X154.326 Y170.385
G1 E0.6 F1800
;TYPE:External perimeter
G1 F600
G1 X154.326 Y154.76 E0.66806
G1 X148.846 Y154.76 E0.2343
G1 X148.846 Y181.24 E1.13216
G1 X154.326 Y181.24 E0.2343
G1 X154.326 Y170.445 E0.46154
;WIPE_START
G1 X154.673 Y170.185 F9000
;WIPE_END
G1 E-0.6 F3000
M204 S1500
G1 X154.499 Y149.238 F9000
M204 S500
G1 X154.326 Y128.291
G1 E0.6 F1800
G1 F600
G1 X154.326 Y118.76 E0.4075
G1 X148.846 Y118.76 E0.2343
G1 X148.846 Y145.24 E1.13216
G1 X154.326 Y145.24 E0.2343
G1 X154.326 Y128.351 E0.7221
;WIPE_START
G1 X154.673 Y128.091 F9000
;WIPE_END
M204 S1500
G1 X155.013 Y128.091
M204 S500
G1 X155.354 Y128.091
G1 F600
G1 X155.354 Y184.76 E2.42291
G1 X139.002 Y184.76 E0.69911
G1 X139.002 Y115.24 E2.97236
G1 X155.354 Y115.24 E0.69911
G1 X155.354 Y128.031 E0.54688
;WIPE_START
G1 X155.007 Y128.291 F9000
;WIPE_END
G1 E-0.6 F3000
M204 S1500
G1 X154.923 Y123.41 F9000
M204 S500
G1 X154.84 Y118.528
G1 E0.6 F1800
;TYPE:Gap fill
;WIDTH:0.684948
G1 F600
G1 X154.84 Y145.472 E1.70294
G1 E-0.6 F3000
M204 S1500
G1 X154.84 Y150 F9000
M204 S500
G1 X154.84 Y154.528
G1 E0.6 F1800
G1 F600
G1 X154.84 Y181.472 E1.70294
G1 E-0.6 F3000
M204 S1500
G1 X154.16 Y148.859 F9000
M204 S500
G1 X153.48 Y116.247
G1 E0.6 F1800
;TYPE:Solid infill
;WIDTH:0.482222
G1 X154.162 Y116.929 E0.04142
G1 X154.162 Y117.535 E0.02603
G1 X153.059 Y116.431 E0.06704
G1 X152.453 Y116.431 E0.02603
G1 X153.59 Y117.569 E0.0691
G1 X152.984 Y117.569 E0.02603
G1 X151.847 Y116.431 E0.0691
G1 X151.241 Y116.431 E0.02603
G1 X152.378 Y117.569 E0.0691
G1 X151.772 Y117.569 E0.02603
G1 X150.635 Y116.431 E0.0691
G1 X150.029 Y116.431 E0.02603
G1 X151.166 Y117.569 E0.0691
G1 X150.56 Y117.569 E0.02603
G1 X149.423 Y116.431 E0.0691
G1 X148.817 Y116.431 E0.02603
G1 X149.954 Y117.569 E0.0691
G1 X149.348 Y117.569 E0.02603
G1 X148.211 Y116.431 E0.0691
G1 X147.605 Y116.431 E0.02603
G1 X148.742 Y117.569 E0.0691
G1 X148.136 Y117.569 E0.02603
G1 X146.999 Y116.431 E0.0691
G1 X146.393 Y116.431 E0.02603
G1 X147.655 Y117.693 E0.07667
G1 X147.655 Y118.299 E0.02603
G1 X145.787 Y116.431 E0.11348
G1 X145.181 Y116.431 E0.02603
G1 X147.655 Y118.905 E0.15029
G1 X147.655 Y119.511 E0.02603
G1 X144.575 Y116.431 E0.1871
G1 X143.969 Y116.431 E0.02603
G1 X147.655 Y120.117 E0.22391
G1 X147.655 Y120.723 E0.02603
G1 X143.363 Y116.431 E0.26072
G1 X142.757 Y116.431 E0.02603
G1 X147.655 Y121.329 E0.29753
G1 X147.655 Y121.935 E0.02603
G1 X142.151 Y116.431 E0.33434
G1 X141.545 Y116.431 E0.02603
G1 X147.655 Y122.541 E0.37115
G1 X147.655 Y123.147 E0.02603
G1 X140.939 Y116.431 E0.40796
G1 X140.333 Y116.431 E0.02603
G1 X147.655 Y123.753 E0.44477
G1 X147.655 Y124.359 E0.02603
G1 X140.193 Y116.898 E0.45325
G1 X140.193 Y117.504 E0.02603
G1 X147.655 Y124.965 E0.45325
G1 X147.655 Y125.571 E0.02603
G1 X140.193 Y118.11 E0.45325
G1 X140.193 Y118.716 E0.02603
G1 X147.655 Y126.177 E0.45325
G1 X147.655 Y126.783 E0.02603
G1 X140.193 Y119.322 E0.45325
G1 X140.193 Y119.928 E0.02603
G1 X147.655 Y127.389 E0.45325
G1 X147.655 Y127.995 E0.02603
G1 X140.193 Y120.534 E0.45325
G1 X140.193 Y121.139 E0.02603
G1 X147.655 Y128.601 E0.45325
G1 X147.655 Y129.207 E0.02603
G1 X140.193 Y121.745 E0.45325
G1 X140.193 Y122.351 E0.02603
G1 X147.655 Y129.813 E0.45325
G1 X147.655 Y130.419 E0.02603
G1 X140.193 Y122.957 E0.45325
G1 X140.193 Y123.563 E0.02603
G1 X147.655 Y131.025 E0.45325
G1 X147.655 Y131.631 E0.02603
G1 X140.193 Y124.169 E0.45325
G1 X140.193 Y124.775 E0.02603
G1 X147.655 Y132.237 E0.45325
G1 X147.655 Y132.843 E0.02603
G1 X140.193 Y125.381 E0.45325
G1 X140.193 Y125.987 E0.02603
G1 X147.655 Y133.449 E0.45325
G1 X147.655 Y134.055 E0.02603
G1 X140.193 Y126.593 E0.45325
G1 X140.193 Y127.199 E0.02603
G1 X147.655 Y134.661 E0.45325
G1 X147.655 Y135.267 E0.02603
G1 X140.193 Y127.805 E0.45325
G1 X140.193 Y128.411 E0.02603
G1 X147.655 Y135.873 E0.45325
G1 X147.655 Y136.479 E0.02603
G1 X140.193 Y129.017 E0.45325
G1 X140.193 Y129.623 E0.02603
G1 X147.655 Y137.085 E0.45325
G1 X147.655 Y137.691 E0.02603
G1 X140.193 Y130.229 E0.45325
G1 X140.193 Y130.835 E0.02603
G1 X147.655 Y138.297 E0.45325
G1 X147.655 Y138.903 E0.02603
G1 X140.193 Y131.441 E0.45325
G1 X140.193 Y132.047 E0.02603
G1 X147.655 Y139.509 E0.45325
G1 X147.655 Y140.115 E0.02603
G1 X140.193 Y132.653 E0.45325
G1 X140.193 Y133.259 E0.02603
G1 X147.655 Y140.721 E0.45325
G1 X147.655 Y141.327 E0.02603
G1 X140.193 Y133.865 E0.45325
G1 X140.193 Y134.471 E0.02603
G1 X147.655 Y141.933 E0.45325
G1 X147.655 Y142.539 E0.02603
G1 X140.193 Y135.077 E0.45325
G1 X140.193 Y135.683 E0.02603
G1 X147.655 Y143.145 E0.45325
G1 X147.655 Y143.751 E0.02603
G1 X140.193 Y136.289 E0.45325
G1 X140.193 Y136.895 E0.02603
G1 X147.655 Y144.357 E0.45325
G1 X147.655 Y144.963 E0.02603
G1 X140.193 Y137.501 E0.45325
G1 X140.193 Y138.107 E0.02603
G1 X147.839 Y145.753 E0.46444
G1 E-0.6 F3000
M204 S1500
G1 X150.813 Y146 F9000
M204 S500
G1 X153.787 Y146.247
G1 E0.6 F1800
G1 X154.162 Y146.622 E0.02279
G1 X154.162 Y147.228 E0.02603
G1 X153.365 Y146.431 E0.04841
G1 X152.759 Y146.431 E0.02603
G1 X154.162 Y147.834 E0.08522
G1 X154.162 Y148.44 E0.02603
G1 X152.153 Y146.431 E0.12203
G1 X151.548 Y146.431 E0.02603
G1 X154.162 Y149.046 E0.15884
G1 X154.162 Y149.652 E0.02603
G1 X150.942 Y146.431 E0.19565
G1 X150.336 Y146.431 E0.02603
G1 X154.162 Y150.258 E0.23246
G1 X154.162 Y150.864 E0.02603
G1 X149.73 Y146.431 E0.26927
G1 X149.124 Y146.431 E0.02603
G1 X154.162 Y151.47 E0.30608
G1 X154.162 Y152.076 E0.02603
G1 X148.333 Y146.247 E0.35408
G1 E-0.6 F3000
M204 S1500
G1 X151.34 Y149.557 F9000
M204 S500
G1 X154.347 Y152.866
G1 E0.6 F1800
G1 X140.193 Y138.713 E0.85974
G1 X140.193 Y139.319 E0.02603
G1 X154.162 Y153.288 E0.84854
G1 X154.162 Y153.569 E0.01207
G1 X153.837 Y153.569 E0.01396
G1 X140.193 Y139.925 E0.8288
G1 X140.193 Y140.531 E0.02603
G1 X153.231 Y153.569 E0.79199
G1 X152.625 Y153.569 E0.02603
G1 X140.193 Y141.137 E0.75518
G1 X140.193 Y141.743 E0.02603
G1 X152.019 Y153.569 E0.71837
G1 X151.413 Y153.569 E0.02603
G1 X140.193 Y142.349 E0.68156
G1 X140.193 Y142.955 E0.02603
