; Postprocessed by [ArcWelder](https://github.com/FormerLurker/ArcWelderLib)
; Copyright(C) 2021 - Brad Hochgesang
; Version: 1.2.0, Branch: HEAD, BuildDate: 2021-11-21T20:25:43Z
; resolution=0.05mm
; path_tolerance=5.0%
; max_radius=9999.00mm
; g90_influences_extruder=True
; default_xyz_precision=3
; default_e_precision=5
; extrusion_rate_variance_percent=5.0%

; generated by SuperSlicer 2.4 on 2022-05-01 at 06:49:54 UTC







; 

; external perimeters extrusion width = 0.40mm
; perimeters extrusion width = 0.40mm
; infill extrusion width = 0.72mm
; solid infill extrusion width = 0.56mm
; top infill extrusion width = 0.40mm
; first layer extrusion width = 0.48mm

; object:{"name":"Untitled","id":"Untitled.stl id:0 copy 0","object_center":[141.181504,150.000000,0.000000],"boundingbox_center":[141.181504,150.000000,4.826000],"boundingbox_size":[16.636993,19.210754,9.652000]}
; plater:{"center":[141.181504,150.000000,0.000000],"boundingbox_center":[141.181504,150.000000,4.826000],"boundingbox_size":[16.636993,19.210754,9.652000]}

M73 P0 R9
;TYPE:Custom
START_PRINT T_BED=60 T_EXTRUDER=200
M107
G21 ; set units to millimeters
G90 ; use absolute coordinates
M83 ; use relative distances for extrusion
; Filament gcode
M104 S200 ; set temperature
M109 S200 ; set temperature and wait for it to be reached
M190 S60 ; set bed temperature and wait for it to be reached
M107
;LAYER_CHANGE
;Z:0.24
;HEIGHT:0.24
G1 Z0.24 F9000
G92 E0
G1 E-0.8 F3000
M204 S1000
G1 X129.387 Y141.621 F9000
G1 E0.8 F1800
;TYPE:Skirt
;WIDTH:0.52
G1 X128.261 Y143.285 E0.09395
G1 X127.864 Y145.255 E0.09395
G1 X127.864 Y154.745 E0.44362
G1 X128.028 Y156.024 E0.0603
G1 X128.905 Y157.832 E0.09395
G1 X130.414 Y159.16 E0.09395
G1 X138.632 Y163.905 E0.44362
G1 X139.822 Y164.404 E0.0603
G1 X141.826 Y164.548 E0.09395
G1 X143.731 Y163.905 E0.09395
G1 X151.949 Y159.16 E0.44362
G1 X152.976 Y158.379 E0.0603
G1 X154.102 Y156.715 E0.09395
G1 X154.499 Y154.745 E0.09395
G1 X154.499 Y145.255 E0.44362
G1 X154.335 Y143.976 E0.0603
G1 X153.458 Y142.168 E0.09395
G1 X151.949 Y140.84 E0.09395
G1 X143.731 Y136.095 E0.44362
G1 X142.541 Y135.596 E0.0603
G1 X140.537 Y135.452 E0.09395
G1 X138.632 Y136.095 E0.09395
G1 X130.414 Y140.84 E0.44362
G1 X129.387 Y141.621 E0.0603
G1 X129.788 Y141.909 F9000
G1 F1800
G1 X128.726 Y143.382 E0.08485
G1 X128.331 Y145.255 E0.0895
G1 X128.331 Y154.745 E0.44362
G1 X128.437 Y155.731 E0.04637
G1 X129.222 Y157.477 E0.0895
G1 X130.647 Y158.757 E0.0895
G1 X138.865 Y163.502 E0.44362
M73 P1 R9
G1 X139.773 Y163.903 E0.04637
G1 X141.677 Y164.095 E0.0895
G1 X143.498 Y163.502 E0.0895
G1 X151.716 Y158.757 E0.44362
G1 X152.517 Y158.171 E0.04637
G1 X153.637 Y156.618 E0.0895
G1 X154.032 Y154.745 E0.0895
G1 X154.032 Y145.255 E0.44362
G1 X153.926 Y144.269 E0.04637
G1 X153.141 Y142.523 E0.0895
G1 X151.716 Y141.243 E0.0895
G1 X143.498 Y136.498 E0.44362
G1 X142.59 Y136.097 E0.04637
G1 X140.686 Y135.905 E0.0895
G1 X138.865 Y136.498 E0.0895
G1 X130.647 Y141.243 E0.44362
G1 X129.846 Y141.829 E0.04637
M73 P1 R8
G1 X129.788 Y141.909 E0.00465
G1 X130.249 Y142.334 F9000
G1 F1800
G1 X129.192 Y143.484 E0.07304
G1 X128.797 Y145.255 E0.08483
G1 X128.797 Y154.745 E0.44362
G1 X129.544 Y157.125 E0.1166
G1 X130.88 Y158.353 E0.08483
G1 X139.099 Y163.098 E0.44362
G1 X141.533 Y163.641 E0.1166
G1 X143.264 Y163.098 E0.08483
G1 X151.483 Y158.353 E0.44362
G1 X153.171 Y156.516 E0.1166
G1 X153.566 Y154.745 E0.08483
G1 X153.566 Y145.255 E0.44362
G1 X152.819 Y142.875 E0.1166
G1 X151.483 Y141.647 E0.08483
G1 X143.264 Y136.902 E0.44362
G1 X140.83 Y136.359 E0.1166
G1 X139.099 Y136.902 E0.08483
G1 X133.326 Y140.235 E0.31161
G1 X130.88 Y141.647 E0.13201
G1 X130.249 Y142.334 E0.04357
G1 X130.565 Y142.632 F9000
G1 F1800
G1 X129.658 Y143.593 E0.06177
G1 X129.263 Y145.255 E0.07988
G1 X129.263 Y154.745 E0.44362
G1 X129.871 Y156.776 E0.09909
G1 X131.113 Y157.949 E0.07988
G1 X139.332 Y162.694 E0.44362
M73 P2 R8
G1 X141.394 Y163.183 E0.09909
G1 X143.031 Y162.694 E0.07988
G1 X151.25 Y157.949 E0.44362
G1 X152.705 Y156.407 E0.09909
G1 X153.1 Y154.745 E0.07988
G1 X153.1 Y145.255 E0.44362
G1 X152.492 Y143.224 E0.09909
G1 X151.25 Y142.051 E0.07988
G1 X143.031 Y137.306 E0.44362
G1 X140.969 Y136.817 E0.09909
G1 X139.332 Y137.306 E0.07988
G1 X133.559 Y140.639 E0.31161
G1 X131.113 Y142.051 E0.13201
G1 X130.565 Y142.632 E0.03732
G1 X130.877 Y142.936 F9000
G1 F1800
G1 X130.124 Y143.709 E0.05045
G1 X129.73 Y145.255 E0.0746
G1 X129.73 Y154.745 E0.44362
G1 X130.204 Y156.431 E0.08186
G1 X131.346 Y157.545 E0.0746
G1 X139.565 Y162.29 E0.44362
G1 X141.262 Y162.722 E0.08186
G1 X142.798 Y162.29 E0.0746
G1 X151.017 Y157.545 E0.44362
G1 X152.239 Y156.291 E0.08186
G1 X152.633 Y154.745 E0.0746
G1 X152.633 Y145.255 E0.44362
G1 X152.159 Y143.569 E0.08186
G1 X151.017 Y142.455 E0.0746
G1 X142.798 Y137.71 E0.44362
G1 X141.101 Y137.278 E0.08186
G1 X139.565 Y137.71 E0.0746
G1 X137.535 Y138.882 E0.10956
G1 X131.346 Y142.455 E0.33407
G1 X130.877 Y142.936 E0.03141
; INIT printing object Untitled.stl id:0 copy 0
G1 E-0.8 F3000
; printing object Untitled.stl id:0 copy 0
; acceleration to travel
M204 S4000
G1 X135.93 Y146.819 F9000
; decel to extrusion
M204 S1000
G1 X137.193 Y147.79
; end travel
G1 E0.8 F1800
;TYPE:Internal perimeter
;WIDTH:0.48
G1 X137.134 Y147.876 E0.00445
G1 X136.743 Y148.906 E0.04712
G1 X136.61 Y150 E0.04712
G1 X136.743 Y151.094 E0.04712
G1 X137.134 Y152.124 E0.04712
G1 X137.76 Y153.031 E0.04712
G1 X138.585 Y153.762 E0.04712
G1 X139.561 Y154.274 E0.04712
G1 X140.63 Y154.538 E0.04712
G1 X141.733 Y154.538 E0.04712
G1 X142.803 Y154.274 E0.04712
G1 X143.778 Y153.762 E0.04712
G1 X144.603 Y153.031 E0.04712
G1 X145.229 Y152.124 E0.04712
G1 X145.62 Y151.094 E0.04712
G1 X145.753 Y150 E0.04712
G1 X145.62 Y148.906 E0.04712
G1 X145.229 Y147.876 E0.04712
G1 X144.603 Y146.969 E0.04712
M73 P3 R8
G1 X143.778 Y146.238 E0.04712
G1 X142.803 Y145.726 E0.04712
G1 X141.733 Y145.462 E0.04712
G1 X140.63 Y145.462 E0.04712
G1 X139.561 Y145.726 E0.04712
G1 X138.585 Y146.238 E0.04712
G1 X137.76 Y146.969 E0.04712
G1 X137.193 Y147.79 E0.04267
G1 X137.546 Y148.033 F9000
G1 F1800
G1 X137.516 Y148.076 E0.00222
G1 X137.162 Y149.009 E0.04267
G1 X137.042 Y150 E0.04267
G1 X137.162 Y150.991 E0.04267
G1 X137.516 Y151.924 E0.04267
G1 X138.083 Y152.745 E0.04267
G1 X138.83 Y153.407 E0.04267
G1 X139.714 Y153.871 E0.04267
G1 X140.683 Y154.109 E0.04267
G1 X141.68 Y154.109 E0.04267
G1 X142.649 Y153.871 E0.04267
G1 X143.533 Y153.407 E0.04267
G1 X144.28 Y152.745 E0.04267
G1 X144.847 Y151.924 E0.04267
G1 X145.201 Y150.991 E0.04267
G1 X145.321 Y150 E0.04267
G1 X145.201 Y149.009 E0.04267
G1 X144.847 Y148.076 E0.04267
G1 X144.28 Y147.255 E0.04267
G1 X143.533 Y146.593 E0.04267
G1 X142.649 Y146.129 E0.04267
G1 X141.68 Y145.891 E0.04267
G1 X140.683 Y145.891 E0.04267
G1 X139.714 Y146.129 E0.04267
G1 X138.83 Y146.593 E0.04267
G1 X138.083 Y147.255 E0.04267
G1 X137.546 Y148.033 E0.04044
G1 X137.898 Y148.277 F9000
;TYPE:External perimeter
G1 F1800
G1 X137.581 Y149.113 E0.03822
G1 X137.474 Y150 E0.03822
G1 X137.581 Y150.887 E0.03822
G1 X137.898 Y151.723 E0.03822
G1 X138.406 Y152.459 E0.03822
G1 X139.075 Y153.052 E0.03822
G1 X139.867 Y153.467 E0.03822
G1 X140.735 Y153.681 E0.03822
G1 X141.628 Y153.681 E0.03822
G1 X142.496 Y153.467 E0.03822
G1 X143.288 Y153.052 E0.03822
G1 X143.957 Y152.459 E0.03822
G3 X144.465 Y151.723 I860.144 J593.143 E0.03822
G1 X144.782 Y150.887 E0.03822
G1 X144.889 Y150 E0.03822
G1 X144.782 Y149.113 E0.03822
G3 X144.465 Y148.277 I614.095 J-233.335 E0.03821
G3 X143.957 Y147.541 I859.636 J-593.879 E0.03822
G1 X143.288 Y146.948 E0.03822
G1 X142.496 Y146.533 E0.03822
G1 X141.628 Y146.319 E0.03822
G1 X140.735 Y146.319 E0.03822
G1 X139.867 Y146.533 E0.03822
G1 X139.075 Y146.948 E0.03822
G1 X138.406 Y147.541 E0.03822
G3 X137.898 Y148.277 I-562.604 J-387.776 E0.03822
;WIPE_START
M204 S5000
G1 X137.5 Y148.309 F9000
;WIPE_END
; acceleration to travel
M204 S4000
G1 X134.748 Y146.373
; decel to extrusion
M204 S1000
G1 X134.06 Y145.888
; end travel
;TYPE:Internal perimeter
G1 F1800
G1 X141.182 Y141.777 E0.35159
G1 X148.303 Y145.888 E0.35159
G1 X148.303 Y154.112 E0.35159
G1 X141.182 Y158.223 E0.35159
G1 X134.06 Y154.112 E0.35159
G1 X134.06 Y145.888 E0.35159
G1 X133.632 Y145.641 F9000
G1 F1800
G1 X141.182 Y141.282 E0.37274
G1 X148.732 Y145.641 E0.37274
G1 X148.732 Y154.359 E0.37274
G1 X141.182 Y158.718 E0.37274
G1 X133.632 Y154.359 E0.37274
G1 X133.632 Y145.641 E0.37274
M73 P4 R8
G1 X133.203 Y145.394 F9000
;TYPE:External perimeter
G1 F1800
G1 X141.182 Y140.787 E0.3939
G2 X149.160 Y145.394 I1403.812 J-2421.788 E0.39390
G1 X149.16 Y154.606 E0.3939
G1 X141.182 Y159.213 E0.3939
G1 X133.203 Y154.606 E0.3939
G1 X133.203 Y145.394 E0.3939
;WIPE_START
M204 S5000
G1 X133.597 Y145.463 F9000
;WIPE_END
; acceleration to travel
M204 S4000
G1 X144.985 Y146.503
; decel to extrusion
M204 S1000
G1 X148.239 Y146.801
; end travel
;TYPE:Solid infill
;WIDTH:0.459262
G1 F3600
G1 X146.671 Y145.233 E0.09068
G1 X145.238 Y144.405 E0.06773
G1 X148.055 Y147.222 E0.16297
G1 X148.055 Y147.828 E0.02479
G1 X143.804 Y143.578 E0.24592
G1 X142.37 Y142.75 E0.06773
G1 X148.055 Y148.434 E0.32887
G1 X148.055 Y149.04 E0.02479
G1 X141.116 Y142.102 E0.40143
G1 X140.732 Y142.323 E0.01815
G1 X148.055 Y149.646 E0.42365
G1 X148.055 Y150.252 E0.02479
G1 X140.347 Y142.545 E0.44588
G1 X139.963 Y142.767 E0.01815
G1 X142.796 Y145.599 E0.16386
G1 X141.819 Y145.229 E0.04271
G1 X139.579 Y142.989 E0.12961
G1 X139.195 Y143.211 E0.01815
G1 X141.198 Y145.214 E0.11587
G1 X140.593 Y145.215 E0.02472
G1 X138.811 Y143.433 E0.10314
G1 X138.427 Y143.654 E0.01815
G1 X140.107 Y145.335 E0.09724
G1 X139.621 Y145.455 E0.02048
G1 X138.042 Y143.876 E0.09134
G1 X137.658 Y144.098 E0.01815
G1 X139.219 Y145.659 E0.09033
G1 X138.861 Y145.907 E0.01782
G1 X137.274 Y144.32 E0.09181
G1 X136.89 Y144.542 E0.01815
G1 X138.502 Y146.154 E0.09329
G1 X138.144 Y146.402 E0.01782
G1 X136.506 Y144.763 E0.09478
G1 X136.121 Y144.985 E0.01815
G1 X137.785 Y146.649 E0.09626
G2 X137.486 Y146.956 I0.142 J0.437 E0.01803
G1 X135.737 Y145.207 E0.10117
G1 X135.353 Y145.429 E0.01815
G1 X137.277 Y147.353 E0.11133
G1 X137.069 Y147.751 E0.01836
G1 X134.969 Y145.651 E0.12149
G1 X134.585 Y145.872 E0.01815
G1 X136.86 Y148.148 E0.13165
G1 X136.652 Y148.545 E0.01836
G1 X134.309 Y146.202 E0.13556
G1 X134.309 Y146.808 E0.02479
G1 X136.483 Y148.983 E0.12582
G1 X136.418 Y149.523 E0.02227
G1 X134.309 Y147.414 E0.12203
M73 P5 R8
G1 X134.309 Y148.02 E0.02479
G1 X136.37 Y150.081 E0.11925
G1 X136.454 Y150.771 E0.02842
G1 X134.309 Y148.626 E0.1241
G1 X134.309 Y149.232 E0.02479
G1 X137.223 Y152.146 E0.1686
G1 E-0.8 F3000
; acceleration to travel
M204 S4000
G1 X143.637 Y148.864 F9000
; decel to extrusion
M204 S1000
G1 X145.24 Y148.044
; end travel
G1 E0.8 F1800
G1 F3600
G1 X148.055 Y150.858 E0.16282
G1 X148.055 Y151.464 E0.02479
G1 X145.868 Y149.278 E0.12647
G1 X145.868 Y149.884 E0.02479
G1 X148.055 Y152.07 E0.12647
G1 X148.055 Y152.676 E0.02479
G1 X145.868 Y150.49 E0.12647
G1 X145.868 Y151.096 E0.02479
G1 X148.055 Y153.282 E0.12647
G1 X148.055 Y153.888 E0.02479
G1 X145.68 Y151.514 E0.13736
G1 X145.472 Y151.911 E0.01836
G1 X147.721 Y154.161 E0.13013
G1 X147.337 Y154.383 E0.01815
G1 X145.263 Y152.309 E0.11997
G1 X145.054 Y152.706 E0.01836
G1 X146.953 Y154.604 E0.10981
G1 X146.568 Y154.826 E0.01815
G1 X144.846 Y153.104 E0.09965
G1 X144.795 Y153.201 E0.0045
G1 X144.524 Y153.388 E0.01345
G1 X146.184 Y155.048 E0.09604
G1 X145.8 Y155.27 E0.01815
G1 X144.166 Y153.635 E0.09456
G1 X143.807 Y153.883 E0.01782
G1 X145.416 Y155.492 E0.09307
G1 X145.032 Y155.713 E0.01815
G1 X143.449 Y154.13 E0.09159
G1 X143.09 Y154.378 E0.01782
G1 X144.648 Y155.935 E0.0901
G1 X144.263 Y156.157 E0.01815
G1 X142.669 Y154.563 E0.09222
G1 X142.183 Y154.683 E0.02048
G1 X143.879 Y156.379 E0.09812
G1 X143.495 Y156.601 E0.01815
G1 X141.676 Y154.781 E0.10524
G1 X140.986 Y154.698 E0.02842
G1 X143.111 Y156.822 E0.12292
G1 X142.727 Y157.044 E0.01815
G1 X140.296 Y154.614 E0.1406
G1 X139.607 Y154.53 E0.02842
G1 X142.342 Y157.266 E0.15828
G1 X141.958 Y157.488 E0.01815
G1 X134.309 Y149.838 E0.44256
G1 X134.309 Y150.444 E0.02479
G1 X141.574 Y157.71 E0.42034
G1 X141.19 Y157.931 E0.01815
G1 X134.309 Y151.05 E0.39811
G1 X134.309 Y151.656 E0.02479
G1 X139.779 Y157.127 E0.31649
G1 X138.345 Y156.299 E0.06773
G1 X134.309 Y152.262 E0.23354
G1 X134.309 Y152.868 E0.02479
G1 X136.912 Y155.471 E0.1506
G1 X135.478 Y154.643 E0.06773
G1 X134.124 Y153.29 E0.07831
G1 E-0.8 F3000
; acceleration to travel
M204 S4000
G1 X145.11 Y147.085 F9000
; decel to extrusion
M204 S1000
G1 X147.514 Y145.728
; end travel
G1 E0.8 F1800
;TYPE:Gap fill
;WIDTH:0.147505
G1 X147.657 Y145.838 E0.00173
;WIDTH:0.193573
G1 X147.762 Y145.919 E0.00188
;WIDTH:0.239641
G1 X147.867 Y145.999 E0.00248
;WIDTH:0.280066
G3 X148.089 Y146.195 I-0.704 J1.021 E0.00676
; INIT stop printing object Untitled.stl id:0 copy 0
;LAYER_CHANGE
;Z:0.44
;HEIGHT:0.2
; stop printing object Untitled.stl id:0 copy 0
M204 S5000
G1 Z0.44 F9000
G92 E0
; INIT printing object Untitled.stl id:0 copy 0
; printing object Untitled.stl id:0 copy 0
; acceleration to travel
M204 S4000
G1 X146.886 Y146.936
; decel to extrusion
M204 S3500
G1 X145.067 Y148.058
; end travel
;TYPE:Internal perimeter
;WIDTH:0.4
G1 F6000
G1 X145.036 Y147.977 E0.00257
G1 X144.44 Y147.113 E0.03116
G1 X143.655 Y146.417 E0.03116
G1 X142.725 Y145.929 E0.03116
G1 X141.706 Y145.678 E0.03116
G1 X140.657 Y145.678 E0.03116
G1 X139.638 Y145.929 E0.03116
G1 X138.708 Y146.417 E0.03116
G1 X137.923 Y147.113 E0.03116
G1 X137.327 Y147.977 E0.03116
G1 X136.954 Y148.958 E0.03116
G1 X136.828 Y150 E0.03116
G1 X136.954 Y151.042 E0.03116
G1 X137.327 Y152.023 E0.03116
G1 X137.923 Y152.887 E0.03116
G1 X138.708 Y153.583 E0.03116
G1 X139.638 Y154.071 E0.03116
G1 X140.657 Y154.322 E0.03116
G1 X141.706 Y154.322 E0.03116
G1 X142.725 Y154.071 E0.03116
G1 X143.655 Y153.583 E0.03116
G1 X144.44 Y152.887 E0.03116
G1 X145.036 Y152.023 E0.03116
G1 X145.409 Y151.042 E0.03116
G1 X145.535 Y150 E0.03116
G1 X145.409 Y148.958 E0.03116
G1 X145.067 Y148.058 E0.02859
; acceleration to travel
M204 S4000
G1 X144.889 Y148.125 F9000
; decel to extrusion
M204 S3500
G1 X144.733 Y148.185
; end travel
G1 F6000
G1 X144.718 Y148.144 E0.00129
G1 X144.171 Y147.352 E0.02859
G1 X143.45 Y146.713 E0.02859
G1 X142.598 Y146.266 E0.02859
G1 X141.663 Y146.035 E0.02859
G1 X140.7 Y146.035 E0.02859
G1 X139.765 Y146.266 E0.02859
G1 X138.913 Y146.713 E0.02859
G1 X138.192 Y147.352 E0.02859
G1 X137.645 Y148.144 E0.02859
G1 X137.304 Y149.044 E0.02859
G1 X137.188 Y150 E0.02859
G1 X137.304 Y150.956 E0.02859
G1 X137.645 Y151.856 E0.02859
G1 X138.192 Y152.648 E0.02859
G1 X138.913 Y153.287 E0.02859
G1 X139.765 Y153.734 E0.02859
G1 X140.7 Y153.965 E0.02859
G1 X141.663 Y153.965 E0.02859
G1 X142.598 Y153.734 E0.02859
G1 X143.45 Y153.287 E0.02859
G1 X144.171 Y152.648 E0.02859
G1 X144.718 Y151.856 E0.02859
G1 X145.059 Y150.956 E0.02859
G1 X145.175 Y150 E0.02859
G1 X145.059 Y149.044 E0.02859
G1 X144.733 Y148.185 E0.0273
; acceleration to travel
M204 S4000
M73 P6 R8
G1 X144.508 Y148.27 F9000
; decel to extrusion
M204 S2500
G1 X144.399 Y148.311
; end travel
;TYPE:External perimeter
G1 F4800
G1 X143.902 Y147.59 E0.02601
G1 X143.246 Y147.009 E0.02601
G1 X142.47 Y146.602 E0.02601
G1 X141.62 Y146.392 E0.02601
G1 X140.743 Y146.392 E0.02601
G1 X139.893 Y146.602 E0.02601
G1 X139.117 Y147.009 E0.02601
G1 X138.461 Y147.59 E0.02601
G1 X137.964 Y148.311 E0.02601
G1 X137.653 Y149.13 E0.02601
G1 X137.547 Y150 E0.02601
G1 X137.653 Y150.87 E0.02601
G1 X137.964 Y151.689 E0.02601
G1 X138.461 Y152.41 E0.02601
G1 X139.117 Y152.991 E0.02601
G1 X139.893 Y153.398 E0.02601
G1 X140.743 Y153.608 E0.02601
G1 X141.62 Y153.608 E0.02601
G1 X142.47 Y153.398 E0.02601
G1 X143.246 Y152.991 E0.02601
G1 X143.902 Y152.41 E0.02601
G1 X144.399 Y151.689 E0.02601
G1 X144.71 Y150.87 E0.02601
G2 X144.816 Y150.000 I-306.640 J-37.802 E0.02601
G1 X144.71 Y149.13 E0.02601
G1 X144.399 Y148.311 E0.02601
;WIPE_START
M204 S5000
G1 X144.599 Y147.965 F9000
;WIPE_END
; acceleration to travel
M204 S4000
G1 X146.442 Y146.93
; decel to extrusion
M204 S3500
