; generated by SuperSlicer 2.4 on 2022-04-23 at 00:24:47 UTC


;
;

;
;
; 

; external perimeters extrusion width = 0.40mm
; perimeters extrusion width = 0.45mm
; infill extrusion width = 0.72mm
; solid infill extrusion width = 0.56mm
; top infill extrusion width = 0.40mm
; support material extrusion width = 0.42mm
; first layer extrusion width = 0.48mm

; object:{"name":"P300_headphone_holder","id":"P300_headphone_holder.stl id:0 copy 0","object_center":[164.999264,165.002164,0.000000],"boundingbox_center":[164.999264,165.002164,13.694905],"boundingbox_size":[77.150200,54.746243,27.389810]}
; plater:{"center":[164.999264,165.002164,0.000000],"boundingbox_center":[164.999264,165.002164,13.694905],"boundingbox_size":[77.150200,54.746243,27.389810]}

M73 P0 R59
;TYPE:Custom
START_PRINT T_BED=70 T_EXTRUDER=230
M107
G21 ; set units to millimeters
G90 ; use absolute coordinates
M83 ; use relative distances for extrusion
; Filament gcode
M104 S230 ; set temperature
M109 S230 ; set temperature and wait for it to be reached
M190 S70 ; set bed temperature and wait for it to be reached
M107
;LAYER_CHANGE
;Z:0.24
;HEIGHT:0.24
G1 E-1 F3000
G1 Z0.24 F9000
G92 E0
; INIT printing object P300_headphone_holder.stl id:0 copy 0
; printing object P300_headphone_holder.stl id:0 copy 0
M204 S1000
G1 X121.74 Y162.268
G1 E1 F1800
;TYPE:Support material
;WIDTH:0.48
G1 X152.267 Y162.268 E1.3052
G1 X152.38 Y161.49 E0.03362
G1 X152.134 Y161.417 E0.01099
G1 X152.134 Y155.514 E0.25238
G1 X155.511 Y155.514 E0.14439
G1 X155.511 Y152.137 E0.14439
G1 X162.265 Y152.137 E0.28878
G1 X162.265 Y148.76 E0.14439
G1 X165.642 Y148.76 E0.14439
G1 X165.642 Y145.383 E0.14439
G1 X172.396 Y145.383 E0.28878
G1 X172.396 Y142.005 E0.14439
G1 X175.773 Y142.005 E0.14439
G1 X175.773 Y138.628 E0.14439
G1 X182.527 Y138.628 E0.28878
G1 X182.527 Y135.251 E0.14439
G1 X191.373 Y135.251 E0.37819
G1 X191.373 Y138.628 E0.14439
G1 X198.127 Y138.628 E0.28878
G1 X198.127 Y142.005 E0.14439
G1 X201.504 Y142.005 E0.14439
G1 X201.504 Y155.514 E0.57755
G1 X201.886 Y155.514 E0.01635
G1 X202.155 Y156.715 E0.05261
G1 X201.793 Y156.578 E0.01653
G1 X201.114 Y156.596 E0.02906
G1 X200.765 Y156.735 E0.01606
G1 X200.323 Y157.132 E0.0254
G1 X200.238 Y157.279 E0.00725
G1 X200.157 Y157.415 E0.00677
G1 X200.054 Y157.875 E0.02016
G1 X200.06 Y158.136 E0.01115
G1 X200.196 Y158.626 E0.02177
G1 X200.226 Y158.708 E0.00374
G1 X200.358 Y158.992 E0.01337
G1 X200.474 Y159.153 E0.00849
G1 X200.676 Y159.344 E0.01187
G1 X200.686 Y159.354 E0.00061
G1 X200.764 Y159.415 E0.00422
G1 X201.222 Y159.71 E0.02331
G1 X201.378 Y159.764 E0.00706
G1 X201.456 Y159.792 E0.00353
G1 X201.492 Y159.796 E0.00155
G1 X201.871 Y159.835 E0.01631
G1 X202.183 Y159.774 E0.01362
G1 X202.302 Y159.71 E0.00575
G1 X202.696 Y159.497 E0.01917
G1 X202.937 Y159.233 E0.01528
G1 X203.155 Y158.724 E0.02365
G1 X203.196 Y158.464 E0.01123
G1 X203.172 Y158.21 E0.01091
G1 X203.139 Y158.068 E0.00627
G1 X202.918 Y157.499 E0.02605
G1 X204.881 Y157.279 E0.08444
G1 X204.881 Y164.359 E0.30274
G1 X201.504 Y164.359 E0.14439
G1 X201.504 Y167.736 E0.14439
G1 X198.127 Y167.736 E0.14439
G1 X198.127 Y171.113 E0.14439
G1 X191.373 Y171.113 E0.28878
G1 X191.373 Y174.49 E0.14439
G1 X187.996 Y174.49 E0.14439
G1 X187.996 Y177.868 E0.14439
G1 X184.619 Y177.868 E0.14439
G1 X184.619 Y181.245 E0.14439
G1 X177.865 Y181.245 E0.28878
G1 X177.865 Y184.622 E0.14439
G1 X169.467 Y184.622 E0.35905
G1 X168.672 Y182.975 E0.07818
G1 X168.582 Y182.822 E0.00759
G1 X168.43 Y182.565 E0.01277
G1 X168.301 Y182.324 E0.01167
G1 X168.187 Y182.112 E0.0103
G1 X168.011 Y181.787 E0.01582
G1 X167.951 Y181.699 E0.00453
G1 X167.772 Y181.489 E0.01181
G1 X167.586 Y181.271 E0.01226
G1 X167.417 Y181.108 E0.01004
G1 X167.341 Y181.016 E0.0051
G1 X167.114 Y180.739 E0.01531
G1 X166.831 Y180.396 E0.01902
G1 X166.504 Y179.93 E0.02431
G1 X166.223 Y179.529 E0.02098
G1 X165.942 Y179.127 E0.02098
G1 X165.66 Y178.725 E0.02098
G1 X165.379 Y178.323 E0.02098
G1 X165.06 Y177.868 E0.02377
G1 X158.888 Y177.868 E0.26389
G1 X158.888 Y172.718 E0.22016
G1 X160.99 Y172.055 E0.09425
G1 X160.595 Y171.49 E0.02949
G1 X160.313 Y171.089 E0.02098
G1 X160.032 Y170.687 E0.02098
G1 X159.469 Y169.883 E0.04195
G1 X159.188 Y169.481 E0.02098
G1 X158.906 Y169.079 E0.02098
G1 X158.625 Y168.677 E0.02098
G1 X158.509 Y168.511 E0.00865
G1 X158.238 Y168.124 E0.02021
G1 X157.602 Y168.324 E0.02849
G1 X157.602 Y187.999 E0.84118
G1 X121.74 Y187.999 E1.5333
G1 X121.74 Y162.328 E1.09757
G1 E-1 F3000
; acceleration to travel
M204 S4000
G1 X174.268 Y144.769 F9000
; decel to extrusion
M204 S1000
G1 X187.4 Y140.379
; end travel
G1 E1 F1800
G1 X187.516 Y140.647 E0.01248
G1 X187.628 Y140.811 E0.00849
G1 X187.739 Y140.921 E0.00668
G1 X187.849 Y141.032 E0.00668
G1 X187.916 Y141.088 E0.00373
G1 X188.33 Y141.384 E0.02177
G1 X188.53 Y141.462 E0.00917
G1 X188.573 Y141.479 E0.00198
G1 X189.041 Y141.539 E0.02016
G1 X189.363 Y141.48 E0.01402
G1 X189.886 Y141.201 E0.02533
G1 X190.135 Y140.925 E0.01589
G1 X190.387 Y140.299 E0.02885
G1 X190.384 Y139.882 E0.01784
G1 X190.211 Y139.472 E0.019
G1 X190.066 Y139.128 E0.01598
G1 X190.047 Y139.101 E0.0014
G1 X189.926 Y138.933 E0.00887
G1 X189.447 Y138.515 E0.02717
G1 X189.325 Y138.434 E0.00627
G1 X189.094 Y138.325 E0.01091
G1 X188.965 Y138.3 E0.00561
G1 X188.836 Y138.275 E0.00562
G1 X188.284 Y138.305 E0.02365
G1 X187.953 Y138.441 E0.01528
G1 X187.748 Y138.624 E0.01173
G1 X187.518 Y138.829 E0.01319
G1 X187.353 Y139.101 E0.01362
G1 X187.252 Y139.506 E0.01786
G1 X187.249 Y139.754 E0.01059
G1 X187.369 Y140.285 E0.02331
G1 X187.381 Y140.322 E0.00165
; acceleration to travel
M204 S4000
G1 X201.089 Y159.466 F9000
; decel to extrusion
M204 S1000
G1 X204.516 Y164.252
; end travel
G1 F1800
G1 X204.516 Y157.613 E0.28386
G1 X204.04 Y157.666 E0.02048
G1 X204.04 Y164.068 E0.2737
G1 X203.564 Y164.068 E0.02036
G1 X203.564 Y157.72 E0.27141
G1 X203.327 Y157.747 E0.0102
G1 X203.418 Y157.981 E0.01076
G1 X203.46 Y158.163 E0.008
G1 X203.489 Y158.474 E0.01333
G1 X203.437 Y158.805 E0.01433
G1 X203.186 Y159.393 E0.02732
G1 X203.088 Y159.5 E0.00622
G1 X203.088 Y164.068 E0.1953
G1 X202.612 Y164.068 E0.02036
G1 X202.612 Y159.874 E0.17933
G1 X202.44 Y159.966 E0.00833
G1 X202.283 Y160.051 E0.00763
G1 X202.136 Y160.08 E0.00643
G1 X202.136 Y164.068 E0.1705
G1 X201.659 Y164.068 E0.02036
G1 X201.659 Y160.106 E0.16938
G1 X201.461 Y160.085 E0.00852
G1 X201.391 Y160.078 E0.00301
G1 X201.281 Y160.039 E0.00499
G1 X201.183 Y160.005 E0.00443
G1 X201.183 Y167.445 E0.3181
G1 X200.707 Y167.445 E0.02036
G1 X200.707 Y159.725 E0.33008
G1 X200.595 Y159.652 E0.00573
G1 X200.496 Y159.574 E0.00538
G1 X200.475 Y159.555 E0.00119
G1 X200.254 Y159.345 E0.01304
G1 X200.231 Y159.314 E0.00168
G1 X200.231 Y167.445 E0.34766
G1 X199.755 Y167.445 E0.02036
G1 X199.755 Y142.297 E1.07522
G1 X200.231 Y142.297 E0.02036
G1 X200.231 Y156.823 E0.62109
G1 X200.609 Y156.484 E0.02172
G1 X200.707 Y156.445 E0.00452
G1 X200.707 Y142.297 E0.6049
G1 X201.183 Y142.297 E0.02036
G1 X201.183 Y156.303 E0.59883
G1 X201.659 Y156.29 E0.02036
G1 X201.659 Y155.621 E0.02861
G1 E-1 F3000
; acceleration to travel
M204 S4000
G1 X199.755 Y165.228 F9000
; decel to extrusion
M204 S1000
G1 X199.279 Y167.629
; end travel
G1 E1 F1800
G1 X199.279 Y142.297 E1.0831
G1 X198.803 Y142.297 E0.02036
G1 X198.803 Y167.445 E1.07522
G1 X198.327 Y167.445 E0.02036
G1 X198.327 Y142.297 E1.07522
G1 X197.851 Y142.297 E0.02036
G1 X197.851 Y167.445 E1.07522
G1 X197.836 Y167.445 E0.00064
G1 X197.836 Y170.822 E0.14439
G1 X197.374 Y170.822 E0.01972
G1 X197.374 Y138.92 E1.36399
G1 X196.898 Y138.92 E0.02036
G1 X196.898 Y170.822 E1.36399
G1 X196.422 Y170.822 E0.02036
G1 X196.422 Y138.92 E1.36399
G1 X195.946 Y138.92 E0.02036
G1 X195.946 Y170.822 E1.36399
G1 X195.47 Y170.822 E0.02036
G1 X195.47 Y138.92 E1.36399
G1 X194.994 Y138.92 E0.02036
G1 X194.994 Y170.822 E1.36399
G1 X194.518 Y170.822 E0.02036
G1 X194.518 Y138.92 E1.36399
G1 X194.042 Y138.92 E0.02036
G1 X194.042 Y170.822 E1.36399
G1 X193.566 Y170.822 E0.02036
G1 X193.566 Y138.92 E1.36399
G1 X193.09 Y138.92 E0.02036
G1 X193.09 Y170.822 E1.36399
G1 X192.613 Y170.822 E0.02036
G1 X192.613 Y138.92 E1.36399
G1 X192.137 Y138.92 E0.02036
G1 X192.137 Y170.822 E1.36399
M73 P1 R59
G1 X191.661 Y170.822 E0.02036
G1 X191.661 Y138.92 E1.36399
G1 X191.185 Y138.92 E0.02036
G1 X191.185 Y170.822 E1.36399
G1 X191.081 Y170.822 E0.00443
G1 X191.081 Y174.199 E0.14439
G1 X190.709 Y174.199 E0.01593
G1 X190.709 Y135.543 E1.65277
G1 X190.233 Y135.543 E0.02036
G1 X190.233 Y138.861 E0.14186
G1 X190.142 Y138.735 E0.0066
G1 X189.757 Y138.398 E0.02191
G1 X189.757 Y135.543 E0.12208
G1 X189.281 Y135.543 E0.02036
G1 X189.281 Y138.091 E0.10896
G1 X189.185 Y138.046 E0.0045
G1 X189.021 Y138.014 E0.00717
G1 X188.856 Y137.982 E0.00717
G1 X188.805 Y137.985 E0.00222
G1 X188.805 Y135.543 E0.10441
G1 X188.328 Y135.543 E0.02036
G1 X188.328 Y138.011 E0.10553
G1 X188.218 Y138.017 E0.00471
G1 X187.852 Y138.168 E0.01693
G1 X187.852 Y135.543 E0.11224
G1 X187.376 Y135.543 E0.02036
G1 X187.376 Y138.564 E0.12919
G1 X187.291 Y138.64 E0.00487
G1 X187.081 Y138.988 E0.01738
G1 X186.961 Y139.469 E0.0212
G1 X186.957 Y139.785 E0.01351
G1 X187.088 Y140.363 E0.02535
G1 X187.111 Y140.432 E0.00308
G1 X187.127 Y140.483 E0.0023
G1 X187.26 Y140.788 E0.01423
G1 X187.376 Y140.959 E0.00883
G1 X187.376 Y177.576 E1.56559
G1 X186.9 Y177.576 E0.02036
G1 X186.9 Y135.543 E1.79716
G1 X186.424 Y135.543 E0.02036
G1 X186.424 Y177.576 E1.79716
G1 X185.948 Y177.576 E0.02036
G1 X185.948 Y135.543 E1.79716
M73 P1 R58
G1 X185.472 Y135.543 E0.02036
G1 X185.472 Y177.576 E1.79716
G1 X184.996 Y177.576 E0.02036
G1 X184.996 Y135.543 E1.79716
G1 X184.52 Y135.543 E0.02036
G1 X184.52 Y177.576 E1.79716
G1 X184.327 Y177.576 E0.00822
G1 X184.327 Y180.953 E0.14439
G1 X184.044 Y180.953 E0.01214
G1 X184.044 Y135.543 E1.94155
G1 X183.567 Y135.543 E0.02036
G1 X183.567 Y180.953 E1.94155
G1 X183.091 Y180.953 E0.02036
G1 X183.091 Y135.543 E1.94155
G1 X182.819 Y135.543 E0.01165
G1 X182.819 Y138.92 E0.14439
G1 X182.615 Y138.92 E0.0087
G1 X182.615 Y180.953 E1.79716
G1 X182.139 Y180.953 E0.02036
G1 X182.139 Y138.92 E1.79716
G1 X181.663 Y138.92 E0.02036
G1 X181.663 Y180.953 E1.79716
G1 X181.187 Y180.953 E0.02036
G1 X181.187 Y138.92 E1.79716
G1 X180.711 Y138.92 E0.02036
G1 X180.711 Y180.953 E1.79716
G1 X180.235 Y180.953 E0.02036
G1 X180.235 Y138.92 E1.79716
G1 X179.759 Y138.92 E0.02036
G1 X179.759 Y180.953 E1.79716
G1 X179.282 Y180.953 E0.02036
G1 X179.282 Y138.92 E1.79716
G1 X178.806 Y138.92 E0.02036
G1 X178.806 Y180.953 E1.79716
G1 X178.33 Y180.953 E0.02036
G1 X178.33 Y138.92 E1.79716
G1 X177.854 Y138.92 E0.02036
G1 X177.854 Y180.953 E1.79716
G1 X177.573 Y180.953 E0.01201
G1 X177.573 Y184.33 E0.14439
G1 X177.378 Y184.33 E0.00835
G1 X177.378 Y138.92 E1.94155
M73 P2 R58
G1 X176.902 Y138.92 E0.02036
G1 X176.902 Y184.33 E1.94155
G1 X176.426 Y184.33 E0.02036
G1 X176.426 Y138.92 E1.94155
G1 X176.065 Y138.92 E0.01544
G1 X176.065 Y142.297 E0.14439
G1 X175.95 Y142.297 E0.00491
G1 X175.95 Y184.33 E1.79716
G1 X175.474 Y184.33 E0.02036
G1 X175.474 Y142.297 E1.79716
G1 X174.997 Y142.297 E0.02036
G1 X174.997 Y184.33 E1.79716
G1 X174.521 Y184.33 E0.02036
G1 X174.521 Y142.297 E1.79716
G1 X174.045 Y142.297 E0.02036
G1 X174.045 Y184.33 E1.79716
G1 X173.569 Y184.33 E0.02036
G1 X173.569 Y142.297 E1.79716
G1 X173.093 Y142.297 E0.02036
G1 X173.093 Y184.33 E1.79716
G1 X172.617 Y184.33 E0.02036
G1 X172.617 Y145.674 E1.65277
G1 X172.141 Y145.674 E0.02036
G1 X172.141 Y184.33 E1.65277
G1 X171.665 Y184.33 E0.02036
G1 X171.665 Y145.674 E1.65277
G1 X171.189 Y145.674 E0.02036
G1 X171.189 Y184.33 E1.65277
G1 X170.713 Y184.33 E0.02036
G1 X170.713 Y145.674 E1.65277
G1 X170.236 Y145.674 E0.02036
G1 X170.236 Y184.33 E1.65277
G1 X169.76 Y184.33 E0.02036
G1 X169.76 Y145.674 E1.65277
G1 X169.284 Y145.674 E0.02036
G1 X169.284 Y183.573 E1.62038
G1 X168.929 Y182.837 E0.03491
G1 X168.833 Y182.674 E0.00811
G1 X168.808 Y182.631 E0.0021
G1 X168.808 Y145.674 E1.58014
G1 X168.332 Y145.674 E0.02036
G1 X168.332 Y181.768 E1.54322
G1 X168.26 Y181.635 E0.00646
G1 X168.183 Y181.522 E0.00585
G1 X167.994 Y181.3 E0.01246
G1 X167.856 Y181.139 E0.00909
G1 X167.856 Y145.674 E1.51631
G1 X167.38 Y145.674 E0.02036
G1 X167.38 Y180.604 E1.49346
G1 X167.338 Y180.554 E0.00278
G1 X167.063 Y180.22 E0.01853
G1 X166.904 Y179.993 E0.01185
G1 X166.904 Y145.674 E1.46731
G1 X166.428 Y145.674 E0.02036
G1 X166.428 Y179.313 E1.43824
G1 X166.18 Y178.96 E0.01843
G1 X165.951 Y178.633 E0.01706
G1 X165.951 Y145.674 E1.40917
M73 P2 R57
G1 X165.933 Y145.674 E0.00077
G1 X165.933 Y149.051 E0.14439
G1 X165.475 Y149.051 E0.01958
G1 X165.475 Y177.953 E1.23571
G1 X165.212 Y177.576 E0.01966
G1 X164.999 Y177.576 E0.00908
G1 X164.999 Y149.051 E1.21961
M73 P3 R57
G1 X164.523 Y149.051 E0.02036
G1 X164.523 Y177.576 E1.21961
G1 X164.047 Y177.576 E0.02036
G1 X164.047 Y149.051 E1.21961
G1 X163.571 Y149.051 E0.02036
G1 X163.571 Y177.576 E1.21961
G1 X163.095 Y177.576 E0.02036
G1 X163.095 Y149.051 E1.21961
G1 X162.619 Y149.051 E0.02036
G1 X162.619 Y177.576 E1.21961
G1 X162.143 Y177.576 E0.02036
G1 X162.143 Y152.428 E1.07522
G1 X161.667 Y152.428 E0.02036
G1 X161.667 Y177.576 E1.07522
G1 X161.19 Y177.576 E0.02036
G1 X161.19 Y152.428 E1.07522
G1 X160.714 Y152.428 E0.02036
G1 X160.714 Y171.153 E0.8006
G1 X160.552 Y170.921 E0.0121
G1 X160.271 Y170.519 E0.02098
G1 X160.238 Y170.473 E0.00241
G1 X160.238 Y152.428 E0.77153
G1 X159.762 Y152.428 E0.02036
G1 X159.762 Y169.793 E0.74246
G1 X159.708 Y169.716 E0.00406
G1 X159.426 Y169.314 E0.02098
G1 X159.286 Y169.113 E0.01046
G1 X159.286 Y152.428 E0.71339
G1 X158.81 Y152.428 E0.02036
G1 X158.81 Y168.433 E0.68432
G1 X158.747 Y168.344 E0.00466
G1 X158.354 Y167.782 E0.02934
G1 X158.334 Y167.788 E0.00089
G1 X158.334 Y152.428 E0.65673
G1 X157.858 Y152.428 E0.02036
G1 X157.858 Y167.938 E0.66315
G1 X157.382 Y168.089 E0.02134
G1 X157.382 Y152.428 E0.66957
G1 X156.905 Y152.428 E0.02036
G1 X156.905 Y187.707 E1.50838
G1 X156.429 Y187.707 E0.02036
G1 X156.429 Y152.428 E1.50838
G1 X155.953 Y152.428 E0.02036
G1 X155.953 Y187.707 E1.50838
G1 X155.477 Y187.707 E0.02036
G1 X155.477 Y155.805 E1.36399
G1 X155.001 Y155.805 E0.02036
G1 X155.001 Y187.707 E1.36399
G1 X154.525 Y187.707 E0.02036
G1 X154.525 Y155.805 E1.36399
G1 X154.049 Y155.805 E0.02036
G1 X154.049 Y187.707 E1.36399
G1 X153.573 Y187.707 E0.02036
G1 X153.573 Y155.805 E1.36399
G1 X153.097 Y155.805 E0.02036
G1 X153.097 Y187.707 E1.36399
G1 X152.621 Y187.707 E0.02036
G1 X152.621 Y155.621 E1.37187
; acceleration to travel
M204 S4000
G1 X182.71 Y170.631 F9000
; decel to extrusion
M204 S1000
G1 X190.233 Y174.383
; end travel
G1 F1800
G1 X190.233 Y141.251 E1.41657
G1 X190.069 Y141.434 E0.01051
G1 X189.757 Y141.6 E0.01511
G1 X189.757 Y174.199 E1.39377
G1 X189.281 Y174.199 E0.02036
G1 X189.281 Y141.791 E1.38561
G1 X189.049 Y141.834 E0.01008
G1 X188.805 Y141.803 E0.01053
G1 X188.805 Y174.199 E1.38513
G1 X188.328 Y174.199 E0.02036
G1 X188.328 Y141.696 E1.38967
G1 X188.191 Y141.642 E0.00633
G1 X187.852 Y141.401 E0.01776
G1 X187.852 Y177.76 E1.55456
; acceleration to travel
M204 S4000
G1 X166.142 Y177.76 F9000
; decel to extrusion
M204 S1000
G1 X160.714 Y177.76
; end travel
G1 F1800
G1 X160.714 Y172.448 E0.22714
G1 X160.238 Y172.598 E0.02134
G1 X160.238 Y177.576 E0.21284
G1 X159.762 Y177.576 E0.02036
G1 X159.762 Y172.748 E0.20643
G1 X159.286 Y172.898 E0.02134
G1 X159.286 Y177.76 E0.20788
G1 E-1 F3000
; acceleration to travel
M204 S4000
G1 X153.573 Y185.865 F9000
; decel to extrusion
M204 S1000
G1 X152.144 Y187.892
; end travel
G1 E1 F1800
G1 X152.144 Y162.559 E1.0831
G1 X151.668 Y162.559 E0.02036
G1 X151.668 Y187.707 E1.07522
G1 X151.192 Y187.707 E0.02036
G1 X151.192 Y162.559 E1.07522
G1 X150.716 Y162.559 E0.02036
G1 X150.716 Y187.707 E1.07522
M73 P4 R57
G1 X150.24 Y187.707 E0.02036
G1 X150.24 Y162.559 E1.07522
G1 X149.764 Y162.559 E0.02036
G1 X149.764 Y187.707 E1.07522
G1 X149.288 Y187.707 E0.02036
G1 X149.288 Y162.559 E1.07522
G1 X148.812 Y162.559 E0.02036
G1 X148.812 Y187.707 E1.07522
G1 X148.336 Y187.707 E0.02036
G1 X148.336 Y162.559 E1.07522
G1 X147.859 Y162.559 E0.02036
G1 X147.859 Y187.707 E1.07522
