; generated by SuperSlicer 2.3.57 on 2022-04-07 at 02:50:30 UTC


;
;

;
;
; 

; external perimeters extrusion width = 0.40mm
; perimeters extrusion width = 0.45mm
; infill extrusion width = 0.72mm
; solid infill extrusion width = 0.56mm
; top infill extrusion width = 0.40mm
; support material extrusion width = 0.42mm
; first layer extrusion width = 0.48mm

; external perimeters extrusion width = 0.40mm
; perimeters extrusion width = 0.45mm
; infill extrusion width = 0.72mm
; solid infill extrusion width = 0.56mm
; top infill extrusion width = 0.40mm
; support material extrusion width = 0.42mm
; first layer extrusion width = 0.48mm

; external perimeters extrusion width = 0.40mm
; perimeters extrusion width = 0.45mm
; infill extrusion width = 0.72mm
; solid infill extrusion width = 0.56mm
; top infill extrusion width = 0.40mm
; support material extrusion width = 0.42mm
; first layer extrusion width = 0.48mm

; object:{"name":"Untitled","id":"Untitled.stl id:0 copy 0","object_center":[152.500000,150.000000,0.000000],"boundingbox_center":[152.500000,150.000000,54.500019],"boundingbox_size":[32.000000,60.000040,109.000038]}
; plater:{"center":[152.500000,150.000000,0.000000],"boundingbox_center":[152.500000,150.000000,54.500019],"boundingbox_size":[32.000000,60.000040,109.000038]}

;TYPE:Custom
START_PRINT T_BED=60 T_EXTRUDER=215
M107
G21 ; set units to millimeters
G90 ; use absolute coordinates
M83 ; use relative distances for extrusion
; Filament gcode
M104 S215 ; set temperature
M109 S215 ; set temperature and wait for it to be reached
M190 S60 ; set bed temperature and wait for it to be reached
;LAYER_CHANGE
;Z:0.24
;HEIGHT:0.24
G1 E-0.8 F3000
G1 Z0.24 F9000
G1 X130.343 Y113.735
G1 E0.8 F1800
; External perimeter
;Skirt
SET_VELOCITY_LIMIT ACCEL=300 ACCEL_TO_DECEL=3000 SQUARE_CORNER_VELOCITY=5

; Support material

;TYPE:Skirt
;WIDTH:0.48
G1 X129.81 Y114.751 E0.04907
G1 X129.635 Y115.416 E0.02938
G1 X129.575 Y116.1 E0.02938
G1 X129.577 Y184.208 E2.91198
G1 X129.798 Y185.4 E0.05181
G1 X130.361 Y186.473 E0.05181
G1 X131.214 Y187.334 E0.05181
G1 X132.282 Y187.905 E0.05181
G1 X132.942 Y188.079 E0.02916
G1 X133.621 Y188.14 E0.02916
G1 X171.587 Y188.134 E1.62326
G1 X172.75 Y187.893 E0.05076
G1 X173.794 Y187.328 E0.05076
G1 X174.63 Y186.486 E0.05076
G1 X175.19 Y185.433 E0.05097
G1 X175.365 Y184.764 E0.02959
G1 X175.425 Y184.079 E0.02938
G1 X175.425 Y116.108 E2.90612
G1 X175.334 Y115.257 E0.03659
G1 X174.927 Y114.163 E0.04991
G1 X174.229 Y113.233 E0.0497
G1 X173.293 Y112.536 E0.04991
G1 X172.203 Y112.133 E0.0497
G1 X171.441 Y112.045 E0.03277
G1 X159.361 Y111.86 E0.51656
G1 X145.611 Y111.86 E0.58786
G1 X133.249 Y112.063 E0.52865
G1 X132.134 Y112.335 E0.04907
G1 X131.139 Y112.908 E0.04907
G1 X130.385 Y113.692 E0.0465
G1 X130.701 Y113.972 F9000
G1 F1800
G1 X130.217 Y114.886 E0.0442
G1 X130.058 Y115.486 E0.02658
G1 X130.003 Y116.106 E0.02658
G1 X130.005 Y184.18 E2.91054
G1 X130.199 Y185.248 E0.0464
G1 X130.699 Y186.211 E0.0464
G1 X131.461 Y186.984 E0.0464
G1 X132.417 Y187.498 E0.0464
G1 X133.013 Y187.656 E0.02638
G1 X133.627 Y187.712 E0.02638
G1 X171.545 Y187.707 E1.62118
G1 X172.59 Y187.496 E0.0456
G1 X173.53 Y186.991 E0.0456
G1 X174.28 Y186.239 E0.0454
G1 X174.783 Y185.299 E0.0456
G1 X174.942 Y184.698 E0.02658
G1 X174.997 Y184.078 E0.02658
G1 X174.997 Y116.112 E2.90593
G1 X174.918 Y115.363 E0.0322
G1 X174.55 Y114.367 E0.0454
G1 X173.913 Y113.523 E0.0452
G1 X173.057 Y112.895 E0.0454
G1 X172.061 Y112.542 E0.0452
G1 X171.429 Y112.473 E0.02718
G1 X159.361 Y112.288 E0.51603
G1 X145.616 Y112.288 E0.58764
G1 X133.324 Y112.487 E0.52566
G1 X132.322 Y112.722 E0.044
G1 X131.422 Y113.231 E0.0442
G1 X130.743 Y113.929 E0.04164
G1 X131.054 Y114.215 F9000
G1 F1800
G1 X130.622 Y115.025 E0.03926
G1 X130.432 Y116.106 E0.04692
G1 X130.433 Y184.153 E2.90936
G1 X130.602 Y185.1 E0.04113
G1 X131.04 Y185.951 E0.04094
G1 X131.71 Y186.635 E0.04094
G1 X132.556 Y187.093 E0.04113
G1 X133.628 Y187.283 E0.04655
G1 X171.504 Y187.28 E1.61938
G1 X172.431 Y187.098 E0.04038
G1 X173.264 Y186.654 E0.04038
G1 X173.933 Y185.987 E0.04038
G1 X174.378 Y185.159 E0.04019
G1 X174.568 Y184.073 E0.04711
G1 X174.568 Y116.112 E2.90573
G1 X174.501 Y115.461 E0.02798
G1 X174.173 Y114.571 E0.04057
G1 X173.599 Y113.815 E0.04057
G1 X172.826 Y113.258 E0.04075
G1 X171.927 Y112.952 E0.04057
G1 X159.36 Y112.717 E0.53739
G1 X145.621 Y112.717 E0.58742
G1 X133.39 Y112.911 E0.52302
G1 X132.495 Y113.114 E0.03926
G1 X131.693 Y113.562 E0.03926
G1 X131.096 Y114.172 E0.0365
; INIT printing object Untitled.stl id:0 copy 0
G1 E-0.8 F3000
; printing object Untitled.stl id:0 copy 0
G1 X171.354 Y184.069 F9000
G1 E0.8 F1800
; External perimeter
;SupportMaterial
SET_VELOCITY_LIMIT ACCEL=3000 ACCEL_TO_DECEL=3000 SQUARE_CORNER_VELOCITY=5

; Support material interface

;TYPE:Support material
G1 X171.354 Y116.115 E2.9054
G1 X170.497 Y116.115 E0.03664
G1 X170.497 Y183.885 E2.89752
G1 X169.64 Y183.885 E0.03664
G1 X169.64 Y116.115 E2.89752
G1 X168.783 Y116.115 E0.03664
G1 X168.783 Y183.885 E2.89752
G1 X167.926 Y183.885 E0.03664
G1 X167.926 Y116.115 E2.89752
G1 X167.069 Y116.115 E0.03664
G1 X167.069 Y183.885 E2.89752
G1 X166.212 Y183.885 E0.03664
G1 X166.212 Y116.115 E2.89752
G1 X165.355 Y116.115 E0.03664
G1 X165.355 Y183.885 E2.89752
G1 X164.498 Y183.885 E0.03664
G1 X164.498 Y127.388 E2.41556
G1 X164.21 Y128.083 E0.03217
G1 X164.195 Y128.114 E0.0015
G1 X163.78 Y128.912 E0.03843
G1 X163.763 Y128.942 E0.0015
G1 X163.641 Y129.133 E0.00968
G1 X163.641 Y183.885 E2.34093
G1 X162.784 Y183.885 E0.03664
G1 X162.784 Y173.165 E0.45833
G1 X161.927 Y173.165 E0.03664
G1 X161.927 Y183.885 E0.45833
G1 X161.07 Y183.885 E0.03664
G1 X161.07 Y173.165 E0.45833
G1 X160.213 Y173.165 E0.03664
G1 X160.213 Y183.885 E0.45833
G1 X159.356 Y183.885 E0.03664
G1 X159.356 Y173.165 E0.45833
G1 X158.499 Y173.165 E0.03664
G1 X158.499 Y183.885 E0.45833
G1 X157.642 Y183.885 E0.03664
G1 X157.642 Y173.165 E0.45833
G1 X156.785 Y173.165 E0.03664
G1 X156.785 Y183.885 E0.45833
G1 X155.928 Y183.885 E0.03664
G1 X155.928 Y173.165 E0.45833
G1 X155.071 Y173.165 E0.03664
G1 X155.071 Y183.885 E0.45833
G1 X154.214 Y183.885 E0.03664
G1 X154.214 Y173.165 E0.45833
G1 X153.357 Y173.165 E0.03664
G1 X153.357 Y183.885 E0.45833
G1 X152.5 Y183.885 E0.03664
G1 X152.5 Y173.165 E0.45833
G1 X151.643 Y173.165 E0.03664
G1 X151.643 Y183.885 E0.45833
G1 X150.786 Y183.885 E0.03664
G1 X150.786 Y173.165 E0.45833
G1 X149.929 Y173.165 E0.03664
G1 X149.929 Y183.885 E0.45833
G1 X149.072 Y183.885 E0.03664
G1 X149.072 Y173.165 E0.45833
G1 X148.215 Y173.165 E0.03664
G1 X148.215 Y183.885 E0.45833
G1 X147.358 Y183.885 E0.03664
G1 X147.358 Y173.165 E0.45833
G1 X146.501 Y173.165 E0.03664
G1 X146.501 Y183.885 E0.45833
G1 X145.644 Y183.885 E0.03664
G1 X145.644 Y173.165 E0.45833
G1 X144.787 Y173.165 E0.03664
G1 X144.787 Y183.885 E0.45833
G1 X143.93 Y183.885 E0.03664
G1 X143.93 Y173.165 E0.45833
G1 X143.073 Y173.165 E0.03664
G1 X143.073 Y183.885 E0.45833
G1 X142.216 Y183.885 E0.03664
G1 X142.216 Y172.981 E0.4662
G1 E-0.8 F3000
G1 X164.498 Y119.479 F9000
G1 E0.8 F1800
G1 X164.498 Y116.115 E0.1438
G1 X163.641 Y116.115 E0.03664
G1 X163.641 Y119.294 E0.13593
G1 X162.784 Y119.294 E0.03664
G1 X162.784 Y116.115 E0.13593
G1 X161.927 Y116.115 E0.03664
G1 X161.927 Y119.294 E0.13593
G1 X161.07 Y119.294 E0.03664
G1 X161.07 Y116.115 E0.13593
G1 X160.213 Y116.115 E0.03664
G1 X160.213 Y119.294 E0.13593
G1 X159.356 Y119.294 E0.03664
G1 X159.356 Y115.931 E0.1438
G1 E-0.8 F3000
G1 X162.784 Y141.282 F9000
G1 E0.8 F1800
G1 X162.784 Y130.349 E0.46744
G1 X162.712 Y130.442 E0.00503
G1 X162.69 Y130.469 E0.0015
G1 X162.082 Y131.132 E0.03843
G1 X162.058 Y131.157 E0.0015
G1 X161.927 Y131.276 E0.00758
G1 X161.927 Y141.097 E0.4199
G1 X161.07 Y141.097 E0.03664
G1 X161.07 Y132.015 E0.38832
G1 X160.655 Y132.334 E0.02237
G1 X160.626 Y132.354 E0.0015
G1 X160.213 Y132.617 E0.02094
G1 X160.213 Y141.097 E0.36258
G1 X159.356 Y141.097 E0.03664
G1 X159.356 Y133.105 E0.34172
G1 X159.04 Y133.269 E0.01521
G1 X159.008 Y133.284 E0.0015
G1 X158.499 Y133.495 E0.02358
G1 X158.499 Y141.097 E0.32503
G1 X157.642 Y141.097 E0.03664
G1 X157.642 Y133.799 E0.31206
G1 X157.288 Y133.91 E0.01588
G1 X157.254 Y133.92 E0.0015
G1 X156.785 Y134.023 E0.02053
G1 X156.785 Y141.097 E0.30245
G1 X155.928 Y141.097 E0.03664
G1 X155.928 Y134.175 E0.29599
G1 X155.451 Y134.237 E0.02059
G1 X155.416 Y134.241 E0.0015
G1 X155.071 Y134.256 E0.01475
G1 X155.071 Y141.097 E0.29252
G1 X154.214 Y141.097 E0.03664
G1 X154.214 Y134.28 E0.29149
G1 X153.357 Y134.28 E0.03664
G1 X153.357 Y141.097 E0.29149
G1 X152.5 Y141.097 E0.03664
G1 X152.5 Y134.28 E0.29149
G1 X151.643 Y134.28 E0.03664
G1 X151.643 Y141.097 E0.29149
G1 X150.786 Y141.097 E0.03664
G1 X150.786 Y134.28 E0.29149
G1 X150.493 Y134.28 E0.01251
G1 X150.476 Y134.279 E0.00075
G1 X149.929 Y134.256 E0.0234
G1 X149.929 Y141.097 E0.29252
G1 X149.072 Y141.097 E0.03664
G1 X149.072 Y134.175 E0.29599
G1 X148.658 Y134.12 E0.01784
G1 X148.624 Y134.114 E0.0015
G1 X148.215 Y134.023 E0.0179
G1 X148.215 Y141.097 E0.30245
G1 X147.358 Y141.097 E0.03664
G1 X147.358 Y133.799 E0.31206
G1 X146.855 Y133.64 E0.02255
G1 X146.822 Y133.628 E0.0015
G1 X146.501 Y133.495 E0.01485
G1 X146.501 Y141.097 E0.32503
G1 X145.644 Y141.097 E0.03664
G1 X145.644 Y133.105 E0.34172
G1 X145.162 Y132.854 E0.02322
G1 X145.132 Y132.837 E0.0015
G1 X144.787 Y132.617 E0.01748
G1 X144.787 Y141.097 E0.36258
G1 X143.93 Y141.097 E0.03664
G1 X143.93 Y132.015 E0.38832
G1 X143.632 Y131.786 E0.01606
G1 X143.605 Y131.764 E0.0015
G1 X143.073 Y131.276 E0.03085
G1 X143.073 Y141.097 E0.4199
G1 X142.216 Y141.097 E0.03664
G1 X142.216 Y130.349 E0.45956
G1 X141.741 Y129.729 E0.0334
G1 X141.72 Y129.7 E0.0015
G1 X141.359 Y129.133 E0.02875
G1 X141.359 Y183.885 E2.34093
G1 X140.502 Y183.885 E0.03664
G1 X140.502 Y127.388 E2.41556
G1 X140.446 Y127.252 E0.00626
G1 X140.434 Y127.219 E0.0015
G1 X140.164 Y126.362 E0.03843
G1 X140.155 Y126.328 E0.0015
G1 X139.96 Y125.45 E0.03843
G1 X139.954 Y125.416 E0.0015
G1 X139.837 Y124.525 E0.03843
G1 X139.834 Y124.49 E0.0015
G1 X139.795 Y123.598 E0.03815
G1 X139.794 Y123.581 E0.00075
G1 X139.794 Y119.766 E0.16309
G1 X140.266 Y119.294 E0.02854
G1 X140.502 Y119.294 E0.01008
G1 X140.502 Y116.115 E0.13593
G1 X141.359 Y116.115 E0.03664
G1 X141.359 Y119.294 E0.13593
G1 X142.216 Y119.294 E0.03664
G1 X142.216 Y116.115 E0.13593
G1 X143.073 Y116.115 E0.03664
G1 X143.073 Y119.294 E0.13593
G1 X143.93 Y119.294 E0.03664
G1 X143.93 Y116.115 E0.13593
G1 X144.787 Y116.115 E0.03664
G1 X144.787 Y119.294 E0.13593
G1 X145.644 Y119.294 E0.03664
G1 X145.644 Y115.931 E0.1438
G1 E-0.8 F3000
G1 X139.645 Y184.069 F9000
G1 E0.8 F1800
G1 X139.645 Y116.115 E2.9054
G1 X138.788 Y116.115 E0.03664
G1 X138.788 Y183.885 E2.89752
G1 X137.931 Y183.885 E0.03664
G1 X137.931 Y116.115 E2.89752
G1 X137.074 Y116.115 E0.03664
G1 X137.074 Y183.885 E2.89752
G1 X136.217 Y183.885 E0.03664
G1 X136.217 Y116.115 E2.89752
G1 X135.36 Y116.115 E0.03664
G1 X135.36 Y183.885 E2.89752
G1 X134.503 Y183.885 E0.03664
G1 X134.503 Y116.115 E2.89752
G1 X133.646 Y116.115 E0.03664
G1 X133.646 Y184.069 E2.9054
G1 E-0.8 F3000
G1 X141.697 Y121.197 F9000
G1 E0.8 F1800
; External perimeter
;Perimeter
SET_VELOCITY_LIMIT ACCEL=2000 ACCEL_TO_DECEL=2000 SQUARE_CORNER_VELOCITY=5

; Overhang perimeter

;TYPE:Internal perimeter
G1 X163.303 Y121.197 E0.92378
G1 X163.303 Y123.548 E0.10052
G1 X163.268 Y124.341 E0.03395
G1 X163.168 Y125.103 E0.03283
G1 X163.002 Y125.852 E0.03283
G1 X162.771 Y126.585 E0.03283
G1 X162.477 Y127.294 E0.03283
G1 X162.123 Y127.975 E0.03283
G1 X161.71 Y128.623 E0.03283
G1 X161.243 Y129.232 E0.03283
G1 X160.724 Y129.798 E0.03283
G1 X160.158 Y130.317 E0.03283
G1 X159.549 Y130.784 E0.03283
G1 X158.901 Y131.197 E0.03283
G1 X158.22 Y131.551 E0.03283
G1 X157.51 Y131.845 E0.03283
G1 X156.778 Y132.076 E0.03283
G1 X156.028 Y132.242 E0.03283
G1 X155.267 Y132.343 E0.03283
G1 X154.474 Y132.377 E0.03395
G1 X150.526 Y132.377 E0.16879
G1 X149.733 Y132.343 E0.03395
G1 X148.972 Y132.242 E0.03283
G1 X148.222 Y132.076 E0.03283
G1 X147.49 Y131.845 E0.03283
G1 X146.78 Y131.551 E0.03283
G1 X146.099 Y131.197 E0.03283
G1 X145.451 Y130.784 E0.03283
G1 X144.842 Y130.317 E0.03283
G1 X144.276 Y129.798 E0.03283
G1 X143.757 Y129.232 E0.03283
G1 X143.29 Y128.623 E0.03283
G1 X142.877 Y127.975 E0.03283
G1 X142.523 Y127.294 E0.03283
G1 X142.229 Y126.585 E0.03283
G1 X141.998 Y125.852 E0.03283
G1 X141.832 Y125.103 E0.03283
G1 X141.732 Y124.341 E0.03283
G1 X141.697 Y123.548 E0.03395
G1 X141.697 Y121.257 E0.09795
G1 X141.268 Y120.769 F9000
G1 F1800
G1 X163.732 Y120.769 E0.96042
G1 X163.732 Y123.557 E0.11924
G1 X163.696 Y124.379 E0.03515
G1 X163.591 Y125.177 E0.03443
G1 X163.416 Y125.963 E0.03443
G1 X163.174 Y126.731 E0.03443
G1 X162.866 Y127.475 E0.03443
G1 X162.494 Y128.19 E0.03443
G1 X162.061 Y128.869 E0.03443
G1 X161.571 Y129.508 E0.03443
G1 X161.027 Y130.101 E0.03443
G1 X160.433 Y130.645 E0.03443
G1 X159.795 Y131.136 E0.03443
G1 X159.115 Y131.568 E0.03443
G1 X158.401 Y131.94 E0.03443
G1 X157.657 Y132.248 E0.03443
G1 X156.889 Y132.49 E0.03443
G1 X156.103 Y132.665 E0.03443
G1 X155.305 Y132.77 E0.03443
G1 X154.483 Y132.806 E0.03515
G1 X150.517 Y132.806 E0.16959
G1 X149.695 Y132.77 E0.03515
G1 X148.897 Y132.665 E0.03443
G1 X148.111 Y132.49 E0.03443
G1 X147.343 Y132.248 E0.03443
G1 X146.599 Y131.94 E0.03443
G1 X145.885 Y131.568 E0.03443
G1 X145.205 Y131.136 E0.03443
G1 X144.567 Y130.645 E0.03443
G1 X143.973 Y130.101 E0.03443
G1 X143.429 Y129.508 E0.03443
G1 X142.939 Y128.869 E0.03443
G1 X142.506 Y128.19 E0.03443
G1 X142.134 Y127.475 E0.03443
G1 X141.826 Y126.731 E0.03443
G1 X141.584 Y125.963 E0.03443
G1 X141.409 Y125.177 E0.03443
G1 X141.304 Y124.379 E0.03443
G1 X141.268 Y123.557 E0.03515
G1 X141.268 Y120.829 E0.11667
G1 X140.84 Y120.34 F9000
; External perimeter
;ExternalPerimeter
SET_VELOCITY_LIMIT ACCEL=1000 ACCEL_TO_DECEL=1000 SQUARE_CORNER_VELOCITY=5

; Perimeter

;TYPE:External perimeter
G1 F1800
G1 X164.16 Y120.34 E0.99706
G1 X164.16 Y120.46 E0.00458
G1 X164.16 Y120.7 E0.00971
G1 X164.16 Y123.567 E0.12257
G1 X164.123 Y124.416 E0.03635
G1 X164.013 Y125.252 E0.03603
G1 X163.831 Y126.074 E0.03603
G1 X163.577 Y126.878 E0.03603
G1 X163.255 Y127.657 E0.03603
G1 X162.866 Y128.404 E0.03603
G1 X162.413 Y129.115 E0.03603
G1 X161.9 Y129.783 E0.03603
G1 X161.33 Y130.405 E0.03603
G1 X160.709 Y130.974 E0.03603
G1 X160.041 Y131.487 E0.03603
G1 X159.33 Y131.94 E0.03603
G1 X158.582 Y132.329 E0.03603
G1 X157.804 Y132.651 E0.03603
G1 X157 Y132.905 E0.03603
G1 X156.177 Y133.087 E0.03603
G1 X155.342 Y133.197 E0.03603
G1 X154.493 Y133.234 E0.03635
G1 X150.507 Y133.234 E0.17039
G1 X149.658 Y133.197 E0.03635
G1 X148.823 Y133.087 E0.03603
G1 X148 Y132.905 E0.03603
G1 X147.196 Y132.651 E0.03603
G1 X146.418 Y132.329 E0.03603
G1 X145.67 Y131.94 E0.03603
G1 X144.959 Y131.487 E0.03603
G1 X144.291 Y130.974 E0.03603
G1 X143.67 Y130.405 E0.03603
G1 X143.1 Y129.783 E0.03603
G1 X142.587 Y129.115 E0.03603
G1 X142.134 Y128.404 E0.03603
G1 X141.745 Y127.657 E0.03603
G1 X141.423 Y126.878 E0.03603
G1 X141.169 Y126.074 E0.03603
G1 X140.987 Y125.252 E0.03603
G1 X140.877 Y124.416 E0.03603
G1 X140.84 Y123.567 E0.03635
G1 X140.84 Y120.4 E0.13539
;WIPE_START
G1 X141.186 Y120.54 F9000
;WIPE_END
G1 X162.373 Y121.261
; External perimeter
;SolidInfill
SET_VELOCITY_LIMIT ACCEL=2000 ACCEL_TO_DECEL=2000 SQUARE_CORNER_VELOCITY=5

; Bridge infill

;TYPE:Solid infill
;WIDTH:0.471082
G1 F2400
G1 X163.055 Y121.943 E0.04047
G1 X163.055 Y122.549 E0.02543
G1 X161.951 Y121.446 E0.06549
G1 X161.345 Y121.446 E0.02543
G1 X163.055 Y123.155 E0.10145
G1 X163.055 Y123.543 E0.01626
G1 X163.045 Y123.752 E0.00879
G1 X160.739 Y121.446 E0.13687
G1 X160.133 Y121.446 E0.02543
G1 X163.019 Y124.332 E0.17127
G1 X162.948 Y124.867 E0.02266
G1 X159.527 Y121.446 E0.20304
G1 X158.921 Y121.446 E0.02543
G1 X162.853 Y125.377 E0.23332
G1 X162.762 Y125.788 E0.01765
G1 X162.737 Y125.867 E0.00349
G1 X158.315 Y121.446 E0.26239
G1 X157.709 Y121.446 E0.02543
G1 X162.591 Y126.328 E0.28973
G1 X162.537 Y126.5 E0.00755
G1 X162.426 Y126.768 E0.01222
G1 X157.103 Y121.446 E0.31587
G1 X156.497 Y121.446 E0.02543
