; Postprocessed by [ArcWelder](https://github.com/FormerLurker/ArcWelderLib)
; Copyright(C) 2021 - Brad Hochgesang
; Version: 1.2.0, Branch: HEAD, BuildDate: 2021-11-21T20:25:43Z
; resolution=0.05mm
; path_tolerance=5.0%
; max_radius=9999.00mm
; g90_influences_extruder=True
; default_xyz_precision=3
; default_e_precision=5
; extrusion_rate_variance_percent=5.0%

; generated by SuperSlicer 2.4 on 2022-04-30 at 04:20:54 UTC







; 

; external perimeters extrusion width = 0.40mm
; perimeters extrusion width = 0.40mm
; infill extrusion width = 0.72mm
; solid infill extrusion width = 0.56mm
; top infill extrusion width = 0.40mm
; first layer extrusion width = 0.48mm

; object:{"name":"Hyken_headrest_small","id":"Hyken_headrest_small.STL id:0 copy 0","object_center":[165.000262,164.999784,0.000000],"boundingbox_center":[165.000262,164.999784,47.000000],"boundingbox_size":[28.253536,54.466933,94.000000]}
; plater:{"center":[165.000262,164.999784,0.000000],"boundingbox_center":[165.000262,164.999784,47.000000],"boundingbox_size":[28.253536,54.466933,94.000000]}

M73 P0 R90
;TYPE:Custom
START_PRINT T_BED=60 T_EXTRUDER=200
M107
G21 ; set units to millimeters
G90 ; use absolute coordinates
M83 ; use relative distances for extrusion
; Filament gcode
M104 S200 ; set temperature
M109 S200 ; set temperature and wait for it to be reached
M190 S60 ; set bed temperature and wait for it to be reached
M107
;LAYER_CHANGE
;Z:0.24
;HEIGHT:0.24
G1 Z0.24 F9000
G92 E0
G1 E-0.8 F3000
M204 S1000
G1 X158.317 Y137.589 F9000
G1 E0.8 F1800
;TYPE:Skirt
;WIDTH:0.52
G1 X157.51 Y139.011 E0.07644
G1 X148.606 Y165.661 E1.31345
G1 X148.326 Y166.952 E0.06179
G1 X148.665 Y169.185 E0.10559
G1 X149.201 Y170.116 E0.0502
G1 X166.23 Y192.562 E1.31708
G1 X167.182 Y193.474 E0.0616
G1 X169.601 Y194.274 E0.11911
G1 X171.51 Y193.904 E0.0909
G1 X173.1 Y192.807 E0.0903
G2 X173.905 Y191.791 I-4.785 J-4.618 E0.06066
G1 X175.522 Y189.064 E0.1482
G1 X177.206 Y185.793 E0.17197
G1 X178.581 Y182.652 E0.16033
G1 X179.683 Y179.672 E0.14852
G1 X180.749 Y176.147 E0.17214
G1 X181.482 Y173.055 E0.14852
G1 X182.079 Y169.686 E0.15995
G1 X182.207 Y167.932 E0.08221
G1 X182.166 Y166.984 E0.04437
G1 X177.216 Y143.304 E1.13087
G1 X176.966 Y142.501 E0.03935
G1 X176.364 Y141.415 E0.05805
G1 X175.506 Y140.508 E0.05833
G2 X173.948 Y139.656 I-3.300 J4.184 E0.08332
G1 X163.131 Y136.118 E0.53201
G1 X161.707 Y135.912 E0.06728
G1 X159.493 Y136.561 E0.10785
G1 X158.317 Y137.589 E0.07302
G1 X158.684 Y137.877 F9000
G1 F1800
G1 X157.952 Y139.159 E0.06901
G1 X149.049 Y165.808 E1.31345
G1 X148.789 Y167.01 E0.05747
G1 X149.09 Y168.993 E0.09377
G1 X149.573 Y169.834 E0.04533
G1 X166.602 Y192.28 E1.31708
G1 X167.456 Y193.097 E0.05525
G1 X169.619 Y193.808 E0.10644
G1 X171.341 Y193.469 E0.08204
G1 X172.753 Y192.495 E0.08019
G2 X173.504 Y191.553 I-4.458 J-4.324 E0.05636
G1 X175.121 Y188.826 E0.1482
G1 X176.779 Y185.605 E0.16934
G1 X178.06 Y182.698 E0.14852
G1 X179.246 Y179.51 E0.15901
G1 X180.295 Y176.039 E0.16949
G1 X181.028 Y172.948 E0.14852
G1 X181.62 Y169.606 E0.15865
G1 X181.741 Y167.906 E0.07965
G1 X181.701 Y167.026 E0.04118
G1 X176.759 Y143.4 E1.12833
G1 X176.529 Y142.664 E0.03609
G1 X175.994 Y141.699 E0.05155
G1 X175.209 Y140.868 E0.05345
G2 X173.803 Y140.099 I-2.991 J3.798 E0.07516
G1 X162.986 Y136.561 E0.53201
G1 X161.709 Y136.379 E0.06033
G1 X159.742 Y136.954 E0.09577
G1 X158.684 Y137.877 E0.06564
G1 X159.051 Y138.165 F9000
G1 F1800
G1 X158.394 Y139.307 E0.06158
G1 X149.491 Y165.956 E1.31345
G1 X149.252 Y167.068 E0.05315
G1 X149.515 Y168.801 E0.08195
G1 X149.944 Y169.553 E0.04047
G1 X166.973 Y191.999 E1.31708
G1 X167.731 Y192.72 E0.0489
G1 X169.638 Y193.342 E0.09377
G1 X171.172 Y193.034 E0.07317
G1 X172.406 Y192.183 E0.07009
G2 X173.103 Y191.315 I-4.006 J-3.931 E0.05206
G1 X174.72 Y188.588 E0.1482
G1 X176.352 Y185.418 E0.16672
G1 X177.707 Y182.328 E0.15769
G1 X178.808 Y179.348 E0.14852
G1 X179.841 Y175.932 E0.16685
G2 X181.161 Y169.525 I-54.983 J-14.667 E0.30588
G1 X181.275 Y167.88 E0.0771
G1 X181.237 Y167.068 E0.03799
G1 X176.303 Y143.496 E1.12579
G1 X176.092 Y142.826 E0.03284
G1 X175.624 Y141.983 E0.04505
G1 X174.912 Y141.227 E0.04857
G2 X173.658 Y140.542 I-2.710 J3.471 E0.06701
G1 X162.841 Y137.005 E0.53201
G1 X161.711 Y136.845 E0.05337
G1 X159.992 Y137.348 E0.0837
G1 X159.051 Y138.165 E0.05826
; INIT printing object Hyken_headrest_small.STL id:0 copy 0
G1 E-0.8 F3000
; printing object Hyken_headrest_small.STL id:0 copy 0
; acceleration to travel
M204 S4000
G1 X161.732 Y140.766 F9000
; decel to extrusion
M204 S1000
G1 X162.402 Y141.417
; end travel
G1 E0.8 F1800
;TYPE:Internal perimeter
;WIDTH:0.48
G1 X172.108 Y144.591 E0.43662
G1 X176.93 Y167.523 E1.00193
G1 X176.948 Y167.718 E0.00834
G1 X176.884 Y168.841 E0.04813
G3 X169.745 Y188.487 I-50.771 J-7.329 E0.89997
G1 X153.656 Y167.263 E1.13875
G2 X162.402 Y141.417 I-45.662 J-29.854 E1.17907
G1 X162.02 Y140.841 F9000
G1 F1800
G1 X172.392 Y144.233 E0.46658
G3 X172.495 Y144.348 I-0.012 J0.114 E0.00706
G1 X177.354 Y167.46 E1.00975
G1 X177.377 Y167.71 E0.01075
G1 X177.311 Y168.891 E0.05055
G3 X169.789 Y189.254 I-51.483 J-7.447 E0.93495
G1 X153.166 Y167.326 E1.17646
G3 X153.239 Y167.121 I0.410 J0.031 E0.00941
G2 X162.020 Y140.841 I-45.401 J-29.777 E1.19786
G1 X161.758 Y140.341 F9000
;TYPE:External perimeter
G1 F1800
G1 X161.796 Y140.317 E0.00191
G1 X162.218 Y140.455 E0.01897
G1 X170.011 Y143.003 E0.35058
G1 X172.56 Y143.837 E0.11464
G3 X172.908 Y144.229 I-0.150 J0.484 E0.02342
G1 X177.779 Y167.396 E1.01219
G1 X177.807 Y167.703 E0.01317
G1 X177.737 Y168.94 E0.05297
G3 X170.128 Y189.523 I-52.736 J-7.797 E0.94516
G1 X169.863 Y189.817 E0.01688
G2 X169.720 Y189.872 I3.596 J9.563 E0.00660
G1 X156.031 Y171.829 E0.96833
G1 X152.727 Y167.475 E0.23368
G3 X152.867 Y166.908 I0.844 J-0.092 E0.02570
G2 X161.593 Y140.813 I-45.043 J-29.569 E1.18953
G1 X161.682 Y140.438 E0.01647
G1 X161.758 Y140.341 E0.00528
;WIPE_START
M204 S5000
G1 X161.8 Y140.357 F9000
;WIPE_END
; acceleration to travel
M204 S4000
G1 X169.954 Y144.548
; decel to extrusion
M204 S1000
G1 X172.284 Y145.746
; end travel
;TYPE:Solid infill
;WIDTH:0.474053
G1 F3600
G1 X171.042 Y144.504 E0.07417
G1 X170.142 Y144.209 E0.04
G1 X172.206 Y146.274 E0.12331
G1 X172.367 Y147.04 E0.03306
G1 X169.241 Y143.915 E0.18665
G1 X168.341 Y143.62 E0.04
G1 X172.527 Y147.807 E0.25
G1 X172.688 Y148.573 E0.03306
G1 X167.44 Y143.326 E0.31335
G1 X166.54 Y143.031 E0.04
G1 X172.848 Y149.34 E0.3767
G1 X173.008 Y150.106 E0.03306
G1 X165.639 Y142.737 E0.44004
G1 X164.739 Y142.442 E0.04
G1 X173.169 Y150.872 E0.50339
G1 X173.329 Y151.639 E0.03306
G1 X163.838 Y142.148 E0.56674
G1 X162.938 Y141.854 E0.04
G1 X173.489 Y152.405 E0.63009
G1 X173.65 Y153.171 E0.03306
G1 X162.567 Y142.088 E0.66184
G1 X162.498 Y142.626 E0.02288
G1 X173.81 Y153.938 E0.67551
G1 X173.97 Y154.704 E0.03306
G1 X162.43 Y143.163 E0.68918
G1 X162.361 Y143.701 E0.02288
G1 X174.131 Y155.47 E0.70285
G1 X174.291 Y156.237 E0.03306
G1 X162.292 Y144.238 E0.71652
G1 X162.224 Y144.775 E0.02288
G1 X174.452 Y157.003 E0.73019
G1 X174.612 Y157.769 E0.03306
G1 X162.155 Y145.313 E0.74386
G1 X162.087 Y145.85 E0.02288
G1 X174.772 Y158.536 E0.75753
G1 X174.933 Y159.302 E0.03306
G1 X162.018 Y146.388 E0.7712
M73 P0 R89
G1 X161.95 Y146.925 E0.02288
G1 X175.093 Y160.068 E0.78487
G1 X175.253 Y160.835 E0.03306
G1 X161.864 Y147.446 E0.79954
G1 X161.741 Y147.929 E0.02104
G1 X175.414 Y161.601 E0.81646
G1 X175.574 Y162.367 E0.03306
G1 X161.618 Y148.412 E0.83339
G1 X161.495 Y148.895 E0.02104
G1 X175.734 Y163.134 E0.85031
G1 X175.895 Y163.9 E0.03306
G1 X161.372 Y149.377 E0.86724
G1 X161.249 Y149.86 E0.02104
G1 X176.055 Y164.666 E0.88416
G1 X176.216 Y165.433 E0.03306
G1 X161.126 Y150.343 E0.90109
G1 X161.003 Y150.826 E0.02104
G1 X176.376 Y166.199 E0.91801
G1 X176.536 Y166.966 E0.03306
G1 X160.88 Y151.309 E0.93494
G1 X160.757 Y151.792 E0.02104
G1 X176.695 Y167.73 E0.95175
G1 X176.619 Y168.26 E0.02261
G1 X160.634 Y152.275 E0.95457
G1 X160.511 Y152.758 E0.02104
G1 X176.543 Y168.79 E0.95739
G1 X176.467 Y169.32 E0.02261
G1 X160.388 Y153.241 E0.96021
G1 X160.265 Y153.724 E0.02104
G1 X176.391 Y169.851 E0.96303
G1 X176.316 Y170.381 E0.02261
G1 X160.142 Y154.207 E0.96585
G3 X159.997 Y154.668 I-1.895 J-0.343 E0.02046
G1 X176.24 Y170.911 E0.96995
G1 X176.164 Y171.441 E0.02261
G1 X159.826 Y155.103 E0.97566
G1 X159.654 Y155.537 E0.01972
G1 X176.073 Y171.956 E0.98048
G1 X175.945 Y172.434 E0.02088
G1 X159.483 Y155.972 E0.98304
G1 X159.311 Y156.406 E0.01972
G1 X175.816 Y172.911 E0.9856
G1 X175.688 Y173.389 E0.02088
G1 X159.14 Y156.841 E0.98816
G1 X158.968 Y157.275 E0.01972
G1 X175.559 Y173.866 E0.99072
G1 X175.43 Y174.343 E0.02088
G1 X158.797 Y157.71 E0.99328
G1 X158.626 Y158.144 E0.01972
G1 X175.302 Y174.821 E0.99584
G1 X175.173 Y175.298 E0.02088
G1 X158.454 Y158.579 E0.9984
G1 X158.283 Y159.014 E0.01972
G1 X175.044 Y175.775 E1.00096
G1 X174.916 Y176.253 E0.02088
G1 X158.111 Y159.448 E1.00352
G1 X157.94 Y159.883 E0.01972
G1 X174.787 Y176.73 E1.00608
G1 X174.659 Y177.208 E0.02088
G1 X157.768 Y160.317 E1.00863
G3 X157.571 Y160.726 I-1.614 J-0.526 E0.01920
G1 X174.53 Y177.685 E1.01274
G3 X174.366 Y178.127 I-1.972 J-0.480 E0.01994
G1 X157.354 Y161.115 E1.01589
G1 X157.138 Y161.505 E0.01882
G1 X174.192 Y178.559 E1.01839
G1 X174.017 Y178.99 E0.01965
G1 X156.922 Y161.894 E1.02089
G1 X156.705 Y162.284 E0.01882
G1 X173.843 Y179.422 E1.02338
G1 X173.668 Y179.853 E0.01965
G1 X156.489 Y162.674 E1.02588
G1 X156.272 Y163.063 E0.01882
G1 X173.494 Y180.284 E1.02838
G1 X173.319 Y180.716 E0.01965
G1 X156.056 Y163.453 E1.03088
G1 X155.84 Y163.842 E0.01882
G1 X173.144 Y181.147 E1.03337
G1 X172.97 Y181.579 E0.01965
G1 X155.623 Y164.232 E1.03587
G1 X155.407 Y164.622 E0.01882
G1 X172.795 Y182.01 E1.03837
G1 X172.621 Y182.441 E0.01965
G1 X155.19 Y165.011 E1.04087
G1 X154.974 Y165.401 E0.01882
G1 X172.446 Y182.873 E1.04336
G1 X172.272 Y183.304 E0.01965
G1 X154.758 Y165.79 E1.04586
G1 X154.541 Y166.18 E0.01882
G1 X172.078 Y183.717 E1.04725
G1 X171.864 Y184.108 E0.01885
G1 X154.325 Y166.57 E1.04735
G1 X154.108 Y166.959 E0.01882
G1 X171.649 Y184.5 E1.04746
G1 X171.434 Y184.891 E0.01885
G1 X154.473 Y167.93 E1.01285
M73 P1 R89
G1 X156.372 Y170.435 E0.13271
G1 X171.22 Y185.282 E0.88665
G1 X171.005 Y185.674 E0.01885
G1 X158.271 Y172.939 E0.76045
G1 X160.169 Y175.444 E0.13271
G1 X170.791 Y186.065 E0.63425
G1 X170.576 Y186.456 E0.01885
G1 X162.068 Y177.949 E0.50805
G1 X163.967 Y180.453 E0.13271
G1 X170.361 Y186.848 E0.38185
G1 X170.147 Y187.239 E0.01885
G1 X165.866 Y182.958 E0.25565
G1 X167.764 Y185.463 E0.13271
G1 X169.932 Y187.63 E0.12945
G1 X169.717 Y188.022 E0.01885
G1 X168.707 Y187.012 E0.06032
; acceleration to travel
M204 S4000
G1 X166.318 Y183.505 F9000
; decel to extrusion
M204 S1000
G1 X165.796 Y182.738
; end travel
;TYPE:Gap fill
;WIDTH:0.267246
G1 F1800
G3 X165.592 Y182.505 I15.011 J-13.349 E0.00667
;WIDTH:0.222412
G1 X165.457 Y182.35 E0.00351
;WIDTH:0.184958
G1 X165.322 Y182.195 E0.00274
;WIDTH:0.147504
G1 X165.187 Y182.04 E0.00197
; acceleration to travel
M204 S4000
G1 X162.636 Y178.591 F9000
; decel to extrusion
M204 S1000
G1 X161.998 Y177.729
; end travel
;WIDTH:0.267246
G1 F1800
G3 X161.795 Y177.496 I247.694 J-216.007 E0.00667
;WIDTH:0.222412
G1 X161.66 Y177.341 E0.00351
;WIDTH:0.184958
G1 X161.525 Y177.186 E0.00274
;WIDTH:0.147504
G1 X161.39 Y177.031 E0.00197
; acceleration to travel
M204 S4000
G1 X158.839 Y173.582 F9000
; decel to extrusion
M204 S1000
G1 X158.201 Y172.72
; end travel
;WIDTH:0.267246
G1 F1800
G2 X157.998 Y172.486 I-20.155 J17.280 E0.00667
;WIDTH:0.222412
G1 X157.862 Y172.331 E0.00351
;WIDTH:0.184958
G1 X157.727 Y172.176 E0.00274
;WIDTH:0.147504
G1 X157.592 Y172.022 E0.00197
; acceleration to travel
M204 S4000
G1 X155.041 Y168.573 F9000
; decel to extrusion
M204 S1000
G1 X154.404 Y167.711
; end travel
;WIDTH:0.267246
G1 F1800
G3 X154.164 Y167.435 I44.832 J-39.227 E0.00786
;WIDTH:0.188563
G3 X153.947 Y167.180 I1.745 J-1.705 E0.00459
; INIT stop printing object Hyken_headrest_small.STL id:0 copy 0
;LAYER_CHANGE
;Z:0.44
;HEIGHT:0.2
; stop printing object Hyken_headrest_small.STL id:0 copy 0
M204 S5000
G1 Z0.44 F9000
G92 E0
; INIT printing object Hyken_headrest_small.STL id:0 copy 0
; printing object Hyken_headrest_small.STL id:0 copy 0
; acceleration to travel
M204 S4000
G1 X153.712 Y167.034
; decel to extrusion
M204 S3500
G1 X153.358 Y166.813
; end travel
;TYPE:Internal perimeter
;WIDTH:0.4
G1 F6000
G2 X161.955 Y140.858 I-45.388 J-29.435 E0.82072
G1 X162.012 Y140.47 E0.01164
G1 X172.5 Y143.896 E0.32759
G3 X172.839 Y144.255 I-0.114 J0.447 E0.01535
G1 X177.423 Y166.078 E0.66209
G1 X177.486 Y166.521 E0.0133
G3 X177.376 Y168.886 I-11.498 J0.650 E0.07038
G3 X169.822 Y189.327 I-51.285 J-7.336 E0.65183
G1 X169.613 Y189.603 E0.01027
G1 X152.959 Y167.631 E0.81859
G3 X153.358 Y166.813 I2.052 J0.494 E0.02728
; acceleration to travel
M204 S4000
G1 X153.196 Y166.713 F9000
; decel to extrusion
M204 S3500
G1 X153.055 Y166.625
; end travel
G1 F6000
G2 X161.600 Y140.817 I-45.076 J-29.243 E0.81601
G3 X161.763 Y140.140 I1.823 J0.081 E0.02076
;TYPE:Overhang perimeter
G1 F4200
M204 S1000
G1 X161.803 Y140.026 E0.00359
G1 X172.637 Y143.565 E0.33842

G3 X173.185 Y144.168 I-0.218 J0.749 E0.02533
G1 X177.775 Y166.016 E0.66284
G3 X177.844 Y166.842 I-2.936 J0.661 E0.02469
;TYPE:Internal perimeter
G1 F6000
M204 S3500
G3 X177.730 Y168.934 I-10.129 J0.497 E0.06227
G3 X170.118 Y189.526 I-51.628 J-7.382 E0.65665
G3 X169.675 Y190.027 I-1.589 J-0.959 E0.01993
;TYPE:Overhang perimeter
G1 F4200
M204 S1000
G2 X169.564 Y190.129 I3.991 J4.454 E0.00449
G1 X152.622 Y167.778 E0.83273
G3 X152.603 Y167.605 I0.148 J-0.104 E0.00534
;TYPE:Internal perimeter
G1 F6000
M204 S3500
G3 X153.055 Y166.625 I2.259 J0.448 E0.03242
M204 S1000
G1 X152.751 Y166.436 F9000
;TYPE:Overhang perimeter
G1 F4200
G2 X161.245 Y140.776 I-44.770 J-29.056 E0.81134
G3 X161.398 Y140.102 I2.056 J0.112 E0.02060
;WIDTH:0.2

G3 X161.877 Y139.674 I0.472 J0.046 E0.00921
G1 X172.775 Y143.234 E0.14973
G3 X173.532 Y144.082 I-0.364 J1.087 E0.01554
G1 X178.126 Y165.954 E0.29191
G3 X178.204 Y167.323 I-4.889 J0.965 E0.01795
G3 X178.149 Y168.317 I-4.838 J0.231 E0.01302
;WIDTH:0.4

G1 X178.084 Y168.982 E0.01984
G3 X170.225 Y189.978 I-52.007 J-7.498 E0.67086
;WIDTH:0.2

G3 X169.428 Y190.467 I-0.866 J-0.518 E0.01275
G3 X169.310 Y190.386 I0.039 J-0.184 E0.00190
G1 X168.81 Y189.726 E0.01082
G1 X152.309 Y167.956 E0.35679
G3 X152.394 Y167.064 I0.871 J-0.367 E0.01223
;WIDTH:0.4

G3 X152.751 Y166.436 I2.175 J0.821 E0.02150
; acceleration to travel
M204 S4000
G1 X162.075 Y176.993 F9000
; decel to extrusion
M204 S3500
G1 X170.994 Y187.09
; end travel
;TYPE:Solid infill
;WIDTH:0.553378
G1 F4800
G1 X169.305 Y188.779 E0.10149
G1 X168.99 Y188.363 E0.02218
G1 X171.353 Y186.001 E0.14198
G1 X172.295 Y184.327 E0.08161
G1 X168.674 Y187.948 E0.21755
G1 X168.359 Y187.532 E0.02218
G1 X172.947 Y182.944 E0.27566
G1 X173.444 Y181.716 E0.0563
G1 X168.044 Y187.116 E0.32447
G1 X167.728 Y186.7 E0.02218
G1 X173.941 Y180.487 E0.37327
G1 X174.438 Y179.259 E0.0563
G1 X167.413 Y186.284 E0.42208
G1 X167.098 Y185.868 E0.02218
G1 X174.935 Y178.031 E0.47089
G1 X174.966 Y177.955 E0.00347
G1 X175.219 Y177.016 E0.04132
G1 X166.783 Y185.452 E0.50688
G1 X166.467 Y185.036 E0.02218
G1 X175.488 Y176.015 E0.54203
G1 X175.758 Y175.014 E0.04404
G1 X166.152 Y184.62 E0.57717
G1 X165.837 Y184.204 E0.02218
G1 X176.028 Y174.013 E0.61232
G1 X176.297 Y173.012 E0.04404
G1 X165.521 Y183.788 E0.64747
G1 X165.206 Y183.372 E0.02218
G1 X176.567 Y172.011 E0.68261
G2 X176.712 Y171.135 I-3.973 J-1.108 E0.03775
G1 X164.891 Y182.956 E0.71025
G1 X164.576 Y182.54 E0.02218
G1 X176.844 Y170.272 E0.73714
G1 X176.976 Y169.408 E0.03712
G1 X164.26 Y182.124 E0.76403
G1 X163.945 Y181.708 E0.02218
G1 X177.108 Y168.545 E0.79092
G1 X177.239 Y167.683 E0.03703
G1 X163.63 Y181.292 E0.8177
G1 X163.314 Y180.876 E0.02218
G1 X177.209 Y166.982 E0.83486
G1 X177.179 Y166.28 E0.02983
G1 X162.999 Y180.46 E0.85202
G1 X162.684 Y180.044 E0.02218
G1 X177.076 Y165.652 E0.86476
G1 X176.949 Y165.048 E0.02624
G1 X162.369 Y179.628 E0.87607
G1 X162.053 Y179.212 E0.02218
