; generated by SuperSlicer 2.3.57 on 2021-12-24 at 18:33:54 UTC


;
;

;
;
; 

; external perimeters extrusion width = 0.40mm
; perimeters extrusion width = 0.40mm
; infill extrusion width = 0.40mm
; solid infill extrusion width = 0.40mm
; top infill extrusion width = 0.40mm
; support material extrusion width = 0.40mm
; first layer extrusion width = 0.48mm


;TYPE:Custom
START_PRINT T_BED=60 T_EXTRUDER=200
M107
G21 ; set units to millimeters
G90 ; use absolute coordinates
M83 ; use relative distances for extrusion
; Filament gcode
M109 S200 ; set temperature and wait for it to be reached
M190 S60 ; set bed temperature and wait for it to be reached
;LAYER_CHANGE
;Z:0.24
;HEIGHT:0.24
G1 Z0.24 F12000
G1 E-0.8 F3000
G1 X123.461 Y124.401 F12000
G1 E0.8 F1500
;TYPE:Skirt
;WIDTH:0.48
G1 F600
G1 X123.413 Y124.448 E0.00288
G1 X121.56 Y126.845 E0.12956
G1 X119.96 Y129.592 E0.1359
G1 X118.719 Y132.26 E0.12581
G1 X117.742 Y134.935 E0.12174
G1 X116.115 Y140.331 E0.24097
G1 X115.528 Y143.399 E0.13355
G1 X115.241 Y146.273 E0.12348
G1 X115.116 Y149.359 E0.13209
G1 X115.244 Y154.182 E0.20626
G1 X118.168 Y188.115 E1.45619
G1 X118.613 Y190.549 E0.10582
G1 X119.372 Y193.054 E0.11189
G1 X119.665 Y193.77 E0.0331
G1 X120.419 Y194.962 E0.06029
G1 X121.476 Y195.995 E0.06318
G1 X122.698 Y196.729 E0.06096
G1 X123.371 Y196.989 E0.03086
G1 X124.336 Y197.197 E0.04218
G1 X202.994 Y199.306 E3.36429
G1 X204.262 Y199.139 E0.05466
G1 X205.331 Y198.726 E0.04903
G1 X205.952 Y198.348 E0.03106
G1 X206.505 Y197.889 E0.03073
G1 X207.133 Y197.17 E0.04083
G1 X207.508 Y196.57 E0.03023
G1 X208.419 Y194.646 E0.09102
G1 X209.039 Y192.875 E0.08023
G1 X209.481 Y191. E0.08236
G1 X213.754 Y159.973 E1.33911
G1 X214.172 Y156.379 E0.15467
G1 X214.136 Y150.05 E0.27063
G1 X213.893 Y147.246 E0.12034
G1 X213.452 Y144.401 E0.12308
G1 X212.2 Y139.131 E0.2316
G1 X211.289 Y136.225 E0.13019
G1 X210.154 Y133.33 E0.13294
G1 X208.863 Y130.614 E0.1286
G1 X206.861 Y126.765 E0.18548
G1 X206.007 Y125.529 E0.06424
G1 X205.149 Y124.497 E0.05738
G1 X204.188 Y123.534 E0.05817
G1 X201.68 Y121.396 E0.14091
G1 X199.107 Y119.633 E0.13336
G1 X196.022 Y117.971 E0.14981
G1 X188.431 Y115. E0.34853
G1 X183.244 Y113.542 E0.23037
G1 X178.23 Y112.605 E0.21807
G1 X173.018 Y111.823 E0.22533
G1 X167.765 Y111.397 E0.22533
G1 X162.529 Y111.328 E0.22391
G1 X158.311 Y111.382 E0.18037
G1 X154.081 Y111.721 E0.1814
G1 X145.441 Y113.095 E0.37405
G1 X140.793 Y114.331 E0.20566
G1 X136.362 Y115.974 E0.20206
G1 X132.205 Y117.975 E0.19724
G1 X129.829 Y119.221 E0.11473
G1 X127.534 Y120.733 E0.11747
G1 X125.472 Y122.405 E0.11352
G1 X123.504 Y124.359 E0.11856
G1 X123.805 Y124.662 F12000
G1 F600
G1 X123.734 Y124.733 E0.00427
G1 X121.898 Y127.108 E0.12836
G1 X120.339 Y129.791 E0.1327
G1 X119.114 Y132.426 E0.12424
G1 X118.145 Y135.079 E0.12073
G1 X116.531 Y140.434 E0.23913
G1 X115.954 Y143.447 E0.1312
G1 X115.669 Y146.304 E0.12273
G1 X115.544 Y149.362 E0.13087
G1 X115.672 Y154.15 E0.20479
G1 X118.594 Y188.07 E1.4556
G1 X119.027 Y190.44 E0.10302
G1 X119.779 Y192.92 E0.11081
G1 X120.052 Y193.586 E0.03078
G1 X120.75 Y194.69 E0.05583
G1 X121.724 Y195.645 E0.05832
G1 X122.856 Y196.331 E0.0566
G1 X123.479 Y196.574 E0.02857
G1 X124.365 Y196.77 E0.03881
G1 X203.005 Y198.877 E3.3635
G1 X204.167 Y198.721 E0.05011
G1 X205.146 Y198.339 E0.04496
G1 X206.209 Y197.579 E0.05587
G1 X206.794 Y196.908 E0.03808
G1 X207.14 Y196.35 E0.02808
G1 X208.016 Y194.5 E0.08751
G1 X208.628 Y192.755 E0.07904
G1 X209.063 Y190.901 E0.08144
G1 X213.329 Y159.915 E1.33732
G1 X213.744 Y156.352 E0.15334
G1 X213.708 Y150.077 E0.26831
G1 X213.467 Y147.296 E0.11934
G1 X213.032 Y144.487 E0.12154
G1 X211.787 Y139.242 E0.23048
G1 X210.882 Y136.36 E0.12915
G1 X209.761 Y133.5 E0.13135
G1 X208.477 Y130.801 E0.1278
G1 X206.503 Y127.001 E0.1831
G1 X205.677 Y125.803 E0.06222
G1 X204.831 Y124.785 E0.05658
G1 X203.888 Y123.839 E0.05711
G1 X201.419 Y121.736 E0.13865
G1 X198.868 Y119.989 E0.13221
G1 X195.855 Y118.366 E0.14632
G1 X188.292 Y115.405 E0.34727
G1 X183.163 Y113.963 E0.22779
G1 X178.159 Y113.028 E0.21764
G1 X172.971 Y112.249 E0.22432
G1 X167.745 Y111.825 E0.22417
G1 X162.528 Y111.757 E0.22308
G1 X158.33 Y111.81 E0.17948
G1 X154.127 Y112.147 E0.18027
G1 X145.519 Y113.516 E0.37268
G1 X140.921 Y114.74 E0.20343
G1 X136.532 Y116.368 E0.20014
G1 X132.396 Y118.358 E0.19626
G1 X130.049 Y119.589 E0.11331
G1 X127.786 Y121.079 E0.11582
G1 X125.749 Y122.733 E0.11221
G1 X123.848 Y124.62 E0.11454
G1 E-0.8 F3000
G1 X187.808 Y187.794 F12000
G1 E0.8 F1500
;TYPE:Internal perimeter
G1 F600
G1 X188.443 Y187.826 E0.02719
G1 X189.687 Y187.748 E0.05329
G1 X190.914 Y187.533 E0.05329
G1 X192.111 Y187.182 E0.05329
G1 X193.26 Y186.701 E0.05329
G1 X194.349 Y186.094 E0.05329
G1 X195.364 Y185.371 E0.05329
G1 X196.292 Y184.539 E0.05329
G1 X196.73 Y184.048 E0.02813
G1 X197.619 Y184.577 E0.04423
G1 X199.098 Y185.246 E0.06939
G1 X200.642 Y185.746 E0.06939
G1 X202.232 Y186.07 E0.06939
G1 X203.848 Y186.215 E0.06939
G1 X205.471 Y186.179 E0.06939
G1 X206.355 Y186.06 E0.03815
G1 X206.452 Y187.05 E0.04254
G1 X206.433 Y188.702 E0.07061
G1 X206.235 Y190.341 E0.07061
G1 X205.859 Y191.95 E0.07061
G1 X205.31 Y193.507 E0.07061
G1 X204.592 Y195.001 E0.07085
G1 X204.477 Y195.192 E0.00955
G1 X204.345 Y195.363 E0.00921
G1 X204.195 Y195.517 E0.00921
G1 X204.027 Y195.652 E0.00921
G1 X203.845 Y195.767 E0.00921
G1 X203.651 Y195.859 E0.00921
G1 X203.447 Y195.929 E0.00921
G1 X203.236 Y195.974 E0.00921
G1 X203.023 Y195.994 E0.00915
G1 X201.409 Y195.952 E0.06905
G1 X199.804 Y195.735 E0.06922
G1 X198.233 Y195.345 E0.06922
G1 X196.679 Y194.776 E0.07074
G1 X193.187 Y193.489 E0.15913
G1 X189.834 Y191.935 E0.158
G1 X187.083 Y190.38 E0.1351
G1 X187.32 Y189.717 E0.03012
G1 X187.668 Y188.474 E0.05518
G1 X187.796 Y187.853 E0.0271
G1 X187.462 Y187.348 F12000
;TYPE:External perimeter
G1 F600
G1 X188.44 Y187.396 E0.04188
G1 X189.636 Y187.322 E0.05125
G1 X190.817 Y187.115 E0.05125
G1 X191.967 Y186.778 E0.05125
G1 X193.073 Y186.315 E0.05125
G1 X194.12 Y185.732 E0.05125
G1 X195.096 Y185.036 E0.05125
G1 X195.988 Y184.235 E0.05125
G1 X196.645 Y183.499 E0.04221
G1 X197.817 Y184.196 E0.05831
G1 X199.252 Y184.845 E0.06734
G1 X200.751 Y185.331 E0.06734
G1 X202.294 Y185.646 E0.06734
G1 X203.863 Y185.786 E0.06734
G1 X205.438 Y185.751 E0.06734
G1 X206.738 Y185.576 E0.05613
G1 X206.881 Y187.032 E0.06254
G1 X206.862 Y188.73 E0.07262
G1 X206.657 Y190.416 E0.07262
G1 X206.271 Y192.07 E0.07262
G1 X205.706 Y193.672 E0.07262
G1 X204.969 Y195.204 E0.0727
G1 X204.831 Y195.434 E0.01148
G1 X204.669 Y195.644 E0.01135
G1 X204.483 Y195.834 E0.01135
G1 X204.277 Y196.001 E0.01135
G1 X204.052 Y196.142 E0.01135
G1 X203.813 Y196.257 E0.01135
G1 X203.561 Y196.342 E0.01135
G1 X203.302 Y196.398 E0.01135
G1 X203.038 Y196.423 E0.01133
G1 X201.374 Y196.379 E0.07114
G1 X199.724 Y196.156 E0.07121
G1 X198.107 Y195.756 E0.07121
G1 X196.531 Y195.178 E0.07175
G1 X193.023 Y193.885 E0.15989
G1 X189.638 Y192.317 E0.15948
G1 X186.559 Y190.576 E0.15126
G1 X186.912 Y189.587 E0.04489
G1 X187.251 Y188.373 E0.05389
G1 X187.45 Y187.407 E0.04217
G1 X187.786 Y187.582 F12000
G1 E-0.8 F3000
G1 X205.456 Y186.33 F12000
G1 E0.8 F1500
;TYPE:Solid infill
;WIDTH:0.483039
G1 F1800
G1 X206.11 Y186.984 E0.03981
G1 X206.118 Y187.065 E0.00349
G1 X206.112 Y187.592 E0.02268
G1 X205.043 Y186.523 E0.06503
G1 X204.45 Y186.536 E0.02551
G1 X206.105 Y188.191 E0.10068
G1 X206.099 Y188.68 E0.02103
G1 X206.087 Y188.779 E0.00432
G1 X203.858 Y186.549 E0.13568
G1 X203.837 Y186.55 E0.00088
G1 X203.194 Y186.492 E0.02776
G1 X206.022 Y189.32 E0.17205
G1 X205.956 Y189.86 E0.02343
G1 X202.529 Y186.432 E0.20857
G1 X202.183 Y186.401 E0.01492
G1 X201.817 Y186.327 E0.0161
G1 X205.88 Y190.39 E0.24725
G1 X205.765 Y190.881 E0.0217
G1 X201.055 Y186.171 E0.28659
G1 X200.557 Y186.069 E0.02191
G1 X200.248 Y185.969 E0.01397
G1 X205.65 Y191.372 E0.32876
G1 X205.535 Y191.863 E0.02168
G1 X199.351 Y185.679 E0.37626
G1 X198.977 Y185.558 E0.01694
G1 X198.333 Y185.266 E0.03043
G1 X205.377 Y192.311 E0.42864
G1 X205.219 Y192.759 E0.02044
G1 X197.142 Y184.682 E0.49148
G1 X196.796 Y184.476 E0.01732
G1 X196.576 Y184.722 E0.0142
G1 X205.061 Y193.207 E0.51629
G1 X205.001 Y193.379 E0.00785
G1 X204.879 Y193.631 E0.01204
G1 X196.262 Y185.014 E0.52433
G1 X195.943 Y185.3 E0.01846
G1 X204.683 Y194.04 E0.5318
G1 X204.486 Y194.45 E0.01954
G1 X195.623 Y185.587 E0.53928
G1 X195.573 Y185.632 E0.00289
G1 X195.275 Y185.845 E0.01576
G1 X204.288 Y194.858 E0.54843
G1 X204.2 Y195.003 E0.00732
G1 X204.093 Y195.143 E0.00758
G1 X204.031 Y195.206 E0.00382
G1 X194.921 Y186.097 E0.55429
G1 X194.568 Y186.349 E0.01869
G1 X203.689 Y195.47 E0.555
G1 X203.524 Y195.549 E0.00784
G1 X203.358 Y195.606 E0.00758
G1 X203.243 Y195.631 E0.00504
G1 X194.182 Y186.57 E0.55134
G1 X193.793 Y186.786 E0.01917
G1 X202.657 Y195.65 E0.53934
G1 X202.034 Y195.634 E0.02678
G1 X193.403 Y187.003 E0.52517
G1 X192.976 Y187.182 E0.01992
G1 X201.409 Y195.615 E0.51312
G1 X200.708 Y195.52 E0.03043
G1 X192.549 Y187.361 E0.49646
G1 X192.222 Y187.497 E0.01524
G1 X192.112 Y187.53 E0.00494
G1 X200.007 Y195.425 E0.4804
G1 X199.867 Y195.406 E0.00609
G1 X199.223 Y195.246 E0.02856
G1 X191.644 Y187.667 E0.46118
G1 X191.175 Y187.804 E0.02101
G1 X198.417 Y195.047 E0.44068
G1 X198.331 Y195.025 E0.00382
G1 X197.475 Y194.71 E0.03925
G1 X190.678 Y187.913 E0.41359
G1 X190.162 Y188.004 E0.02252
G1 X196.516 Y194.358 E0.38662
G1 X195.558 Y194.005 E0.04395
G1 X189.638 Y188.086 E0.36017
G1 X189.068 Y188.121 E0.02459
G1 X194.599 Y193.652 E0.33654
G1 X193.64 Y193.3 E0.04395
G1 X188.498 Y188.157 E0.31292
G1 X188.445 Y188.16 E0.00227
G1 X188.077 Y188.142 E0.01584
G1 X188.043 Y188.309 E0.00731
G1 X192.569 Y192.834 E0.27538
G1 X191.44 Y192.311 E0.05354
G1 X187.925 Y188.796 E0.21387
G1 X187.792 Y189.27 E0.02116
G1 X190.689 Y192.166 E0.17625
G1 X189.479 Y191.563 F12000
G1 F1800
G1 X187.66 Y189.743 E0.11071
G1 X187.639 Y189.818 E0.00335
G1 X187.505 Y190.194 E0.01717
G1 X188.085 Y190.774 E0.03531
G1 E-0.8 F3000
G1 X168.852 Y135.133 F12000
G1 E0.8 F1500
;TYPE:Internal perimeter
;WIDTH:0.48
G1 F600
G1 X168.85 Y135.178 E0.00191
G1 X168.843 Y135.223 E0.00198
G1 X168.831 Y135.272 E0.00212
G1 X168.814 Y135.323 E0.00231
G1 X168.79 Y135.377 E0.00254
G1 X168.758 Y135.435 E0.00282
G1 X168.719 Y135.496 E0.00312
G1 X168.67 Y135.56 E0.00344
G1 X168.612 Y135.627 E0.00377
G1 X168.551 Y135.688 E0.0037
G1 X168.38 Y135.834 E0.00963
G1 X168.178 Y135.973 E0.01047
G1 X167.94 Y136.106 E0.01167
G1 X167.669 Y136.231 E0.01277
G1 X167.377 Y136.341 E0.01332
G1 X166.69 Y136.528 E0.03043
G1 X165.944 Y136.643 E0.0323
G1 X165.161 Y136.683 E0.03351
G1 X164.378 Y136.643 E0.03351
G1 X163.632 Y136.528 E0.0323
G1 X162.945 Y136.341 E0.03043
G1 X162.653 Y136.231 E0.01332
G1 X162.382 Y136.106 E0.01277
G1 X162.144 Y135.973 E0.01167
G1 X161.942 Y135.834 E0.01047
G1 X161.771 Y135.688 E0.00963
G1 X161.71 Y135.627 E0.0037
G1 X161.652 Y135.56 E0.00377
G1 X161.603 Y135.496 E0.00344
G1 X161.564 Y135.435 E0.00312
G1 X161.532 Y135.377 E0.00282
G1 X161.508 Y135.323 E0.00254
G1 X161.491 Y135.272 E0.00231
G1 X161.479 Y135.223 E0.00212
G1 X161.472 Y135.178 E0.00198
G1 X161.47 Y135.133 E0.00191
G1 X161.472 Y135.088 E0.00191
G1 X161.479 Y135.042 E0.00198
G1 X161.491 Y134.994 E0.00212
G1 X161.508 Y134.943 E0.00231
G1 X161.532 Y134.889 E0.00254
G1 X161.564 Y134.831 E0.00282
G1 X161.603 Y134.77 E0.00312
G1 X161.652 Y134.705 E0.00344
G1 X161.71 Y134.639 E0.00377
G1 X161.771 Y134.577 E0.0037
G1 X161.942 Y134.432 E0.00963
G1 X162.144 Y134.293 E0.01047
G1 X162.382 Y134.16 E0.01167
G1 X162.653 Y134.034 E0.01277
G1 X162.945 Y133.924 E0.01332
G1 X163.632 Y133.738 E0.03043
G1 X164.378 Y133.622 E0.0323
G1 X165.161 Y133.583 E0.03351
G1 X165.944 Y133.622 E0.03351
G1 X166.69 Y133.738 E0.0323
G1 X167.377 Y133.924 E0.03043
G1 X167.669 Y134.034 E0.01332
G1 X167.94 Y134.16 E0.01277
G1 X168.178 Y134.293 E0.01167
G1 X168.38 Y134.432 E0.01047
G1 X168.551 Y134.577 E0.00963
G1 X168.612 Y134.639 E0.0037
G1 X168.67 Y134.705 E0.00377
G1 X168.719 Y134.77 E0.00344
G1 X168.758 Y134.831 E0.00312
G1 X168.79 Y134.889 E0.00282
G1 X168.814 Y134.943 E0.00254
G1 X168.831 Y134.994 E0.00231
G1 X168.843 Y135.042 E0.00212
G1 X168.847 Y135.073 E0.00133
G1 X169.271 Y135.012 F12000
;TYPE:External perimeter
G1 F600
G1 X169.277 Y135.047 E0.00153
G1 X169.281 Y135.133 E0.00367
G1 X169.277 Y135.219 E0.00367
G1 X169.264 Y135.305 E0.00372
G1 X169.243 Y135.391 E0.00381
G1 X169.213 Y135.478 E0.00394
G1 X169.175 Y135.566 E0.0041
G1 X169.127 Y135.654 E0.00429
G1 X169.07 Y135.742 E0.0045
G1 X169.003 Y135.831 E0.00473
G1 X168.926 Y135.918 E0.00497
G1 X168.843 Y136.003 E0.00508
G1 X168.64 Y136.175 E0.01137
G1 X168.404 Y136.337 E0.01223
G1 X168.135 Y136.488 E0.01322
G1 X167.834 Y136.627 E0.01415
G1 X167.509 Y136.749 E0.01485
G1 X166.78 Y136.948 E0.03233
G1 X165.987 Y137.07 E0.03428
G1 X165.161 Y137.112 E0.03537
G1 X164.335 Y137.07 E0.03537
G1 X163.542 Y136.948 E0.03428
G1 X162.813 Y136.749 E0.03233
G1 X162.488 Y136.627 E0.01485
G1 X162.187 Y136.488 E0.01415
G1 X161.918 Y136.337 E0.01322
G1 X161.682 Y136.175 E0.01223
G1 X161.479 Y136.003 E0.01137
G1 X161.396 Y135.918 E0.00508
G1 X161.319 Y135.831 E0.00497
G1 X161.252 Y135.742 E0.00473
G1 X161.195 Y135.654 E0.0045
G1 X161.147 Y135.566 E0.00429
G1 X161.109 Y135.478 E0.0041
G1 X161.079 Y135.391 E0.00394
G1 X161.058 Y135.305 E0.00381
G1 X161.045 Y135.219 E0.00372
G1 X161.041 Y135.133 E0.00367
G1 X161.045 Y135.047 E0.00367
G1 X161.058 Y134.961 E0.00372
G1 X161.079 Y134.874 E0.00381
G1 X161.109 Y134.787 E0.00394
G1 X161.147 Y134.7 E0.0041
G1 X161.195 Y134.611 E0.00429
G1 X161.252 Y134.523 E0.0045
G1 X161.319 Y134.435 E0.00473
G1 X161.396 Y134.347 E0.00497
G1 X161.479 Y134.263 E0.00508
G1 X161.682 Y134.091 E0.01137
G1 X161.918 Y133.929 E0.01223
G1 X162.187 Y133.778 E0.01322
G1 X162.488 Y133.639 E0.01415
G1 X162.813 Y133.516 E0.01485
G1 X163.542 Y133.318 E0.03233
G1 X164.335 Y133.195 E0.03428
G1 X165.161 Y133.154 E0.03537
G1 X165.987 Y133.195 E0.03537
G1 X166.78 Y133.318 E0.03428
G1 X167.509 Y133.516 E0.03233
G1 X167.834 Y133.639 E0.01485
G1 X168.135 Y133.778 E0.01415
G1 X168.404 Y133.929 E0.01322
G1 X168.64 Y134.091 E0.01223
G1 X168.843 Y134.263 E0.01137
G1 X168.926 Y134.347 E0.00508
G1 X169.003 Y134.435 E0.00497
G1 X169.07 Y134.523 E0.00473
G1 X169.127 Y134.611 E0.0045
G1 X169.175 Y134.7 E0.00429
G1 X169.213 Y134.787 E0.0041
G1 X169.243 Y134.874 E0.00394
G1 X169.262 Y134.952 E0.00343
G1 X169.244 Y135.034 F12000
G1 E-0.8 F3000
G1 X167.714 Y134.226 F12000
G1 E0.8 F1500
;TYPE:Solid infill
;WIDTH:0.488952
G1 F1800
G1 X168.416 Y134.927 E0.04319
G1 X168.543 Y135.122 E0.01012
G1 X168.443 Y135.304 E0.00905
G1 X168.323 Y135.441 E0.00792
G1 X167.07 Y134.187 E0.07723
G1 X166.621 Y134.065 E0.02026
G1 X166.291 Y134.014 E0.01455
G1 X167.977 Y135.7 E0.10384
G1 X167.575 Y135.904 E0.01963
G1 X165.611 Y133.94 E0.12096
G1 X165.161 Y133.918 E0.01961
G1 X164.991 Y133.926 E0.00742
G1 X167.127 Y136.063 E0.13161
G1 X166.651 Y136.192 E0.0215
G1 X164.414 Y133.955 E0.13781
G1 X163.889 Y134.036 E0.02314
G1 X166.129 Y136.277 E0.13801
G1 X165.91 Y136.311 E0.00968
G1 X165.574 Y136.327 E0.01464
G1 X163.395 Y134.148 E0.13422
G1 X163.048 Y134.243 E0.01566
G1 X162.928 Y134.288 E0.00557
G1 X164.98 Y136.339 E0.12634
G1 X164.412 Y136.311 E0.02474
G1 X164.333 Y136.298 E0.00349
G1 X162.515 Y134.48 E0.112
G1 X162.315 Y134.581 E0.00974
G1 X162.149 Y134.695 E0.00878
G1 X162.136 Y134.707 E0.00077
G1 X163.603 Y136.174 E0.09035
G1 X163.054 Y136.025 E0.02478
G1 X162.699 Y135.876 E0.01674
G1 X161.709 Y134.887 E0.06096
G1 E-0.8 F3000
G1 X158.968 Y132.429 F12000
G1 E0.8 F1500
;TYPE:Internal perimeter
;WIDTH:0.48
G1 F600
G1 X158.799 Y132.617 E0.01081
G1 X158.473 Y133.078 E0.02415
G1 X158.326 Y133.333 E0.0126
G1 X158.2 Y133.587 E0.01209
G1 X158.093 Y133.847 E0.01203
G1 X158.004 Y134.112 E0.01197
G1 X157.933 Y134.383 E0.01194
G1 X157.883 Y134.657 E0.01191
G1 X157.853 Y134.933 E0.01188
G1 X157.843 Y135.21 E0.01186
G1 X157.853 Y135.487 E0.01186
G1 X157.883 Y135.764 E0.01188
G1 X157.933 Y136.038 E0.01191
G1 X158.004 Y136.308 E0.01194
G1 X158.093 Y136.573 E0.01197
G1 X158.201 Y136.833 E0.01202
G1 X158.326 Y137.087 E0.01209
