; generated by SuperSlicer 2.3.57 on 2021-12-24 at 19:06:52 UTC


;
;

;
;
; 

; external perimeters extrusion width = 0.40mm
; perimeters extrusion width = 0.40mm
; infill extrusion width = 0.40mm
; solid infill extrusion width = 0.40mm
; top infill extrusion width = 0.40mm
; support material extrusion width = 0.40mm
; first layer extrusion width = 0.48mm


;TYPE:Custom
START_PRINT T_BED=70 T_EXTRUDER=235
M107
G21 ; set units to millimeters
G90 ; use absolute coordinates
M83 ; use relative distances for extrusion
M104 S235 ; set temperature
M109 S235 ; set temperature and wait for it to be reached
M190 S70 ; set bed temperature and wait for it to be reached
M107
;LAYER_CHANGE
;Z:0.24
;HEIGHT:0.24
G1 Z0.24 F12000
G1 E-1.5 F3000
G1 X148.408 Y125.614 F12000
G1 E1.5 F1800
;TYPE:Skirt
;WIDTH:0.48
G1 F600
G1 X147.161 Y127.378 E0.09236
G1 X146.063 Y129.354 E0.09664
G1 X133.388 Y159.46 E1.39662
G1 X132.626 Y161.601 E0.09715
G1 X132.055 Y163.985 E0.10485
G1 X131.766 Y166.134 E0.09268
G1 X131.691 Y168.324 E0.09371
G1 X131.857 Y170.747 E0.10383
G1 X132.386 Y173.531 E0.12116
G1 X133.003 Y174.94 E0.06575
G1 X133.408 Y175.545 E0.03113
G1 X134.158 Y176.374 E0.04782
G1 X135.034 Y177.048 E0.04726
G1 X136.751 Y177.842 E0.08089
G1 X169.205 Y189.869 E1.47979
G1 X170.608 Y190.195 E0.06155
G1 X172.123 Y190.355 E0.06514
G1 X173.37 Y190.35 E0.05331
G1 X174.617 Y190.212 E0.05366
G1 X176.104 Y189.879 E0.06514
G1 X177.419 Y189.412 E0.05966
G1 X178.689 Y188.789 E0.06051
G1 X179.867 Y187.996 E0.06068
G1 X180.899 Y187.119 E0.05794
G1 X181.869 Y186.088 E0.06051
G1 X182.693 Y184.986 E0.0588
G1 X183.393 Y183.793 E0.05914
G1 X183.917 Y182.624 E0.05481
G1 X195.834 Y154.281 E1.31454
G1 X196.244 Y153.019 E0.05674
G1 X196.785 Y151.227 E0.08005
G1 X197.132 Y149.407 E0.07919
G1 X197.306 Y147.338 E0.08879
G1 X197.242 Y145.248 E0.08943
G1 X196.943 Y142.796 E0.10559
G1 X196.744 Y141.793 E0.04372
G1 X196.163 Y140.232 E0.07123
G1 X195.615 Y139.274 E0.04715
G1 X195.06 Y138.533 E0.03961
G1 X194.476 Y137.907 E0.03662
G1 X193.795 Y137.401 E0.03625
G1 X160.925 Y122.143 E1.54942
G1 X159.219 Y121.428 E0.07907
G1 X157.469 Y120.885 E0.07834
G1 X156.703 Y120.719 E0.0335
G1 X155.891 Y120.645 E0.03487
G1 X154.656 Y120.718 E0.05288
G1 X153.602 Y120.987 E0.04653
G1 X153.109 Y121.263 E0.02417
G1 X151.371 Y122.567 E0.09287
G1 X149.841 Y123.982 E0.0891
G1 X148.448 Y125.569 E0.09031
G1 X148.769 Y125.852 F12000
G1 F600
G1 X148.747 Y125.876 E0.00141
G1 X147.526 Y127.604 E0.09045
G1 X146.453 Y129.533 E0.09437
G1 X133.784 Y159.625 E1.39598
G1 X133.036 Y161.726 E0.09535
G1 X132.479 Y164.048 E0.10209
G1 X132.193 Y166.17 E0.09157
G1 X132.12 Y168.333 E0.09252
G1 X132.282 Y170.693 E0.10115
G1 X132.799 Y173.415 E0.11848
G1 X133.369 Y174.717 E0.06076
G1 X133.744 Y175.278 E0.02886
G1 X134.464 Y176.074 E0.0459
G1 X135.253 Y176.679 E0.0425
G1 X136.904 Y177.442 E0.07777
G1 X169.328 Y189.458 E1.47842
G1 X170.679 Y189.772 E0.05929
G1 X172.123 Y189.926 E0.06211
G1 X173.344 Y189.923 E0.05222
G1 X174.562 Y189.787 E0.05238
G1 X175.99 Y189.466 E0.06258
G1 X177.252 Y189.017 E0.05725
G1 X178.479 Y188.415 E0.05843
G1 X179.611 Y187.653 E0.05835
G1 X180.611 Y186.802 E0.05616
G1 X181.541 Y185.812 E0.05804
G1 X182.338 Y184.746 E0.05694
G1 X183.013 Y183.594 E0.0571
G1 X183.525 Y182.453 E0.05346
G1 X195.438 Y154.116 E1.31426
G1 X195.834 Y152.896 E0.05486
G1 X196.369 Y151.125 E0.0791
G1 X196.711 Y149.328 E0.07818
G1 X196.878 Y147.32 E0.08618
G1 X196.816 Y145.291 E0.08677
G1 X196.52 Y142.863 E0.10461
G1 X196.331 Y141.909 E0.04154
G1 X195.773 Y140.41 E0.0684
G1 X195.267 Y139.525 E0.04358
G1 X194.178 Y138.215 E0.07283
G1 X193.594 Y137.78 E0.03114
G1 X160.755 Y122.536 E1.54795
G1 X159.072 Y121.831 E0.07804
G1 X157.352 Y121.298 E0.07697
G1 X155.891 Y121.074 E0.06321
G1 X154.728 Y121.141 E0.04978
G1 X153.764 Y121.384 E0.04253
G1 X153.351 Y121.616 E0.02024
G1 X151.648 Y122.895 E0.09108
G1 X150.151 Y124.279 E0.08715
G1 X148.809 Y125.807 E0.08695
G1 E-1.5 F3000
G1 X169.892 Y169.168 F12000
G1 E1.5 F1800
;TYPE:Internal perimeter
G1 F600
G1 X170.181 Y168.983 E0.01468
G1 X171.219 Y168.475 E0.0494
G1 X172.308 Y168.089 E0.0494
G1 X173.434 Y167.83 E0.0494
G1 X174.582 Y167.702 E0.0494
G1 X175.738 Y167.706 E0.0494
G1 X176.885 Y167.842 E0.0494
G1 X178.009 Y168.109 E0.0494
G1 X179.096 Y168.502 E0.0494
G1 X180.012 Y168.959 E0.04375
G1 X180.283 Y169.247 E0.01692
G1 X180.6 Y169.669 E0.02258
G1 X180.866 Y170.125 E0.02258
G1 X181.079 Y170.609 E0.02258
G1 X181.235 Y171.113 E0.02258
G1 X181.333 Y171.632 E0.02258
G1 X181.379 Y172.258 E0.02684
G1 X181.613 Y173.925 E0.07195
G1 X181.663 Y175.51 E0.06781
G1 X181.54 Y177.091 E0.06781
G1 X181.246 Y178.65 E0.06781
G1 X180.77 Y180.218 E0.07009
G1 X180.462 Y181.192 E0.04365
G1 X180.07 Y182.074 E0.0413
G1 X179.582 Y182.908 E0.0413
G1 X179.004 Y183.682 E0.0413
G1 X178.343 Y184.386 E0.0413
G1 X177.609 Y185.013 E0.0413
G1 X176.821 Y185.546 E0.04064
G1 X175.966 Y185.964 E0.04069
G1 X175.056 Y186.287 E0.0413
G1 X174.115 Y186.505 E0.0413
G1 X173.155 Y186.615 E0.0413
G1 X172.189 Y186.615 E0.0413
G1 X171.229 Y186.505 E0.0413
G1 X170.288 Y186.287 E0.0413
G1 X169.378 Y185.964 E0.0413
G1 X168.524 Y185.546 E0.04066
G1 X167.429 Y184.804 E0.05656
G1 X166.589 Y184.088 E0.04715
G1 X166.729 Y183.804 E0.01352
G1 X167.701 Y184.007 E0.04246
G1 X168.609 Y184.106 E0.03905
G1 X169.235 Y184.126 E0.02678
G1 X169.881 Y184.073 E0.02771
G1 X170.516 Y183.947 E0.02771
G1 X171.133 Y183.749 E0.02771
G1 X171.724 Y183.481 E0.02771
G1 X172.28 Y183.148 E0.02771
G1 X172.794 Y182.754 E0.02771
G1 X173.26 Y182.304 E0.02771
G1 X173.727 Y181.735 E0.03144
G1 X174.088 Y180.919 E0.03817
G1 X174.324 Y180.146 E0.03454
G1 X174.467 Y179.351 E0.03454
G1 X174.515 Y178.545 E0.03454
G1 X174.467 Y177.738 E0.03454
G1 X174.324 Y176.943 E0.03454
G1 X174.088 Y176.171 E0.03454
G1 X173.759 Y175.428 E0.03474
G1 X173.287 Y174.646 E0.03906
G1 X172.729 Y173.929 E0.03885
G1 X172.09 Y173.283 E0.03885
G1 X171.38 Y172.717 E0.03885
G1 X170.607 Y172.238 E0.03885
G1 X170.447 Y172.164 E0.00753
G1 X170.429 Y171.709 E0.01944
G1 X170.261 Y170.543 E0.05037
G1 X169.976 Y169.4 E0.05037
G1 X169.912 Y169.224 E0.008
G1 X169.373 Y168.992 F12000
G1 F600
G1 X169.971 Y168.609 E0.03034
G1 X171.053 Y168.079 E0.05151
G1 X172.188 Y167.677 E0.05151
G1 X173.362 Y167.407 E0.0515
G1 X174.559 Y167.273 E0.0515
G1 X175.764 Y167.278 E0.05151
G1 X176.96 Y167.42 E0.05151
G1 X178.132 Y167.698 E0.0515
G1 X179.265 Y168.108 E0.0515
G1 X180.271 Y168.609 E0.04806
G1 X180.612 Y168.97 E0.02122
G1 X180.958 Y169.432 E0.02467
G1 X181.249 Y169.93 E0.02467
G1 X181.481 Y170.459 E0.02467
G1 X181.652 Y171.01 E0.02467
G1 X181.759 Y171.577 E0.02467
G1 X181.805 Y172.213 E0.02727
G1 X182.041 Y173.888 E0.07232
G1 X182.092 Y175.52 E0.0698
G1 X181.965 Y177.148 E0.0698
G1 X181.663 Y178.752 E0.0698
G1 X181.179 Y180.345 E0.0712
G1 X180.863 Y181.344 E0.04478
G1 X180.451 Y182.27 E0.04334
G1 X179.939 Y183.145 E0.04334
G1 X179.333 Y183.957 E0.04334
G1 X178.64 Y184.697 E0.04334
G1 X177.868 Y185.355 E0.04334
G1 X177.036 Y185.917 E0.04294
G1 X176.133 Y186.36 E0.04302
G1 X175.176 Y186.699 E0.04339
G1 X174.188 Y186.928 E0.04339
G1 X173.18 Y187.043 E0.04339
G1 X172.165 Y187.043 E0.04339
G1 X171.156 Y186.928 E0.04339
G1 X170.168 Y186.699 E0.04339
G1 X169.212 Y186.36 E0.04339
G1 X168.308 Y185.918 E0.043
G1 X167.169 Y185.145 E0.05886
G1 X166.113 Y184.245 E0.0593
G1 X165.162 Y183.236 E0.0593
G1 X164.995 Y183.014 E0.01184
G1 X165.188 Y182.768 E0.01336
G1 X166.059 Y183.139 E0.04047
G1 X166.902 Y183.403 E0.03779
G1 X167.768 Y183.584 E0.03779
G1 X168.639 Y183.678 E0.03746
G1 X169.224 Y183.697 E0.02505
G1 X169.821 Y183.648 E0.02561
G1 X170.409 Y183.531 E0.02561
G1 X170.979 Y183.348 E0.02561
G1 X171.525 Y183.101 E0.02561
G1 X172.039 Y182.793 E0.02561
G1 X172.514 Y182.429 E0.02561
G1 X172.945 Y182.013 E0.02561
G1 X173.359 Y181.509 E0.02789
G1 X173.685 Y180.769 E0.03457
G1 X173.907 Y180.045 E0.03236
G1 X174.041 Y179.3 E0.03236
G1 X174.086 Y178.545 E0.03236
G1 X174.041 Y177.789 E0.03236
G1 X173.907 Y177.044 E0.03236
G1 X173.685 Y176.321 E0.03236
G1 X173.379 Y175.626 E0.03248
G1 X172.934 Y174.889 E0.03681
G1 X172.407 Y174.212 E0.03668
G1 X171.803 Y173.602 E0.03668
G1 X171.132 Y173.068 E0.03668
G1 X170.403 Y172.616 E0.03668
G1 X170.03 Y172.442 E0.01759
G1 X170.001 Y171.749 E0.02966
G1 X169.84 Y170.626 E0.04851
G1 X169.565 Y169.525 E0.04851
G1 X169.393 Y169.048 E0.02169
G1 X168.854 Y168.815 F12000
;TYPE:External perimeter
G1 F600
G1 X169.76 Y168.235 E0.04601
G1 X170.886 Y167.683 E0.05361
G1 X172.068 Y167.265 E0.05361
G1 X173.29 Y166.984 E0.05361
G1 X174.536 Y166.845 E0.05361
G1 X175.79 Y166.849 E0.05361
G1 X177.035 Y166.997 E0.05361
G1 X178.255 Y167.286 E0.05361
G1 X179.434 Y167.713 E0.05361
G1 X180.53 Y168.26 E0.05237
G1 X180.94 Y168.694 E0.02552
G1 X181.315 Y169.195 E0.02676
G1 X181.631 Y169.735 E0.02676
G1 X181.883 Y170.308 E0.02676
G1 X182.068 Y170.906 E0.02676
G1 X182.184 Y171.521 E0.02676
G1 X182.231 Y172.168 E0.0277
G1 X182.468 Y173.851 E0.0727
G1 X182.521 Y175.53 E0.0718
G1 X182.391 Y177.204 E0.0718
G1 X182.08 Y178.854 E0.0718
G1 X181.588 Y180.472 E0.0723
G1 X181.264 Y181.496 E0.0459
G1 X180.833 Y182.466 E0.04539
G1 X180.297 Y183.382 E0.04539
G1 X179.662 Y184.233 E0.04539
G1 X178.936 Y185.007 E0.04539
G1 X178.128 Y185.696 E0.04539
G1 X177.252 Y186.289 E0.04525
G1 X176.299 Y186.755 E0.04534
G1 X175.297 Y187.111 E0.04548
G1 X174.261 Y187.351 E0.04548
G1 X173.204 Y187.472 E0.04548
G1 X172.14 Y187.472 E0.04547
G1 X171.084 Y187.351 E0.04548
G1 X170.047 Y187.111 E0.04547
G1 X169.045 Y186.755 E0.04548
G1 X168.093 Y186.289 E0.04534
G1 X166.909 Y185.486 E0.06116
G1 X165.817 Y184.556 E0.06132
G1 X164.834 Y183.512 E0.06132
G1 X164.116 Y182.559 E0.05104
G1 X164.832 Y182.079 E0.03687
G1 X165.432 Y182.407 E0.02926
G1 X166.207 Y182.736 E0.03599
G1 X167.011 Y182.988 E0.03599
G1 X167.835 Y183.16 E0.03599
G1 X168.669 Y183.25 E0.03587
G1 X169.214 Y183.268 E0.02331
G1 X169.762 Y183.223 E0.02351
G1 X170.301 Y183.116 E0.02351
G1 X170.825 Y182.948 E0.02351
G1 X171.326 Y182.721 E0.02351
G1 X171.797 Y182.438 E0.02351
G1 X172.234 Y182.104 E0.02351
G1 X172.629 Y181.722 E0.02351
G1 X172.991 Y181.282 E0.02433
G1 X173.283 Y180.619 E0.03097
G1 X173.49 Y179.944 E0.03018
G1 X173.615 Y179.25 E0.03018
G1 X173.657 Y178.545 E0.03018
G1 X173.615 Y177.84 E0.03018
G1 X173.49 Y177.146 E0.03018
G1 X173.283 Y176.471 E0.03018
G1 X172.998 Y175.824 E0.03022
G1 X172.58 Y175.132 E0.03455
G1 X172.084 Y174.495 E0.03451
G1 X171.516 Y173.921 E0.03451
G1 X170.885 Y173.418 E0.03451
G1 X170.199 Y172.994 E0.03451
G1 X169.613 Y172.72 E0.02766
G1 X169.574 Y171.788 E0.03988
G1 X169.419 Y170.709 E0.04665
G1 X169.155 Y169.65 E0.04665
G1 X168.874 Y168.872 E0.03537
G1 X169.254 Y168.827 F12000
G1 E-1.5 F3000
G1 X180.692 Y170.125 F12000
G1 E1.5 F1800
;TYPE:Solid infill
;WIDTH:0.482837
G1 X179.788 Y169.221 E0.05501
G1 X178.964 Y168.81 E0.0396
G1 X178.662 Y168.701 E0.01381
G1 X180.8 Y170.839 E0.13006
G1 X180.91 Y171.194 E0.01598
G1 X180.994 Y171.639 E0.01947
G1 X177.745 Y168.39 E0.19763
G1 X176.951 Y168.201 E0.03511
G1 X181.046 Y172.297 E0.24913
G1 X181.146 Y173.003 E0.03064
G1 X176.246 Y168.103 E0.29801
G1 X175.717 Y168.04 E0.0229
G1 X175.577 Y168.04 E0.00604
G1 X181.245 Y173.708 E0.34476
G1 X181.28 Y173.953 E0.01066
G1 X181.293 Y174.361 E0.01755
G1 X174.969 Y168.037 E0.38463
G1 X174.6 Y168.036 E0.01585
G1 X174.386 Y168.06 E0.0093
G1 X181.312 Y174.987 E0.4213
G1 X181.328 Y175.502 E0.02218
G1 X181.321 Y175.601 E0.00427
G1 X173.84 Y168.121 E0.45496
G1 X173.49 Y168.16 E0.01516
G1 X173.314 Y168.201 E0.00778
G1 X181.277 Y176.163 E0.48433
G1 X181.233 Y176.726 E0.02426
G1 X172.821 Y168.314 E0.51164
G1 X172.401 Y168.41 E0.01852
G1 X172.335 Y168.434 E0.00302
G1 X181.167 Y177.266 E0.53718
G1 X181.071 Y177.776 E0.02232
G1 X171.888 Y168.592 E0.55855
G1 X171.44 Y168.751 E0.02042
G1 X180.975 Y178.285 E0.57992
G1 X180.921 Y178.569 E0.01242
G1 X180.858 Y178.775 E0.00924
G1 X171.025 Y168.942 E0.59806
G1 X170.618 Y169.141 E0.01948
G1 X180.715 Y179.238 E0.61412
G1 X180.572 Y179.701 E0.02084
G1 X170.336 Y169.465 E0.62257
G1 X170.538 Y170.272 E0.03578
G1 X180.429 Y180.164 E0.60164
G1 X180.286 Y180.627 E0.02084
G1 X170.665 Y171.005 E0.5852
G1 X170.762 Y171.679 E0.02926
G1 X170.763 Y171.709 E0.00133
G1 X180.142 Y181.088 E0.57045
G1 X179.956 Y181.508 E0.01975
G1 X174.322 Y175.875 E0.34264
G1 X174.401 Y176.054 E0.00845
G1 X174.625 Y176.783 E0.03278
G1 X179.769 Y181.927 E0.31287
G1 X179.545 Y182.309 E0.01905
G1 X174.77 Y177.535 E0.2904
G1 X174.8 Y177.699 E0.00718
G1 X174.83 Y178.2 E0.02159
G1 X179.321 Y182.691 E0.27318
G1 X179.303 Y182.723 E0.00157
G1 X179.065 Y183.041 E0.01709
G1 X174.834 Y178.811 E0.25731
G1 X174.8 Y179.383 E0.02464
G1 X178.806 Y183.388 E0.24363
G1 X178.747 Y183.467 E0.00422
G1 X178.52 Y183.709 E0.01426
G1 X174.709 Y179.897 E0.23184
G1 X174.65 Y180.225 E0.01434
G1 X174.598 Y180.393 E0.00753
G1 X178.227 Y184.022 E0.22072
G1 X178.112 Y184.144 E0.00723
G1 X177.914 Y184.314 E0.01123
G1 X174.456 Y180.857 E0.21028
G1 X174.401 Y181.036 E0.00805
G1 X174.287 Y181.294 E0.01214
G1 X177.587 Y184.593 E0.20066
G1 X177.406 Y184.747 E0.01021
G1 X177.244 Y184.856 E0.0084
G1 X174.102 Y181.714 E0.19112
G1 X174.014 Y181.912 E0.00932
G1 X173.87 Y182.088 E0.00979
G1 X176.883 Y185.101 E0.18324
G1 X176.653 Y185.256 E0.0119
G1 X176.504 Y185.329 E0.00713
G1 X173.597 Y182.421 E0.17687
G1 X173.506 Y182.531 E0.00611
G1 X173.3 Y182.73 E0.01235
G1 X176.098 Y185.528 E0.17016
G1 X175.836 Y185.655 E0.0125
G1 X175.676 Y185.712 E0.00731
G1 X172.989 Y183.026 E0.16342
G1 X172.646 Y183.288 E0.01859
G1 X175.229 Y185.871 E0.15709
G1 X174.962 Y185.966 E0.01219
G1 X174.764 Y186.012 E0.00875
G1 X172.286 Y183.534 E0.15071
G1 X171.907 Y183.761 E0.019
G1 X174.272 Y186.126 E0.14383
G1 X174.058 Y186.175 E0.00944
G1 X173.75 Y186.211 E0.01331
G1 X171.493 Y183.953 E0.13732
G1 X171.254 Y184.061 E0.01128
G1 X171.058 Y184.124 E0.00886
G1 X173.207 Y186.273 E0.1307
G1 X173.136 Y186.281 E0.00305
G1 X172.609 Y186.281 E0.02268
G1 X170.599 Y184.271 E0.12224
G1 X170.093 Y184.372 E0.02217
G1 X171.976 Y186.254 E0.11451
G1 X171.292 Y186.176 E0.02962
G1 X169.551 Y184.435 E0.10587
G1 X169.243 Y184.461 E0.01331
G1 X168.961 Y184.451 E0.01212
G1 X170.504 Y185.994 E0.09384
G1 X170.382 Y185.966 E0.0054
G1 X169.588 Y185.684 E0.03624
G1 X168.314 Y184.41 E0.0775
G1 X167.981 Y184.374 E0.0144
G1 X167.898 Y184.6 E0.01036
G1 X168.824 Y185.526 E0.05633
G1 E-1.5 F3000
G1 X166.49 Y183.844 F12000
G1 E1.5 F1800
;TYPE:Gap fill
;WIDTH:0.715818
G1 F600
G1 X166.424 Y183.805 E0.00509
G1 X166.337 Y183.751 E0.00674
;WIDTH:0.609529
G1 X166.251 Y183.698 E0.00566
G1 X166.125 Y183.619 E0.00829
;WIDTH:0.491859
G1 X165.999 Y183.54 E0.00654
;WIDTH:0.420437
G1 X165.92 Y183.49 E0.00342
;WIDTH:0.390385
G1 X165.767 Y183.383 E0.00633
;WIDTH:0.300669
G1 X165.613 Y183.276 E0.00466
;WIDTH:0.210952
G1 X165.459 Y183.169 E0.00298
;WIDTH:0.140807
G1 X165.345 Y183.089 E0.00125
G1 X165.027 Y182.409 F12000
;WIDTH:0.31793
G1 F600
G1 X164.983 Y182.444 E0.00147
;WIDTH:0.411511
G1 X164.853 Y182.546 E0.00596
;WIDTH:0.485118
G1 X164.728 Y182.662 E0.00736
;WIDTH:0.511935
G1 X164.64 Y182.736 E0.00529
;WIDTH:0.596741
G1 X164.551 Y182.809 E0.00627
G1 E-1.5 F3000
G1 X168.443 Y179.448 F12000
G1 E1.5 F1800
;TYPE:Internal perimeter
;WIDTH:0.48
G1 F600
G1 X168.843 Y178.86 E0.03042
G1 X169.399 Y177.815 E0.05057
G1 X169.692 Y177.87 E0.01276
G1 X169.737 Y178.232 E0.0156
G1 X169.738 Y178.609 E0.01611
G1 X169.75 Y178.705 E0.00413
G1 X169.764 Y178.81 E0.00454
G1 X169.765 Y178.874 E0.00274
G1 X169.759 Y178.939 E0.00279
G1 X169.746 Y179.003 E0.00279
G1 X169.725 Y179.065 E0.00279
G1 X169.698 Y179.124 E0.00279
G1 X169.664 Y179.18 E0.00279
G1 X169.624 Y179.231 E0.00279
G1 X169.579 Y179.278 E0.00279
G1 X169.529 Y179.32 E0.00279
G1 X169.473 Y179.356 E0.00285
G1 X169.253 Y179.408 E0.00967
G1 X168.965 Y179.443 E0.01239
G1 X168.503 Y179.447 E0.01974
G1 X167.745 Y179.713 F12000
G1 F600
G1 X168.476 Y178.638 E0.05559
G1 X168.981 Y177.69 E0.04591
G1 X169.422 Y176.587 E0.0508
G1 X169.651 Y176.847 E0.01484
G1 X169.818 Y177.09 E0.0126
G1 X169.954 Y177.351 E0.0126
G1 X170.059 Y177.627 E0.0126
G1 X170.129 Y177.913 E0.0126
