; generated by SuperSlicer 2.3.56 on 2021-12-17 at 04:18:02 UTC


;
;

;
;
; 

; external perimeters extrusion width = 0.40mm
; perimeters extrusion width = 0.40mm
; infill extrusion width = 0.40mm
; solid infill extrusion width = 0.40mm
; top infill extrusion width = 0.40mm
; support material extrusion width = 0.40mm
; first layer extrusion width = 0.48mm


;TYPE:Custom
START_PRINT T_BED=70 T_EXTRUDER=235
M107
G21 ; set units to millimeters
G90 ; use absolute coordinates
M83 ; use relative distances for extrusion
M104 S235 ; set temperature
M109 S235 ; set temperature and wait for it to be reached
M190 S70 ; set bed temperature and wait for it to be reached
M107
;LAYER_CHANGE
;Z:0.24
;HEIGHT:0.24
G1 Z0.240000 F12000.000
G1 E-1.50000 F3000.000
G1 X140.221 Y148.681 F12000.000
G1 E1.50000 F1800.000
;TYPE:Skirt
;WIDTH:0.48
G1 F600.000
G1 X140.867 Y148.181 E0.03491
G1 X142.656 Y147.334 E0.08464
G1 X173.996 Y135.699 E1.42931
G1 X175.201 Y135.276 E0.05459
G1 X176.545 Y134.966 E0.05898
G1 X177.915 Y134.808 E0.05898
G1 X179.174 Y134.803 E0.05383
G1 X180.701 Y134.965 E0.06565
G1 X182.194 Y135.323 E0.06565
G1 X183.372 Y135.746 E0.05348
G1 X184.515 Y136.301 E0.05434
G1 X185.776 Y137.129 E0.06450
G1 X186.886 Y138.071 E0.06223
G1 X187.906 Y139.175 E0.06428
G1 X188.653 Y140.183 E0.05365
G1 X189.283 Y141.250 E0.05296
G1 X189.878 Y142.552 E0.06119
G1 X190.821 Y145.571 E0.13522
G1 X191.191 Y147.504 E0.08416
G1 X191.356 Y149.550 E0.08777
G1 X191.300 Y151.458 E0.08159
G1 X190.981 Y154.106 E0.11406
G1 X190.577 Y155.742 E0.07206
G1 X190.088 Y156.850 E0.05177
G1 X189.658 Y157.574 E0.03601
G1 X189.087 Y158.334 E0.04064
G1 X188.137 Y159.264 E0.05684
G1 X186.620 Y160.050 E0.07304
G1 X155.011 Y174.682 E1.48926
G1 X153.271 Y175.412 E0.08068
G1 X150.765 Y176.121 E0.11133
G1 X149.941 Y176.197 E0.03538
G1 X148.726 Y176.127 E0.05203
G1 X147.932 Y175.957 E0.03470
G1 X147.400 Y175.733 E0.02468
G1 X145.456 Y174.307 E0.10310
G1 X143.895 Y172.866 E0.09082
G1 X142.545 Y171.337 E0.08721
G1 X141.155 Y169.375 E0.10281
G1 X140.155 Y167.583 E0.08773
G1 X139.318 Y165.640 E0.09048
G1 X138.572 Y163.533 E0.09555
G1 X138.050 Y161.400 E0.09388
G1 X137.711 Y158.891 E0.10828
G1 X137.644 Y156.720 E0.09285
G1 X137.809 Y154.410 E0.09903
G1 X138.388 Y151.476 E0.12786
G1 X138.903 Y150.305 E0.05466
G1 X139.667 Y149.236 E0.05620
G1 X140.179 Y148.723 E0.03097
G1 X140.489 Y149.078 F12000.000
G1 F600.000
G1 X141.109 Y148.535 E0.03523
G1 X142.817 Y147.731 E0.08073
G1 X174.148 Y136.100 E1.42886
G1 X175.321 Y135.688 E0.05317
G1 X176.618 Y135.388 E0.05694
G1 X177.945 Y135.236 E0.05709
G1 X179.174 Y135.232 E0.05254
G1 X180.629 Y135.387 E0.06258
G1 X182.056 Y135.729 E0.06273
G1 X183.206 Y136.141 E0.05222
G1 X184.321 Y136.683 E0.05301
G1 X185.527 Y137.478 E0.06176
G1 X186.590 Y138.381 E0.05961
G1 X187.566 Y139.436 E0.06148
G1 X188.294 Y140.417 E0.05223
G1 X188.913 Y141.466 E0.05207
G1 X189.484 Y142.722 E0.05897
G1 X190.407 Y145.680 E0.13250
G1 X190.768 Y147.574 E0.08242
G1 X190.927 Y149.565 E0.08540
G1 X190.872 Y151.433 E0.07991
G1 X190.559 Y154.033 E0.11199
G1 X190.170 Y155.606 E0.06927
G1 X189.717 Y156.636 E0.04812
G1 X188.753 Y158.066 E0.07372
G1 X187.885 Y158.917 E0.05198
G1 X186.432 Y159.665 E0.06984
G1 X154.831 Y174.293 E1.48888
G1 X153.131 Y175.007 E0.07880
G1 X150.702 Y175.697 E0.10798
G1 X149.941 Y175.768 E0.03268
G1 X148.789 Y175.703 E0.04931
G1 X148.060 Y175.548 E0.03190
G1 X147.597 Y175.352 E0.02149
G1 X145.723 Y173.972 E0.09948
G1 X144.202 Y172.567 E0.08857
G1 X142.870 Y171.057 E0.08605
G1 X141.526 Y169.161 E0.09939
G1 X140.539 Y167.394 E0.08653
G1 X139.717 Y165.485 E0.08888
G1 X138.981 Y163.407 E0.09422
G1 X138.469 Y161.313 E0.09220
G1 X138.139 Y158.877 E0.10506
G1 X138.072 Y156.733 E0.09173
G1 X138.233 Y154.476 E0.09676
G1 X138.790 Y151.624 E0.12421
G1 X139.276 Y150.517 E0.05170
G1 X140.001 Y149.504 E0.05327
G1 X140.444 Y149.117 E0.02514
G1 E-1.50000 F3000.000
G1 X153.851 Y151.164 F12000.000
G1 E1.50000 F1800.000
;TYPE:Internal perimeter
G1 F600.000
G1 X152.755 Y151.956 E0.05784
G1 X151.968 Y152.686 E0.04589
G1 X151.275 Y153.505 E0.04589
G1 X150.687 Y154.403 E0.04589
G1 X150.209 Y155.373 E0.04621
G1 X150.003 Y155.989 E0.02778
G1 X149.867 Y156.609 E0.02712
G1 X149.799 Y157.239 E0.02712
G1 X149.799 Y157.874 E0.02712
G1 X149.867 Y158.504 E0.02712
G1 X150.003 Y159.124 E0.02712
G1 X150.198 Y159.707 E0.02629
G1 X150.423 Y160.247 E0.02500
G1 X150.717 Y160.777 E0.02592
G1 X151.068 Y161.271 E0.02592
G1 X151.472 Y161.723 E0.02592
G1 X151.924 Y162.127 E0.02592
G1 X152.418 Y162.479 E0.02592
G1 X152.948 Y162.773 E0.02592
G1 X153.538 Y163.019 E0.02732
G1 X154.293 Y163.191 E0.03311
G1 X155.031 Y163.274 E0.03173
G1 X155.773 Y163.274 E0.03173
G1 X156.510 Y163.191 E0.03173
G1 X157.188 Y163.036 E0.02974
G1 X158.194 Y162.778 E0.04439
G1 X159.204 Y162.426 E0.04573
G1 X159.633 Y162.234 E0.02007
G1 X159.769 Y162.312 E0.00671
G1 X160.307 Y162.570 E0.02551
G1 X160.233 Y163.104 E0.02304
G1 X159.895 Y164.381 E0.05649
G1 X159.405 Y165.608 E0.05649
G1 X158.770 Y166.766 E0.05649
G1 X157.999 Y167.840 E0.05649
G1 X157.104 Y168.812 E0.05649
G1 X156.093 Y169.673 E0.05676
G1 X154.804 Y170.547 E0.06662
G1 X153.429 Y171.292 E0.06687
G1 X151.987 Y171.898 E0.06687
G1 X150.488 Y172.361 E0.06706
G1 X150.182 Y172.425 E0.01339
G1 X149.877 Y172.457 E0.01308
G1 X149.571 Y172.457 E0.01308
G1 X149.267 Y172.425 E0.01308
G1 X149.147 Y172.400 E0.00525
G1 X147.873 Y171.452 E0.06793
G1 X146.570 Y170.251 E0.07574
G1 X145.401 Y168.920 E0.07574
G1 X144.377 Y167.474 E0.07574
G1 X143.511 Y165.929 E0.07574
G1 X142.802 Y164.281 E0.07669
G1 X142.156 Y162.460 E0.08261
G1 X141.704 Y160.603 E0.08171
G1 X141.446 Y158.710 E0.08171
G1 X141.384 Y156.800 E0.08171
G1 X141.519 Y154.893 E0.08171
G1 X141.853 Y152.991 E0.08258
G1 X141.927 Y152.687 E0.01338
G1 X142.026 Y152.416 E0.01234
G1 X142.154 Y152.157 E0.01234
G1 X142.310 Y151.914 E0.01234
G1 X142.491 Y151.690 E0.01234
G1 X142.696 Y151.486 E0.01234
G1 X142.867 Y151.351 E0.00932
G1 X144.032 Y150.813 E0.05489
G1 X145.317 Y150.384 E0.05791
G1 X146.641 Y150.098 E0.05791
G1 X147.989 Y149.961 E0.05791
G1 X149.343 Y149.972 E0.05791
G1 X150.688 Y150.132 E0.05791
G1 X152.007 Y150.440 E0.05791
G1 X153.285 Y150.890 E0.05791
G1 X153.797 Y151.138 E0.02433
G1 X154.367 Y150.937 F12000.000
G1 F600.000
G1 X154.367 Y151.407 E0.02011
G1 X153.855 Y151.690 E0.02504
G1 X153.027 Y152.288 E0.04365
G1 X152.278 Y152.982 E0.04365
G1 X151.619 Y153.762 E0.04365
G1 X151.060 Y154.616 E0.04365
G1 X150.606 Y155.536 E0.04385
G1 X150.416 Y156.103 E0.02555
G1 X150.291 Y156.677 E0.02515
G1 X150.228 Y157.262 E0.02515
G1 X150.228 Y157.851 E0.02515
G1 X150.291 Y158.435 E0.02515
G1 X150.416 Y159.010 E0.02515
G1 X150.599 Y159.557 E0.02465
G1 X150.809 Y160.060 E0.02331
G1 X151.080 Y160.548 E0.02388
G1 X151.403 Y161.003 E0.02388
G1 X151.776 Y161.420 E0.02388
G1 X152.192 Y161.792 E0.02388
G1 X152.647 Y162.116 E0.02388
G1 X153.135 Y162.387 E0.02388
G1 X153.669 Y162.609 E0.02473
G1 X154.365 Y162.768 E0.03052
G1 X155.055 Y162.845 E0.02967
G1 X155.749 Y162.845 E0.02967
G1 X156.438 Y162.768 E0.02967
G1 X157.087 Y162.620 E0.02846
G1 X158.070 Y162.367 E0.04337
G1 X159.046 Y162.027 E0.04419
G1 X159.656 Y161.755 E0.02855
G1 X159.968 Y161.932 E0.01534
G1 X160.616 Y162.243 E0.03074
G1 X160.776 Y162.306 E0.00737
G1 X160.654 Y163.188 E0.03806
G1 X160.303 Y164.516 E0.05872
G1 X159.793 Y165.791 E0.05872
G1 X159.133 Y166.995 E0.05872
G1 X158.332 Y168.111 E0.05872
G1 X157.402 Y169.121 E0.05872
G1 X156.353 Y170.014 E0.05888
G1 X155.027 Y170.913 E0.06853
G1 X153.614 Y171.679 E0.06868
G1 X152.134 Y172.302 E0.06868
G1 X150.596 Y172.776 E0.06880
G1 X150.248 Y172.849 E0.01518
G1 X149.900 Y172.886 E0.01499
G1 X149.549 Y172.886 E0.01499
G1 X149.200 Y172.849 E0.01499
G1 X148.967 Y172.800 E0.01022
G1 X147.599 Y171.782 E0.07291
G1 X146.263 Y170.551 E0.07767
G1 X145.064 Y169.186 E0.07767
G1 X144.014 Y167.704 E0.07767
G1 X143.126 Y166.119 E0.07767
G1 X142.403 Y164.438 E0.07825
G1 X141.744 Y162.583 E0.08415
G1 X141.283 Y160.683 E0.08360
G1 X141.019 Y158.746 E0.08360
G1 X140.955 Y156.792 E0.08360
G1 X141.093 Y154.841 E0.08360
G1 X141.433 Y152.903 E0.08413
G1 X141.516 Y152.563 E0.01499
G1 X141.631 Y152.247 E0.01436
G1 X141.780 Y151.946 E0.01436
G1 X141.962 Y151.663 E0.01436
G1 X142.173 Y151.402 E0.01436
G1 X142.411 Y151.165 E0.01436
G1 X142.641 Y150.983 E0.01252
G1 X143.874 Y150.414 E0.05809
G1 X145.204 Y149.970 E0.05993
G1 X146.574 Y149.675 E0.05993
G1 X147.969 Y149.532 E0.05993
G1 X149.370 Y149.544 E0.05993
G1 X150.762 Y149.710 E0.05993
G1 X152.128 Y150.028 E0.05993
G1 X153.450 Y150.494 E0.05993
G1 X154.313 Y150.911 E0.04100
G1 X154.796 Y150.668 F12000.000
;TYPE:External perimeter
G1 F600.000
G1 X154.796 Y151.660 E0.04243
G1 X154.084 Y152.053 E0.03474
G1 X153.299 Y152.620 E0.04142
G1 X152.589 Y153.279 E0.04142
G1 X151.963 Y154.019 E0.04142
G1 X151.432 Y154.829 E0.04142
G1 X151.003 Y155.699 E0.04149
G1 X150.830 Y156.217 E0.02332
G1 X150.714 Y156.746 E0.02318
G1 X150.656 Y157.285 E0.02318
G1 X150.656 Y157.828 E0.02318
G1 X150.714 Y158.366 E0.02318
G1 X150.830 Y158.896 E0.02318
G1 X151.001 Y159.406 E0.02300
G1 X151.195 Y159.873 E0.02163
G1 X151.443 Y160.320 E0.02183
G1 X151.739 Y160.736 E0.02183
G1 X152.079 Y161.116 E0.02183
G1 X152.460 Y161.457 E0.02183
G1 X152.876 Y161.753 E0.02183
G1 X153.322 Y162.000 E0.02183
G1 X153.800 Y162.199 E0.02214
G1 X154.437 Y162.345 E0.02792
G1 X155.079 Y162.417 E0.02762
G1 X155.725 Y162.417 E0.02762
G1 X156.367 Y162.345 E0.02762
G1 X156.986 Y162.203 E0.02718
G1 X157.946 Y161.957 E0.04235
G1 X158.888 Y161.628 E0.04264
G1 X159.678 Y161.275 E0.03703
G1 X160.166 Y161.552 E0.02396
G1 X160.788 Y161.850 E0.02949
G1 X161.247 Y162.033 E0.02110
G1 X161.075 Y163.273 E0.05352
G1 X160.710 Y164.650 E0.06094
G1 X160.181 Y165.974 E0.06094
G1 X159.496 Y167.224 E0.06094
G1 X158.665 Y168.382 E0.06094
G1 X157.699 Y169.430 E0.06094
G1 X156.613 Y170.356 E0.06100
G1 X155.250 Y171.280 E0.07044
G1 X153.800 Y172.066 E0.07050
G1 X152.280 Y172.705 E0.07050
G1 X150.704 Y173.191 E0.07054
G1 X150.315 Y173.273 E0.01697
G1 X149.922 Y173.314 E0.01690
G1 X149.527 Y173.314 E0.01690
G1 X149.134 Y173.273 E0.01690
G1 X148.786 Y173.200 E0.01519
G1 X147.325 Y172.112 E0.07788
G1 X145.956 Y170.850 E0.07959
G1 X144.727 Y169.452 E0.07959
G1 X143.652 Y167.933 E0.07959
G1 X142.741 Y166.309 E0.07959
G1 X142.004 Y164.594 E0.07980
G1 X141.333 Y162.706 E0.08568
G1 X140.861 Y160.763 E0.08549
G1 X140.591 Y158.782 E0.08549
G1 X140.526 Y156.783 E0.08549
G1 X140.667 Y154.789 E0.08549
G1 X141.013 Y152.815 E0.08567
G1 X141.106 Y152.438 E0.01661
G1 X141.237 Y152.078 E0.01638
G1 X141.407 Y151.735 E0.01638
G1 X141.614 Y151.412 E0.01638
G1 X141.854 Y151.114 E0.01638
G1 X142.127 Y150.844 E0.01638
G1 X142.415 Y150.616 E0.01572
G1 X143.716 Y150.015 E0.06129
G1 X145.091 Y149.556 E0.06196
G1 X146.507 Y149.251 E0.06196
G1 X147.949 Y149.103 E0.06196
G1 X149.398 Y149.116 E0.06196
G1 X150.837 Y149.287 E0.06196
G1 X152.248 Y149.616 E0.06196
G1 X153.614 Y150.098 E0.06196
G1 X154.742 Y150.642 E0.05351
G1 X154.546 Y150.981 F12000.000
G1 E-1.50000 F3000.000
G1 X153.102 Y151.520 F12000.000
G1 E1.50000 F1800.000
;TYPE:Solid infill
;WIDTH:0.487468
G1 X152.592 Y151.010 E0.03135
G1 X151.911 Y150.769 E0.03134
G1 X151.696 Y150.719 E0.00961
G1 X152.613 Y151.636 E0.05631
G1 X152.537 Y151.691 E0.00404
G1 X152.290 Y151.920 E0.01463
G1 X150.905 Y150.535 E0.08502
G1 X150.629 Y150.471 E0.01233
G1 X150.182 Y150.417 E0.01955
G1 X151.976 Y152.211 E0.11015
G1 X151.719 Y152.449 E0.01516
G1 X151.668 Y152.510 E0.00346
G1 X149.494 Y150.335 E0.13351
G1 X149.321 Y150.315 E0.00753
G1 X148.863 Y150.311 E0.01989
G1 X151.390 Y152.838 E0.15518
G1 X151.113 Y153.166 E0.01867
G1 X148.252 Y150.306 E0.17566
G1 X148.005 Y150.304 E0.01074
G1 X147.678 Y150.337 E0.01428
G1 X150.858 Y153.517 E0.19527
G1 X150.618 Y153.883 E0.01901
G1 X147.128 Y150.393 E0.21430
G1 X146.695 Y150.438 E0.01889
G1 X146.589 Y150.460 E0.00471
G1 X150.380 Y154.251 E0.23278
G1 X150.179 Y154.657 E0.01965
G1 X146.090 Y150.568 E0.25110
G1 X145.592 Y150.675 E0.02215
G1 X149.979 Y155.063 E0.26943
G1 X149.891 Y155.242 E0.00867
G1 X149.806 Y155.496 E0.01162
G1 X145.121 Y150.810 E0.28769
G1 X144.667 Y150.962 E0.02080
G1 X149.659 Y155.955 E0.30656
G1 X149.551 Y156.452 E0.02210
G1 X144.213 Y151.114 E0.32779
G1 X144.159 Y151.132 E0.00245
G1 X143.793 Y151.301 E0.01749
G1 X149.481 Y156.989 E0.34928
G1 X149.456 Y157.221 E0.01014
G1 X149.456 Y157.570 E0.01515
G1 X143.379 Y151.492 E0.37320
G1 X143.048 Y151.645 E0.01582
G1 X142.980 Y151.699 E0.00378
G1 X149.491 Y158.210 E0.39981
G1 X149.528 Y158.559 E0.01526
G1 X149.611 Y158.936 E0.01673
G1 X142.678 Y152.003 E0.42569
G1 X142.588 Y152.115 E0.00622
G1 X142.453 Y152.326 E0.01090
G1 X142.434 Y152.365 E0.00187
G1 X150.220 Y160.152 E0.47815
G1 E-1.50000 F3000.000
G1 X159.287 Y162.553 F12000.000
G1 E1.50000 F1800.000
G1 X159.870 Y163.136 E0.03580
G1 X159.743 Y163.615 E0.02152
G1 X158.991 Y162.863 E0.04618
G1 X158.542 Y163.019 E0.02066
G1 X159.617 Y164.094 E0.06598
G1 X159.569 Y164.273 E0.00804
G1 X159.461 Y164.544 E0.01268
G1 X158.076 Y163.160 E0.08502
G1 X157.590 Y163.279 E0.02176
G1 X159.288 Y164.977 E0.10428
G1 X159.115 Y165.410 E0.02025
G1 X157.103 Y163.398 E0.12354
G1 X156.616 Y163.518 E0.02176
G1 X158.905 Y165.806 E0.14054
G1 X158.691 Y166.198 E0.01938
G1 X156.077 Y163.584 E0.16048
G1 X155.792 Y163.617 E0.01246
G1 X155.503 Y163.617 E0.01254
G1 X158.475 Y166.589 E0.18251
G1 X158.222 Y166.941 E0.01885
G1 X154.883 Y163.602 E0.20505
G1 X154.236 Y163.529 E0.02827
G1 X154.195 Y163.520 E0.00183
G1 X157.969 Y167.294 E0.23176
G1 X157.733 Y167.623 E0.01757
G1 X157.713 Y167.644 E0.00127
G1 X153.044 Y162.975 E0.28672
G1 E-1.50000 F3000.000
G1 X157.559 Y168.096 F12000.000
G1 E1.50000 F1800.000
G1 X142.254 Y152.792 E0.93980
G1 X142.188 Y153.062 E0.01207
G1 X142.148 Y153.291 E0.01013
G1 X157.132 Y168.275 E0.92011
G1 X156.866 Y168.564 E0.01705
G1 X156.839 Y168.588 E0.00157
G1 X142.058 Y153.807 E0.90764
G1 X141.967 Y154.322 E0.02273
G1 X156.511 Y168.866 E0.89309
G1 X156.184 Y169.145 E0.01867
G1 X141.877 Y154.838 E0.87854
G1 X141.860 Y154.935 E0.00428
G1 X141.827 Y155.395 E0.01999
G1 X155.854 Y169.421 E0.86130
G1 X155.493 Y169.666 E0.01895
G1 X141.787 Y155.961 E0.84158
G1 X141.747 Y156.527 E0.02464
G1 X155.131 Y169.911 E0.82186
G1 X154.770 Y170.155 E0.01895
G1 X141.738 Y157.123 E0.80027
G1 X141.758 Y157.749 E0.02721
G1 X154.390 Y170.381 E0.77567
G1 X153.997 Y170.594 E0.01941
G1 X141.778 Y158.376 E0.75030
G1 X141.788 Y158.681 E0.01327
G1 X141.837 Y159.040 E0.01575
G1 X153.604 Y170.807 E0.72256
G1 X153.280 Y170.983 E0.01600
G1 X153.205 Y171.014 E0.00353
G1 X141.933 Y159.742 E0.69219
G1 X142.029 Y160.444 E0.03074
G1 X152.779 Y171.194 E0.66013
G1 X152.352 Y171.373 E0.02009
G1 X142.209 Y161.231 E0.62282
G1 X142.404 Y162.031 E0.03577
G1 X151.925 Y171.553 E0.58467
G1 X151.870 Y171.576 E0.00262
G1 X151.467 Y171.700 E0.01830
G1 X142.680 Y162.913 E0.53956
G1 X143.014 Y163.853 E0.04331
G1 X151.004 Y171.843 E0.49062
G1 X150.541 Y171.986 E0.02104
G1 X143.431 Y164.876 E0.43656
G1 X143.819 Y165.777 E0.04257
G1 X143.936 Y165.987 E0.01046
G1 X150.044 Y172.095 E0.37506
G1 X149.860 Y172.114 E0.00806
G1 X149.594 Y172.114 E0.01151
G1 X149.436 Y172.093 E0.00693
G1 X144.206 Y166.863 E0.32114
G1 E-1.50000 F3000.000
G1 X145.321 Y168.354 F12000.000
G1 E1.50000 F1800.000
;TYPE:Gap fill
;WIDTH:0.147504
G1 F600.000
G1 X145.480 Y168.543 E0.00236
;WIDTH:0.230979
G1 X145.639 Y168.732 E0.00442
G1 X145.937 Y169.048 E0.00778
;WIDTH:0.268265
G1 X146.234 Y169.365 E0.00939
;WIDTH:0.30555
G1 X146.531 Y169.682 E0.01101
;WIDTH:0.342835
G1 X146.828 Y169.999 E0.01263
G1 X147.454 Y170.600 E0.02523
;WIDTH:0.272291
G1 X148.080 Y171.201 E0.01912
G1 X148.242 Y171.341 E0.00472
;WIDTH:0.230696
G1 X148.404 Y171.482 E0.00383
;WIDTH:0.1891
G1 X148.567 Y171.622 E0.00294
;WIDTH:0.147504
G1 X148.729 Y171.762 E0.00205
G1 E-1.50000 F3000.000
G1 X155.616 Y158.601 F12000.000
G1 E1.50000 F1800.000
;TYPE:Internal perimeter
;WIDTH:0.48
G1 F600.000
G1 X155.045 Y158.515 E0.02466
G1 X154.846 Y158.461 E0.00881
G1 X154.776 Y158.402 E0.00396
G1 X154.705 Y158.328 E0.00436
