; generated by SuperSlicer 2.3.56 on 2021-12-17 at 04:18:13 UTC


;
;

;
;
; 

; external perimeters extrusion width = 0.40mm
; perimeters extrusion width = 0.40mm
; infill extrusion width = 0.40mm
; solid infill extrusion width = 0.40mm
; top infill extrusion width = 0.40mm
; support material extrusion width = 0.40mm
; first layer extrusion width = 0.48mm


;TYPE:Custom
START_PRINT T_BED=60 T_EXTRUDER=200
M107
G21 ; set units to millimeters
G90 ; use absolute coordinates
M83 ; use relative distances for extrusion
; Filament gcode
M104 S200 ; set temperature
M109 S200 ; set temperature and wait for it to be reached
M190 S60 ; set bed temperature and wait for it to be reached
M107
;LAYER_CHANGE
;Z:0.24
;HEIGHT:0.24
G1 Z0.240000 F12000.000
G1 E-0.80000 F3000.000
G1 X123.478 Y124.418 F12000.000
G1 E0.80000 F1500.000
;TYPE:Skirt
;WIDTH:0.48
G1 F600.000
G1 X125.322 Y122.588 E0.11105
G1 X127.384 Y120.916 E0.11352
G1 X129.678 Y119.404 E0.11747
G1 X132.054 Y118.158 E0.11473
G1 X136.211 Y116.157 E0.19724
G1 X140.642 Y114.514 E0.20206
G1 X145.291 Y113.278 E0.20566
G1 X153.931 Y111.904 E0.37405
G1 X158.160 Y111.565 E0.18140
G1 X162.379 Y111.511 E0.18037
G1 X167.615 Y111.580 E0.22391
G1 X172.868 Y112.006 E0.22533
G1 X178.080 Y112.788 E0.22533
G1 X183.093 Y113.725 E0.21807
G1 X188.281 Y115.183 E0.23037
G1 X195.872 Y118.154 E0.34853
G1 X198.956 Y119.816 E0.14981
G1 X201.529 Y121.579 E0.13336
G1 X204.038 Y123.717 E0.14091
G1 X204.998 Y124.680 E0.05817
G1 X205.856 Y125.712 E0.05738
G1 X206.711 Y126.948 E0.06424
G1 X208.713 Y130.797 E0.18548
G1 X210.004 Y133.513 E0.12860
G1 X211.139 Y136.408 E0.13294
G1 X212.050 Y139.314 E0.13019
G1 X213.301 Y144.584 E0.23160
G1 X213.742 Y147.429 E0.12308
G1 X213.986 Y150.233 E0.12034
G1 X214.021 Y156.562 E0.27063
G1 X213.604 Y160.156 E0.15467
G1 X209.330 Y191.183 E1.33911
G1 X208.889 Y193.058 E0.08236
G1 X208.269 Y194.829 E0.08023
G1 X207.358 Y196.753 E0.09102
G1 X206.983 Y197.353 E0.03023
G1 X206.355 Y198.072 E0.04083
G1 X205.801 Y198.531 E0.03073
G1 X205.181 Y198.909 E0.03106
G1 X204.111 Y199.322 E0.04903
G1 X202.844 Y199.489 E0.05466
G1 X124.185 Y197.380 E3.36429
G1 X123.221 Y197.172 E0.04218
G1 X122.548 Y196.912 E0.03086
G1 X121.325 Y196.178 E0.06096
G1 X120.269 Y195.145 E0.06318
G1 X119.515 Y193.953 E0.06029
G1 X119.222 Y193.237 E0.03310
G1 X118.463 Y190.732 E0.11189
G1 X118.018 Y188.298 E0.10582
G1 X115.094 Y154.365 E1.45619
G1 X114.965 Y149.542 E0.20626
G1 X115.091 Y146.455 E0.13209
G1 X115.378 Y143.582 E0.12348
G1 X115.964 Y140.514 E0.13355
G1 X117.591 Y135.118 E0.24097
G1 X118.569 Y132.443 E0.12174
G1 X119.809 Y129.775 E0.12581
G1 X121.409 Y127.028 E0.13590
G1 X123.263 Y124.631 E0.12956
G1 X123.436 Y124.460 E0.01039
G1 X123.737 Y124.764 F12000.000
G1 F600.000
G1 X125.598 Y122.916 E0.11216
G1 X127.636 Y121.262 E0.11221
G1 X129.898 Y119.772 E0.11582
G1 X132.246 Y118.541 E0.11331
G1 X136.382 Y116.551 E0.19626
G1 X140.771 Y114.923 E0.20014
G1 X145.369 Y113.699 E0.20343
G1 X153.977 Y112.330 E0.37268
G1 X158.180 Y111.993 E0.18027
G1 X162.377 Y111.939 E0.17948
G1 X167.594 Y112.008 E0.22308
G1 X172.820 Y112.432 E0.22417
G1 X178.009 Y113.211 E0.22432
G1 X183.012 Y114.146 E0.21764
G1 X188.141 Y115.588 E0.22779
G1 X195.705 Y118.549 E0.34727
G1 X198.718 Y120.172 E0.14632
G1 X201.269 Y121.919 E0.13221
G1 X203.737 Y124.022 E0.13865
G1 X204.680 Y124.968 E0.05711
G1 X205.526 Y125.986 E0.05658
G1 X206.352 Y127.184 E0.06222
G1 X208.327 Y130.984 E0.18310
G1 X209.610 Y133.683 E0.12780
G1 X210.732 Y136.543 E0.13135
G1 X211.636 Y139.425 E0.12915
G1 X212.882 Y144.670 E0.23048
G1 X213.317 Y147.479 E0.12154
G1 X213.558 Y150.260 E0.11934
G1 X213.594 Y156.535 E0.26831
G1 X213.179 Y160.098 E0.15334
G1 X208.913 Y191.084 E1.33732
G1 X208.477 Y192.938 E0.08144
G1 X207.866 Y194.683 E0.07904
G1 X206.990 Y196.533 E0.08751
G1 X206.644 Y197.091 E0.02808
G1 X206.059 Y197.762 E0.03808
G1 X204.996 Y198.522 E0.05587
G1 X204.016 Y198.904 E0.04496
G1 X202.855 Y199.060 E0.05011
G1 X124.215 Y196.953 E3.36350
G1 X123.328 Y196.757 E0.03881
G1 X122.706 Y196.514 E0.02857
G1 X121.573 Y195.828 E0.05660
G1 X120.600 Y194.873 E0.05832
G1 X119.902 Y193.769 E0.05583
G1 X119.629 Y193.103 E0.03078
G1 X118.877 Y190.623 E0.11081
G1 X118.444 Y188.253 E0.10302
G1 X115.521 Y154.333 E1.45560
G1 X115.394 Y149.545 E0.20479
G1 X115.518 Y146.487 E0.13087
G1 X115.804 Y143.630 E0.12273
G1 X116.380 Y140.616 E0.13120
G1 X117.995 Y135.262 E0.23913
G1 X118.964 Y132.609 E0.12073
G1 X120.188 Y129.974 E0.12424
G1 X121.748 Y127.291 E0.13270
G1 X123.584 Y124.916 E0.12836
G1 X123.694 Y124.806 E0.00665
G1 E-0.80000 F3000.000
G1 X188.003 Y188.423 F12000.000
G1 E0.80000 F1500.000
;TYPE:Internal perimeter
G1 F600.000
G1 X188.295 Y188.438 E0.01251
G1 X189.587 Y188.357 E0.05533
G1 X190.862 Y188.133 E0.05533
G1 X192.104 Y187.769 E0.05533
G1 X193.297 Y187.270 E0.05533
G1 X194.428 Y186.640 E0.05533
G1 X195.482 Y185.889 E0.05533
G1 X196.446 Y185.025 E0.05533
G1 X196.664 Y184.779 E0.01404
G1 X197.270 Y185.140 E0.03014
G1 X198.792 Y185.829 E0.07144
G1 X200.382 Y186.344 E0.07144
G1 X202.019 Y186.678 E0.07144
G1 X203.684 Y186.827 E0.07144
G1 X205.354 Y186.790 E0.07144
G1 X205.822 Y186.727 E0.02018
G1 X205.873 Y187.252 E0.02254
G1 X205.855 Y188.856 E0.06861
G1 X205.662 Y190.449 E0.06861
G1 X205.296 Y192.012 E0.06861
G1 X204.763 Y193.526 E0.06861
G1 X204.064 Y194.980 E0.06900
G1 X203.972 Y195.133 E0.00763
G1 X203.871 Y195.264 E0.00706
G1 X203.756 Y195.382 E0.00706
G1 X203.627 Y195.486 E0.00706
G1 X203.487 Y195.574 E0.00706
G1 X203.338 Y195.645 E0.00706
G1 X203.182 Y195.698 E0.00706
G1 X203.021 Y195.733 E0.00706
G1 X202.858 Y195.748 E0.00698
G1 X201.293 Y195.707 E0.06695
G1 X199.734 Y195.496 E0.06723
G1 X198.208 Y195.118 E0.06723
G1 X196.677 Y194.557 E0.06973
G1 X193.201 Y193.276 E0.15837
G1 X189.879 Y191.737 E0.15652
G1 X187.458 Y190.368 E0.11894
G1 X187.579 Y190.030 E0.01534
G1 X187.934 Y188.758 E0.05647
G1 X187.991 Y188.482 E0.01204
G1 X187.657 Y187.977 F12000.000
G1 F600.000
G1 X188.292 Y188.008 E0.02719
G1 X189.536 Y187.931 E0.05329
G1 X190.764 Y187.716 E0.05329
G1 X191.960 Y187.365 E0.05329
G1 X193.110 Y186.884 E0.05329
G1 X194.199 Y186.277 E0.05329
G1 X195.214 Y185.554 E0.05329
G1 X196.142 Y184.721 E0.05329
G1 X196.580 Y184.231 E0.02813
G1 X197.469 Y184.759 E0.04423
G1 X198.947 Y185.429 E0.06939
G1 X200.491 Y185.929 E0.06939
G1 X202.082 Y186.253 E0.06939
G1 X203.698 Y186.398 E0.06939
G1 X205.321 Y186.362 E0.06939
G1 X206.205 Y186.243 E0.03815
G1 X206.302 Y187.233 E0.04254
G1 X206.283 Y188.885 E0.07061
G1 X206.084 Y190.524 E0.07061
G1 X205.708 Y192.132 E0.07061
G1 X205.159 Y193.690 E0.07061
G1 X204.442 Y195.184 E0.07085
G1 X204.327 Y195.375 E0.00955
G1 X204.195 Y195.546 E0.00921
G1 X204.044 Y195.699 E0.00921
G1 X203.877 Y195.835 E0.00921
G1 X203.695 Y195.949 E0.00921
G1 X203.500 Y196.042 E0.00921
G1 X203.296 Y196.112 E0.00921
G1 X203.086 Y196.157 E0.00921
G1 X202.873 Y196.177 E0.00915
G1 X201.258 Y196.135 E0.06905
G1 X199.654 Y195.918 E0.06922
G1 X198.083 Y195.528 E0.06922
G1 X196.529 Y194.959 E0.07074
G1 X193.037 Y193.672 E0.15913
G1 X189.684 Y192.118 E0.15800
G1 X186.933 Y190.563 E0.13510
G1 X187.170 Y189.900 E0.03012
G1 X187.518 Y188.657 E0.05518
G1 X187.645 Y188.036 E0.02710
G1 X187.311 Y187.531 F12000.000
;TYPE:External perimeter
G1 F600.000
G1 X188.290 Y187.579 E0.04188
G1 X189.486 Y187.505 E0.05125
G1 X190.667 Y187.298 E0.05125
G1 X191.817 Y186.960 E0.05125
G1 X192.922 Y186.498 E0.05125
G1 X193.970 Y185.914 E0.05125
G1 X194.945 Y185.219 E0.05125
G1 X195.838 Y184.418 E0.05125
G1 X196.495 Y183.682 E0.04221
G1 X197.667 Y184.379 E0.05831
G1 X199.102 Y185.028 E0.06734
G1 X200.601 Y185.514 E0.06734
G1 X202.144 Y185.829 E0.06734
G1 X203.712 Y185.969 E0.06734
G1 X205.287 Y185.934 E0.06734
G1 X206.588 Y185.759 E0.05613
G1 X206.731 Y187.215 E0.06254
G1 X206.711 Y188.913 E0.07262
G1 X206.507 Y190.599 E0.07262
G1 X206.120 Y192.253 E0.07262
G1 X205.556 Y193.855 E0.07262
G1 X204.819 Y195.387 E0.07270
G1 X204.681 Y195.617 E0.01148
G1 X204.519 Y195.827 E0.01135
G1 X204.333 Y196.017 E0.01135
G1 X204.126 Y196.184 E0.01135
G1 X203.902 Y196.325 E0.01135
G1 X203.662 Y196.440 E0.01135
G1 X203.411 Y196.525 E0.01135
G1 X203.151 Y196.581 E0.01135
G1 X202.887 Y196.606 E0.01133
G1 X201.224 Y196.562 E0.07114
G1 X199.574 Y196.339 E0.07121
G1 X197.957 Y195.939 E0.07121
G1 X196.381 Y195.361 E0.07175
G1 X192.872 Y194.068 E0.15989
G1 X189.488 Y192.500 E0.15948
G1 X186.408 Y190.759 E0.15126
G1 X186.761 Y189.770 E0.04489
G1 X187.101 Y188.556 E0.05389
G1 X187.299 Y187.590 E0.04217
G1 X187.636 Y187.765 F12000.000
G1 E-0.80000 F3000.000
G1 X205.717 Y187.787 F12000.000
G1 E0.80000 F1500.000
;TYPE:Solid infill
;WIDTH:0.485019
G1 F1800.000
G1 X205.069 Y187.139 E0.03960
G1 X204.476 Y187.153 E0.02562
G1 X205.520 Y188.196 E0.06375
G1 X205.513 Y188.795 E0.02589
G1 X203.883 Y187.166 E0.09955
G1 X203.672 Y187.170 E0.00914
G1 X203.244 Y187.132 E0.01858
G1 X205.451 Y189.339 E0.13487
G1 X205.386 Y189.880 E0.02352
G1 X202.578 Y187.072 E0.17154
G1 X201.970 Y187.018 E0.02639
G1 X201.904 Y187.004 E0.00290
G1 X205.317 Y190.417 E0.20855
G1 X205.202 Y190.909 E0.02179
G1 X201.142 Y186.849 E0.24805
G1 X200.381 Y186.693 E0.03357
G1 X205.088 Y191.400 E0.28756
G1 X204.973 Y191.891 E0.02179
G1 X199.500 Y186.418 E0.33436
G1 X198.669 Y186.149 E0.03776
G1 X198.589 Y186.113 E0.00378
G1 X204.817 Y192.341 E0.38053
G1 X204.659 Y192.789 E0.02052
G1 X197.482 Y185.612 E0.43850
G1 X197.111 Y185.444 E0.01758
G1 X196.738 Y185.222 E0.01875
G1 X196.605 Y185.342 E0.00771
G1 X204.501 Y193.237 E0.48241
G1 X204.446 Y193.394 E0.00718
G1 X204.318 Y193.660 E0.01276
G1 X196.286 Y185.628 E0.49074
G1 X195.966 Y185.915 E0.01854
G1 X204.121 Y194.069 E0.49824
G1 X203.925 Y194.479 E0.01962
G1 X195.642 Y186.196 E0.50607
G1 X195.288 Y186.448 E0.01877
G1 X203.719 Y194.879 E0.51509
G1 X203.605 Y195.046 E0.00874
G1 X203.532 Y195.120 E0.00451
G1 X203.428 Y195.194 E0.00549
G1 X194.934 Y186.700 E0.51898
G1 X194.612 Y186.930 E0.01711
G1 X194.577 Y186.949 E0.00170
G1 X203.006 Y195.378 E0.51499
G1 X202.836 Y195.404 E0.00743
G1 X202.415 Y195.393 E0.01819
G1 X194.188 Y187.166 E0.50268
G1 X193.799 Y187.383 E0.01925
G1 X201.793 Y195.377 E0.48844
G1 X201.320 Y195.365 E0.02043
G1 X201.152 Y195.342 E0.00734
G1 X193.406 Y187.596 E0.47328
G1 X192.979 Y187.775 E0.02001
G1 X200.451 Y195.247 E0.45655
G1 X199.799 Y195.159 E0.02844
G1 X199.743 Y195.145 E0.00248
G1 X192.552 Y187.953 E0.43939
G1 X192.218 Y188.093 E0.01560
G1 X192.115 Y188.123 E0.00464
G1 X198.938 Y194.946 E0.41683
G1 X198.309 Y194.790 E0.02799
G1 X198.098 Y194.712 E0.00968
G1 X191.647 Y188.261 E0.39419
G1 X191.178 Y188.398 E0.02110
G1 X197.140 Y194.360 E0.36425
G1 X196.181 Y194.007 E0.04413
G1 X190.686 Y188.512 E0.33571
G1 X190.171 Y188.603 E0.02261
G1 X195.222 Y193.654 E0.30864
G1 X194.264 Y193.301 E0.04413
G1 X189.655 Y188.693 E0.28156
G1 X189.627 Y188.698 E0.00123
G1 X189.088 Y188.732 E0.02335
G1 X193.300 Y192.944 E0.25735
G1 X192.171 Y192.421 E0.05376
G1 X188.517 Y188.767 E0.22322
G1 X188.284 Y188.782 E0.01012
G1 X188.205 Y189.061 E0.01254
G1 X191.042 Y191.898 E0.17329
G1 X190.036 Y191.432 E0.04788
G1 X189.884 Y191.345 E0.00757
G1 X188.073 Y189.535 E0.11063
G1 X187.941 Y190.008 E0.02124
G1 X188.999 Y191.067 E0.06467
G1 E-0.80000 F3000.000
G1 X168.306 Y135.316 F12000.000
G1 E0.80000 F1500.000
;TYPE:Internal perimeter
;WIDTH:0.48
G1 F600.000
G1 X168.187 Y135.473 E0.00842
G1 X168.148 Y135.518 E0.00256
G1 X168.109 Y135.557 E0.00232
G1 X167.969 Y135.676 E0.00789
G1 X167.801 Y135.791 E0.00870
G1 X167.594 Y135.907 E0.01012
G1 X167.353 Y136.019 E0.01139
G1 X167.094 Y136.116 E0.01180
G1 X166.451 Y136.291 E0.02852
G1 X165.750 Y136.400 E0.03032
G1 X165.011 Y136.437 E0.03164
G1 X164.271 Y136.400 E0.03164
G1 X163.571 Y136.291 E0.03032
G1 X162.927 Y136.116 E0.02852
G1 X162.669 Y136.019 E0.01180
G1 X162.427 Y135.907 E0.01139
G1 X162.220 Y135.791 E0.01012
G1 X162.053 Y135.676 E0.00870
G1 X161.912 Y135.557 E0.00789
G1 X161.874 Y135.518 E0.00232
G1 X161.834 Y135.473 E0.00256
G1 X161.715 Y135.316 E0.00842
G1 X161.834 Y135.159 E0.00842
G1 X161.874 Y135.114 E0.00257
G1 X161.912 Y135.075 E0.00232
G1 X162.053 Y134.955 E0.00789
G1 X162.220 Y134.840 E0.00870
G1 X162.427 Y134.724 E0.01012
G1 X162.669 Y134.613 E0.01139
G1 X162.927 Y134.515 E0.01180
G1 X163.571 Y134.340 E0.02852
G1 X164.271 Y134.232 E0.03032
G1 X165.011 Y134.195 E0.03164
G1 X165.750 Y134.232 E0.03164
G1 X166.451 Y134.340 E0.03032
G1 X167.094 Y134.515 E0.02852
G1 X167.353 Y134.613 E0.01180
G1 X167.594 Y134.724 E0.01139
G1 X167.801 Y134.840 E0.01012
G1 X167.969 Y134.955 E0.00870
G1 X168.109 Y135.075 E0.00789
G1 X168.148 Y135.114 E0.00232
G1 X168.187 Y135.159 E0.00256
G1 X168.270 Y135.268 E0.00585
G1 X168.701 Y135.316 F12000.000
G1 F600.000
G1 X168.699 Y135.360 E0.00191
G1 X168.693 Y135.406 E0.00198
G1 X168.681 Y135.454 E0.00212
G1 X168.664 Y135.505 E0.00231
G1 X168.639 Y135.560 E0.00254
G1 X168.608 Y135.618 E0.00282
G1 X168.568 Y135.679 E0.00312
G1 X168.520 Y135.743 E0.00344
G1 X168.462 Y135.810 E0.00377
G1 X168.401 Y135.871 E0.00370
G1 X168.229 Y136.017 E0.00963
G1 X168.027 Y136.155 E0.01047
G1 X167.789 Y136.289 E0.01167
G1 X167.518 Y136.414 E0.01277
G1 X167.227 Y136.524 E0.01332
G1 X166.540 Y136.711 E0.03043
G1 X165.793 Y136.826 E0.03230
G1 X165.011 Y136.866 E0.03351
G1 X164.228 Y136.826 E0.03351
G1 X163.481 Y136.711 E0.03230
G1 X162.795 Y136.524 E0.03043
G1 X162.503 Y136.414 E0.01332
G1 X162.232 Y136.289 E0.01277
G1 X161.994 Y136.155 E0.01167
G1 X161.792 Y136.017 E0.01047
G1 X161.620 Y135.871 E0.00963
G1 X161.559 Y135.810 E0.00370
G1 X161.502 Y135.743 E0.00377
G1 X161.453 Y135.679 E0.00344
G1 X161.413 Y135.618 E0.00312
G1 X161.382 Y135.560 E0.00282
G1 X161.358 Y135.505 E0.00254
G1 X161.340 Y135.454 E0.00231
G1 X161.329 Y135.406 E0.00212
G1 X161.322 Y135.360 E0.00198
G1 X161.320 Y135.316 E0.00191
G1 X161.322 Y135.271 E0.00191
G1 X161.329 Y135.225 E0.00198
G1 X161.340 Y135.177 E0.00212
G1 X161.358 Y135.126 E0.00231
G1 X161.382 Y135.072 E0.00254
G1 X161.413 Y135.014 E0.00282
G1 X161.453 Y134.953 E0.00312
G1 X161.502 Y134.888 E0.00344
G1 X161.559 Y134.822 E0.00377
G1 X161.620 Y134.760 E0.00370
G1 X161.792 Y134.615 E0.00963
G1 X161.994 Y134.476 E0.01047
G1 X162.232 Y134.342 E0.01167
G1 X162.503 Y134.217 E0.01277
G1 X162.795 Y134.107 E0.01332
G1 X163.481 Y133.920 E0.03043
G1 X164.228 Y133.805 E0.03230
G1 X165.011 Y133.766 E0.03351
G1 X165.793 Y133.805 E0.03351
G1 X166.540 Y133.920 E0.03230
G1 X167.227 Y134.107 E0.03043
G1 X167.518 Y134.217 E0.01332
G1 X167.789 Y134.342 E0.01277
G1 X168.027 Y134.476 E0.01167
G1 X168.229 Y134.615 E0.01047
G1 X168.401 Y134.760 E0.00963
G1 X168.462 Y134.822 E0.00370
G1 X168.520 Y134.888 E0.00377
G1 X168.568 Y134.953 E0.00344
G1 X168.608 Y135.014 E0.00312
G1 X168.639 Y135.072 E0.00282
G1 X168.664 Y135.126 E0.00254
G1 X168.681 Y135.177 E0.00231
G1 X168.693 Y135.225 E0.00212
G1 X168.697 Y135.256 E0.00133
G1 X169.121 Y135.195 F12000.000
;TYPE:External perimeter
G1 F600.000
G1 X169.126 Y135.230 E0.00153
G1 X169.130 Y135.316 E0.00367
G1 X169.126 Y135.402 E0.00367
G1 X169.114 Y135.488 E0.00372
G1 X169.093 Y135.574 E0.00381
G1 X169.063 Y135.661 E0.00394
G1 X169.024 Y135.749 E0.00410
G1 X168.976 Y135.837 E0.00429
G1 X168.919 Y135.925 E0.00450
G1 X168.852 Y136.014 E0.00473
G1 X168.776 Y136.101 E0.00497
G1 X168.693 Y136.186 E0.00508
G1 X168.490 Y136.358 E0.01137
G1 X168.254 Y136.520 E0.01223
G1 X167.984 Y136.671 E0.01322
G1 X167.684 Y136.810 E0.01415
G1 X167.359 Y136.932 E0.01485
G1 X166.629 Y137.131 E0.03233
G1 X165.837 Y137.253 E0.03428
G1 X165.011 Y137.295 E0.03537
G1 X164.184 Y137.253 E0.03537
G1 X163.392 Y137.131 E0.03428
G1 X162.662 Y136.932 E0.03233
G1 X162.337 Y136.810 E0.01485
G1 X162.037 Y136.671 E0.01415
G1 X161.767 Y136.520 E0.01322
G1 X161.531 Y136.358 E0.01223
G1 X161.329 Y136.186 E0.01137
G1 X161.245 Y136.101 E0.00508
G1 X161.169 Y136.014 E0.00497
G1 X161.102 Y135.925 E0.00473
G1 X161.045 Y135.837 E0.00450
G1 X160.997 Y135.749 E0.00429
G1 X160.958 Y135.661 E0.00410
G1 X160.928 Y135.574 E0.00394
G1 X160.908 Y135.488 E0.00381
G1 X160.895 Y135.402 E0.00372
G1 X160.891 Y135.316 E0.00367
G1 X160.895 Y135.230 E0.00367
