; generated by SuperSlicer 2.4 on 2022-05-17 at 21:43:44 UTC


;
;

;
;
; 

; external perimeters extrusion width = 0.40mm
; perimeters extrusion width = 0.40mm
; infill extrusion width = 0.72mm
; solid infill extrusion width = 0.56mm
; top infill extrusion width = 0.40mm
; support material extrusion width = 0.40mm
; first layer extrusion width = 0.40mm

; object:{"name":"HingePark","id":"HingePark.stl id:0 copy 0","object_center":[165.000000,164.999999,0.000000],"boundingbox_center":[165.000000,164.999999,9.057000],"boundingbox_size":[109.954010,60.044014,18.114000]}
; plater:{"center":[165.000000,164.999999,0.000000],"boundingbox_center":[165.000000,164.999999,9.057000],"boundingbox_size":[109.954010,60.044014,18.114000]}

M73 P0 R96
M73 C84
;TYPE:Custom
START_PRINT T_BED=60 T_EXTRUDER=200
M107
G21 ; set units to millimeters
G90 ; use absolute coordinates
M83 ; use relative distances for extrusion
; Filament gcode
M109 S200 ; set temperature and wait for it to be reached
M190 S60 ; set bed temperature and wait for it to be reached
M107
;LAYER_CHANGE
;Z:0.2
;HEIGHT:0.2
G1 Z0.2 F9000
G92 E0
M73 C1
G1 E-0.8 F3000
M204 S1000
G1 X108.749 Y132.41 F9000
G1 E0.8 F1800
;TYPE:Skirt
;WIDTH:0.52
G1 X108.091 Y132.962 E0.03406
G1 X107.675 Y133.406 E0.02414
G1 X107.095 Y134.281 E0.04163
G1 X106.702 Y135.302 E0.04342
G1 X106.5 Y136.59 E0.0517
G1 X106.5 Y179.818 E1.71482
G1 X106.679 Y181.053 E0.04952
G1 X107.091 Y182.136 E0.04596
G1 X107.798 Y183.149 E0.04902
G1 X108.137 Y183.504 E0.01947
G1 X108.981 Y184.174 E0.04273
G1 X109.917 Y184.64 E0.04149
G1 X148.673 Y198.377 E1.63113
M73 P0 R95
G1 X149.914 Y198.59 E0.04995
G1 X180.086 Y198.59 E1.19691
G1 X181.327 Y198.377 E0.04994
G1 X220.019 Y184.669 E1.62838
G1 X221.018 Y184.175 E0.0442
G1 X222.202 Y183.149 E0.06214
G1 X222.909 Y182.136 E0.04902
G1 X223.321 Y181.053 E0.04596
G1 X223.5 Y179.818 E0.04952
G1 X223.5 Y136.59 E1.71482
G1 X223.401 Y135.736 E0.0341
G1 X223.085 Y134.659 E0.04452
G1 X222.724 Y133.972 E0.03076
G1 X222.306 Y133.398 E0.02818
G1 X221.547 Y132.627 E0.04294
G1 X220.427 Y131.925 E0.05245
G1 X219.225 Y131.555 E0.04988
G1 X218.371 Y131.455 E0.0341
G1 X196.931 Y131.455 E0.85051
G1 X111.635 Y131.455 E3.38366
G1 X110.354 Y131.654 E0.05141
G1 X109.378 Y132.028 E0.04144
G1 X108.749 Y132.41 E0.02922
G1 X109.017 Y132.805 F9000
G1 F1800
G1 X108.416 Y133.312 E0.03118
G1 X108.031 Y133.723 E0.02234
G1 X107.526 Y134.485 E0.03628
G1 X107.166 Y135.412 E0.03943
G1 X106.977 Y136.59 E0.04733
G1 X106.977 Y179.818 E1.71482
G1 X107.145 Y180.955 E0.0456
G1 X107.505 Y181.898 E0.04006
G1 X108.143 Y182.82 E0.04445
G1 X108.482 Y183.174 E0.01947
G1 X109.246 Y183.778 E0.03863
G1 X110.252 Y184.258 E0.04422
G1 X148.832 Y197.927 E1.62366
G1 X149.914 Y198.113 E0.04353
G1 X180.086 Y198.113 E1.19691
G1 X181.167 Y197.927 E0.04353
G1 X219.86 Y184.219 E1.62838
G1 X220.752 Y183.779 E0.03948
G1 X221.857 Y182.82 E0.05805
G1 X222.495 Y181.898 E0.04445
G1 X222.855 Y180.955 E0.04006
G1 X223.023 Y179.818 E0.0456
G1 X223.023 Y136.59 E1.71482
G1 X222.936 Y135.845 E0.02972
G1 X222.643 Y134.84 E0.04155
G1 X221.949 Y133.715 E0.05246
G1 X221.422 Y133.154 E0.03053
G1 X220.761 Y132.636 E0.03333
G1 X219.545 Y132.121 E0.05239
G1 X218.371 Y131.933 E0.04714
G1 X196.931 Y131.932 E0.85051
G1 X111.635 Y131.932 E3.38366
G1 X110.463 Y132.119 E0.04706
G1 X109.588 Y132.456 E0.0372
G1 X109.017 Y132.805 E0.02655
G1 E-0.8 F3000
; printing object HingePark.stl id:0 copy 0
; acceleration to travel
M204 S3000
G1 X139.151 Y172.098 F9000
; decel to extrusion
M204 S1000
G1 X149.196 Y185.196
; end travel
G1 E0.8 F1800
;TYPE:Internal perimeter
;WIDTH:0.4
G1 X141.959 Y184.634 E0.21553
G1 X134.316 Y183.814 E0.22824
G1 X126.705 Y182.762 E0.22812
G1 X119.129 Y181.477 E0.22817
G1 X111.719 Y179.986 E0.22442
G1 X111.63 Y179.941 E0.00296
G1 X111.515 Y179.821 E0.00492
G1 X111.487 Y179.685 E0.00413
G1 X111.487 Y136.746 E1.27492
G1 X111.532 Y136.587 E0.00489
G1 X111.644 Y136.474 E0.00474
G1 X111.782 Y136.442 E0.00421
G1 X112.122 Y136.442 E0.0101
G1 X218.223 Y136.442 E3.15028
G1 X218.372 Y136.477 E0.00453
G1 X218.481 Y136.601 E0.0049
G1 X218.513 Y136.738 E0.00417
G1 X218.513 Y179.685 E1.27516
G1 X218.485 Y179.821 E0.00413
G1 X218.37 Y179.941 E0.00494
G1 X218.283 Y179.986 E0.0029
G1 X210.871 Y181.477 E0.22447
G1 X203.295 Y182.762 E0.22817
G1 X195.682 Y183.814 E0.22818
G1 X188.041 Y184.634 E0.22818
G1 X180.365 Y185.23 E0.22861
G1 X179.498 Y186.233 E0.03935
G1 X179.502 Y193.603 E0.21882
G1 X150.498 Y193.603 E0.86115
G1 X150.501 Y186.236 E0.21874
G1 X149.638 Y185.23 E0.03936
G1 X149.196 Y185.196 E0.01315
G1 X149.169 Y185.552 F9000
G1 F1800
G1 X141.926 Y184.99 E0.21569
G1 X134.272 Y184.169 E0.22855
G1 X126.651 Y183.115 E0.22844
G1 X119.064 Y181.828 E0.22849
G1 X111.601 Y180.327 E0.22602
G1 X111.483 Y180.278 E0.00379
G1 X111.414 Y180.232 E0.00246
G1 X111.22 Y180.03 E0.00831
G1 X111.179 Y179.957 E0.00247
G1 X111.13 Y179.722 E0.00713
G1 X111.13 Y136.696 E1.2775
M73 P1 R95
G1 X111.185 Y136.46 E0.00719
G1 X111.213 Y136.402 E0.00193
G1 X111.41 Y136.202 E0.00833
G1 X111.525 Y136.135 E0.00394
G1 X111.74 Y136.085 E0.00657
G1 X112.122 Y136.085 E0.01133
G1 X218.265 Y136.085 E3.15152
G1 X218.524 Y136.147 E0.00792
G1 X218.635 Y136.236 E0.00421
G1 X218.77 Y136.389 E0.00607
G1 X218.82 Y136.48 E0.00309
G1 X218.87 Y136.696 E0.00658
G1 X218.87 Y179.722 E1.2775
G1 X218.821 Y179.957 E0.00713
G1 X218.78 Y180.03 E0.00247
G1 X218.586 Y180.232 E0.00831
G1 X218.516 Y180.279 E0.00251
G1 X218.402 Y180.326 E0.00367
G1 X210.936 Y181.828 E0.22609
G1 X203.349 Y183.115 E0.22849
G1 X195.726 Y184.169 E0.2285
G1 X188.074 Y184.99 E0.2285
G1 X180.539 Y185.575 E0.2244
G1 X179.855 Y186.366 E0.03104
G1 X179.859 Y193.96 E0.22548
G1 X150.141 Y193.96 E0.88237
G1 X150.144 Y186.368 E0.22541
G1 X149.463 Y185.575 E0.03105
G1 X149.169 Y185.552 E0.00876
G1 X149.141 Y185.908 F9000
G1 F1800
G1 X141.893 Y185.345 E0.21584
G1 X134.229 Y184.523 E0.22887
G1 X126.597 Y183.468 E0.22877
G1 X118.998 Y182.179 E0.22882
G1 X111.496 Y180.67 E0.22721
G1 X111.314 Y180.595 E0.00587
G1 X111.183 Y180.507 E0.00467
G1 X110.932 Y180.245 E0.01076
G1 X110.841 Y180.086 E0.00543
G1 X110.772 Y179.76 E0.00991
G1 X110.772 Y136.655 E1.27984
G1 X110.846 Y136.342 E0.00955
G1 X110.917 Y136.194 E0.00485
G1 X111.189 Y135.918 E0.01153
G1 X111.292 Y135.848 E0.00367
G1 X111.391 Y135.8 E0.00328
G1 X111.699 Y135.727 E0.0094
G1 X112.122 Y135.727 E0.01256
G1 X218.306 Y135.728 E3.15275
G1 X218.628 Y135.804 E0.00983
G1 X218.712 Y135.839 E0.00269
G1 X218.882 Y135.977 E0.00651
G1 X219.065 Y136.183 E0.00818
G1 X219.156 Y136.353 E0.00572
G1 X219.228 Y136.655 E0.00921
G1 X219.228 Y179.76 E1.27984
G1 X219.159 Y180.086 E0.00991
G1 X219.068 Y180.245 E0.00543
G1 X218.817 Y180.507 E0.01076
G1 X218.685 Y180.596 E0.00473
G1 X218.506 Y180.669 E0.00575
G1 X211.002 Y182.179 E0.22728
G1 X203.403 Y183.468 E0.22882
G1 X195.769 Y184.523 E0.22883
G1 X188.107 Y185.345 E0.22881
G1 X180.713 Y185.919 E0.22019
G1 X180.213 Y186.499 E0.02273
G1 X180.216 Y193.996 E0.2226
G1 X180.172 Y194.053 E0.00214
G1 X180.112 Y194.221 E0.00529
G1 X179.892 Y194.317 E0.00715
G1 X150.107 Y194.317 E0.88435
G1 X150.046 Y194.27 E0.00229
G1 X149.846 Y194.198 E0.00632
G1 X149.784 Y194.07 E0.00421
G1 X149.787 Y186.501 E0.22475
G1 X149.288 Y185.919 E0.02274
G1 X149.141 Y185.908 E0.00438
G1 X149.113 Y186.264 F9000
;TYPE:External perimeter
G1 F1800
G1 X141.86 Y185.701 E0.216
G1 X134.185 Y184.878 E0.22919
G1 X126.542 Y183.821 E0.22909
G1 X118.933 Y182.531 E0.22914
G1 X111.392 Y181.013 E0.2284
G1 X111.144 Y180.911 E0.00796
G1 X110.952 Y180.782 E0.00689
G1 X110.644 Y180.46 E0.01321
G1 X110.504 Y180.215 E0.0084
G1 X110.415 Y179.797 E0.01269
G1 X110.415 Y136.613 E1.28218
G1 X110.508 Y136.223 E0.01191
G1 X110.62 Y135.986 E0.00778
G1 X110.96 Y135.642 E0.01436
G1 X111.112 Y135.539 E0.00546
G1 X111.27 Y135.461 E0.00522
G1 X111.658 Y135.37 E0.01182
G1 X112.122 Y135.37 E0.01378
G1 X218.348 Y135.371 E3.15399
G1 X218.739 Y135.463 E0.01192
G1 X218.897 Y135.529 E0.00508
G1 X219.13 Y135.718 E0.00892
G1 X219.36 Y135.977 E0.01029
G1 X219.493 Y136.225 E0.00835
G1 X219.585 Y136.613 E0.01184
G1 X219.585 Y179.797 E1.28218
M73 P1 R94
G1 X219.496 Y180.215 E0.01269
G1 X219.356 Y180.46 E0.0084
G1 X219.048 Y180.782 E0.01321
G1 X218.854 Y180.912 E0.00694
G1 X218.61 Y181.013 E0.00784
G1 X211.067 Y182.531 E0.22847
G1 X203.458 Y183.821 E0.22914
G1 X195.813 Y184.878 E0.22915
G1 X188.14 Y185.701 E0.22913
G1 X180.887 Y186.264 E0.21598
G1 X180.57 Y186.632 E0.01442
G1 X180.573 Y194.119 E0.22231
G1 X180.489 Y194.227 E0.00406
G1 X180.43 Y194.393 E0.00523
G1 X180.369 Y194.498 E0.00362
G1 X180.074 Y194.627 E0.00956
G1 X180.015 Y194.674 E0.00224
G1 X149.983 Y194.674 E0.8917
G1 X149.871 Y194.586 E0.00424
G1 X149.634 Y194.501 E0.00747
G1 X149.526 Y194.356 E0.00537
G1 X149.427 Y194.153 E0.00671
G1 X149.43 Y186.633 E0.22327
G1 X149.113 Y186.264 E0.01443
;WIPE_START
M204 S4000
G1 X149.04 Y185.871 F9000
;WIPE_END
; acceleration to travel
M204 S3000
G1 X199.208 Y150.666
; decel to extrusion
M204 S1000
G1 X218.32 Y137.255
; end travel
;TYPE:Solid infill
;WIDTH:0.398964
G1 F3600
G1 X217.75 Y136.684 E0.02389
G1 X217.244 Y136.684 E0.01496
G1 X218.167 Y137.607 E0.03865
G1 X218.169 Y138.113 E0.01499
G1 X216.739 Y136.684 E0.05987
G1 X216.234 Y136.684 E0.01496
G1 X218.17 Y138.62 E0.08108
G1 X218.171 Y139.126 E0.01499
G1 X215.729 Y136.684 E0.10229
G1 X215.224 Y136.683 E0.01496
G1 X218.173 Y139.632 E0.1235
G1 X218.174 Y140.139 E0.01499
G1 X214.719 Y136.683 E0.14471
G1 X214.214 Y136.683 E0.01496
G1 X218.175 Y140.645 E0.16593
G1 X218.177 Y141.151 E0.01499
G1 X213.708 Y136.683 E0.18714
G1 X213.203 Y136.683 E0.01496
G1 X218.178 Y141.657 E0.20835
G1 X218.179 Y142.164 E0.01499
G1 X212.698 Y136.682 E0.22956
G1 X212.193 Y136.682 E0.01496
G1 X218.181 Y142.67 E0.25077
G1 X218.182 Y143.176 E0.01499
G1 X211.688 Y136.682 E0.27198
G1 X211.183 Y136.682 E0.01496
G1 X218.183 Y143.683 E0.2932
G1 X218.185 Y144.189 E0.01499
G1 X210.677 Y136.682 E0.31441
G1 X210.172 Y136.682 E0.01496
G1 X218.186 Y144.695 E0.33562
G1 X218.187 Y145.202 E0.01499
G1 X209.667 Y136.681 E0.35683
G1 X209.162 Y136.681 E0.01496
G1 X218.189 Y145.708 E0.37804
G1 X218.19 Y146.214 E0.01499
G1 X208.657 Y136.681 E0.39926
G1 X208.152 Y136.681 E0.01496
G1 X218.191 Y146.721 E0.42047
G1 X218.193 Y147.227 E0.01499
G1 X207.646 Y136.681 E0.44168
G1 X207.141 Y136.681 E0.01496
G1 X218.194 Y147.733 E0.46289
G1 X218.195 Y148.239 E0.01499
G1 X206.636 Y136.68 E0.4841
G1 X206.131 Y136.68 E0.01496
G1 X218.196 Y148.746 E0.50531
G1 X218.198 Y149.252 E0.01499
G1 X205.626 Y136.68 E0.52653
G1 X205.121 Y136.68 E0.01496
G1 X218.199 Y149.758 E0.54774
G1 X218.2 Y150.265 E0.01499
G1 X204.616 Y136.68 E0.56895
G1 X204.11 Y136.68 E0.01496
G1 X218.202 Y150.771 E0.59016
G1 X218.203 Y151.277 E0.01499
G1 X203.605 Y136.679 E0.61137
G1 X203.1 Y136.679 E0.01496
G1 X218.204 Y151.784 E0.63259
G1 X218.206 Y152.29 E0.01499
G1 X202.595 Y136.679 E0.6538
G1 X202.09 Y136.679 E0.01496
G1 X218.207 Y152.796 E0.67501
G1 X218.208 Y153.303 E0.01499
G1 X201.585 Y136.679 E0.69622
G1 X201.079 Y136.679 E0.01496
G1 X218.21 Y153.809 E0.71743
G1 X218.211 Y154.315 E0.01499
G1 X200.574 Y136.678 E0.73864
G1 X200.069 Y136.678 E0.01496
G1 X218.212 Y154.821 E0.75986
G1 X218.214 Y155.328 E0.01499
G1 X199.564 Y136.678 E0.78107
G1 X199.059 Y136.678 E0.01496
G1 X218.215 Y155.834 E0.80228
G1 X218.216 Y156.34 E0.01499
G1 X198.554 Y136.678 E0.82349
G1 X198.049 Y136.678 E0.01496
G1 X218.218 Y156.847 E0.8447
G1 X218.219 Y157.353 E0.01499
G1 X197.543 Y136.677 E0.86592
G1 X197.038 Y136.677 E0.01496
G1 X218.22 Y157.859 E0.88713
G1 X218.222 Y158.366 E0.01499
G1 X196.533 Y136.677 E0.90834
G1 X196.028 Y136.677 E0.01496
G1 X218.223 Y158.872 E0.92955
G1 X218.224 Y159.378 E0.01499
G1 X195.523 Y136.677 E0.95076
G1 X195.018 Y136.677 E0.01496
G1 X218.226 Y159.885 E0.97197
G1 X218.227 Y160.391 E0.01499
G1 X194.512 Y136.676 E0.99319
G1 X194.007 Y136.676 E0.01496
G1 X218.228 Y160.897 E1.0144
G1 X218.23 Y161.403 E0.01499
G1 X193.502 Y136.676 E1.03561
G1 X192.997 Y136.676 E0.01496
G1 X218.231 Y161.91 E1.05682
G1 X218.232 Y162.416 E0.01499
G1 X192.492 Y136.676 E1.07803
G1 X191.987 Y136.676 E0.01496
G1 X218.233 Y162.922 E1.09925
G1 X218.235 Y163.429 E0.01499
G1 X191.482 Y136.675 E1.12046
G1 X190.976 Y136.675 E0.01496
G1 X218.236 Y163.935 E1.14167
G1 X218.237 Y164.441 E0.01499
G1 X190.471 Y136.675 E1.16288
G1 X189.966 Y136.675 E0.01496
G1 X218.239 Y164.948 E1.18409
G1 X218.24 Y165.454 E0.01499
G1 X189.461 Y136.675 E1.2053
G1 X188.956 Y136.675 E0.01496
G1 X218.241 Y165.96 E1.22652
G1 X218.243 Y166.467 E0.01499
G1 X188.451 Y136.674 E1.24773
G1 X187.945 Y136.674 E0.01496
G1 X218.244 Y166.973 E1.26894
G1 X218.245 Y167.479 E0.01499
G1 X187.44 Y136.674 E1.29015
G1 X186.935 Y136.674 E0.01496
G1 X218.247 Y167.985 E1.31136
G1 X218.248 Y168.492 E0.01499
G1 X186.43 Y136.674 E1.33258
M73 P2 R94
G1 X185.925 Y136.674 E0.01496
G1 X218.249 Y168.998 E1.35379
G1 X218.251 Y169.504 E0.01499
G1 X185.42 Y136.673 E1.375
G1 X184.914 Y136.673 E0.01496
G1 X218.252 Y170.011 E1.39621
G1 X218.253 Y170.517 E0.01499
G1 X184.409 Y136.673 E1.41742
G1 X183.904 Y136.673 E0.01496
G1 X218.255 Y171.023 E1.43863
G1 X218.256 Y171.53 E0.01499
G1 X183.399 Y136.673 E1.45985
G1 X182.894 Y136.672 E0.01496
G1 X218.257 Y172.036 E1.48106
G1 X218.259 Y172.542 E0.01499
G1 X182.389 Y136.672 E1.50227
G1 X181.884 Y136.672 E0.01496
G1 X218.26 Y173.049 E1.52348
G1 X218.261 Y173.555 E0.01499
G1 X181.378 Y136.672 E1.54469
G1 X180.873 Y136.672 E0.01496
G1 X218.263 Y174.061 E1.56591
G1 X218.264 Y174.567 E0.01499
G1 X180.368 Y136.672 E1.58712
G1 X179.863 Y136.671 E0.01496
G1 X218.265 Y175.074 E1.60833
G1 X218.267 Y175.58 E0.01499
G1 X179.358 Y136.671 E1.62954
G1 X178.853 Y136.671 E0.01496
G1 X218.268 Y176.086 E1.65075
G1 X218.269 Y176.593 E0.01499
G1 X178.347 Y136.671 E1.67196
G1 X177.842 Y136.671 E0.01496
G1 X218.27 Y177.099 E1.69318
G1 X218.272 Y177.605 E0.01499
G1 X177.337 Y136.671 E1.71439
G1 X176.832 Y136.67 E0.01496
G1 X218.273 Y178.112 E1.7356
G1 X218.274 Y178.618 E0.01499
G1 X176.327 Y136.67 E1.75681
G1 X175.822 Y136.67 E0.01496
G1 X218.276 Y179.124 E1.77802
G1 X218.277 Y179.63 E0.01499
G1 X175.317 Y136.67 E1.79924
G1 X174.811 Y136.67 E0.01496
G1 X217.871 Y179.729 E1.80338
G1 X217.448 Y179.811 E0.01276
G1 X174.306 Y136.67 E1.80681
G1 X173.801 Y136.669 E0.01496
G1 X217.025 Y179.893 E1.81025
G1 X216.602 Y179.975 E0.01276
G1 X173.296 Y136.669 E1.81369
G1 X172.791 Y136.669 E0.01496
G1 X216.178 Y180.057 E1.81713
G1 X215.755 Y180.139 E0.01276
G1 X172.286 Y136.669 E1.82056
G1 X171.78 Y136.669 E0.01496
G1 X215.332 Y180.221 E1.824
M73 P2 R93
G1 X214.909 Y180.303 E0.01276
G1 X171.275 Y136.669 E1.82744
G1 X170.77 Y136.668 E0.01496
G1 X214.486 Y180.384 E1.83088
G1 X214.063 Y180.466 E0.01276
G1 X170.265 Y136.668 E1.83431
G1 X169.76 Y136.668 E0.01496
G1 X213.64 Y180.548 E1.83775
G1 X213.217 Y180.63 E0.01276
G1 X169.255 Y136.668 E1.84119
G1 X168.75 Y136.668 E0.01496
G1 X212.794 Y180.712 E1.84463
G1 X212.371 Y180.794 E0.01276
G1 X168.244 Y136.668 E1.84807
G1 X167.739 Y136.667 E0.01496
G1 X211.948 Y180.876 E1.8515
G1 X211.525 Y180.958 E0.01276
G1 X167.234 Y136.667 E1.85494
G1 X166.729 Y136.667 E0.01496
G1 X211.102 Y181.04 E1.85838
G1 X210.679 Y181.122 E0.01276
G1 X166.224 Y136.667 E1.86182
G1 X165.719 Y136.667 E0.01496
G1 X210.255 Y181.204 E1.86525
G1 X209.832 Y181.285 E0.01276
G1 X165.213 Y136.667 E1.86869
G1 X164.708 Y136.666 E0.01496
G1 X209.409 Y181.367 E1.87213
G1 X208.986 Y181.449 E0.01276
G1 X164.203 Y136.666 E1.87557
G1 X163.698 Y136.666 E0.01496
G1 X208.563 Y181.531 E1.879
G1 X208.14 Y181.613 E0.01276
G1 X163.193 Y136.666 E1.88244
G1 X162.688 Y136.666 E0.01496
G1 X207.717 Y181.695 E1.88588
G1 X207.294 Y181.777 E0.01276
G1 X162.182 Y136.666 E1.88932
G1 X161.677 Y136.665 E0.01496
G1 X206.871 Y181.859 E1.89275
G1 X206.448 Y181.941 E0.01276
G1 X161.172 Y136.665 E1.89619
G1 X160.667 Y136.665 E0.01496
G1 X206.025 Y182.023 E1.89963
G1 X205.602 Y182.105 E0.01276
G1 X160.162 Y136.665 E1.90307
G1 X159.657 Y136.665 E0.01496
G1 X205.179 Y182.187 E1.9065
G1 X204.755 Y182.268 E0.01276
G1 X159.152 Y136.665 E1.90994
G1 X158.646 Y136.664 E0.01496
