; generated by SuperSlicer 2.3.57 on 2022-04-09 at 21:53:49 UTC


;
;

;
;
; 

; external perimeters extrusion width = 0.40mm
; perimeters extrusion width = 0.45mm
; infill extrusion width = 0.72mm
; solid infill extrusion width = 0.56mm
; top infill extrusion width = 0.40mm
; support material extrusion width = 0.42mm
; first layer extrusion width = 0.48mm

; external perimeters extrusion width = 0.40mm
; perimeters extrusion width = 0.45mm
; infill extrusion width = 0.72mm
; solid infill extrusion width = 0.56mm
; top infill extrusion width = 0.40mm
; support material extrusion width = 0.42mm
; first layer extrusion width = 0.48mm

; external perimeters extrusion width = 0.40mm
; perimeters extrusion width = 0.45mm
; infill extrusion width = 0.72mm
; solid infill extrusion width = 0.56mm
; top infill extrusion width = 0.40mm
; support material extrusion width = 0.42mm
; first layer extrusion width = 0.48mm

; object:{"name":"Untitled","id":"Untitled.stl id:0 copy 0","object_center":[165.000000,165.000000,0.000000],"boundingbox_center":[165.000000,165.000000,5.000000],"boundingbox_size":[78.000000,78.000000,10.000000]}
; plater:{"center":[165.000000,165.000000,0.000000],"boundingbox_center":[165.000000,165.000000,5.000000],"boundingbox_size":[78.000000,78.000000,10.000000]}

;TYPE:Custom
START_PRINT T_BED=70 T_EXTRUDER=230
M107
G21 ; set units to millimeters
G90 ; use absolute coordinates
M83 ; use relative distances for extrusion
; Filament gcode
M104 S230 ; set temperature
M109 S230 ; set temperature and wait for it to be reached
M190 S70 ; set bed temperature and wait for it to be reached
M107
;LAYER_CHANGE
;Z:0.24
;HEIGHT:0.24
G1 E-1 F3000
G1 Z0.24 F9000
G1 X123.466 Y123.584
G1 E1 F1800
; External perimeter
;Skirt
SET_VELOCITY_LIMIT ACCEL=300 ACCEL_TO_DECEL=3000 SQUARE_CORNER_VELOCITY=5

; Support material

;TYPE:Skirt
;WIDTH:0.48
G1 X123.042 Y124.12 E0.02919
G1 X122.728 Y124.721 E0.02899
G1 X122.53 Y125.374 E0.02919
G1 X122.458 Y126.053 E0.02919
G1 X122.457 Y203.907 E3.3287
G1 X122.533 Y204.638 E0.0314
G1 X122.753 Y205.338 E0.0314
G1 X123.107 Y205.976 E0.0312
G1 X123.584 Y206.534 E0.0314
G1 X124.12 Y206.958 E0.02919
G1 X124.721 Y207.272 E0.02899
G1 X125.374 Y207.47 E0.02919
G1 X126.053 Y207.542 E0.02919
G1 X203.907 Y207.543 E3.3287
G1 X204.638 Y207.467 E0.0314
G1 X205.338 Y207.247 E0.0314
G1 X205.976 Y206.893 E0.0312
G1 X206.534 Y206.416 E0.0314
G1 X206.958 Y205.88 E0.02919
G1 X207.272 Y205.279 E0.02899
G1 X207.47 Y204.626 E0.02919
G1 X207.542 Y203.947 E0.02919
G1 X207.541 Y125.984 E3.33333
G1 X207.451 Y125.289 E0.02999
G1 X207.232 Y124.627 E0.02979
G1 X206.888 Y124.016 E0.02999
G1 X206.436 Y123.485 E0.02979
G1 X205.892 Y123.05 E0.02979
G1 X205.271 Y122.725 E0.02999
G1 X204.603 Y122.526 E0.02979
G1 X203.905 Y122.457 E0.02999
G1 X126.05 Y122.458 E3.3287
G1 X125.335 Y122.539 E0.03079
G1 X124.645 Y122.761 E0.031
G1 X124.016 Y123.112 E0.03079
G1 X123.511 Y123.545 E0.02843
G1 X123.788 Y123.869 F9000
G1 F1800
G1 X123.404 Y124.349 E0.02628
G1 X123.124 Y124.886 E0.02591
G1 X122.949 Y125.466 E0.02591
G1 X122.886 Y126.065 E0.02572
G1 X122.886 Y203.904 E3.32806
G1 X122.951 Y204.546 E0.0276
G1 X123.144 Y205.162 E0.0276
G1 X123.456 Y205.728 E0.0276
G1 X123.874 Y206.219 E0.0276
G1 X124.349 Y206.596 E0.02591
G1 X124.886 Y206.876 E0.02591
G1 X125.466 Y207.051 E0.02591
G1 X126.065 Y207.114 E0.02572
G1 X203.904 Y207.114 E3.32806
G1 X204.546 Y207.049 E0.0276
G1 X205.162 Y206.856 E0.0276
G1 X205.728 Y206.544 E0.0276
G1 X206.219 Y206.126 E0.0276
G1 X206.596 Y205.651 E0.02591
G1 X206.876 Y205.114 E0.02591
G1 X207.051 Y204.534 E0.02591
G1 X207.114 Y203.935 E0.02572
G1 X207.113 Y126.012 E3.33166
G1 X207.037 Y125.397 E0.02647
G1 X206.844 Y124.809 E0.02647
G1 X206.542 Y124.269 E0.02647
G1 X206.141 Y123.796 E0.02647
G1 X205.658 Y123.409 E0.02647
G1 X205.114 Y123.124 E0.02628
G1 X204.521 Y122.946 E0.02647
G1 X203.904 Y122.886 E0.02647
G1 X126.061 Y122.886 E3.32825
G1 X125.428 Y122.957 E0.02723
G1 X124.821 Y123.151 E0.02723
G1 X124.265 Y123.461 E0.02723
G1 X123.833 Y123.83 E0.02428
; INIT printing object Untitled.stl id:0 copy 0
G1 E-1 F3000
; printing object Untitled.stl id:0 copy 0
G1 X127.197 Y127.197 F9000
G1 E1 F1800
; External perimeter
;Perimeter
SET_VELOCITY_LIMIT ACCEL=2000 ACCEL_TO_DECEL=2000 SQUARE_CORNER_VELOCITY=5

; Overhang perimeter

;TYPE:Internal perimeter
G1 X202.803 Y127.197 E3.23257
G1 X202.803 Y202.803 E3.23257
G1 X127.197 Y202.803 E3.23257
G1 X127.197 Y127.257 E3.23
G1 X203.232 Y203.232 F9000
G1 F1800
G1 X126.768 Y203.232 E3.26921
G1 X126.768 Y126.768 E3.26921
G1 X203.232 Y126.768 E3.26921
G1 X203.232 Y203.172 E3.26665
G1 X203.66 Y203.66 F9000
; External perimeter
;ExternalPerimeter
SET_VELOCITY_LIMIT ACCEL=1000 ACCEL_TO_DECEL=1000 SQUARE_CORNER_VELOCITY=5

; Perimeter

;TYPE:External perimeter
G1 F1800
G1 X126.34 Y203.66 E3.30585
G1 X126.34 Y203.54 E0.00458
G1 X126.34 Y203.3 E0.00971
G1 X126.34 Y126.34 E3.29046
G1 X126.46 Y126.34 E0.00458
G1 X126.7 Y126.34 E0.00971
G1 X203.66 Y126.34 E3.29046
G1 X203.66 Y126.46 E0.00458
G1 X203.66 Y126.7 E0.00971
G1 X203.66 Y203.6 E3.28789
;WIPE_START
G1 X203.314 Y203.46 F9000
;WIPE_END
G1 X201.873 Y127.261
; External perimeter
;SolidInfill
SET_VELOCITY_LIMIT ACCEL=2000 ACCEL_TO_DECEL=2000 SQUARE_CORNER_VELOCITY=5

; Bridge infill

;TYPE:Solid infill
;WIDTH:0.478166
G1 F2400
G1 X202.555 Y127.943 E0.04108
G1 X202.555 Y128.549 E0.02581
G1 X201.451 Y127.445 E0.06648
G1 X200.845 Y127.445 E0.02581
G1 X202.555 Y129.155 E0.10298
G1 X202.555 Y129.761 E0.02581
G1 X200.239 Y127.445 E0.13948
G1 X199.633 Y127.445 E0.02581
G1 X202.555 Y130.367 E0.17598
G1 X202.555 Y130.973 E0.02581
G1 X199.027 Y127.445 E0.21248
G1 X198.421 Y127.445 E0.02581
G1 X202.555 Y131.579 E0.24898
G1 X202.555 Y132.185 E0.02581
G1 X197.815 Y127.445 E0.28549
G1 X197.209 Y127.445 E0.02581
G1 X202.555 Y132.791 E0.32199
G1 X202.555 Y133.397 E0.02581
G1 X196.603 Y127.445 E0.35849
G1 X195.997 Y127.445 E0.02581
G1 X202.555 Y134.003 E0.39499
G1 X202.555 Y134.609 E0.02581
G1 X195.391 Y127.445 E0.43149
G1 X194.785 Y127.445 E0.02581
G1 X202.555 Y135.215 E0.46799
G1 X202.555 Y135.821 E0.02581
G1 X194.179 Y127.445 E0.50449
G1 X193.573 Y127.445 E0.02581
G1 X202.555 Y136.427 E0.54099
G1 X202.555 Y137.033 E0.02581
G1 X192.967 Y127.445 E0.57749
G1 X192.361 Y127.445 E0.02581
G1 X202.555 Y137.639 E0.61399
G1 X202.555 Y138.245 E0.02581
G1 X191.755 Y127.445 E0.6505
G1 X191.149 Y127.445 E0.02581
G1 X202.555 Y138.851 E0.687
G1 X202.555 Y139.457 E0.02581
G1 X190.543 Y127.445 E0.7235
G1 X189.937 Y127.445 E0.02581
G1 X202.555 Y140.063 E0.76
G1 X202.555 Y140.669 E0.02581
G1 X189.331 Y127.445 E0.7965
G1 X188.725 Y127.445 E0.02581
G1 X202.555 Y141.275 E0.833
G1 X202.555 Y141.881 E0.02581
G1 X188.119 Y127.445 E0.8695
G1 X187.513 Y127.445 E0.02581
G1 X202.555 Y142.487 E0.906
G1 X202.555 Y143.093 E0.02581
G1 X186.907 Y127.445 E0.9425
G1 X186.301 Y127.445 E0.02581
G1 X202.555 Y143.699 E0.979
G1 X202.555 Y144.305 E0.02581
G1 X185.695 Y127.445 E1.0155
G1 X185.089 Y127.445 E0.02581
G1 X202.555 Y144.911 E1.05201
G1 X202.555 Y145.517 E0.02581
G1 X184.483 Y127.445 E1.08851
G1 X183.877 Y127.445 E0.02581
G1 X202.555 Y146.123 E1.12501
G1 X202.555 Y146.729 E0.02581
G1 X183.271 Y127.445 E1.16151
G1 X182.665 Y127.445 E0.02581
G1 X202.555 Y147.335 E1.19801
G1 X202.555 Y147.941 E0.02581
G1 X182.059 Y127.445 E1.23451
G1 X181.453 Y127.445 E0.02581
G1 X202.555 Y148.547 E1.27101
G1 X202.555 Y149.153 E0.02581
G1 X180.847 Y127.445 E1.30751
G1 X180.241 Y127.445 E0.02581
G1 X202.555 Y149.759 E1.34401
G1 X202.555 Y150.365 E0.02581
G1 X179.635 Y127.445 E1.38051
G1 X179.029 Y127.445 E0.02581
G1 X202.555 Y150.971 E1.41702
G1 X202.555 Y151.577 E0.02581
G1 X178.423 Y127.445 E1.45352
G1 X177.817 Y127.445 E0.02581
G1 X202.555 Y152.183 E1.49002
G1 X202.555 Y152.789 E0.02581
G1 X177.211 Y127.445 E1.52652
G1 X176.606 Y127.445 E0.02581
G1 X202.555 Y153.394 E1.56302
G1 X202.555 Y154 E0.02581
G1 X176 Y127.445 E1.59952
G1 X175.394 Y127.445 E0.02581
G1 X202.555 Y154.606 E1.63602
G1 X202.555 Y155.212 E0.02581
G1 X174.788 Y127.445 E1.67252
G1 X174.182 Y127.445 E0.02581
G1 X202.555 Y155.818 E1.70902
G1 X202.555 Y156.424 E0.02581
G1 X173.576 Y127.445 E1.74552
G1 X172.97 Y127.445 E0.02581
G1 X202.555 Y157.03 E1.78203
G1 X202.555 Y157.636 E0.02581
G1 X172.364 Y127.445 E1.81853
G1 X171.758 Y127.445 E0.02581
G1 X202.555 Y158.242 E1.85503
G1 X202.555 Y158.848 E0.02581
G1 X171.152 Y127.445 E1.89153
G1 X170.546 Y127.445 E0.02581
G1 X202.555 Y159.454 E1.92803
G1 X202.555 Y160.06 E0.02581
G1 X169.94 Y127.445 E1.96453
G1 X169.334 Y127.445 E0.02581
G1 X202.555 Y160.666 E2.00103
G1 X202.555 Y161.272 E0.02581
G1 X168.728 Y127.445 E2.03753
G1 X168.122 Y127.445 E0.02581
G1 X202.555 Y161.878 E2.07403
G1 X202.555 Y162.484 E0.02581
G1 X167.516 Y127.445 E2.11053
G1 X166.91 Y127.445 E0.02581
G1 X202.555 Y163.09 E2.14704
G1 X202.555 Y163.696 E0.02581
G1 X166.304 Y127.445 E2.18354
G1 X165.698 Y127.445 E0.02581
G1 X202.555 Y164.302 E2.22004
G1 X202.555 Y164.908 E0.02581
G1 X165.092 Y127.445 E2.25654
G1 X164.486 Y127.445 E0.02581
G1 X202.555 Y165.514 E2.29304
G1 X202.555 Y166.12 E0.02581
G1 X163.88 Y127.445 E2.32954
G1 X163.274 Y127.445 E0.02581
G1 X202.555 Y166.726 E2.36604
G1 X202.555 Y167.332 E0.02581
G1 X162.668 Y127.445 E2.40254
G1 X162.062 Y127.445 E0.02581
G1 X202.555 Y167.938 E2.43904
G1 X202.555 Y168.544 E0.02581
G1 X161.456 Y127.445 E2.47554
G1 X160.85 Y127.445 E0.02581
G1 X202.555 Y169.15 E2.51205
G1 X202.555 Y169.756 E0.02581
G1 X160.244 Y127.445 E2.54855
G1 X159.638 Y127.445 E0.02581
G1 X202.555 Y170.362 E2.58505
G1 X202.555 Y170.968 E0.02581
G1 X159.032 Y127.445 E2.62155
G1 X158.426 Y127.445 E0.02581
G1 X202.555 Y171.574 E2.65805
G1 X202.555 Y172.18 E0.02581
G1 X157.82 Y127.445 E2.69455
G1 X157.214 Y127.445 E0.02581
G1 X202.555 Y172.786 E2.73105
G1 X202.555 Y173.392 E0.02581
G1 X156.608 Y127.445 E2.76755
G1 X156.002 Y127.445 E0.02581
G1 X202.555 Y173.998 E2.80405
G1 X202.555 Y174.604 E0.02581
G1 X155.396 Y127.445 E2.84055
G1 X154.79 Y127.445 E0.02581
G1 X202.555 Y175.21 E2.87706
G1 X202.555 Y175.816 E0.02581
G1 X154.184 Y127.445 E2.91356
G1 X153.578 Y127.445 E0.02581
G1 X202.555 Y176.422 E2.95006
G1 X202.555 Y177.028 E0.02581
G1 X152.972 Y127.445 E2.98656
G1 X152.366 Y127.445 E0.02581
G1 X202.555 Y177.634 E3.02306
G1 X202.555 Y178.24 E0.02581
G1 X151.76 Y127.445 E3.05956
G1 X151.154 Y127.445 E0.02581
G1 X202.555 Y178.846 E3.09606
G1 X202.555 Y179.452 E0.02581
G1 X150.548 Y127.445 E3.13256
G1 X149.942 Y127.445 E0.02581
G1 X202.555 Y180.058 E3.16906
G1 X202.555 Y180.664 E0.02581
G1 X149.336 Y127.445 E3.20556
G1 X148.73 Y127.445 E0.02581
G1 X202.555 Y181.27 E3.24207
G1 X202.555 Y181.876 E0.02581
G1 X148.124 Y127.445 E3.27857
G1 X147.518 Y127.445 E0.02581
G1 X202.555 Y182.482 E3.31507
G1 X202.555 Y183.088 E0.02581
G1 X146.912 Y127.445 E3.35157
G1 X146.306 Y127.445 E0.02581
G1 X202.555 Y183.694 E3.38807
G1 X202.555 Y184.3 E0.02581
G1 X145.7 Y127.445 E3.42457
G1 X145.094 Y127.445 E0.02581
G1 X202.555 Y184.906 E3.46107
G1 X202.555 Y185.512 E0.02581
G1 X144.488 Y127.445 E3.49757
G1 X143.882 Y127.445 E0.02581
G1 X202.555 Y186.118 E3.53407
G1 X202.555 Y186.724 E0.02581
G1 X143.276 Y127.445 E3.57057
G1 X142.67 Y127.445 E0.02581
G1 X202.555 Y187.33 E3.60708
G1 X202.555 Y187.936 E0.02581
G1 X142.064 Y127.445 E3.64358
G1 X141.458 Y127.445 E0.02581
G1 X202.555 Y188.542 E3.68008
G1 X202.555 Y189.148 E0.02581
G1 X140.852 Y127.445 E3.71658
G1 X140.247 Y127.445 E0.02581
G1 X202.555 Y189.753 E3.75308
G1 X202.555 Y190.359 E0.02581
G1 X139.641 Y127.445 E3.78958
G1 X139.035 Y127.445 E0.02581
G1 X202.555 Y190.965 E3.82608
G1 X202.555 Y191.571 E0.02581
G1 X138.429 Y127.445 E3.86258
G1 X137.823 Y127.445 E0.02581
G1 X202.555 Y192.177 E3.89908
G1 X202.555 Y192.783 E0.02581
G1 X137.217 Y127.445 E3.93558
G1 X136.611 Y127.445 E0.02581
G1 X202.555 Y193.389 E3.97209
G1 X202.555 Y193.995 E0.02581
G1 X136.005 Y127.445 E4.00859
G1 X135.399 Y127.445 E0.02581
G1 X202.555 Y194.601 E4.04509
G1 X202.555 Y195.207 E0.02581
G1 X134.793 Y127.445 E4.08159
G1 X134.187 Y127.445 E0.02581
G1 X202.555 Y195.813 E4.11809
G1 X202.555 Y196.419 E0.02581
G1 X133.581 Y127.445 E4.15459
G1 X132.975 Y127.445 E0.02581
G1 X202.555 Y197.025 E4.19109
G1 X202.555 Y197.631 E0.02581
G1 X132.369 Y127.445 E4.22759
G1 X131.763 Y127.445 E0.02581
G1 X202.555 Y198.237 E4.26409
G1 X202.555 Y198.843 E0.02581
G1 X131.157 Y127.445 E4.30059
G1 X130.551 Y127.445 E0.02581
G1 X202.555 Y199.449 E4.3371
G1 X202.555 Y200.055 E0.02581
G1 X129.945 Y127.445 E4.3736
G1 X129.339 Y127.445 E0.02581
G1 X202.555 Y200.661 E4.4101
G1 X202.555 Y201.267 E0.02581
G1 X128.733 Y127.445 E4.4466
G1 X128.127 Y127.445 E0.02581
G1 X202.555 Y201.873 E4.4831
G1 X202.555 Y202.479 E0.02581
G1 X127.521 Y127.445 E4.5196
G1 X127.445 Y127.445 E0.00321
G1 X127.445 Y127.976 E0.0226
G1 X202.024 Y202.555 E4.49218
G1 X201.418 Y202.555 E0.02581
G1 X127.445 Y128.582 E4.45568
G1 X127.445 Y129.188 E0.02581
G1 X200.812 Y202.555 E4.41917
G1 X200.206 Y202.555 E0.02581
G1 X127.445 Y129.794 E4.38267
G1 X127.445 Y130.4 E0.02581
G1 X199.6 Y202.555 E4.34617
G1 X198.994 Y202.555 E0.02581
G1 X127.445 Y131.006 E4.30967
G1 X127.445 Y131.612 E0.02581
G1 X198.388 Y202.555 E4.27317
G1 X197.782 Y202.555 E0.02581
G1 X127.445 Y132.218 E4.23667
G1 X127.445 Y132.824 E0.02581
G1 X197.176 Y202.555 E4.20017
G1 X196.57 Y202.555 E0.02581
G1 X127.445 Y133.43 E4.16367
G1 X127.445 Y134.036 E0.02581
G1 X195.964 Y202.555 E4.12717
G1 X195.358 Y202.555 E0.02581
G1 X127.445 Y134.642 E4.09067
G1 X127.445 Y135.248 E0.02581
G1 X194.752 Y202.555 E4.05417
G1 X194.146 Y202.555 E0.02581
G1 X127.445 Y135.854 E4.01766
G1 X127.445 Y136.46 E0.02581
G1 X193.54 Y202.555 E3.98116
G1 X192.934 Y202.555 E0.02581
G1 X127.445 Y137.066 E3.94466
G1 X127.445 Y137.672 E0.02581
G1 X192.328 Y202.555 E3.90816
G1 X191.722 Y202.555 E0.02581
G1 X127.445 Y138.278 E3.87166
G1 X127.445 Y138.884 E0.02581
G1 X191.116 Y202.555 E3.83516
G1 X190.51 Y202.555 E0.02581
G1 X127.445 Y139.49 E3.79866
G1 X127.445 Y140.096 E0.02581
G1 X189.904 Y202.555 E3.76216
G1 X189.298 Y202.555 E0.02581
G1 X127.445 Y140.702 E3.72566
G1 X127.445 Y141.308 E0.02581
G1 X188.692 Y202.555 E3.68916
G1 X188.086 Y202.555 E0.02581
G1 X127.445 Y141.914 E3.65265
G1 X127.445 Y142.52 E0.02581
G1 X187.48 Y202.555 E3.61615
G1 X186.874 Y202.555 E0.02581
G1 X127.445 Y143.126 E3.57965
G1 X127.445 Y143.732 E0.02581
G1 X186.268 Y202.555 E3.54315
G1 X185.662 Y202.555 E0.02581
G1 X127.445 Y144.338 E3.50665
G1 X127.445 Y144.944 E0.02581
G1 X185.056 Y202.555 E3.47015
G1 X184.45 Y202.555 E0.02581
G1 X127.445 Y145.55 E3.43365
G1 X127.445 Y146.156 E0.02581
G1 X183.844 Y202.555 E3.39715
G1 X183.238 Y202.555 E0.02581
G1 X127.445 Y146.762 E3.36065
G1 X127.445 Y147.368 E0.02581
G1 X182.632 Y202.555 E3.32415
G1 X182.026 Y202.555 E0.02581
G1 X127.445 Y147.974 E3.28764
G1 X127.445 Y148.58 E0.02581
G1 X181.42 Y202.555 E3.25114
G1 X180.814 Y202.555 E0.02581
G1 X127.445 Y149.186 E3.21464
G1 X127.445 Y149.792 E0.02581
G1 X180.208 Y202.555 E3.17814
G1 X179.602 Y202.555 E0.02581
G1 X127.445 Y150.398 E3.14164
G1 X127.445 Y151.003 E0.02581
G1 X178.997 Y202.555 E3.10514
G1 X178.391 Y202.555 E0.02581
G1 X127.445 Y151.609 E3.06864
G1 X127.445 Y152.215 E0.02581
G1 X177.785 Y202.555 E3.03214
G1 X177.179 Y202.555 E0.02581
G1 X127.445 Y152.821 E2.99564
G1 X127.445 Y153.427 E0.02581
G1 X176.573 Y202.555 E2.95914
G1 X175.967 Y202.555 E0.02581
G1 X127.445 Y154.033 E2.92263
G1 X127.445 Y154.639 E0.02581
G1 X175.361 Y202.555 E2.88613
G1 X174.755 Y202.555 E0.02581
G1 X127.445 Y155.245 E2.84963
G1 X127.445 Y155.851 E0.02581
G1 X174.149 Y202.555 E2.81313
G1 X173.543 Y202.555 E0.02581
G1 X127.445 Y156.457 E2.77663
G1 X127.445 Y157.063 E0.02581
G1 X172.937 Y202.555 E2.74013
G1 X172.331 Y202.555 E0.02581
G1 X127.445 Y157.669 E2.70363
G1 X127.445 Y158.275 E0.02581
G1 X171.725 Y202.555 E2.66713
G1 X171.119 Y202.555 E0.02581
G1 X127.445 Y158.881 E2.63063
G1 X127.445 Y159.487 E0.02581
G1 X170.513 Y202.555 E2.59413
G1 X169.907 Y202.555 E0.02581
G1 X127.445 Y160.093 E2.55762
G1 X127.445 Y160.699 E0.02581
G1 X169.301 Y202.555 E2.52112
