; generated by SuperSlicer 2.4 on 2022-08-28 at 06:17:05 UTC


;
;

;
;
; 

; external perimeters extrusion width = 0.40mm
; perimeters extrusion width = 0.50mm
; infill extrusion width = 0.72mm
; solid infill extrusion width = 0.56mm
; top infill extrusion width = 0.40mm
; support material extrusion width = 0.50mm

; object:{"name":"pip_rotating_hanger","id":"pip_rotating_hanger.STL id:0 copy 0","object_center":[165.000004,165.000140,0.000000],"boundingbox_center":[165.000004,165.000140,6.312659],"boundingbox_size":[34.265345,91.342701,12.625319]}
; plater:{"center":[165.000004,165.000140,0.000000],"boundingbox_center":[165.000004,165.000140,6.312659],"boundingbox_size":[34.265345,91.342701,12.625319]}

M73 P0 R32
;TYPE:Custom
START_PRINT T_BED=60 T_EXTRUDER=200
M107
G21 ; set units to millimeters
G90 ; use absolute coordinates
M83 ; use relative distances for extrusion
; Filament gcode
;_TOOLCHANGE 0
M104 S200 ; set temperature
M109 S200 ; set temperature and wait for it to be reached
M190 S60 ; set bed temperature and wait for it to be reached
M107
;LAYER_CHANGE
;Z:0.24
;HEIGHT:0.24
G1 Z0.24 F9000
G92 E0
M73 P0 R32
G1 E-0.8 F3000
M204 S1000
G1 X149.648 Y123.37 F9000
G1 E0.8 F1800
;TYPE:Skirt
;WIDTH:0.52
G1 X148.397 Y124.995 E0.09394
G1 X147.473 Y126.462 E0.07945
G1 X146.677 Y128.003 E0.07945
G1 X146.126 Y129.31 E0.06496
G1 X145.578 Y130.955 E0.07945
G1 X145.173 Y132.642 E0.07945
G1 X144.914 Y134.356 E0.07945
G1 X144.796 Y136.297 E0.08908
G1 X144.805 Y194.079 E2.64706
G1 X144.953 Y195.984 E0.08756
G1 X145.161 Y197.299 E0.06099
G1 X145.533 Y198.884 E0.07459
G1 X146.03 Y200.435 E0.07459
G1 X146.651 Y201.94 E0.07459
G1 X147.39 Y203.391 E0.07459
G1 X148.243 Y204.778 E0.07459
G1 X149.205 Y206.092 E0.07459
G1 X150.269 Y207.324 E0.07459
G1 X151.428 Y208.467 E0.07459
G1 X152.676 Y209.513 E0.07459
G1 X154.004 Y210.456 E0.07459
G1 X155.403 Y211.289 E0.07459
G1 X156.864 Y212.007 E0.07459
G1 X158.378 Y212.606 E0.07459
G1 X159.936 Y213.081 E0.07459
G1 X161.526 Y213.429 E0.07459
G1 X163.435 Y213.675 E0.08819
G1 X165.062 Y213.741 E0.07459
G1 X166.689 Y213.676 E0.07459
G1 X168.306 Y213.48 E0.07459
G1 X169.612 Y213.224 E0.06099
G1 X171.183 Y212.796 E0.07459
G1 X172.714 Y212.242 E0.07459
G1 X174.196 Y211.568 E0.07459
G1 X175.872 Y210.62 E0.08819
G1 X177.214 Y209.697 E0.07459
G1 X178.477 Y208.67 E0.07459
G1 X179.653 Y207.545 E0.07459
G1 X180.546 Y206.557 E0.06099
G1 X181.546 Y205.272 E0.07459
G1 X182.44 Y203.911 E0.07459
G1 X183.222 Y202.483 E0.07459
G1 X183.887 Y200.996 E0.07459
G1 X184.516 Y199.177 E0.0882
G1 X184.911 Y197.597 E0.07459
G1 X185.204 Y195.419 E0.10069
G1 X185.204 Y134.579 E2.78717
G1 X185.137 Y133.701 E0.04036
G1 X184.822 Y131.998 E0.07936
G1 X184.363 Y130.325 E0.07945
G1 X183.762 Y128.698 E0.07945
G1 X183.024 Y127.129 E0.07945
G1 X182.155 Y125.628 E0.07945
G1 X181.161 Y124.207 E0.07945
G1 X180.049 Y122.876 E0.07945
G1 X179.058 Y121.862 E0.06496
G1 X177.753 Y120.719 E0.07946
G1 X176.355 Y119.693 E0.07945
G1 X174.874 Y118.789 E0.07945
G1 X173.322 Y118.016 E0.07945
G1 X171.709 Y117.378 E0.07945
G1 X170.048 Y116.88 E0.07945
G1 X168.35 Y116.526 E0.07945
G1 X166.628 Y116.318 E0.07945
G1 X165.366 Y116.271 E0.05787
G1 X163.163 Y116.347 E0.10099
G1 X161.445 Y116.584 E0.07945
G1 X159.753 Y116.967 E0.07945
G1 X157.804 Y117.603 E0.09394
G1 X156.213 Y118.294 E0.07945
G1 X154.687 Y119.117 E0.07945
G1 X153.236 Y120.068 E0.07945
G1 X152.114 Y120.936 E0.06496
G1 X150.829 Y122.1 E0.07945
G1 X149.648 Y123.37 E0.07945
G1 X149.992 Y123.685 F9000
G1 F1800
G1 X148.949 Y125.02 E0.07763
G1 X147.885 Y126.679 E0.09029
G1 X147.106 Y128.184 E0.07763
G1 X146.459 Y129.75 E0.07763
G1 X145.948 Y131.366 E0.07763
G1 X145.627 Y132.747 E0.06496
G1 X145.375 Y134.423 E0.07763
G1 X145.262 Y136.297 E0.08604
G1 X145.272 Y194.078 E2.64706
G1 X145.414 Y195.911 E0.08421
G1 X145.673 Y197.481 E0.07288
G1 X145.986 Y198.775 E0.06099
G1 X146.473 Y200.289 E0.07288
G1 X147.08 Y201.759 E0.07288
G1 X147.804 Y203.176 E0.07288
G1 X148.638 Y204.531 E0.07288
G1 X149.742 Y206.015 E0.08476
G1 X150.798 Y207.205 E0.07288
G1 X151.947 Y208.306 E0.07288
G1 X153.18 Y209.311 E0.07288
G1 X154.49 Y210.214 E0.07288
G1 X155.868 Y211.009 E0.07288
G1 X157.305 Y211.691 E0.07288
G1 X158.792 Y212.255 E0.07288
G1 X160.32 Y212.698 E0.07288
G1 X161.879 Y213.017 E0.07288
G1 X163.458 Y213.209 E0.07288
G1 X165.047 Y213.275 E0.07288
G1 X166.637 Y213.212 E0.07288
G1 X168.216 Y213.023 E0.07288
G1 X169.775 Y212.707 E0.07288
G1 X171.057 Y212.347 E0.06099
G1 X172.553 Y211.805 E0.07288
G1 X174.231 Y211.026 E0.08476
G1 X175.611 Y210.234 E0.07288
G1 X176.922 Y209.334 E0.07288
G1 X178.157 Y208.331 E0.07288
G1 X179.307 Y207.232 E0.07288
G1 X180.2 Y206.244 E0.06099
G1 X181.176 Y204.988 E0.07288
G1 X182.049 Y203.658 E0.07288
G1 X182.811 Y202.262 E0.07288
G1 X183.554 Y200.567 E0.08476
G1 X184.064 Y199.06 E0.07288
G1 X184.451 Y197.518 E0.07288
G1 X184.738 Y195.419 E0.09702
G1 X184.738 Y134.579 E2.78717
G1 X184.678 Y133.782 E0.03663
G1 X184.372 Y132.118 E0.07753
G1 X183.924 Y130.483 E0.07763
G1 X183.338 Y128.893 E0.07763
G1 X182.619 Y127.359 E0.07763
G1 X181.771 Y125.892 E0.07763
G1 X180.801 Y124.503 E0.07763
G1 X179.715 Y123.202 E0.07763
G1 X178.522 Y121.998 E0.07763
G1 X177.448 Y121.073 E0.06496
G1 X176.082 Y120.071 E0.07763
G1 X174.635 Y119.189 E0.07763
G1 X173.117 Y118.435 E0.07763
G1 X171.541 Y117.813 E0.07763
G1 X169.918 Y117.328 E0.07763
G1 X168.259 Y116.983 E0.07763
G1 X166.576 Y116.782 E0.07763
G1 X165.354 Y116.737 E0.05604
G1 X163.191 Y116.813 E0.09916
G1 X161.512 Y117.045 E0.07763
G1 X159.593 Y117.495 E0.09029
M73 P1 R32
G1 X157.986 Y118.033 E0.07763
G1 X156.431 Y118.706 E0.07763
G1 X154.939 Y119.509 E0.07763
G1 X153.522 Y120.437 E0.07763
G1 X152.188 Y121.483 E0.07763
G1 X151.145 Y122.443 E0.06496
G1 X149.992 Y123.685 E0.07763
G1 E-0.8 F3000
; printing object pip_rotating_hanger.STL id:0 copy 0
; acceleration to travel
M204 S3000
G1 X157.826 Y156.024 F9000
; decel to extrusion
M204 S1000
G1 X160.437 Y166.804
; end travel
G1 E0.8 F1800
;TYPE:Internal perimeter
;WIDTH:0.5
G1 X169.704 Y166.805 E0.4064
G1 X169.704 Y171.734 E0.21618
G1 X169.76 Y172.862 E0.04951
G1 X169.931 Y174.006 E0.05075
G1 X170.215 Y175.128 E0.05075
G1 X170.609 Y176.216 E0.05075
G1 X171.107 Y177.257 E0.05061
G1 X171.727 Y178.293 E0.05294
G1 X171.762 Y178.419 E0.00576
G1 X171.736 Y178.546 E0.00566
G1 X171.07 Y179.722 E0.05927
G1 X171.026 Y179.785 E0.00339
G1 X170.938 Y179.864 E0.00522
G1 X170.845 Y179.904 E0.00442
G1 X170.719 Y179.916 E0.00554
G1 X169.416 Y179.455 E0.06062
G1 X168.16 Y179.125 E0.05694
G1 X166.877 Y178.908 E0.05709
G1 X165.579 Y178.804 E0.05709
G1 X164.277 Y178.817 E0.05709
G1 X162.982 Y178.944 E0.05709
G1 X161.703 Y179.186 E0.05709
G1 X160.45 Y179.54 E0.05709
G1 X159.234 Y180.004 E0.05709
G1 X158.064 Y180.574 E0.05709
G1 X156.948 Y181.245 E0.05709
G1 X155.897 Y182.012 E0.05709
G1 X154.918 Y182.87 E0.05709
G1 X154.018 Y183.811 E0.05709
G1 X153.206 Y184.828 E0.05709
G1 X152.486 Y185.912 E0.05709
G1 X151.866 Y187.057 E0.05709
G1 X151.35 Y188.252 E0.05709
G1 X150.941 Y189.488 E0.05709
G1 X150.643 Y190.755 E0.05709
G1 X150.459 Y192.043 E0.05709
G1 X150.39 Y193.343 E0.05709
G1 X150.437 Y194.644 E0.05709
G1 X150.598 Y195.936 E0.05709
G1 X150.873 Y197.208 E0.05709
G1 X151.26 Y198.451 E0.05709
G1 X151.756 Y199.655 E0.05709
G1 X152.356 Y200.81 E0.05709
G1 X153.056 Y201.907 E0.05709
G1 X153.851 Y202.938 E0.05709
G1 X154.734 Y203.895 E0.05709
G1 X155.698 Y204.769 E0.05709
G1 X156.736 Y205.555 E0.05709
G1 X157.839 Y206.245 E0.05709
G1 X159 Y206.835 E0.05709
G1 X160.208 Y207.32 E0.05709
G1 X161.454 Y207.696 E0.05709
G1 X162.728 Y207.96 E0.05709
G1 X164.021 Y208.111 E0.05709
G1 X165.323 Y208.146 E0.05709
G1 X166.622 Y208.065 E0.05709
G1 X167.909 Y207.87 E0.05709
G1 X169.173 Y207.561 E0.05709
G1 X170.406 Y207.142 E0.05709
G1 X171.596 Y206.615 E0.05709
G1 X172.735 Y205.985 E0.05709
G1 X173.813 Y205.256 E0.05709
G1 X174.823 Y204.435 E0.05709
G1 X175.756 Y203.527 E0.05709
G1 X176.605 Y202.54 E0.05709
G1 X177.363 Y201.482 E0.05709
G1 X178.025 Y200.361 E0.05709
G1 X178.584 Y199.186 E0.05709
G1 X179.037 Y197.965 E0.05709
G1 X179.38 Y196.712 E0.05696
G1 X179.627 Y195.383 E0.05932
G1 X179.684 Y195.266 E0.00569
G1 X179.787 Y195.19 E0.00562
G1 X179.879 Y195.159 E0.00428
G1 X180.11 Y195.149 E0.01012
G1 X180.169 Y195.154 E0.00261
G1 X180.289 Y195.196 E0.00555
G1 X180.393 Y195.281 E0.00591
G1 X180.443 Y195.405 E0.00586
G1 X180.448 Y195.558 E0.00669
G1 X180.242 Y196.743 E0.05277
G1 X179.93 Y197.95 E0.05469
G1 X179.523 Y199.129 E0.05469
G1 X179.022 Y200.271 E0.05469
G1 X178.431 Y201.37 E0.05469
G1 X177.754 Y202.417 E0.05469
G1 X176.995 Y203.406 E0.05469
G1 X176.159 Y204.332 E0.05469
G1 X175.252 Y205.187 E0.05469
G1 X174.279 Y205.967 E0.05469
G1 X173.246 Y206.666 E0.05469
G1 X172.16 Y207.28 E0.05469
G1 X171.029 Y207.805 E0.05469
G1 X169.859 Y208.237 E0.05469
G1 X168.659 Y208.575 E0.05469
G1 X167.435 Y208.814 E0.05469
G1 X166.196 Y208.955 E0.05469
G1 X164.949 Y208.996 E0.05469
G1 X163.704 Y208.936 E0.05469
G1 X162.467 Y208.777 E0.05469
G1 X161.247 Y208.519 E0.05469
G1 X160.051 Y208.164 E0.05469
G1 X158.888 Y207.714 E0.05469
G1 X157.765 Y207.172 E0.05469
G1 X156.689 Y206.542 E0.05469
G1 X155.667 Y205.827 E0.05469
G1 X154.705 Y205.033 E0.05469
G1 X153.811 Y204.164 E0.05469
G1 X152.989 Y203.226 E0.05469
G1 X152.245 Y202.225 E0.05469
G1 X151.584 Y201.168 E0.05469
G1 X151.009 Y200.061 E0.05469
G1 X150.526 Y198.911 E0.05469
G1 X150.136 Y197.727 E0.05469
G1 X149.843 Y196.515 E0.05469
G1 X149.648 Y195.283 E0.05469
G1 X149.552 Y194.04 E0.05469
G1 X149.556 Y192.793 E0.05469
G1 X149.661 Y191.55 E0.05469
G1 X149.865 Y190.32 E0.05469
G1 X150.167 Y189.11 E0.05469
G1 X150.565 Y187.928 E0.05469
G1 X151.057 Y186.782 E0.05469
G1 X151.639 Y185.679 E0.05469
G1 X152.308 Y184.626 E0.05469
G1 X153.059 Y183.631 E0.05469
G1 X153.888 Y182.699 E0.05469
G1 X154.79 Y181.835 E0.05476
G1 X156.59 Y180.362 E0.10202
G1 X157.359 Y179.597 E0.04758
G1 X158.053 Y178.766 E0.04749
G1 X158.667 Y177.874 E0.04748
G1 X159.196 Y176.929 E0.04748
G1 X159.635 Y175.94 E0.04748
G1 X159.98 Y174.913 E0.04748
G1 X160.229 Y173.86 E0.04749
G1 X160.379 Y172.787 E0.04748
G1 X160.428 Y171.733 E0.04628
G1 X160.437 Y166.804 E0.21616
G1 X159.989 Y166.356 F9000
G1 F1800
G1 X160.243 Y166.351 E0.01113
G1 X170.152 Y166.356 E0.43458
G1 X170.152 Y171.723 E0.23536
G1 X170.206 Y172.817 E0.04804
G1 X170.371 Y173.918 E0.0488
G1 X170.644 Y174.996 E0.0488
G1 X171.023 Y176.043 E0.0488
G1 X171.502 Y177.045 E0.04871
G1 X172.143 Y178.114 E0.05466
G1 X172.182 Y178.221 E0.00502
G1 X172.206 Y178.342 E0.0054
G1 X172.211 Y178.465 E0.0054
G1 X172.196 Y178.587 E0.0054
G1 X172.161 Y178.705 E0.0054
G1 X172.096 Y178.842 E0.00663
G1 X171.451 Y179.96 E0.05661
G1 X171.365 Y180.084 E0.00662
G1 X171.28 Y180.173 E0.0054
G1 X171.182 Y180.247 E0.00539
G1 X171.073 Y180.305 E0.00539
G1 X170.957 Y180.345 E0.00539
G1 X170.836 Y180.365 E0.00539
G1 X170.713 Y180.367 E0.0054
G1 X170.601 Y180.35 E0.00494
G1 X169.284 Y179.884 E0.06127
G1 X168.065 Y179.564 E0.05525
G1 X166.821 Y179.353 E0.05534
G1 X165.563 Y179.253 E0.05534
G1 X164.302 Y179.265 E0.05534
G1 X163.046 Y179.389 E0.05534
G1 X161.806 Y179.623 E0.05534
G1 X160.592 Y179.966 E0.05534
G1 X159.413 Y180.416 E0.05534
G1 X158.278 Y180.968 E0.05534
G1 X157.197 Y181.619 E0.05534
G1 X156.177 Y182.363 E0.05534
G1 X155.228 Y183.194 E0.05534
G1 X154.356 Y184.106 E0.05534
G1 X153.568 Y185.092 E0.05534
G1 X152.871 Y186.144 E0.05534
G1 X152.27 Y187.253 E0.05534
G1 X151.769 Y188.411 E0.05534
G1 X151.373 Y189.609 E0.05534
G1 X151.085 Y190.838 E0.05534
G1 X150.906 Y192.087 E0.05534
G1 X150.839 Y193.347 E0.05534
G1 X150.884 Y194.608 E0.05534
G1 X151.041 Y195.86 E0.05534
G1 X151.308 Y197.094 E0.05534
G1 X151.683 Y198.299 E0.05534
G1 X152.163 Y199.466 E0.05534
G1 X152.745 Y200.585 E0.05534
G1 X153.424 Y201.649 E0.05534
G1 X154.194 Y202.648 E0.05534
G1 X155.05 Y203.576 E0.05534
G1 X155.985 Y204.423 E0.05534
G1 X156.991 Y205.185 E0.05534
G1 X158.06 Y205.855 E0.05534
G1 X159.185 Y206.427 E0.05534
G1 X160.356 Y206.897 E0.05534
G1 X161.564 Y207.261 E0.05534
G1 X162.8 Y207.517 E0.05534
G1 X164.053 Y207.663 E0.05534
G1 X165.315 Y207.697 E0.05534
G1 X166.574 Y207.619 E0.05534
G1 X167.822 Y207.429 E0.05534
G1 X169.048 Y207.13 E0.05534
G1 X170.242 Y206.724 E0.05534
G1 X171.396 Y206.213 E0.05534
G1 X172.5 Y205.602 E0.05534
G1 X173.546 Y204.896 E0.05534
G1 X174.525 Y204.099 E0.05534
G1 X175.429 Y203.219 E0.05534
G1 X176.252 Y202.263 E0.05534
G1 X176.987 Y201.237 E0.05534
G1 X177.628 Y200.15 E0.05534
G1 X178.171 Y199.011 E0.05534
G1 X178.61 Y197.828 E0.05534
G1 X178.942 Y196.612 E0.05527
G1 X179.197 Y195.24 E0.0612
G1 X179.239 Y195.134 E0.005
G1 X179.301 Y195.028 E0.00539
G1 X179.38 Y194.933 E0.00539
G1 X179.472 Y194.852 E0.0054
G1 X179.577 Y194.787 E0.00539
G1 X179.69 Y194.739 E0.0054
G1 X179.797 Y194.713 E0.00482
G1 X180.119 Y194.699 E0.01416
G1 X180.265 Y194.712 E0.0064
G1 X180.392 Y194.745 E0.00575
G1 X180.511 Y194.799 E0.00575
G1 X180.62 Y194.873 E0.00575
G1 X180.714 Y194.964 E0.00575
G1 X180.792 Y195.069 E0.00575
G1 X180.85 Y195.187 E0.00575
G1 X180.888 Y195.312 E0.00575
G1 X180.904 Y195.442 E0.00575
G1 X180.898 Y195.589 E0.00644
G1 X180.681 Y196.838 E0.05558
G1 X180.36 Y198.08 E0.05627
G1 X179.941 Y199.293 E0.05627
G1 X179.426 Y200.468 E0.05627
G1 X178.818 Y201.598 E0.05627
G1 X178.121 Y202.675 E0.05627
G1 X177.34 Y203.694 E0.05627
G1 X176.48 Y204.646 E0.05627
G1 X175.546 Y205.526 E0.05627
G1 X174.545 Y206.328 E0.05627
G1 X173.482 Y207.048 E0.05627
G1 X172.366 Y207.679 E0.05628
G1 X171.202 Y208.219 E0.05627
G1 X169.998 Y208.664 E0.05627
G1 X168.763 Y209.011 E0.05627
G1 X167.503 Y209.258 E0.05627
G1 X166.229 Y209.403 E0.05627
G1 X164.946 Y209.444 E0.05627
G1 X163.664 Y209.383 E0.05627
G1 X162.392 Y209.219 E0.05627
G1 X161.136 Y208.954 E0.05627
G1 X159.906 Y208.589 E0.05627
G1 X158.71 Y208.126 E0.05627
G1 X157.554 Y207.568 E0.05627
G1 X156.447 Y206.92 E0.05627
G1 X155.395 Y206.185 E0.05627
G1 X154.406 Y205.367 E0.05627
G1 X153.485 Y204.473 E0.05627
G1 X152.64 Y203.508 E0.05627
G1 X151.874 Y202.478 E0.05627
G1 X151.194 Y201.39 E0.05627
G1 X150.603 Y200.251 E0.05627
G1 X150.106 Y199.069 E0.05627
G1 X149.705 Y197.85 E0.05627
G1 X149.403 Y196.603 E0.05627
G1 X149.202 Y195.335 E0.05627
G1 X149.103 Y194.056 E0.05627
G1 X149.108 Y192.773 E0.05627
G1 X149.216 Y191.494 E0.05627
G1 X149.426 Y190.228 E0.05627
G1 X149.736 Y188.983 E0.05627
G1 X150.146 Y187.768 E0.05627
G1 X150.652 Y186.588 E0.05627
G1 X151.251 Y185.454 E0.05627
G1 X151.939 Y184.371 E0.05627
G1 X152.712 Y183.346 E0.05627
G1 X153.565 Y182.387 E0.05627
G1 X154.492 Y181.499 E0.05631
G1 X156.289 Y180.029 E0.10184
G1 X157.028 Y179.294 E0.04571
G1 X157.696 Y178.495 E0.04566
G1 X158.286 Y177.637 E0.04566
G1 X158.794 Y176.729 E0.04566
G1 X159.216 Y175.777 E0.04566
G1 X159.549 Y174.79 E0.04566
G1 X159.788 Y173.777 E0.04566
G1 X159.932 Y172.746 E0.04566
G1 X159.98 Y171.722 E0.04493
G1 X159.989 Y166.356 E0.23536
G1 X159.713 Y165.962 F9000
;TYPE:External perimeter
;WIDTH:0.4
G1 F1800
G1 X160.239 Y165.953 E0.01793
G1 X170.405 Y165.958 E0.34642
G1 X170.52 Y166.036 E0.00475
G1 X170.551 Y166.148 E0.00394
G1 X170.551 Y171.713 E0.18966
G1 X170.603 Y172.778 E0.03632
G1 X170.763 Y173.839 E0.03657
G1 X171.026 Y174.879 E0.03657
G1 X171.391 Y175.889 E0.03657
G1 X171.854 Y176.856 E0.03654
G1 X172.503 Y177.941 E0.04309
G1 X172.567 Y178.113 E0.00624
G1 X172.603 Y178.296 E0.00637
G1 X172.61 Y178.483 E0.00637
G1 X172.587 Y178.668 E0.00637
G1 X172.535 Y178.848 E0.00637
G1 X172.449 Y179.027 E0.00678
G1 X171.788 Y180.173 E0.04508
G1 X171.675 Y180.337 E0.00677
G1 X171.546 Y180.472 E0.00637
G1 X171.397 Y180.584 E0.00636
G1 X171.232 Y180.672 E0.00636
G1 X171.055 Y180.732 E0.00637
G1 X170.871 Y180.764 E0.00636
G1 X170.684 Y180.765 E0.00637
G1 X170.504 Y180.738 E0.00621
G1 X169.167 Y180.265 E0.04834
G1 X167.981 Y179.954 E0.04177
G1 X166.772 Y179.749 E0.0418
G1 X165.549 Y179.652 E0.0418
G1 X164.323 Y179.663 E0.0418
G1 X163.102 Y179.783 E0.0418
G1 X161.897 Y180.011 E0.0418
G1 X160.717 Y180.345 E0.0418
G1 X159.571 Y180.782 E0.0418
G1 X159.199 Y180.963 E0.01408
