; generated by SuperSlicer 2.3.57 on 2022-01-21 at 01:30:04 UTC


;
;

;
;
; 

; external perimeters extrusion width = 0.40mm
; perimeters extrusion width = 0.40mm
; infill extrusion width = 0.40mm
; solid infill extrusion width = 0.40mm
; top infill extrusion width = 0.40mm
; first layer extrusion width = 0.48mm


;TYPE:Custom
START_PRINT T_BED=60 T_EXTRUDER=200
M107
G21 ; set units to millimeters
G90 ; use absolute coordinates
M83 ; use relative distances for extrusion
; Filament gcode
M109 S200 ; set temperature and wait for it to be reached
M190 S60 ; set bed temperature and wait for it to be reached
;LAYER_CHANGE
;Z:0.24
;HEIGHT:0.24
G1 E-0.6 F3000
G1 Z0.24 F9000
M204 S1500
G1 X128.684 Y64.516
G1 E0.6 F1800
;TYPE:Skirt
;WIDTH:0.48
G1 F600
G1 X92.177 Y168.127 E4.69688
G1 X91.933 Y169.077 E0.04194
G1 X91.857 Y169.994 E0.03935
G1 X91.86 Y263.178 E3.98412
G1 X91.937 Y263.942 E0.03284
G1 X92.114 Y264.684 E0.03259
G1 X92.39 Y265.394 E0.03259
G1 X92.76 Y266.061 E0.03259
G1 X93.216 Y266.672 E0.03259
G1 X93.75 Y267.216 E0.03259
G1 X94.352 Y267.683 E0.03259
G1 X95.018 Y268.067 E0.03284
G1 X96.214 Y268.494 E0.05433
G1 X97.477 Y268.643 E0.05433
G1 X232.602 Y268.642 E5.77734
G1 X233.373 Y268.575 E0.03309
G1 X234.122 Y268.405 E0.03284
G1 X234.846 Y268.132 E0.03309
G1 X235.527 Y267.762 E0.03309
G1 X236.15 Y267.303 E0.03309
G1 X236.704 Y266.763 E0.03309
G1 X237.18 Y266.153 E0.03309
G1 X237.567 Y265.482 E0.03309
G1 X237.994 Y264.286 E0.05433
G1 X238.143 Y263.029 E0.05408
G1 X238.143 Y169.992 E3.97786
G1 X238.03 Y168.879 E0.04785
G1 X237.823 Y168.127 E0.03335
G1 X201.51 Y64.956 E4.67635
G1 X201.146 Y64.194 E0.0361
G1 X200.672 Y63.495 E0.0361
G1 X200.1 Y62.875 E0.0361
G1 X199.437 Y62.343 E0.03635
G1 X198.706 Y61.92 E0.0361
G1 X197.921 Y61.61 E0.0361
G1 X197.098 Y61.421 E0.0361
G1 X196.256 Y61.357 E0.0361
G1 X133.486 Y61.363 E2.68374
G1 X132.735 Y61.449 E0.03234
G1 X132.007 Y61.633 E0.03209
G1 X131.305 Y61.915 E0.03234
G1 X130.651 Y62.284 E0.03209
G1 X130.053 Y62.737 E0.03209
G1 X129.52 Y63.266 E0.03209
G1 X129.062 Y63.86 E0.03209
G1 X128.714 Y64.464 E0.02978
G1 X128.892 Y64.583 F9000
M204 S500
G1 X129.069 Y64.702
G1 F600
G1 X92.58 Y168.273 E4.69502
G1 X92.357 Y169.141 E0.0383
G1 X92.286 Y169.994 E0.03662
G1 X92.288 Y263.152 E3.98298
G1 X92.52 Y264.544 E0.06036
G1 X93.113 Y265.819 E0.06012
G1 X94.03 Y266.892 E0.06036
G1 X95.201 Y267.68 E0.06036
G1 X96.314 Y268.078 E0.05054
G1 X97.483 Y268.214 E0.0503
G1 X232.589 Y268.213 E5.77654
G1 X233.303 Y268.152 E0.03061
G1 X234.001 Y267.994 E0.03061
G1 X234.671 Y267.741 E0.03061
G1 X235.295 Y267.402 E0.03037
G1 X235.867 Y266.981 E0.03037
G1 X236.381 Y266.483 E0.03061
G1 X236.821 Y265.918 E0.03061
G1 X237.18 Y265.299 E0.03061
G1 X237.576 Y264.191 E0.0503
G1 X237.714 Y263.023 E0.0503
G1 X237.714 Y169.996 E3.97741
G1 X237.612 Y168.97 E0.04407
G1 X237.419 Y168.269 E0.03109
G1 X201.116 Y65.126 E4.67512
G1 X200.78 Y64.418 E0.0335
G1 X200.342 Y63.768 E0.0335
G1 X199.812 Y63.192 E0.0335
G1 X199.201 Y62.701 E0.0335
G1 X198.523 Y62.307 E0.0335
G1 X197.795 Y62.02 E0.0335
G1 X197.037 Y61.845 E0.03325
G1 X196.256 Y61.786 E0.0335
G1 X133.524 Y61.791 E2.68212
G1 X132.151 Y62.037 E0.05964
G1 X130.897 Y62.635 E0.0594
G1 X129.846 Y63.544 E0.0594
G1 X129.103 Y64.652 E0.05706
G1 E-0.6 F3000
M204 S1500
G1 X154.968 Y121.704 F9000
M204 S500
G1 X180.833 Y178.756
G1 E0.6 F1800
;TYPE:Internal perimeter
G1 F600
G1 X180.451 Y178.951 E0.01834
G1 X180.091 Y179.184 E0.01834
G1 X179.758 Y179.454 E0.01834
G1 X179.454 Y179.758 E0.01834
G1 X179.184 Y180.091 E0.01834
G1 X178.951 Y180.451 E0.01834
G1 X178.756 Y180.833 E0.01834
G1 X178.602 Y181.233 E0.01834
G1 X178.491 Y181.648 E0.01834
G1 X178.424 Y182.072 E0.01834
G1 X178.403 Y182.471 E0.01711
G1 X178.403 Y182.505 E0.00144
G1 X178.403 Y250.466 E2.90571
G1 X178.402 Y250.5 E0.00144
G1 X178.424 Y250.928 E0.01834
G1 X178.491 Y251.352 E0.01834
G1 X178.602 Y251.767 E0.01834
G1 X178.756 Y252.167 E0.01834
G1 X178.951 Y252.549 E0.01834
G1 X179.184 Y252.909 E0.01834
G1 X179.454 Y253.242 E0.01834
G1 X179.758 Y253.546 E0.01834
G1 X180.091 Y253.816 E0.01834
G1 X180.451 Y254.049 E0.01834
G1 X180.833 Y254.244 E0.01834
G1 X181.233 Y254.398 E0.01834
G1 X181.648 Y254.509 E0.01834
G1 X182.072 Y254.576 E0.01834
G1 X182.47 Y254.597 E0.01705
G1 X182.503 Y254.597 E0.00143
G1 X219.966 Y254.597 E1.60174
G1 X220 Y254.599 E0.00144
G1 X220.428 Y254.576 E0.01835
G1 X220.852 Y254.509 E0.01834
G1 X221.267 Y254.398 E0.01834
G1 X221.667 Y254.244 E0.01834
G1 X222.049 Y254.049 E0.01834
G1 X222.409 Y253.816 E0.01834
G1 X222.742 Y253.546 E0.01834
G1 X223.046 Y253.242 E0.01834
G1 X223.316 Y252.909 E0.01834
G1 X223.549 Y252.549 E0.01834
G1 X223.744 Y252.167 E0.01834
G1 X223.898 Y251.767 E0.01834
G1 X224.009 Y251.352 E0.01834
G1 X224.076 Y250.928 E0.01834
G1 X224.097 Y250.529 E0.01711
G1 X224.097 Y250.495 E0.00144
G1 X224.097 Y182.534 E2.90571
G1 X224.098 Y182.5 E0.00144
G1 X224.076 Y182.072 E0.01834
G1 X224.009 Y181.648 E0.01834
G1 X223.898 Y181.233 E0.01834
G1 X223.744 Y180.833 E0.01834
G1 X223.549 Y180.451 E0.01834
G1 X223.316 Y180.091 E0.01834
G1 X223.046 Y179.758 E0.01834
G1 X222.742 Y179.454 E0.01834
G1 X222.409 Y179.184 E0.01834
G1 X222.049 Y178.951 E0.01834
G1 X221.667 Y178.756 E0.01834
G1 X221.267 Y178.602 E0.01834
G1 X220.852 Y178.491 E0.01834
G1 X220.428 Y178.424 E0.01834
G1 X220.03 Y178.403 E0.01705
G1 X219.997 Y178.403 E0.00143
G1 X182.534 Y178.403 E1.60174
G1 X182.5 Y178.401 E0.00144
G1 X182.072 Y178.424 E0.01835
G1 X181.648 Y178.491 E0.01834
G1 X181.233 Y178.602 E0.01834
G1 X180.889 Y178.734 E0.01578
M204 S1500
G1 X180.966 Y178.934 F9000
M204 S500
G1 X181.043 Y179.134
G1 F600
G1 X181.008 Y179.148 E0.00161
G1 X180.665 Y179.322 E0.01642
G1 X180.343 Y179.531 E0.01642
G1 X180.045 Y179.773 E0.01642
G1 X179.773 Y180.045 E0.01642
G1 X179.531 Y180.343 E0.01642
G1 X179.322 Y180.665 E0.01642
G1 X179.148 Y181.008 E0.01642
G1 X179.01 Y181.366 E0.01642
G1 X178.911 Y181.737 E0.01642
G1 X178.851 Y182.116 E0.01642
G1 X178.832 Y182.482 E0.01567
G1 X178.832 Y182.505 E0.00096
G1 X178.832 Y250.477 E2.90619
G1 X178.831 Y250.5 E0.00096
G1 X178.851 Y250.884 E0.01642
G1 X178.911 Y251.263 E0.01642
G1 X179.01 Y251.634 E0.01642
G1 X179.148 Y251.992 E0.01642
G1 X179.322 Y252.335 E0.01642
G1 X179.531 Y252.657 E0.01642
G1 X179.773 Y252.955 E0.01642
G1 X180.045 Y253.227 E0.01642
G1 X180.343 Y253.469 E0.01642
G1 X180.665 Y253.678 E0.01642
G1 X181.008 Y253.852 E0.01642
G1 X181.366 Y253.99 E0.01642
G1 X181.737 Y254.089 E0.01642
G1 X182.116 Y254.149 E0.01642
G1 X182.482 Y254.168 E0.01564
G1 X182.504 Y254.168 E0.00095
G1 X219.977 Y254.168 E1.6022
G1 X220 Y254.169 E0.00096
G1 X220.384 Y254.149 E0.01643
G1 X220.763 Y254.089 E0.01642
G1 X221.134 Y253.99 E0.01642
G1 X221.492 Y253.852 E0.01642
G1 X221.835 Y253.678 E0.01642
G1 X222.157 Y253.469 E0.01642
G1 X222.455 Y253.227 E0.01642
G1 X222.727 Y252.955 E0.01642
G1 X222.969 Y252.657 E0.01642
G1 X223.178 Y252.335 E0.01642
G1 X223.352 Y251.992 E0.01642
G1 X223.49 Y251.634 E0.01642
G1 X223.589 Y251.263 E0.01642
G1 X223.649 Y250.884 E0.01642
G1 X223.668 Y250.518 E0.01567
G1 X223.668 Y250.495 E0.00096
G1 X223.668 Y182.523 E2.90619
G1 X223.669 Y182.5 E0.00096
G1 X223.649 Y182.116 E0.01642
G1 X223.589 Y181.737 E0.01642
G1 X223.49 Y181.366 E0.01642
G1 X223.352 Y181.008 E0.01642
G1 X223.178 Y180.665 E0.01642
G1 X222.969 Y180.343 E0.01642
G1 X222.727 Y180.045 E0.01642
G1 X222.455 Y179.773 E0.01642
G1 X222.157 Y179.531 E0.01642
G1 X221.835 Y179.322 E0.01642
G1 X221.492 Y179.148 E0.01642
G1 X221.134 Y179.01 E0.01642
G1 X220.763 Y178.911 E0.01642
G1 X220.384 Y178.851 E0.01642
G1 X220.018 Y178.832 E0.01564
G1 X219.996 Y178.832 E0.00095
G1 X182.523 Y178.832 E1.6022
G1 X182.5 Y178.831 E0.00096
G1 X182.116 Y178.851 E0.01643
G1 X181.737 Y178.911 E0.01642
G1 X181.366 Y179.01 E0.01642
G1 X181.099 Y179.113 E0.01225
G1 E-0.6 F3000
M204 S1500
G1 X180.179 Y190.742 F9000
M204 S500
G1 X179.26 Y202.371
G1 E0.6 F1800
;TYPE:External perimeter
G1 F600
G1 X179.26 Y250.5 E2.05776
G1 X179.277 Y250.839 E0.0145
G1 X179.33 Y251.174 E0.0145
G1 X179.418 Y251.501 E0.0145
G1 X179.54 Y251.818 E0.0145
G1 X179.694 Y252.12 E0.0145
G1 X179.879 Y252.405 E0.0145
G1 X180.092 Y252.668 E0.0145
G1 X180.332 Y252.908 E0.0145
G1 X180.595 Y253.121 E0.0145
G1 X180.88 Y253.306 E0.0145
G1 X181.182 Y253.46 E0.0145
G1 X181.499 Y253.582 E0.0145
G1 X181.826 Y253.67 E0.0145
G1 X182.161 Y253.723 E0.0145
G1 X182.494 Y253.74 E0.01423
G1 X220 Y253.74 E1.6036
G1 X220.339 Y253.723 E0.0145
G1 X220.674 Y253.67 E0.0145
G1 X221.001 Y253.582 E0.0145
G1 X221.318 Y253.46 E0.0145
G1 X221.62 Y253.306 E0.0145
G1 X221.905 Y253.121 E0.0145
G1 X222.168 Y252.908 E0.0145
G1 X222.408 Y252.668 E0.0145
G1 X222.621 Y252.405 E0.0145
G1 X222.806 Y252.12 E0.0145
G1 X222.96 Y251.818 E0.0145
G1 X223.082 Y251.501 E0.0145
G1 X223.17 Y251.174 E0.0145
G1 X223.223 Y250.839 E0.0145
G1 X223.24 Y250.506 E0.01423
G1 X223.24 Y182.5 E2.90764
G1 X223.223 Y182.161 E0.0145
G1 X223.17 Y181.826 E0.0145
G1 X223.082 Y181.499 E0.0145
G1 X222.96 Y181.182 E0.0145
G1 X222.806 Y180.88 E0.0145
G1 X222.621 Y180.595 E0.0145
G1 X222.408 Y180.332 E0.0145
G1 X222.168 Y180.092 E0.0145
G1 X221.905 Y179.879 E0.0145
G1 X221.62 Y179.694 E0.0145
G1 X221.318 Y179.54 E0.0145
G1 X221.001 Y179.418 E0.0145
G1 X220.674 Y179.33 E0.0145
G1 X220.339 Y179.277 E0.0145
G1 X220.006 Y179.26 E0.01423
G1 X182.5 Y179.26 E1.6036
G1 X182.161 Y179.277 E0.0145
G1 X181.826 Y179.33 E0.0145
G1 X181.499 Y179.418 E0.0145
G1 X181.182 Y179.54 E0.0145
G1 X180.88 Y179.694 E0.0145
G1 X180.595 Y179.879 E0.0145
G1 X180.332 Y180.092 E0.0145
G1 X180.092 Y180.332 E0.0145
G1 X179.879 Y180.595 E0.0145
G1 X179.694 Y180.88 E0.0145
G1 X179.54 Y181.182 E0.0145
G1 X179.418 Y181.499 E0.0145
G1 X179.33 Y181.826 E0.0145
G1 X179.277 Y182.161 E0.0145
G1 X179.26 Y182.494 E0.01423
G1 X179.26 Y202.311 E0.84732
;WIPE_START
G1 X178.914 Y202.571 F9000
;WIPE_END
G1 E-0.6 F3000
M204 S1500
G1 X175.005 Y194.68 F9000
M204 S500
G1 X171.097 Y186.789
G1 E0.6 F1800
;TYPE:Internal perimeter
G1 F600
G1 X171.097 Y171.097 E0.67093
G1 X186.153 Y171.097 E0.64373
G1 X186.153 Y171.993 E0.03832
G1 X186.153 Y172.027 E0.00144
G1 X186.168 Y172.324 E0.01271
G1 X186.219 Y172.644 E0.01387
G1 X186.303 Y172.957 E0.01387
G1 X186.419 Y173.26 E0.01387
G1 X186.567 Y173.549 E0.01387
G1 X186.743 Y173.821 E0.01387
G1 X186.947 Y174.073 E0.01387
G1 X187.177 Y174.303 E0.01387
G1 X187.429 Y174.507 E0.01387
G1 X187.701 Y174.683 E0.01387
G1 X187.99 Y174.831 E0.01387
G1 X188.158 Y174.895 E0.00771
G1 X188.158 Y175.102 E0.00884
G1 X214.342 Y175.102 E1.11951
G1 X214.342 Y174.895 E0.00884
G1 X214.51 Y174.831 E0.00771
G1 X214.799 Y174.683 E0.01387
G1 X215.071 Y174.507 E0.01387
G1 X215.323 Y174.303 E0.01387
G1 X215.553 Y174.073 E0.01387
G1 X215.757 Y173.821 E0.01387
G1 X215.933 Y173.549 E0.01387
G1 X216.081 Y173.26 E0.01387
G1 X216.197 Y172.957 E0.01387
G1 X216.281 Y172.644 E0.01387
G1 X216.332 Y172.324 E0.01387
G1 X216.348 Y172.002 E0.01379
G1 X216.347 Y171.968 E0.00144
G1 X216.347 Y171.097 E0.03724
G1 X231.403 Y171.097 E0.64373
G1 X231.403 Y201.403 E1.29575
G1 X230.471 Y201.403 E0.03984
G1 X230.176 Y201.418 E0.01264
G1 X229.856 Y201.469 E0.01387
G1 X229.543 Y201.553 E0.01387
G1 X229.24 Y201.669 E0.01387
G1 X228.951 Y201.817 E0.01387
G1 X228.679 Y201.993 E0.01387
G1 X228.427 Y202.197 E0.01387
G1 X228.197 Y202.427 E0.01387
G1 X227.993 Y202.679 E0.01387
G1 X227.817 Y202.951 E0.01387
G1 X227.669 Y203.24 E0.01387
G1 X227.605 Y203.408 E0.00771
G1 X227.398 Y203.408 E0.00884
G1 X227.398 Y229.592 E1.11951
G1 X227.605 Y229.592 E0.00884
G1 X227.669 Y229.76 E0.00771
G1 X227.817 Y230.049 E0.01387
G1 X227.993 Y230.321 E0.01387
G1 X228.197 Y230.573 E0.01387
G1 X228.427 Y230.803 E0.01387
G1 X228.679 Y231.007 E0.01387
G1 X228.951 Y231.183 E0.01387
G1 X229.24 Y231.331 E0.01387
G1 X229.543 Y231.447 E0.01387
G1 X229.856 Y231.531 E0.01387
G1 X230.176 Y231.582 E0.01387
G1 X230.5 Y231.598 E0.01388
G1 X230.534 Y231.597 E0.00142
G1 X231.403 Y231.597 E0.03717
G1 X231.403 Y261.903 E1.29575
G1 X216.347 Y261.903 E0.64373
G1 X216.347 Y261.007 E0.03832
G1 X216.347 Y260.973 E0.00144
G1 X216.332 Y260.676 E0.01271
G1 X216.281 Y260.356 E0.01387
G1 X216.197 Y260.043 E0.01387
G1 X216.081 Y259.74 E0.01387
G1 X215.933 Y259.451 E0.01387
G1 X215.757 Y259.179 E0.01387
G1 X215.553 Y258.927 E0.01387
G1 X215.323 Y258.697 E0.01387
G1 X215.071 Y258.493 E0.01387
G1 X214.799 Y258.317 E0.01387
G1 X214.51 Y258.169 E0.01387
G1 X214.342 Y258.105 E0.00771
G1 X214.342 Y257.898 E0.00884
G1 X188.158 Y257.898 E1.11951
G1 X188.158 Y258.105 E0.00884
G1 X187.99 Y258.169 E0.00771
G1 X187.701 Y258.317 E0.01387
G1 X187.429 Y258.493 E0.01387
G1 X187.177 Y258.697 E0.01387
G1 X186.947 Y258.927 E0.01387
G1 X186.743 Y259.179 E0.01387
G1 X186.567 Y259.451 E0.01387
G1 X186.419 Y259.74 E0.01387
G1 X186.303 Y260.043 E0.01387
G1 X186.219 Y260.356 E0.01387
G1 X186.168 Y260.676 E0.01387
G1 X186.152 Y260.998 E0.01379
G1 X186.153 Y261.032 E0.00144
G1 X186.153 Y261.903 E0.03724
G1 X171.097 Y261.903 E0.64373
G1 X171.097 Y231.597 E1.29575
G1 X172.029 Y231.597 E0.03984
G1 X172.324 Y231.582 E0.01264
G1 X172.644 Y231.531 E0.01387
G1 X172.957 Y231.447 E0.01387
G1 X173.26 Y231.331 E0.01387
G1 X173.549 Y231.183 E0.01387
G1 X173.821 Y231.007 E0.01387
G1 X174.073 Y230.803 E0.01387
G1 X174.303 Y230.573 E0.01387
G1 X174.507 Y230.321 E0.01387
G1 X174.683 Y230.049 E0.01387
G1 X174.831 Y229.76 E0.01387
G1 X174.895 Y229.592 E0.00771
G1 X175.102 Y229.592 E0.00884
G1 X175.102 Y203.408 E1.11951
G1 X174.895 Y203.408 E0.00884
G1 X174.831 Y203.24 E0.00771
G1 X174.683 Y202.951 E0.01387
G1 X174.507 Y202.679 E0.01387
G1 X174.303 Y202.427 E0.01387
G1 X174.073 Y202.197 E0.01387
G1 X173.821 Y201.993 E0.01387
G1 X173.549 Y201.817 E0.01387
G1 X173.26 Y201.669 E0.01387
G1 X172.957 Y201.553 E0.01387
G1 X172.644 Y201.469 E0.01387
G1 X172.324 Y201.418 E0.01387
G1 X172 Y201.402 E0.01388
G1 X171.966 Y201.403 E0.00142
G1 X171.097 Y201.403 E0.03717
G1 X171.097 Y186.849 E0.62226
M204 S1500
G1 X170.883 Y186.849 F9000
M204 S500
G1 X170.668 Y186.849
G1 F600
G1 X170.668 Y170.668 E0.69181
G1 X186.582 Y170.668 E0.68037
G1 X186.582 Y171.994 E0.05667
G1 X186.581 Y172.016 E0.00096
G1 X186.595 Y172.279 E0.01124
G1 X186.639 Y172.555 E0.01195
G1 X186.711 Y172.825 E0.01195
G1 X186.811 Y173.086 E0.01195
G1 X186.938 Y173.335 E0.01195
G1 X187.09 Y173.569 E0.01195
G1 X187.266 Y173.786 E0.01195
G1 X187.464 Y173.984 E0.01195
G1 X187.681 Y174.16 E0.01195
G1 X187.915 Y174.312 E0.01195
G1 X188.164 Y174.439 E0.01195
G1 X188.425 Y174.539 E0.01195
G1 X188.587 Y174.582 E0.00714
G1 X188.587 Y174.673 E0.00391
G1 X213.913 Y174.673 E1.08287
G1 X213.913 Y174.582 E0.00391
G1 X214.075 Y174.539 E0.00714
G1 X214.336 Y174.439 E0.01195
G1 X214.585 Y174.312 E0.01195
G1 X214.819 Y174.16 E0.01195
G1 X215.036 Y173.984 E0.01195
G1 X215.234 Y173.786 E0.01195
G1 X215.41 Y173.569 E0.01195
G1 X215.562 Y173.335 E0.01195
G1 X215.689 Y173.086 E0.01195
G1 X215.789 Y172.825 E0.01195
G1 X215.861 Y172.555 E0.01195
G1 X215.905 Y172.279 E0.01195
G1 X215.919 Y172.001 E0.0119
G1 X215.918 Y171.979 E0.00096
G1 X215.918 Y170.668 E0.05601
G1 X231.832 Y170.668 E0.68037
G1 X231.832 Y201.832 E1.33239
G1 X230.482 Y201.832 E0.05768
G1 X230.221 Y201.845 E0.0112
G1 X229.945 Y201.889 E0.01195
G1 X229.675 Y201.961 E0.01195
G1 X229.414 Y202.061 E0.01195
G1 X229.165 Y202.188 E0.01195
G1 X228.931 Y202.34 E0.01195
G1 X228.714 Y202.516 E0.01195
G1 X228.516 Y202.714 E0.01195
G1 X228.34 Y202.931 E0.01195
G1 X228.188 Y203.165 E0.01195
G1 X228.061 Y203.414 E0.01195
G1 X227.961 Y203.675 E0.01195
G1 X227.918 Y203.837 E0.00714
G1 X227.827 Y203.837 E0.00391
G1 X227.827 Y229.163 E1.08287
G1 X227.918 Y229.163 E0.00391
G1 X227.961 Y229.325 E0.00714
G1 X228.061 Y229.586 E0.01195
G1 X228.188 Y229.835 E0.01195
G1 X228.34 Y230.069 E0.01195
G1 X228.516 Y230.286 E0.01195
G1 X228.714 Y230.484 E0.01195
G1 X228.931 Y230.66 E0.01195
G1 X229.165 Y230.812 E0.01195
G1 X229.414 Y230.939 E0.01195
G1 X229.675 Y231.039 E0.01195
G1 X229.945 Y231.111 E0.01195
G1 X230.221 Y231.155 E0.01195
G1 X230.5 Y231.169 E0.01196
G1 X230.522 Y231.168 E0.00095
G1 X231.832 Y231.168 E0.05597
G1 X231.832 Y262.332 E1.33239
