; generated by SuperSlicer 2.3.56 on 2021-12-09 at 05:05:34 UTC


;
;

;
;
; 

; external perimeters extrusion width = 0.40mm
; perimeters extrusion width = 0.40mm
; infill extrusion width = 0.40mm
; solid infill extrusion width = 0.40mm
; top infill extrusion width = 0.40mm
; first layer extrusion width = 0.48mm


;TYPE:Custom
START_PRINT T_BED=70 T_EXTRUDER=235
M107
G21 ; set units to millimeters
G90 ; use absolute coordinates
M83 ; use relative distances for extrusion
M104 S235 ; set temperature
M109 S235 ; set temperature and wait for it to be reached
M190 S70 ; set bed temperature and wait for it to be reached
M107
;LAYER_CHANGE
;Z:0.24
;HEIGHT:0.24
G1 Z0.240000 F12000.000
G1 E-1.50000 F3000.000
G1 X48.857 Y125.437 F12000.000
G1 E1.50000 F1800.000
;TYPE:Skirt
;WIDTH:0.48
G1 F600.000
G1 X49.500 Y125.357 E0.02768
G1 X279.504 Y125.357 E9.83393
G1 X280.019 Y125.409 E0.02212
G1 X280.510 Y125.558 E0.02194
G1 X280.963 Y125.799 E0.02194
G1 X281.361 Y126.123 E0.02194
G1 X281.688 Y126.518 E0.02194
G1 X281.933 Y126.969 E0.02194
G1 X282.088 Y127.463 E0.02212
G1 X282.143 Y127.973 E0.02194
G1 X282.141 Y183.092 E2.35663
G1 X281.976 Y183.924 E0.03625
G1 X281.554 Y184.663 E0.03642
G1 X280.921 Y185.228 E0.03625
G1 X280.143 Y185.563 E0.03625
G1 X279.500 Y185.643 E0.02768
G1 X49.476 Y185.643 E9.83479
G1 X48.621 Y185.492 E0.03709
G1 X47.865 Y185.076 E0.03692
G1 X47.283 Y184.438 E0.03692
G1 X46.937 Y183.643 E0.03709
G1 X46.857 Y183.002 E0.02758
G1 X46.859 Y127.912 E2.35543
G1 X47.024 Y127.076 E0.03642
G1 X47.444 Y126.340 E0.03625
G1 X48.075 Y125.774 E0.03625
G1 X48.802 Y125.460 E0.03385
G1 X48.965 Y125.851 F12000.000
G1 F600.000
G1 X49.500 Y125.786 E0.02307
G1 X279.504 Y125.786 E9.83391
G1 X280.346 Y125.954 E0.03670
G1 X281.060 Y126.429 E0.03670
G1 X281.541 Y127.140 E0.03670
G1 X281.714 Y127.981 E0.03670
G1 X281.713 Y183.066 E2.35518
G1 X281.576 Y183.770 E0.03067
G1 X281.223 Y184.391 E0.03052
G1 X280.691 Y184.867 E0.03052
G1 X280.035 Y185.149 E0.03052
G1 X279.500 Y185.214 E0.02307
G1 X49.485 Y185.214 E9.83438
G1 X48.771 Y185.091 E0.03098
G1 X48.132 Y184.741 E0.03114
G1 X47.641 Y184.204 E0.03114
G1 X47.351 Y183.535 E0.03114
G1 X47.286 Y183.004 E0.02289
G1 X47.287 Y127.938 E2.35440
G1 X47.422 Y127.237 E0.03052
G1 X47.775 Y126.612 E0.03067
G1 X48.306 Y126.135 E0.03052
G1 X48.909 Y125.875 E0.02811
G1 E-1.50000 F3000.000
G1 X50.597 Y129.097 F12000.000
G1 E1.50000 F1800.000
;TYPE:Internal perimeter
G1 F600.000
G1 X278.403 Y129.097 E9.73995
G1 X278.403 Y181.903 E2.25775
G1 X50.597 Y181.903 E9.73995
G1 X50.597 Y129.157 E2.25518
G1 X50.168 Y128.668 F12000.000
G1 F600.000
G1 X278.832 Y128.668 E9.77659
G1 X278.832 Y182.332 E2.29439
G1 X50.168 Y182.332 E9.77659
G1 X50.168 Y128.728 E2.29182
G1 X49.740 Y128.240 F12000.000
;TYPE:External perimeter
G1 F600.000
G1 X279.260 Y128.240 E9.81323
G1 X279.260 Y182.760 E2.33103
G1 X49.740 Y182.760 E9.81323
G1 X49.740 Y128.300 E2.32846
G1 X50.086 Y128.440 F12000.000
G1 E-1.50000 F3000.000
G1 X278.253 Y130.113 F12000.000
G1 E1.50000 F1800.000
;TYPE:Solid infill
;WIDTH:0.48049
G1 X277.580 Y129.440 E0.04076
G1 X276.974 Y129.440 E0.02594
G1 X278.060 Y130.526 E0.06576
G1 X278.060 Y131.132 E0.02594
G1 X276.368 Y129.440 E0.10244
G1 X275.762 Y129.440 E0.02594
G1 X278.060 Y131.738 E0.13912
G1 X278.060 Y132.344 E0.02594
G1 X275.156 Y129.440 E0.17580
G1 X274.550 Y129.440 E0.02594
G1 X278.060 Y132.950 E0.21248
G1 X278.060 Y133.556 E0.02594
G1 X273.944 Y129.440 E0.24916
G1 X273.338 Y129.440 E0.02594
G1 X278.060 Y134.162 E0.28583
G1 X278.060 Y134.768 E0.02594
G1 X272.732 Y129.440 E0.32251
G1 X272.126 Y129.440 E0.02594
G1 X278.060 Y135.374 E0.35919
G1 X278.060 Y135.980 E0.02594
G1 X271.520 Y129.440 E0.39587
G1 X270.914 Y129.440 E0.02594
G1 X278.060 Y136.586 E0.43255
G1 X278.060 Y137.192 E0.02594
G1 X270.308 Y129.440 E0.46923
G1 X269.702 Y129.440 E0.02594
G1 X278.060 Y137.798 E0.50591
G1 X278.060 Y138.404 E0.02594
G1 X269.096 Y129.440 E0.54258
G1 X268.490 Y129.440 E0.02594
G1 X278.060 Y139.010 E0.57926
G1 X278.060 Y139.616 E0.02594
G1 X267.884 Y129.440 E0.61594
G1 X267.278 Y129.440 E0.02594
G1 X278.060 Y140.222 E0.65262
G1 X278.060 Y140.828 E0.02594
G1 X266.672 Y129.440 E0.68930
G1 X266.066 Y129.440 E0.02594
G1 X278.060 Y141.434 E0.72598
G1 X278.060 Y142.040 E0.02594
G1 X265.460 Y129.440 E0.76265
G1 X264.854 Y129.440 E0.02594
G1 X278.060 Y142.646 E0.79933
G1 X278.060 Y143.252 E0.02594
G1 X264.248 Y129.440 E0.83601
G1 X263.642 Y129.440 E0.02594
G1 X278.060 Y143.858 E0.87269
G1 X278.060 Y144.464 E0.02594
G1 X263.036 Y129.440 E0.90937
G1 X262.430 Y129.440 E0.02594
G1 X278.060 Y145.070 E0.94605
G1 X278.060 Y145.676 E0.02594
G1 X261.824 Y129.440 E0.98272
G1 X261.218 Y129.440 E0.02594
G1 X278.060 Y146.282 E1.01940
G1 X278.060 Y146.888 E0.02594
G1 X260.612 Y129.440 E1.05608
G1 X260.006 Y129.440 E0.02594
G1 X278.060 Y147.494 E1.09276
G1 X278.060 Y148.100 E0.02594
G1 X259.400 Y129.440 E1.12944
G1 X258.794 Y129.440 E0.02594
G1 X278.060 Y148.706 E1.16612
G1 X278.060 Y149.312 E0.02594
G1 X258.188 Y129.440 E1.20279
G1 X257.582 Y129.440 E0.02594
G1 X278.060 Y149.918 E1.23947
G1 X278.060 Y150.524 E0.02594
G1 X256.976 Y129.440 E1.27615
G1 X256.370 Y129.440 E0.02594
G1 X278.060 Y151.130 E1.31283
G1 X278.060 Y151.736 E0.02594
G1 X255.764 Y129.440 E1.34951
G1 X255.158 Y129.440 E0.02594
G1 X278.060 Y152.342 E1.38619
G1 X278.060 Y152.948 E0.02594
G1 X254.552 Y129.440 E1.42286
G1 X253.946 Y129.440 E0.02594
G1 X278.060 Y153.554 E1.45954
G1 X278.060 Y154.160 E0.02594
G1 X253.340 Y129.440 E1.49622
G1 X252.734 Y129.440 E0.02594
G1 X278.060 Y154.766 E1.53290
G1 X278.060 Y155.372 E0.02594
G1 X252.128 Y129.440 E1.56958
G1 X251.522 Y129.440 E0.02594
G1 X278.060 Y155.978 E1.60626
G1 X278.060 Y156.584 E0.02594
G1 X250.916 Y129.440 E1.64293
G1 X250.310 Y129.440 E0.02594
G1 X278.060 Y157.190 E1.67961
G1 X278.060 Y157.796 E0.02594
G1 X249.704 Y129.440 E1.71629
G1 X249.098 Y129.440 E0.02594
G1 X278.060 Y158.402 E1.75297
G1 X278.060 Y159.008 E0.02594
G1 X248.492 Y129.440 E1.78965
G1 X247.886 Y129.440 E0.02594
G1 X278.060 Y159.614 E1.82633
G1 X278.060 Y160.219 E0.02594
G1 X247.281 Y129.440 E1.86300
G1 X246.675 Y129.440 E0.02594
G1 X278.060 Y160.825 E1.89968
G1 X278.060 Y161.431 E0.02594
G1 X246.069 Y129.440 E1.93636
G1 X245.463 Y129.440 E0.02594
G1 X278.060 Y162.037 E1.97304
G1 X278.060 Y162.643 E0.02594
G1 X244.857 Y129.440 E2.00972
G1 X244.251 Y129.440 E0.02594
G1 X278.060 Y163.249 E2.04640
G1 X278.060 Y163.855 E0.02594
G1 X243.645 Y129.440 E2.08308
G1 X243.039 Y129.440 E0.02594
G1 X278.060 Y164.461 E2.11975
G1 X278.060 Y165.067 E0.02594
G1 X242.433 Y129.440 E2.15643
G1 X241.827 Y129.440 E0.02594
G1 X278.060 Y165.673 E2.19311
G1 X278.060 Y166.279 E0.02594
G1 X241.221 Y129.440 E2.22979
G1 X240.615 Y129.440 E0.02594
G1 X278.060 Y166.885 E2.26647
G1 X278.060 Y167.491 E0.02594
G1 X240.009 Y129.440 E2.30315
G1 X239.403 Y129.440 E0.02594
G1 X278.060 Y168.097 E2.33982
G1 X278.060 Y168.703 E0.02594
G1 X238.797 Y129.440 E2.37650
G1 X238.191 Y129.440 E0.02594
G1 X278.060 Y169.309 E2.41318
G1 X278.060 Y169.915 E0.02594
G1 X237.585 Y129.440 E2.44986
G1 X236.979 Y129.440 E0.02594
G1 X278.060 Y170.521 E2.48654
G1 X278.060 Y171.127 E0.02594
G1 X236.373 Y129.440 E2.52322
G1 X235.767 Y129.440 E0.02594
G1 X278.060 Y171.733 E2.55989
G1 X278.060 Y172.339 E0.02594
G1 X235.161 Y129.440 E2.59657
G1 X234.555 Y129.440 E0.02594
G1 X278.060 Y172.945 E2.63325
G1 X278.060 Y173.551 E0.02594
G1 X233.949 Y129.440 E2.66993
G1 X233.343 Y129.440 E0.02594
G1 X278.060 Y174.157 E2.70661
G1 X278.060 Y174.763 E0.02594
G1 X232.737 Y129.440 E2.74329
G1 X232.131 Y129.440 E0.02594
G1 X278.060 Y175.369 E2.77996
G1 X278.060 Y175.975 E0.02594
G1 X231.525 Y129.440 E2.81664
G1 X230.919 Y129.440 E0.02594
G1 X278.060 Y176.581 E2.85332
G1 X278.060 Y177.187 E0.02594
G1 X230.313 Y129.440 E2.89000
G1 X229.707 Y129.440 E0.02594
G1 X278.060 Y177.793 E2.92668
G1 X278.060 Y178.399 E0.02594
G1 X229.101 Y129.440 E2.96336
G1 X228.495 Y129.440 E0.02594
G1 X278.060 Y179.005 E3.00003
G1 X278.060 Y179.611 E0.02594
G1 X227.889 Y129.440 E3.03671
G1 X227.283 Y129.440 E0.02594
G1 X278.060 Y180.217 E3.07339
G1 X278.060 Y180.823 E0.02594
G1 X226.677 Y129.440 E3.11007
G1 X226.071 Y129.440 E0.02594
G1 X278.060 Y181.429 E3.14675
G1 X278.060 Y181.560 E0.00562
G1 X277.586 Y181.560 E0.02032
G1 X225.465 Y129.440 E3.15470
G1 X224.859 Y129.440 E0.02594
G1 X276.980 Y181.560 E3.15470
G1 X276.374 Y181.560 E0.02594
G1 X224.253 Y129.440 E3.15470
G1 X223.647 Y129.440 E0.02594
G1 X275.768 Y181.560 E3.15470
G1 X275.162 Y181.560 E0.02594
G1 X223.041 Y129.440 E3.15470
G1 X222.435 Y129.440 E0.02594
G1 X274.556 Y181.560 E3.15470
G1 X273.950 Y181.560 E0.02594
G1 X221.829 Y129.440 E3.15470
G1 X221.223 Y129.440 E0.02594
G1 X273.344 Y181.560 E3.15470
G1 X272.738 Y181.560 E0.02594
G1 X220.617 Y129.440 E3.15470
G1 X220.011 Y129.440 E0.02594
G1 X272.132 Y181.560 E3.15470
G1 X271.526 Y181.560 E0.02594
G1 X219.405 Y129.440 E3.15470
G1 X218.799 Y129.440 E0.02594
G1 X270.920 Y181.560 E3.15470
G1 X270.314 Y181.560 E0.02594
G1 X218.193 Y129.440 E3.15470
G1 X217.587 Y129.440 E0.02594
G1 X269.708 Y181.560 E3.15470
G1 X269.102 Y181.560 E0.02594
G1 X216.981 Y129.440 E3.15470
G1 X216.375 Y129.440 E0.02594
G1 X268.496 Y181.560 E3.15470
G1 X267.890 Y181.560 E0.02594
G1 X215.769 Y129.440 E3.15470
G1 X215.163 Y129.440 E0.02594
G1 X267.284 Y181.560 E3.15470
G1 X266.678 Y181.560 E0.02594
G1 X214.557 Y129.440 E3.15470
G1 X213.951 Y129.440 E0.02594
G1 X266.072 Y181.560 E3.15470
G1 X265.466 Y181.560 E0.02594
G1 X213.345 Y129.440 E3.15470
G1 X212.739 Y129.440 E0.02594
G1 X264.860 Y181.560 E3.15470
G1 X264.254 Y181.560 E0.02594
G1 X212.133 Y129.440 E3.15470
G1 X211.527 Y129.440 E0.02594
G1 X263.648 Y181.560 E3.15470
G1 X263.042 Y181.560 E0.02594
G1 X210.921 Y129.440 E3.15470
G1 X210.316 Y129.440 E0.02594
G1 X262.436 Y181.560 E3.15470
G1 X261.830 Y181.560 E0.02594
G1 X209.710 Y129.440 E3.15470
G1 X209.104 Y129.440 E0.02594
G1 X261.224 Y181.560 E3.15470
G1 X260.618 Y181.560 E0.02594
G1 X208.498 Y129.440 E3.15470
G1 X207.892 Y129.440 E0.02594
G1 X260.012 Y181.560 E3.15470
G1 X259.406 Y181.560 E0.02594
G1 X207.286 Y129.440 E3.15470
G1 X206.680 Y129.440 E0.02594
G1 X258.800 Y181.560 E3.15470
G1 X258.194 Y181.560 E0.02594
G1 X206.074 Y129.440 E3.15470
G1 X205.468 Y129.440 E0.02594
G1 X257.588 Y181.560 E3.15470
G1 X256.982 Y181.560 E0.02594
G1 X204.862 Y129.440 E3.15470
G1 X204.256 Y129.440 E0.02594
G1 X256.376 Y181.560 E3.15470
G1 X255.770 Y181.560 E0.02594
G1 X203.650 Y129.440 E3.15470
G1 X203.044 Y129.440 E0.02594
G1 X255.164 Y181.560 E3.15470
G1 X254.558 Y181.560 E0.02594
G1 X202.438 Y129.440 E3.15470
G1 X201.832 Y129.440 E0.02594
G1 X253.952 Y181.560 E3.15470
G1 X253.346 Y181.560 E0.02594
G1 X201.226 Y129.440 E3.15470
G1 X200.620 Y129.440 E0.02594
G1 X252.740 Y181.560 E3.15470
G1 X252.134 Y181.560 E0.02594
G1 X200.014 Y129.440 E3.15470
G1 X199.408 Y129.440 E0.02594
G1 X251.528 Y181.560 E3.15470
G1 X250.922 Y181.560 E0.02594
G1 X198.802 Y129.440 E3.15470
G1 X198.196 Y129.440 E0.02594
G1 X250.316 Y181.560 E3.15470
G1 X249.710 Y181.560 E0.02594
G1 X197.590 Y129.440 E3.15470
G1 X196.984 Y129.440 E0.02594
G1 X249.104 Y181.560 E3.15470
G1 X248.498 Y181.560 E0.02594
G1 X196.378 Y129.440 E3.15470
G1 X195.772 Y129.440 E0.02594
G1 X247.892 Y181.560 E3.15470
G1 X247.286 Y181.560 E0.02594
G1 X195.166 Y129.440 E3.15470
G1 X194.560 Y129.440 E0.02594
G1 X246.680 Y181.560 E3.15470
G1 X246.074 Y181.560 E0.02594
G1 X193.954 Y129.440 E3.15470
G1 X193.348 Y129.440 E0.02594
G1 X245.468 Y181.560 E3.15470
G1 X244.862 Y181.560 E0.02594
G1 X192.742 Y129.440 E3.15470
G1 X192.136 Y129.440 E0.02594
G1 X244.256 Y181.560 E3.15470
G1 X243.650 Y181.560 E0.02594
G1 X191.530 Y129.440 E3.15470
G1 X190.924 Y129.440 E0.02594
G1 X243.044 Y181.560 E3.15470
G1 X242.439 Y181.560 E0.02594
G1 X190.318 Y129.440 E3.15470
G1 X189.712 Y129.440 E0.02594
G1 X241.833 Y181.560 E3.15470
G1 X241.227 Y181.560 E0.02594
G1 X189.106 Y129.440 E3.15470
G1 X188.500 Y129.440 E0.02594
G1 X240.621 Y181.560 E3.15470
G1 X240.015 Y181.560 E0.02594
G1 X187.894 Y129.440 E3.15470
G1 X187.288 Y129.440 E0.02594
G1 X239.409 Y181.560 E3.15470
G1 X238.803 Y181.560 E0.02594
G1 X186.682 Y129.440 E3.15470
G1 X186.076 Y129.440 E0.02594
G1 X238.197 Y181.560 E3.15470
G1 X237.591 Y181.560 E0.02594
G1 X185.470 Y129.440 E3.15470
G1 X184.864 Y129.440 E0.02594
G1 X236.985 Y181.560 E3.15470
G1 X236.379 Y181.560 E0.02594
G1 X184.258 Y129.440 E3.15470
G1 X183.652 Y129.440 E0.02594
G1 X235.773 Y181.560 E3.15470
G1 X235.167 Y181.560 E0.02594
G1 X183.046 Y129.440 E3.15470
G1 X182.440 Y129.440 E0.02594
G1 X234.561 Y181.560 E3.15470
G1 X233.955 Y181.560 E0.02594
G1 X181.834 Y129.440 E3.15470
G1 X181.228 Y129.440 E0.02594
G1 X233.349 Y181.560 E3.15470
G1 X232.743 Y181.560 E0.02594
G1 X180.622 Y129.440 E3.15470
G1 X180.016 Y129.440 E0.02594
G1 X232.137 Y181.560 E3.15470
G1 X231.531 Y181.560 E0.02594
G1 X179.410 Y129.440 E3.15470
G1 X178.804 Y129.440 E0.02594
G1 X230.925 Y181.560 E3.15470
G1 X230.319 Y181.560 E0.02594
G1 X178.198 Y129.440 E3.15470
G1 X177.592 Y129.440 E0.02594
G1 X229.713 Y181.560 E3.15470
G1 X229.107 Y181.560 E0.02594
G1 X176.986 Y129.440 E3.15470
G1 X176.380 Y129.440 E0.02594
G1 X228.501 Y181.560 E3.15470
G1 X227.895 Y181.560 E0.02594
G1 X175.774 Y129.440 E3.15470
G1 X175.168 Y129.440 E0.02594
G1 X227.289 Y181.560 E3.15470
G1 X226.683 Y181.560 E0.02594
G1 X174.562 Y129.440 E3.15470
G1 X173.957 Y129.440 E0.02594
G1 X226.077 Y181.560 E3.15470
G1 X225.471 Y181.560 E0.02594
G1 X173.351 Y129.440 E3.15470
G1 X172.745 Y129.440 E0.02594
G1 X224.865 Y181.560 E3.15470
G1 X224.259 Y181.560 E0.02594
G1 X172.139 Y129.440 E3.15470
G1 X171.533 Y129.440 E0.02594
G1 X223.653 Y181.560 E3.15470
G1 X223.047 Y181.560 E0.02594
G1 X170.927 Y129.440 E3.15470
G1 X170.321 Y129.440 E0.02594
G1 X222.441 Y181.560 E3.15470
G1 X221.835 Y181.560 E0.02594
G1 X169.715 Y129.440 E3.15470
G1 X169.109 Y129.440 E0.02594
G1 X221.229 Y181.560 E3.15470
G1 X220.623 Y181.560 E0.02594
G1 X168.503 Y129.440 E3.15470
G1 X167.897 Y129.440 E0.02594
G1 X220.017 Y181.560 E3.15470
G1 X219.411 Y181.560 E0.02594
G1 X167.291 Y129.440 E3.15470
G1 X166.685 Y129.440 E0.02594
G1 X218.805 Y181.560 E3.15470
G1 X218.199 Y181.560 E0.02594
G1 X166.079 Y129.440 E3.15470
G1 X165.473 Y129.440 E0.02594
G1 X217.593 Y181.560 E3.15470
G1 X216.987 Y181.560 E0.02594
G1 X164.867 Y129.440 E3.15470
G1 X164.261 Y129.440 E0.02594
G1 X216.381 Y181.560 E3.15470
G1 X215.775 Y181.560 E0.02594
G1 X163.655 Y129.440 E3.15470
G1 X163.049 Y129.440 E0.02594
G1 X215.169 Y181.560 E3.15470
G1 X214.563 Y181.560 E0.02594
G1 X162.443 Y129.440 E3.15470
G1 X161.837 Y129.440 E0.02594
G1 X213.957 Y181.560 E3.15470
G1 X213.351 Y181.560 E0.02594
G1 X161.231 Y129.440 E3.15470
G1 X160.625 Y129.440 E0.02594
G1 X212.745 Y181.560 E3.15470
G1 X212.139 Y181.560 E0.02594
G1 X160.019 Y129.440 E3.15470
G1 X159.413 Y129.440 E0.02594
G1 X211.533 Y181.560 E3.15470
G1 X210.927 Y181.560 E0.02594
G1 X158.807 Y129.440 E3.15470
G1 X158.201 Y129.440 E0.02594
G1 X210.321 Y181.560 E3.15470
G1 X209.715 Y181.560 E0.02594
G1 X157.595 Y129.440 E3.15470
G1 X156.989 Y129.440 E0.02594
G1 X209.109 Y181.560 E3.15470
G1 X208.503 Y181.560 E0.02594
G1 X156.383 Y129.440 E3.15470
G1 X155.777 Y129.440 E0.02594
G1 X207.897 Y181.560 E3.15470
G1 X207.291 Y181.560 E0.02594
G1 X155.171 Y129.440 E3.15470
G1 X154.565 Y129.440 E0.02594
G1 X206.685 Y181.560 E3.15470
G1 X206.079 Y181.560 E0.02594
G1 X153.959 Y129.440 E3.15470
G1 X153.353 Y129.440 E0.02594
G1 X205.474 Y181.560 E3.15470
G1 X204.868 Y181.560 E0.02594
G1 X152.747 Y129.440 E3.15470
G1 X152.141 Y129.440 E0.02594
G1 X204.262 Y181.560 E3.15470
G1 X203.656 Y181.560 E0.02594
G1 X151.535 Y129.440 E3.15470
G1 X150.929 Y129.440 E0.02594
G1 X203.050 Y181.560 E3.15470
G1 X202.444 Y181.560 E0.02594
G1 X150.323 Y129.440 E3.15470
G1 X149.717 Y129.440 E0.02594
G1 X201.838 Y181.560 E3.15470
G1 X201.232 Y181.560 E0.02594
G1 X149.111 Y129.440 E3.15470
G1 X148.505 Y129.440 E0.02594
G1 X200.626 Y181.560 E3.15470
G1 X200.020 Y181.560 E0.02594
G1 X147.899 Y129.440 E3.15470
G1 X147.293 Y129.440 E0.02594
G1 X199.414 Y181.560 E3.15470
