; generated by SuperSlicer 2.4 on 2022-08-10 at 20:49:08 UTC


;
;

;
;
; 

; external perimeters extrusion width = 0.48mm
; perimeters extrusion width = 0.48mm
; infill extrusion width = 0.72mm
; solid infill extrusion width = 0.56mm
; top infill extrusion width = 0.40mm
; support material extrusion width = 0.42mm
; first layer extrusion width = 0.48mm

; object:{"name":"Magic_Bullet_Impeller","id":"Magic_Bullet_Impeller.stl id:0 copy 0","object_center":[165.000000,165.000000,0.000000],"boundingbox_center":[165.000000,165.000000,5.660000],"boundingbox_size":[34.000000,34.000000,11.320000]}
; plater:{"center":[165.000000,165.000000,0.000000],"boundingbox_center":[165.000000,165.000000,5.660000],"boundingbox_size":[34.000000,34.000000,11.320000]}

M73 P0 R17
;TYPE:Custom
START_PRINT T_BED=110 T_EXTRUDER=245
M107
G21 ; set units to millimeters
G90 ; use absolute coordinates
M83 ; use relative distances for extrusion
; Filament gcode
M104 S245 ; set temperature
M109 S245 ; set temperature and wait for it to be reached
M190 S110 ; set bed temperature and wait for it to be reached
M107
;LAYER_CHANGE
;Z:0.2
;HEIGHT:0.2
G1 Z0.2 F9000
G92 E0
M73 P1 R17
G1 E-0.5 F3000
M204 S1000
G1 X147.949 Y146.827 F9000
M73 P2 R17
G1 E0.5 F1800
;TYPE:Skirt
;WIDTH:0.52
G1 X146.18 Y148.667 E0.10123
G1 X144.734 Y150.5 E0.0926
G1 X143.318 Y152.717 E0.10438
G1 X142.208 Y154.926 E0.09807
G1 X141.5 Y156.71 E0.07612
G1 X140.775 Y159.156 E0.10123
G1 X140.414 Y160.945 E0.07238
G1 X140.102 Y163.99 E0.12143
G1 X140.133 Y166.621 E0.10438
G1 X140.417 Y169.077 E0.09807
G1 X140.803 Y170.957 E0.07612
G1 X141.574 Y173.495 E0.10524
G1 X142.53 Y175.774 E0.09807
G1 X143.792 Y178.083 E0.10438
G1 X145.192 Y180.121 E0.09806
G1 X146.827 Y182.051 E0.10037
G1 X148.667 Y183.82 E0.10123
G1 X150.5 Y185.266 E0.0926
G1 X152.717 Y186.682 E0.10438
G1 X154.926 Y187.792 E0.09807
G1 X156.71 Y188.5 E0.07612
G1 X159.156 Y189.225 E0.10123
G1 X160.945 Y189.586 E0.07238
G1 X163.99 Y189.898 E0.12143
G1 X166.621 Y189.867 E0.10438
G1 X169.077 Y189.583 E0.09807
G1 X170.957 Y189.197 E0.07612
G1 X173.495 Y188.426 E0.10524
G1 X175.774 Y187.47 E0.09807
G1 X178.083 Y186.208 E0.10438
G1 X180.121 Y184.808 E0.09806
G1 X182.051 Y183.173 E0.10037
G1 X183.82 Y181.333 E0.10123
G1 X185.266 Y179.5 E0.09261
G1 X186.682 Y177.283 E0.10438
G1 X187.792 Y175.074 E0.09807
G1 X188.5 Y173.29 E0.07612
G1 X189.225 Y170.844 E0.10123
G1 X189.586 Y169.055 E0.07238
G1 X189.898 Y166.01 E0.12143
G1 X189.867 Y163.379 E0.10438
G1 X189.583 Y160.923 E0.09807
G1 X189.197 Y159.043 E0.07612
G1 X188.426 Y156.505 E0.10524
G1 X187.47 Y154.225 E0.09807
G1 X186.208 Y151.917 E0.10438
G1 X184.808 Y149.879 E0.09806
G1 X183.173 Y147.949 E0.10036
G1 X181.333 Y146.18 E0.10123
G1 X179.5 Y144.734 E0.09261
G1 X177.283 Y143.318 E0.10438
G1 X175.074 Y142.208 E0.09807
G1 X173.29 Y141.5 E0.07612
G1 X170.844 Y140.775 E0.10123
G1 X169.055 Y140.414 E0.07238
G1 X166.01 Y140.102 E0.12143
G1 X163.379 Y140.133 E0.10438
G1 X160.923 Y140.417 E0.09807
G1 X159.043 Y140.803 E0.07612
G1 X156.505 Y141.574 E0.10524
G1 X154.225 Y142.53 E0.09807
G1 X151.917 Y143.792 E0.10438
G1 X149.879 Y145.192 E0.09806
G1 X147.949 Y146.827 E0.10036
G1 X148.28 Y147.17 F9000
G1 F1800
G1 X146.544 Y148.974 E0.09929
G1 X145.115 Y150.788 E0.09163
G1 X143.73 Y152.958 E0.10212
G1 X142.639 Y155.131 E0.09645
G1 X141.952 Y156.862 E0.07386
G1 X141.241 Y159.261 E0.09929
G1 X140.887 Y161.01 E0.07076
G1 X140.578 Y164.022 E0.12014
G1 X140.61 Y166.597 E0.10212
G1 X140.89 Y169.012 E0.09645
G1 X141.264 Y170.836 E0.07386
G1 X142.018 Y173.32 E0.10298
G1 X142.958 Y175.562 E0.09645
G1 X144.191 Y177.822 E0.10212
G1 X145.568 Y179.826 E0.09645
G1 X147.171 Y181.72 E0.09843
G1 X148.974 Y183.456 E0.09929
G1 X150.788 Y184.885 E0.09163
G1 X152.958 Y186.27 E0.10212
G1 X155.131 Y187.361 E0.09645
G1 X156.862 Y188.048 E0.07386
G1 X159.261 Y188.759 E0.09929
G1 X161.01 Y189.113 E0.07076
G1 X164.022 Y189.422 E0.12014
G1 X166.597 Y189.39 E0.10212
G1 X169.012 Y189.11 E0.09645
G1 X170.836 Y188.736 E0.07386
G1 X173.32 Y187.982 E0.10298
G1 X175.562 Y187.042 E0.09645
G1 X177.822 Y185.809 E0.10212
G1 X179.826 Y184.432 E0.09645
G1 X181.72 Y182.83 E0.09843
G1 X183.456 Y181.026 E0.09929
G1 X184.885 Y179.212 E0.09164
G1 X186.27 Y177.042 E0.10212
G1 X187.361 Y174.869 E0.09645
G1 X188.048 Y173.138 E0.07386
G1 X188.759 Y170.739 E0.09929
G1 X189.113 Y168.99 E0.07076
G1 X189.422 Y165.978 E0.12014
G1 X189.39 Y163.403 E0.10212
G1 X189.11 Y160.988 E0.09645
G1 X188.736 Y159.164 E0.07386
G1 X187.982 Y156.68 E0.10298
G1 X187.042 Y154.438 E0.09646
G1 X185.809 Y152.178 E0.10212
G1 X184.432 Y150.174 E0.09645
G1 X182.83 Y148.28 E0.09842
G1 X181.026 Y146.544 E0.09929
G1 X179.212 Y145.115 E0.09164
G1 X177.042 Y143.73 E0.10212
G1 X174.869 Y142.639 E0.09645
G1 X173.138 Y141.952 E0.07386
G1 X170.739 Y141.241 E0.09929
G1 X168.99 Y140.887 E0.07076
G1 X165.978 Y140.578 E0.12014
G1 X163.403 Y140.61 E0.10212
G1 X160.988 Y140.89 E0.09645
G1 X159.164 Y141.264 E0.07386
G1 X156.68 Y142.018 E0.10298
G1 X154.438 Y142.958 E0.09646
G1 X152.178 Y144.191 E0.10212
M73 P3 R17
G1 X150.174 Y145.568 E0.09645
G1 X148.28 Y147.17 E0.09843
G1 X148.612 Y147.514 F9000
G1 F1800
G1 X146.909 Y149.281 E0.09735
G1 X145.495 Y151.076 E0.09066
G1 X144.142 Y153.199 E0.09986
G1 X143.07 Y155.336 E0.09484
G1 X142.404 Y157.014 E0.0716
G1 X141.706 Y159.366 E0.09735
G1 X141.359 Y161.075 E0.06915
G1 X141.054 Y164.055 E0.11885
G1 X141.086 Y166.572 E0.09986
G1 X141.362 Y168.947 E0.09484
G1 X141.726 Y170.715 E0.0716
G1 X142.461 Y173.145 E0.10072
G1 X143.385 Y175.35 E0.09484
G1 X144.59 Y177.56 E0.09986
G1 X145.943 Y179.531 E0.09483
G1 X147.514 Y181.388 E0.09649
G1 X149.281 Y183.091 E0.09735
G1 X151.076 Y184.505 E0.09066
G1 X153.199 Y185.858 E0.09986
G1 X155.336 Y186.93 E0.09484
G1 X157.014 Y187.596 E0.0716
G1 X159.366 Y188.294 E0.09735
G1 X161.075 Y188.641 E0.06915
G1 X164.055 Y188.946 E0.11885
G1 X166.572 Y188.914 E0.09986
G1 X168.947 Y188.638 E0.09484
G1 X170.715 Y188.274 E0.0716
G1 X173.145 Y187.539 E0.10072
G1 X175.35 Y186.615 E0.09484
G1 X177.56 Y185.41 E0.09986
G1 X179.531 Y184.057 E0.09483
G1 X181.388 Y182.486 E0.09649
G1 X183.091 Y180.719 E0.09735
G1 X184.505 Y178.924 E0.09067
G1 X185.858 Y176.801 E0.09986
G1 X186.93 Y174.664 E0.09484
G1 X187.596 Y172.986 E0.0716
G1 X188.294 Y170.634 E0.09735
G1 X188.641 Y168.925 E0.06915
G1 X188.946 Y165.945 E0.11885
G1 X188.914 Y163.428 E0.09986
G1 X188.638 Y161.053 E0.09484
G1 X188.274 Y159.285 E0.0716
G1 X187.539 Y156.855 E0.10072
G1 X186.615 Y154.65 E0.09484
G1 X185.41 Y152.44 E0.09986
G1 X184.057 Y150.469 E0.09483
G1 X182.486 Y148.612 E0.09649
G1 X180.719 Y146.909 E0.09735
G1 X178.924 Y145.495 E0.09067
G1 X176.801 Y144.142 E0.09986
G1 X174.664 Y143.07 E0.09484
G1 X172.986 Y142.404 E0.0716
G1 X170.634 Y141.706 E0.09735
G1 X168.925 Y141.359 E0.06915
G1 X165.945 Y141.054 E0.11885
G1 X163.428 Y141.086 E0.09986
G1 X161.053 Y141.362 E0.09484
G1 X159.285 Y141.726 E0.0716
G1 X156.855 Y142.461 E0.10072
G1 X154.65 Y143.385 E0.09484
G1 X152.44 Y144.59 E0.09986
G1 X150.469 Y145.943 E0.09483
G1 X148.612 Y147.514 E0.09649
G1 X148.943 Y147.857 F9000
G1 F1800
G1 X147.274 Y149.589 E0.09542
G1 X145.875 Y151.365 E0.08969
G1 X144.553 Y153.44 E0.0976
G1 X143.501 Y155.541 E0.09322
G1 X142.856 Y157.166 E0.06934
G1 X142.171 Y159.471 E0.09541
G1 X141.832 Y161.14 E0.06753
G1 X141.53 Y164.088 E0.11756
G1 X141.563 Y166.548 E0.0976
G1 X141.835 Y168.882 E0.09322
G1 X142.187 Y170.594 E0.06934
G1 X142.905 Y172.97 E0.09846
G1 X143.812 Y175.138 E0.09322
G1 X144.989 Y177.298 E0.0976
G1 X146.318 Y179.236 E0.09322
G1 X147.857 Y181.057 E0.09455
G1 X149.589 Y182.726 E0.09542
G1 X151.365 Y184.125 E0.08969
G1 X153.44 Y185.447 E0.0976
G1 X155.541 Y186.499 E0.09322
G1 X157.166 Y187.144 E0.06934
G1 X159.471 Y187.829 E0.09541
G1 X161.14 Y188.168 E0.06753
G1 X164.088 Y188.47 E0.11756
G1 X166.548 Y188.437 E0.0976
G1 X168.882 Y188.165 E0.09322
G1 X170.594 Y187.813 E0.06934
G1 X172.97 Y187.095 E0.09846
G1 X175.138 Y186.188 E0.09322
G1 X177.298 Y185.011 E0.0976
G1 X179.236 Y183.682 E0.09322
G1 X181.057 Y182.143 E0.09455
G1 X182.726 Y180.411 E0.09542
G1 X184.125 Y178.635 E0.0897
G1 X185.447 Y176.56 E0.0976
G1 X186.499 Y174.459 E0.09322
G1 X187.144 Y172.834 E0.06934
G1 X187.829 Y170.529 E0.09541
G1 X188.168 Y168.86 E0.06753
G1 X188.47 Y165.912 E0.11755
G1 X188.437 Y163.452 E0.0976
G1 X188.165 Y161.118 E0.09322
G1 X187.813 Y159.406 E0.06934
G1 X187.095 Y157.03 E0.09846
G1 X186.188 Y154.862 E0.09323
G1 X185.011 Y152.702 E0.0976
G1 X183.682 Y150.763 E0.09322
G1 X182.143 Y148.943 E0.09455
G1 X180.411 Y147.274 E0.09542
G1 X178.635 Y145.875 E0.0897
G1 X176.56 Y144.553 E0.0976
G1 X174.459 Y143.501 E0.09322
G1 X172.834 Y142.856 E0.06934
G1 X170.529 Y142.171 E0.09541
G1 X168.86 Y141.832 E0.06753
G1 X165.912 Y141.53 E0.11755
G1 X163.452 Y141.563 E0.0976
G1 X161.118 Y141.835 E0.09322
G1 X159.406 Y142.187 E0.06934
G1 X157.03 Y142.905 E0.09846
G1 X154.862 Y143.812 E0.09323
G1 X152.702 Y144.989 E0.0976
G1 X150.763 Y146.318 E0.09322
G1 X148.943 Y147.857 E0.09455
G1 E-0.5 F3000
; printing object Magic_Bullet_Impeller.stl id:0 copy 0
; acceleration to travel
M204 S3000
G1 X150.631 Y149.603 F9000
; decel to extrusion
M204 S1000
G1 X151.194 Y150.185
; end travel
G1 E0.5 F1800
;TYPE:Support material
;WIDTH:0.48
G1 X152.203 Y149.305 E0.04867
G1 X152.238 Y149.278 E0.00161
G1 X152.764 Y148.865 E0.02431
G1 X153.34 Y148.443 E0.02592
G1 X153.845 Y148.112 E0.02198
G1 X154.478 Y147.697 E0.02748
G1 X155.664 Y147.03 E0.04947
G1 X155.859 Y146.933 E0.00791
M73 P3 R16
G1 X156.303 Y146.713 E0.018
G1 X156.952 Y146.417 E0.02592
G1 X158.218 Y145.918 E0.04947
G1 X159.516 Y145.506 E0.04947
M73 P4 R16
G1 X160.226 Y145.32 E0.02671
G1 X161.559 Y145.043 E0.04947
G1 X162.57 Y144.904 E0.0371
G1 X162.907 Y144.858 E0.01237
G1 X163.165 Y144.836 E0.00939
G1 X163.618 Y144.797 E0.01653
G1 X164.063 Y144.774 E0.0162
G1 X164.33 Y144.761 E0.00972
G1 X165.691 Y144.761 E0.04947
G1 X166.764 Y144.834 E0.03909
G1 X167.071 Y144.855 E0.01117
G1 X167.894 Y144.968 E0.0302
G1 X168.419 Y145.04 E0.01926
G1 X168.547 Y145.065 E0.00473
G1 X169.12 Y145.173 E0.02119
G1 X169.816 Y145.33 E0.02592
G1 X171.105 Y145.692 E0.04868
G1 X171.802 Y145.926 E0.02671
G1 X173.068 Y146.425 E0.04946
G1 X174.297 Y147.01 E0.04947
G1 X174.925 Y147.349 E0.02592
G1 X175.54 Y147.709 E0.02592
G1 X176.679 Y148.455 E0.04947
G1 X177.218 Y148.865 E0.02462
G1 X177.763 Y149.278 E0.02485
G1 X178.325 Y149.751 E0.0267
G1 X179.229 Y150.596 E0.04497
G1 X179.304 Y150.665 E0.00371
G1 X179.815 Y151.194 E0.02671
G1 X180.695 Y152.203 E0.04867
G1 X181.135 Y152.764 E0.02592
G1 X181.557 Y153.34 E0.02592
G1 X181.621 Y153.437 E0.00425
G1 X182.303 Y154.478 E0.04521
G1 X182.97 Y155.664 E0.04947
G1 X183.057 Y155.838 E0.00707
G1 X183.287 Y156.303 E0.01885
G1 X183.583 Y156.952 E0.02592
G1 X184.082 Y158.218 E0.04947
G1 X184.494 Y159.516 E0.04947
G1 X184.68 Y160.226 E0.02671
G1 X184.957 Y161.559 E0.04947
G1 X185.001 Y161.883 E0.01187
G1 X185.142 Y162.907 E0.0376
G1 X185.164 Y163.165 E0.00939
G1 X185.203 Y163.618 E0.01653
G1 X185.223 Y164.017 E0.01452
G1 X185.226 Y164.063 E0.00168
G1 X185.239 Y164.33 E0.00972
G1 X185.239 Y165.691 E0.04947
G1 X185.145 Y167.071 E0.05025
G1 X184.96 Y168.419 E0.04947
G1 X184.827 Y169.12 E0.02592
G1 X184.741 Y169.499 E0.01411
G1 X184.67 Y169.816 E0.01181
G1 X184.386 Y170.828 E0.0382
G1 X184.308 Y171.105 E0.01047
G1 X184.074 Y171.802 E0.02671
G1 X183.575 Y173.068 E0.04946
G1 X182.99 Y174.297 E0.04947
G1 X182.651 Y174.925 E0.02592
G1 X182.291 Y175.54 E0.02592
G1 X181.545 Y176.679 E0.04947
G1 X180.986 Y177.416 E0.03362
G1 X180.722 Y177.763 E0.01585
G1 X180.249 Y178.325 E0.0267
G1 X179.8 Y178.806 E0.02393
G1 X179.335 Y179.304 E0.02475
G1 X178.806 Y179.815 E0.02671
G1 X177.797 Y180.695 E0.04867
G1 X177.236 Y181.135 E0.02592
G1 X176.66 Y181.557 E0.02591
G1 X175.982 Y182.002 E0.0295
G1 X175.522 Y182.303 E0.01997
G1 X174.336 Y182.97 E0.04947
G1 X173.697 Y183.287 E0.02592
G1 X173.048 Y183.583 E0.02592
G1 X171.782 Y184.082 E0.04947
G1 X170.484 Y184.494 E0.04947
G1 X169.774 Y184.68 E0.02671
G1 X169.163 Y184.807 E0.02268
G1 X168.441 Y184.957 E0.02679
G1 X167.645 Y185.066 E0.02919
G1 X167.093 Y185.142 E0.02028
G1 X166.382 Y185.203 E0.02592
G1 X165.67 Y185.239 E0.02592
G1 X164.309 Y185.239 E0.04947
G1 X162.929 Y185.145 E0.05025
G1 X161.581 Y184.96 E0.04947
G1 X160.88 Y184.827 E0.02592
G1 X160.184 Y184.67 E0.02592
G1 X158.895 Y184.308 E0.04868
G1 X158.198 Y184.074 E0.02671
G1 X156.932 Y183.575 E0.04947
G1 X155.703 Y182.99 E0.04947
G1 X155.075 Y182.651 E0.02592
G1 X154.801 Y182.491 E0.01152
G1 X154.46 Y182.291 E0.01439
G1 X153.321 Y181.545 E0.04947
G1 X152.782 Y181.135 E0.02461
G1 X152.237 Y180.722 E0.02485
G1 X151.675 Y180.249 E0.02671
G1 X150.696 Y179.335 E0.04868
G1 X150.185 Y178.806 E0.02671
G1 X149.305 Y177.797 E0.04867
G1 X148.865 Y177.236 E0.02592
G1 X148.457 Y176.679 E0.0251
G1 X148.443 Y176.66 E0.00082
G1 X147.86 Y175.771 E0.03867
G1 X147.697 Y175.522 E0.0108
G1 X147.03 Y174.336 E0.04947
G1 X146.713 Y173.697 E0.02592
G1 X146.417 Y173.048 E0.02592
G1 X145.918 Y171.782 E0.04947
G1 X145.812 Y171.448 E0.01274
G1 X145.506 Y170.484 E0.03673
G1 X145.32 Y169.774 E0.02671
G1 X145.043 Y168.441 E0.04947
G1 X144.896 Y167.367 E0.03939
G1 X144.858 Y167.093 E0.01008
G1 X144.797 Y166.382 E0.02592
G1 X144.761 Y165.67 E0.02592
G1 X144.761 Y164.309 E0.04947
G1 X144.855 Y162.929 E0.05025
G1 X145.04 Y161.581 E0.04947
G1 X145.173 Y160.88 E0.02592
G1 X145.33 Y160.184 E0.02592
G1 X145.692 Y158.895 E0.04868
G1 X145.926 Y158.198 E0.02671
G1 X146.425 Y156.932 E0.04947
G1 X146.698 Y156.359 E0.02307
G1 X147.01 Y155.703 E0.0264
G1 X147.349 Y155.075 E0.02592
G1 X147.575 Y154.688 E0.01631
G1 X147.709 Y154.46 E0.0096
G1 X148.455 Y153.321 E0.04947
G1 X148.859 Y152.79 E0.02425
G1 X149.278 Y152.237 E0.02521
G1 X149.751 Y151.675 E0.02671
G1 X150.665 Y150.696 E0.04868
G1 X151.194 Y150.185 E0.02671
; acceleration to travel
M204 S3000
G1 X154.755 Y153.906 F9000
; decel to extrusion
M204 S1000
G1 X155.942 Y155.146
; end travel
G1 F1800
G1 X155.244 Y155.838 E0.03575
G1 X154.597 Y156.579 E0.03575
G1 X154.328 Y156.921 E0.01581
G1 X153.752 Y157.746 E0.03658
G1 X153.522 Y158.116 E0.01581
G1 X153.048 Y158.978 E0.03575
G1 X152.637 Y159.871 E0.03575
G1 X152.469 Y160.297 E0.01663
G1 X152.315 Y160.728 E0.01664
G1 X152.164 Y161.243 E0.01949
G1 X152.037 Y161.672 E0.01626
G1 X151.831 Y162.61 E0.03492
G1 X151.691 Y163.584 E0.03575
G1 X151.67 Y163.818 E0.00856
G1 X151.652 Y164.017 E0.00725
G1 X151.616 Y165.023 E0.03658
G1 X151.624 Y165.48 E0.01663
G1 X151.634 Y165.67 E0.00689
G1 X151.648 Y165.937 E0.00975
G1 X151.757 Y166.938 E0.03658
G1 X151.827 Y167.367 E0.0158
G1 X152.037 Y168.328 E0.03576
G1 X152.099 Y168.539 E0.00797
G1 X152.309 Y169.25 E0.02695
G1 X152.655 Y170.171 E0.03575
G1 X152.829 Y170.569 E0.0158
G1 X153.272 Y171.448 E0.03576
G1 X153.483 Y171.802 E0.015
G1 X153.776 Y172.292 E0.02075
G1 X154.032 Y172.672 E0.01663
G1 X154.301 Y173.042 E0.01664
G1 X154.935 Y173.823 E0.03658
G1 X155.093 Y173.998 E0.00855
G1 X155.228 Y174.146 E0.00726
G1 X155.419 Y174.336 E0.00982
G1 X155.942 Y174.854 E0.02676
G1 X156.106 Y174.999 E0.00794
G1 X156.267 Y175.143 E0.00787
G1 X157.054 Y175.771 E0.03658
G1 X157.408 Y176.023 E0.01581
G1 X158.239 Y176.55 E0.03575
G1 X159.105 Y177.016 E0.03575
G1 X159.499 Y177.202 E0.01581
G1 X160.224 Y177.497 E0.02847
G1 X160.41 Y177.572 E0.00728
G1 X160.922 Y177.738 E0.01958
G1 X161.324 Y177.869 E0.01534
G1 X162.279 Y178.105 E0.03575
G1 X162.415 Y178.131 E0.00504
G1 X162.728 Y178.191 E0.01159
G1 X163.181 Y178.26 E0.01664
G1 X164.16 Y178.357 E0.03575
G1 X165.143 Y178.384 E0.03575
G1 X165.578 Y178.372 E0.0158
G1 X166.581 Y178.291 E0.03658
G1 X167.012 Y178.232 E0.01581
G1 X168.001 Y178.044 E0.03658
G1 X168.423 Y177.939 E0.0158
G1 X169.385 Y177.646 E0.03658
G1 X169.592 Y177.57 E0.00799
G1 X169.794 Y177.497 E0.00781
G1 X169.882 Y177.459 E0.00347
G1 X170.698 Y177.11 E0.03228
G1 X171.504 Y176.695 E0.03294
G1 X171.553 Y176.67 E0.00198
G1 X172.393 Y176.158 E0.03575
G1 X172.751 Y175.912 E0.01581
G1 X173.258 Y175.522 E0.02323
G1 X173.549 Y175.298 E0.01335
G1 X173.73 Y175.143 E0.00866
