; generated by SuperSlicer 2.4 on 2022-05-28 at 16:13:19 UTC


;
;

;
;
; 

; external perimeters extrusion width = 0.40mm
; perimeters extrusion width = 0.40mm
; infill extrusion width = 0.72mm
; solid infill extrusion width = 0.56mm
; top infill extrusion width = 0.40mm
; first layer extrusion width = 0.48mm

; object:{"name":"audi intercooler covers mirror","id":"audi intercooler covers mirror.STL id:0 copy 0","object_center":[165.000000,165.000000,0.000000],"boundingbox_center":[165.000000,165.000000,1.500000],"boundingbox_size":[242.982498,115.000000,3.000000]}
; plater:{"center":[165.000000,165.000000,0.000000],"boundingbox_center":[165.000000,165.000000,1.500000],"boundingbox_size":[242.982498,115.000000,3.000000]}

M73 P0 R104
;TYPE:Custom
START_PRINT T_BED=110 T_EXTRUDER=245
M107
G21 ; set units to millimeters
G90 ; use absolute coordinates
M83 ; use relative distances for extrusion
; Filament gcode
M109 S245 ; set temperature and wait for it to be reached
M190 S110 ; set bed temperature and wait for it to be reached
M107
;LAYER_CHANGE
;Z:0.24
;HEIGHT:0.24
G1 Z0.24 F9000
G92 E0
G1 E-0.5 F3000
M204 S1000
G1 X48.869 Y104.716 F9000
G1 E0.5 F1800
;TYPE:Skirt
;WIDTH:0.52
G1 X47.696 Y105.382 E0.06303
G1 X46.642 Y106.222 E0.06303
G1 X45.39 Y107.687 E0.09005
G1 X44.725 Y108.86 E0.06303
G1 X44.252 Y110.122 E0.06304
G1 X43.981 Y111.443 E0.06302
G1 X43.92 Y112.215 E0.03621
G1 X39.915 Y222.196 E5.14464
G1 X40.603 Y224.483 E0.11162
G1 X41.891 Y225.605 E0.07988
G1 X43.546 Y226.029 E0.07988
G1 X47.51 Y226.1 E0.18529
G1 X261.954 Y226.1 E10.02454
G1 X263.754 Y225.901 E0.08468
G1 X264.574 Y225.683 E0.03966
G1 X265.946 Y225.109 E0.06954
G1 X267.199 Y224.307 E0.06954
G1 X268.295 Y223.301 E0.06953
G1 X268.709 Y222.813 E0.02994
G1 X269.2 Y222.121 E0.03966
G1 X269.889 Y220.803 E0.06953
G1 X270.413 Y219.069 E0.08469
G1 X289.989 Y113.785 E5.00601
G1 X290.085 Y112.415 E0.06421
G1 X289.962 Y111.051 E0.064
G1 X289.796 Y110.289 E0.0365
G1 X289.339 Y108.998 E0.06401
G1 X288.344 Y107.314 E0.09144
G1 X287.844 Y106.713 E0.0365
G1 X286.845 Y105.778 E0.06401
G1 X285.186 Y104.742 E0.09144
M73 P0 R103
G1 X283.906 Y104.253 E0.06401
G1 X283.148 Y104.068 E0.0365
G1 X281.783 Y103.912 E0.06419
G1 X52.513 Y103.9 E10.71765
G1 X50.879 Y104.063 E0.07677
G1 X49.579 Y104.422 E0.06303
G1 X48.869 Y104.716 E0.03594
G1 X49.047 Y105.147 F9000
G1 F1800
G1 X47.939 Y105.779 E0.05961
G1 X46.944 Y106.577 E0.05961
G1 X45.788 Y107.931 E0.08323
G1 X45.156 Y109.038 E0.05961
G1 X44.705 Y110.231 E0.05962
G1 X44.446 Y111.48 E0.0596
G1 X44.385 Y112.252 E0.03621
G1 X40.381 Y222.213 E5.14372
G1 X40.865 Y224.036 E0.08816
G1 X42.016 Y225.142 E0.0746
G1 X43.555 Y225.563 E0.0746
G1 X47.51 Y225.633 E0.1849
G1 X261.954 Y225.633 E10.02454
G1 X263.634 Y225.451 E0.07903
G1 X264.454 Y225.233 E0.03966
G1 X265.75 Y224.686 E0.06577
G1 X266.933 Y223.924 E0.06577
G1 X268.329 Y222.543 E0.09179
G1 X269.103 Y221.368 E0.06577
G1 X269.468 Y220.602 E0.03966
G1 X269.955 Y218.983 E0.07903
G1 X289.525 Y113.737 E5.00427
G1 X289.619 Y112.441 E0.06073
G1 X289.507 Y111.151 E0.06053
G1 X289.34 Y110.388 E0.0365
G1 X288.905 Y109.168 E0.06054
G1 X287.985 Y107.612 E0.08452
G1 X287.486 Y107.011 E0.0365
G1 X286.538 Y106.129 E0.06054
G1 X285.005 Y105.171 E0.08452
G1 X283.796 Y104.707 E0.06054
G1 X283.037 Y104.521 E0.0365
G1 X281.746 Y104.377 E0.06072
G1 X52.513 Y104.367 E10.71591
M73 P1 R103
G1 X50.987 Y104.517 E0.07164
G1 X49.757 Y104.853 E0.05961
G1 X49.047 Y105.147 E0.03594
G1 E-0.5 F3000
; printing object audi intercooler covers mirror.STL id:0 copy 0
; acceleration to travel
M204 S3000
G1 X149.696 Y155.085 F9000
; decel to extrusion
M204 S1000
G1 X183.246 Y171.732
; end travel
G1 E0.5 F1800
;TYPE:Internal perimeter
;WIDTH:0.48
G1 X182.96 Y171.732 E0.01224
G1 X182.567 Y172.68 E0.04391
G1 X185.905 Y176.018 E0.20184
G1 X214.542 Y176.018 E1.22437
G1 X217.88 Y172.68 E0.20184
G1 X217.487 Y171.732 E0.04391
G1 X183.246 Y171.732 E1.46398
G1 X183.246 Y172.16 F9000
;TYPE:External perimeter
G1 F1800
G1 X183.072 Y172.58 E0.01943
G1 X186.082 Y175.59 E0.18201
G1 X214.364 Y175.59 E1.2092
G1 X217.374 Y172.58 E0.18201
G1 X217.2 Y172.16 E0.01943
G1 X183.246 Y172.16 E1.45173
;WIPE_START
M204 S4000
G1 X182.86 Y172.056 F9000
;WIPE_END
G1 E-0.5 F3000
; acceleration to travel
M204 S3000
G1 X178.419 Y197.554 F9000
; decel to extrusion
M204 S1000
G1 X176.939 Y206.053
; end travel
G1 E0.5 F1800
;TYPE:Internal perimeter
G1 X185.905 Y215.018 E0.5421
G1 X214.542 Y215.018 E1.22437
G1 X223.81 Y205.75 E0.56042
G1 X214.542 Y196.482 E0.56042
G1 X185.905 Y196.482 E1.22437
G1 X176.636 Y205.75 E0.56042
G1 X176.939 Y206.053 E0.01832
G1 X177.242 Y205.75 F9000
;TYPE:External perimeter
G1 F1800
G1 X186.082 Y214.59 E0.53451
G1 X214.364 Y214.59 E1.2092
G1 X223.204 Y205.75 E0.53451
G1 X214.364 Y196.91 E0.53451
G1 X186.082 Y196.91 E1.2092
G1 X177.242 Y205.75 E0.53451
;WIPE_START
M204 S4000
G1 X176.96 Y206.033 F9000
;WIPE_END
G1 E-0.5 F3000
; acceleration to travel
M204 S3000
G1 X203.474 Y213.718 F9000
; decel to extrusion
M204 S1000
G1 X212.312 Y216.28
; end travel
G1 E0.5 F1800
;TYPE:Internal perimeter
G1 X212.312 Y221.303 E0.21476
G1 X131.706 Y221.303 E3.44635
G1 X131.706 Y215.447 E0.25038
G1 X137.148 Y215.447 E0.23268
G1 X137.482 Y215.113 E0.02019
G1 X138.138 Y216.697 E0.0733
G1 X184.737 Y216.697 E1.99239
G1 X185.394 Y215.113 E0.0733
G1 X185.727 Y215.447 E0.02019
G1 X212.312 Y215.447 E1.13663
G1 X212.312 Y216.28 E0.03562
G1 E-0.5 F3000
; acceleration to travel
M204 S3000
G1 X184.989 Y208.838 F9000
; decel to extrusion
M204 S1000
G1 X175.882 Y206.357
; end travel
G1 E0.5 F1800
G1 X175.756 Y206.232 E0.00759
G1 X147.119 Y206.232 E1.22437
G1 X138.031 Y215.32 E0.54952
G1 X138.424 Y216.268 E0.04391
G1 X184.451 Y216.268 E1.96791
G1 X184.844 Y215.32 E0.04391
G1 X175.882 Y206.357 E0.54193
G1 X175.579 Y206.66 F9000
;TYPE:External perimeter
G1 F1800
G1 X147.297 Y206.66 E1.2092
G1 X138.537 Y215.42 E0.52969
G1 X138.71 Y215.84 E0.01943
G1 X184.165 Y215.84 E1.94342
G1 X184.339 Y215.42 E0.01943
G1 X175.579 Y206.66 E0.52969
;WIPE_START
M204 S4000
G1 X175.475 Y206.274 F9000
;WIPE_END
G1 E-0.5 F3000
; acceleration to travel
M204 S3000
G1 X182.41 Y183.716 F9000
; decel to extrusion
M204 S1000
G1 X184.722 Y176.197
; end travel
G1 E0.5 F1800
;TYPE:Internal perimeter
G1 X180.256 Y171.732 E0.27001
G1 X142.619 Y171.732 E1.60917
M73 P1 R102
G1 X137.851 Y176.5 E0.28833
G1 X147.119 Y185.768 E0.56042
G1 X175.756 Y185.768 E1.22437
G1 X185.025 Y176.5 E0.56042
G1 X184.722 Y176.197 E0.01832
G1 X184.419 Y176.5 F9000
;TYPE:External perimeter
G1 F1800
G1 X180.079 Y172.16 E0.26242
G1 X142.797 Y172.16 E1.59399
G1 X138.457 Y176.5 E0.26242
G1 X147.297 Y185.34 E0.53451
G1 X175.579 Y185.34 E1.2092
G1 X184.419 Y176.5 E0.53451
;WIPE_START
M204 S4000
G1 X184.701 Y176.217 F9000
;WIPE_END
; acceleration to travel
M204 S3000
G1 X170.883 Y164.459
; decel to extrusion
M204 S1000
G1 X166.277 Y160.54
; end travel
;TYPE:Internal perimeter
G1 F1800
G1 X166.277 Y155.268 E0.22539
G1 X184.451 Y155.268 E0.77704
G1 X184.844 Y154.32 E0.04391
G1 X175.756 Y145.232 E0.54952
G1 X147.119 Y145.232 E1.22437
G1 X138.031 Y154.32 E0.54952
G1 X138.424 Y155.268 E0.04391
G1 X144.74 Y155.268 E0.27005
G1 X144.74 Y160.968 E0.24371
G1 X166.277 Y160.968 E0.92082
G1 X166.277 Y160.54 E0.01832
G1 X165.849 Y160.54 F9000
;TYPE:External perimeter
G1 F1800
G1 X165.849 Y155.28 E0.22489
G1 X145.169 Y155.28 E0.88418
G1 X145.169 Y160.54 E0.22489
G1 X165.849 Y160.54 E0.88418
;WIPE_START
M204 S4000
G1 X166.249 Y160.54 F9000
;WIPE_END
; acceleration to travel
M204 S3000
G1 X179.686 Y156.265
; decel to extrusion
M204 S1000
G1 X184.165 Y154.84
; end travel
G1 F1800
G1 X184.339 Y154.42 E0.01943
G1 X175.579 Y145.66 E0.52969
G1 X147.297 Y145.66 E1.2092
G1 X138.537 Y154.42 E0.52969
G1 X138.71 Y154.84 E0.01943
G1 X184.165 Y154.84 E1.94342
;WIPE_START
M204 S4000
G1 X184.551 Y154.944 F9000
;WIPE_END
G1 E-0.5 F3000
; acceleration to travel
M204 S3000
G1 X184.679 Y140.213 F9000
; decel to extrusion
M204 S1000
G1 X184.722 Y135.303
; end travel
G1 E0.5 F1800
;TYPE:Internal perimeter
G1 X185.025 Y135 E0.01832
G1 X175.756 Y125.732 E0.56042
G1 X147.119 Y125.732 E1.22437
G1 X137.851 Y135 E0.56042
G1 X147.119 Y144.268 E0.56042
G1 X175.756 Y144.268 E1.22437
G1 X184.722 Y135.303 E0.5421
G1 X184.419 Y135 F9000
;TYPE:External perimeter
G1 F1800
G1 X175.579 Y126.16 E0.53451
G1 X147.297 Y126.16 E1.2092
G1 X138.457 Y135 E0.53451
G1 X147.297 Y143.84 E0.53451
G1 X175.579 Y143.84 E1.2092
G1 X184.419 Y135 E0.53451
;WIPE_START
M204 S4000
G1 X184.701 Y134.717 F9000
;WIPE_END
G1 E-0.5 F3000
; acceleration to travel
M204 S3000
G1 X184.716 Y120.077 F9000
; decel to extrusion
M204 S1000
G1 X184.722 Y115.197
; end travel
G1 E0.5 F1800
;TYPE:Internal perimeter
G1 X180.256 Y110.732 E0.27001
G1 X142.619 Y110.732 E1.60917
G1 X137.851 Y115.5 E0.28833
G1 X147.119 Y124.768 E0.56042
G1 X175.756 Y124.768 E1.22437
G1 X185.025 Y115.5 E0.56042
G1 X184.722 Y115.197 E0.01832
G1 X184.419 Y115.5 F9000
;TYPE:External perimeter
G1 F1800
G1 X180.079 Y111.16 E0.26242
G1 X142.797 Y111.16 E1.59399
M73 P2 R102
G1 X138.457 Y115.5 E0.26242
G1 X147.297 Y124.34 E0.53451
G1 X175.579 Y124.34 E1.2092
G1 X184.419 Y115.5 E0.53451
;WIPE_START
M204 S4000
G1 X184.701 Y115.217 F9000
;WIPE_END
G1 E-0.5 F3000
; acceleration to travel
M204 S3000
G1 X155.627 Y122.515 F9000
; decel to extrusion
M204 S1000
G1 X145.936 Y124.947
; end travel
G1 E0.5 F1800
;TYPE:Internal perimeter
G1 X136.97 Y115.982 E0.5421
G1 X108.334 Y115.982 E1.22437
G1 X99.065 Y125.25 E0.56042
G1 X108.334 Y134.518 E0.56042
G1 X136.97 Y134.518 E1.22437
G1 X146.239 Y125.25 E0.56042
G1 X145.936 Y124.947 E0.01832
G1 X145.633 Y125.25 F9000
;TYPE:External perimeter
G1 F1800
G1 X136.793 Y116.41 E0.53451
G1 X108.511 Y116.41 E1.2092
G1 X99.671 Y125.25 E0.53451
G1 X108.511 Y134.09 E0.53451
G1 X136.793 Y134.09 E1.2092
G1 X145.633 Y125.25 E0.53451
;WIPE_START
M204 S4000
G1 X145.916 Y124.967 F9000
;WIPE_END
G1 E-0.5 F3000
; acceleration to travel
M204 S3000
G1 X141.201 Y114.29 F9000
; decel to extrusion
M204 S1000
G1 X139.629 Y110.732
; end travel
G1 E0.5 F1800
;TYPE:Internal perimeter
G1 X105.389 Y110.732 E1.46398
G1 X104.996 Y111.68 E0.04391
G1 X108.334 Y115.018 E0.20184
G1 X136.97 Y115.018 E1.22437
G1 X140.309 Y111.68 E0.20184
G1 X139.916 Y110.732 E0.04391
G1 X139.629 Y110.732 E0.01224
G1 X139.629 Y111.16 F9000
;TYPE:External perimeter
G1 F1800
G1 X105.675 Y111.16 E1.45173
G1 X105.501 Y111.58 E0.01943
G1 X108.511 Y114.59 E0.18201
G1 X136.793 Y114.59 E1.2092
G1 X139.803 Y111.58 E0.18201
G1 X139.629 Y111.16 E0.01943
;WIPE_START
M204 S4000
G1 X139.577 Y110.763 F9000
;WIPE_END
G1 E-0.5 F3000
; acceleration to travel
M204 S3000
G1 X144.346 Y136.026 F9000
; decel to extrusion
M204 S1000
G1 X145.936 Y144.447
; end travel
G1 E0.5 F1800
;TYPE:Internal perimeter
G1 X136.97 Y135.482 E0.5421
G1 X108.334 Y135.482 E1.22437
G1 X99.065 Y144.75 E0.56042
G1 X108.334 Y154.018 E0.56042
G1 X136.97 Y154.018 E1.22437
G1 X146.239 Y144.75 E0.56042
G1 X145.936 Y144.447 E0.01832
G1 X145.633 Y144.75 F9000
;TYPE:External perimeter
G1 F1800
G1 X136.793 Y135.91 E0.53451
G1 X108.511 Y135.91 E1.2092
G1 X99.671 Y144.75 E0.53451
G1 X108.511 Y153.59 E0.53451
G1 X136.793 Y153.59 E1.2092
G1 X145.633 Y144.75 E0.53451
;WIPE_START
M204 S4000
G1 X145.916 Y144.467 F9000
;WIPE_END
G1 E-0.5 F3000
; acceleration to travel
M204 S3000
G1 X141.201 Y164.915 F9000
; decel to extrusion
M204 S1000
G1 X139.629 Y171.732
; end travel
G1 E0.5 F1800
;TYPE:Internal perimeter
G1 X105.389 Y171.732 E1.46398
G1 X104.996 Y172.68 E0.04391
G1 X108.334 Y176.018 E0.20184
G1 X136.97 Y176.018 E1.22437
G1 X140.309 Y172.68 E0.20184
G1 X139.916 Y171.732 E0.04391
G1 X139.629 Y171.732 E0.01224
G1 X139.629 Y172.16 F9000
;TYPE:External perimeter
G1 F1800
G1 X105.675 Y172.16 E1.45173
G1 X105.501 Y172.58 E0.01943
G1 X108.511 Y175.59 E0.18201
G1 X136.793 Y175.59 E1.2092
G1 X139.803 Y172.58 E0.18201
G1 X139.629 Y172.16 E0.01943
;WIPE_START
M204 S4000
G1 X139.577 Y171.763 F9000
;WIPE_END
G1 E-0.5 F3000
; acceleration to travel
M204 S3000
G1 X144.346 Y197.026 F9000
; decel to extrusion
M204 S1000
G1 X145.936 Y205.447
; end travel
G1 E0.5 F1800
;TYPE:Internal perimeter
G1 X136.97 Y196.482 E0.5421
G1 X108.334 Y196.482 E1.22437
G1 X99.065 Y205.75 E0.56042
G1 X108.334 Y215.018 E0.56042
M73 P2 R101
G1 X136.97 Y215.018 E1.22437
G1 X146.239 Y205.75 E0.56042
G1 X145.936 Y205.447 E0.01832
G1 X145.633 Y205.75 F9000
;TYPE:External perimeter
G1 F1800
G1 X136.793 Y196.91 E0.53451
G1 X108.511 Y196.91 E1.2092
G1 X99.671 Y205.75 E0.53451
G1 X108.511 Y214.59 E0.53451
G1 X136.793 Y214.59 E1.2092
G1 X145.633 Y205.75 E0.53451
;WIPE_START
M204 S4000
G1 X145.916 Y205.467 F9000
;WIPE_END
G1 E-0.5 F3000
; acceleration to travel
M204 S3000
G1 X116.782 Y212.705 F9000
; decel to extrusion
M204 S1000
G1 X107.071 Y215.117
; end travel
G1 E0.5 F1800
;TYPE:Internal perimeter
G1 X98.185 Y206.232 E0.53728
G1 X69.548 Y206.232 E1.22437
G1 X60.46 Y215.32 E0.54952
G1 X60.853 Y216.268 E0.04391
G1 X106.88 Y216.268 E1.9679
G1 X107.273 Y215.32 E0.04391
G1 X107.071 Y215.117 E0.01224
G1 X106.768 Y215.42 F9000
;TYPE:External perimeter
G1 F1800
G1 X98.007 Y206.66 E0.52969
G1 X69.726 Y206.66 E1.2092
G1 X60.966 Y215.42 E0.52969
G1 X61.139 Y215.84 E0.01943
G1 X106.594 Y215.84 E1.94342
G1 X106.768 Y215.42 E0.01943
;WIPE_START
M204 S4000
G1 X107.011 Y215.103 F9000
;WIPE_END
G1 E-0.5 F3000
; acceleration to travel
M204 S3000
G1 X78.026 Y207.861 F9000
; decel to extrusion
M204 S1000
G1 X68.365 Y205.447
; end travel
G1 E0.5 F1800
;TYPE:Internal perimeter
G1 X59.399 Y196.482 E0.5421
G1 X48.74 Y196.482 E0.45574
G1 X48.74 Y215.018 E0.79256
G1 X59.399 Y215.018 E0.45574
G1 X68.668 Y205.75 E0.56042
G1 X68.365 Y205.447 E0.01832
G1 X68.062 Y205.75 F9000
;TYPE:External perimeter
G1 F1800
G1 X59.222 Y196.91 E0.53451
G1 X49.169 Y196.91 E0.42983
G1 X49.169 Y214.59 E0.75592
G1 X59.222 Y214.59 E0.42983
G1 X68.062 Y205.75 E0.53451
;WIPE_START
M204 S4000
G1 X68.345 Y205.467 F9000
;WIPE_END
G1 E-0.5 F3000
; acceleration to travel
M204 S3000
G1 X53.963 Y198.006 F9000
; decel to extrusion
M204 S1000
G1 X49.169 Y195.518
; end travel
G1 E0.5 F1800
;TYPE:Internal perimeter
G1 X59.399 Y195.518 E0.43742
G1 X68.668 Y186.25 E0.56042
G1 X59.399 Y176.982 E0.56042
G1 X48.74 Y176.982 E0.45574
G1 X48.74 Y195.518 E0.79256
G1 X49.169 Y195.518 E0.01832
G1 X49.169 Y195.09 F9000
;TYPE:External perimeter
G1 F1800
G1 X59.222 Y195.09 E0.42983
G1 X68.062 Y186.25 E0.53451
G1 X59.222 Y177.41 E0.53451
G1 X49.169 Y177.41 E0.42983
G1 X49.169 Y195.09 E0.75592
;WIPE_START
M204 S4000
G1 X49.169 Y195.49 F9000
;WIPE_END
; acceleration to travel
M204 S3000
G1 X49.169 Y180.886
; decel to extrusion
M204 S1000
G1 X49.169 Y176.018
; end travel
;TYPE:Internal perimeter
G1 F1800
G1 X59.399 Y176.018 E0.43742
G1 X62.738 Y172.68 E0.20184
G1 X62.345 Y171.732 E0.04391
G1 X48.74 Y171.732 E0.58166
G1 X48.74 Y176.018 E0.18329
G1 X49.169 Y176.018 E0.01832
G1 X49.169 Y175.59 F9000
;TYPE:External perimeter
G1 F1800
G1 X59.222 Y175.59 E0.42983
G1 X62.232 Y172.58 E0.18201
G1 X62.058 Y172.16 E0.01943
G1 X49.169 Y172.16 E0.5511
G1 X49.169 Y175.59 E0.14665
;WIPE_START
M204 S4000
G1 X49.169 Y175.99 F9000
;WIPE_END
; acceleration to travel
M204 S3000
G1 X57.729 Y176.6
; decel to extrusion
M204 S1000
G1 X60.583 Y176.803
; end travel
;TYPE:Internal perimeter
G1 F1800
G1 X69.548 Y185.768 E0.5421
G1 X98.185 Y185.768 E1.22437
G1 X107.453 Y176.5 E0.56042
G1 X102.685 Y171.732 E0.28833
G1 X65.048 Y171.732 E1.60917
G1 X60.28 Y176.5 E0.28833
G1 X60.583 Y176.803 E0.01832
G1 X60.886 Y176.5 F9000
;TYPE:External perimeter
G1 F1800
G1 X69.726 Y185.34 E0.53451
G1 X98.007 Y185.34 E1.2092
G1 X106.847 Y176.5 E0.53451
G1 X102.507 Y172.16 E0.26242
G1 X65.226 Y172.16 E1.59399
M73 P3 R101
G1 X60.886 Y176.5 E0.26242
;WIPE_START
M204 S4000
G1 X60.603 Y176.783 F9000
;WIPE_END
G1 E-0.5 F3000
; acceleration to travel
M204 S3000
G1 X61.005 Y160.647 F9000
; decel to extrusion
M204 S1000
G1 X61.139 Y155.268
; end travel
G1 E0.5 F1800
;TYPE:Internal perimeter
G1 X65.74 Y155.268 E0.19671
G1 X65.74 Y160.968 E0.24371
G1 X87.277 Y160.968 E0.92082
