; generated by SuperSlicer 2.4 on 2022-04-26 at 22:29:47 UTC


;
;

;
;
; 

; external perimeters extrusion width = 0.40mm
; perimeters extrusion width = 0.40mm
; infill extrusion width = 0.72mm
; solid infill extrusion width = 0.56mm
; top infill extrusion width = 0.40mm
; support material extrusion width = 0.40mm
; first layer extrusion width = 0.48mm

; object:{"name":"VentandStemWithFrictionPadsSTL","id":"VentandStemWithFrictionPadsSTL.stl id:0 copy 0","object_center":[152.501107,150.000004,0.000000],"boundingbox_center":[152.501107,150.000004,13.630001],"boundingbox_size":[56.060001,54.498001,27.260001]}
; plater:{"center":[152.501107,150.000004,0.000000],"boundingbox_center":[152.501107,150.000004,13.630001],"boundingbox_size":[56.060001,54.498001,27.260001]}

M73 P0 R48
;TYPE:Custom
START_PRINT T_BED=110 T_EXTRUDER=245
M107
G21 ; set units to millimeters
G90 ; use absolute coordinates
M83 ; use relative distances for extrusion
; Filament gcode
M109 S245 ; set temperature and wait for it to be reached
M190 S110 ; set bed temperature and wait for it to be reached
M107
;LAYER_CHANGE
;Z:0.24
;HEIGHT:0.24
G1 Z0.24 F9000
G92 E0
G1 E-0.5 F3000
M204 S1000
G1 X128.658 Y129.685 F9000
G1 E0.5 F1800
;TYPE:Skirt
;WIDTH:0.52
G1 X116.957 Y141.293 E0.77049
G1 X116.258 Y142.256 E0.05563
G1 X115.864 Y143.919 E0.07988
G1 X115.864 Y156.081 E0.56856
G1 X116.083 Y157.337 E0.05958
G1 X117.019 Y158.767 E0.07988
G1 X135.146 Y175.944 E1.1674
G1 X135.733 Y176.398 E0.0347
G1 X137.833 Y177.638 E0.11401
G1 X140.125 Y178.756 E0.11918
G1 X143.467 Y179.998 E0.16669
G1 X144.597 Y180.18 E0.05353
G1 X153.532 Y180.201 E0.41769
G1 X172.066 Y179.923 E0.8665
G1 X173.149 Y179.744 E0.05128
G1 X174.609 Y178.857 E0.07988
G1 X175.515 Y177.409 E0.07988
G1 X183.899 Y152.61 E1.22369
M73 P0 R47
G1 X184.092 Y151.557 E0.05007
G1 X184.131 Y150.384 E0.05486
G1 X183.962 Y146.725 E0.17123
G1 X183.565 Y144.058 E0.12606
G1 X183.354 Y143.057 E0.04778
G1 X183.078 Y142.236 E0.04051
G1 X171.997 Y118.836 E1.21033
G1 X170.316 Y117.114 E0.11248
G1 X168.654 Y116.72 E0.07988
G1 X159.848 Y116.72 E0.41163
G1 X158.953 Y116.83 E0.04216
G1 X139.233 Y121.748 E0.95008
G1 X138.39 Y122.071 E0.0422
G1 X136.261 Y123.27 E0.11422
G1 X134.268 Y124.604 E0.11209
G1 X133.133 Y125.47 E0.06674
G1 X131.395 Y126.969 E0.1073
G1 X128.658 Y129.685 E0.18025
G1 X128.986 Y130.015 F9000
G1 F1800
G1 X117.286 Y141.624 E0.77049
G1 X116.724 Y142.372 E0.04374
G1 X116.33 Y143.919 E0.0746
G1 X116.33 Y156.081 E0.56856
G1 X116.488 Y157.079 E0.0472
G1 X117.339 Y158.428 E0.0746
G1 X135.467 Y175.605 E1.1674
G1 X135.98 Y176.002 E0.03033
G1 X138.048 Y177.224 E0.11228
G1 X140.304 Y178.325 E0.11738
G1 X143.611 Y179.555 E0.16493
G1 X144.599 Y179.714 E0.04678
G1 X152.3 Y179.742 E0.35998
G1 X172.059 Y179.456 E0.92379
G1 X174.205 Y178.598 E0.10804
G1 X175.074 Y177.259 E0.0746
G1 X183.458 Y152.461 E1.22369
G1 X183.626 Y151.54 E0.04375
G1 X183.662 Y150.518 E0.0478
G1 X183.593 Y147.884 E0.12316
G1 X183.133 Y144.28 E0.16988
G1 X182.898 Y143.153 E0.05378
G1 X182.656 Y142.436 E0.0354
G1 X171.576 Y119.035 E1.21033
G1 X170.2 Y117.58 E0.09363
G1 X168.654 Y117.186 E0.0746
G1 X159.848 Y117.186 E0.41163
G1 X159.066 Y117.282 E0.03685
G1 X139.346 Y122.2 E0.95008
G1 X138.609 Y122.483 E0.03688
G1 X136.513 Y123.663 E0.11247
G1 X134.536 Y124.986 E0.1112
G1 X131.707 Y127.316 E0.17129
G1 X128.986 Y130.015 E0.17919
; INIT printing object VentandStemWithFrictionPadsSTL.stl id:0 copy 0
G1 E-0.5 F3000
; printing object VentandStemWithFrictionPadsSTL.stl id:0 copy 0
; acceleration to travel
M204 S4000
G1 X156.827 Y166.204 F9000
; decel to extrusion
M204 S1000
G1 X163.788 Y175.251
; end travel
G1 E0.5 F1800
;TYPE:Support material
;WIDTH:0.48
G1 X163.923 Y175.19 E0.00637
G1 X164.189 Y175.069 E0.01248
G1 X164.663 Y174.854 E0.02225
G1 X164.685 Y174.844 E0.00103
G1 X165.077 Y174.644 E0.01881
G1 X165.374 Y174.492 E0.0143
G1 X165.852 Y174.248 E0.02291
G1 X165.874 Y174.236 E0.00108
G1 X166.244 Y174.024 E0.01823
G1 X166.605 Y173.818 E0.0178
G1 X166.975 Y173.606 E0.01822
G1 X166.996 Y173.593 E0.00104
G1 X167.335 Y173.378 E0.01714
G1 X167.665 Y173.168 E0.01672
G1 X168.003 Y172.954 E0.01712
G1 X168.022 Y172.941 E0.00099
G1 X168.359 Y172.705 E0.01761
G1 X168.689 Y172.474 E0.01721
G1 X169.027 Y172.238 E0.01762
G1 X169.047 Y172.224 E0.00103
G1 X169.717 Y171.709 E0.03615
G1 X170.056 Y171.448 E0.0183
G1 X170.075 Y171.432 E0.00106
G1 X170.721 Y170.886 E0.03616
G1 X171.048 Y170.609 E0.01831
G1 X171.067 Y170.592 E0.0011
G1 X171.836 Y169.873 E0.04503
G1 X171.997 Y169.723 E0.00939
G1 X172.01 Y169.711 E0.00075
G1 X172.011 Y176.224 E0.27847
G1 X164.048 Y176.224 E0.34045
G1 X163.788 Y175.251 E0.04303
; acceleration to travel
M204 S4000
G1 X169.994 Y175.943 F9000
; decel to extrusion
M204 S1000
G1 X171.545 Y176.117
; end travel
G1 F1800
G1 X171.545 Y170.543 E0.23829
G1 X171.263 Y170.807 E0.01651
G1 X171.239 Y170.829 E0.00141
G1 X171.069 Y170.972 E0.00948
G1 X171.069 Y175.932 E0.21207
G1 X170.593 Y175.932 E0.02036
G1 X170.593 Y171.375 E0.19483
G1 X170.261 Y171.657 E0.01862
G1 X170.236 Y171.677 E0.00135
G1 X170.117 Y171.768 E0.00643
G1 X170.117 Y175.932 E0.17804
G1 X169.641 Y175.932 E0.02036
G1 X169.641 Y172.134 E0.16238
G1 X169.222 Y172.457 E0.02262
G1 X169.197 Y172.475 E0.00131
G1 X169.165 Y172.497 E0.00167
G1 X169.165 Y175.932 E0.14686
G1 X168.689 Y175.932 E0.02036
G1 X168.689 Y172.83 E0.13263
G1 X168.526 Y172.944 E0.00847
G1 X168.213 Y173.163 E0.01637
G1 X168.213 Y175.932 E0.1184
G1 X167.736 Y175.932 E0.02036
G1 X167.736 Y173.468 E0.10536
G1 X167.491 Y173.624 E0.01244
G1 X167.26 Y173.771 E0.01167
G1 X167.26 Y175.932 E0.09242
G1 X166.784 Y175.932 E0.02036
G1 X166.784 Y174.051 E0.08044
G1 X166.75 Y174.07 E0.00168
G1 X166.389 Y174.277 E0.0178
G1 X166.308 Y174.324 E0.00398
G1 X166.308 Y175.932 E0.06878
G1 X165.832 Y175.932 E0.02036
G1 X165.832 Y174.586 E0.05758
G1 X165.507 Y174.751 E0.01561
G1 X165.356 Y174.828 E0.00724
G1 X165.356 Y175.932 E0.04719
G1 X164.88 Y175.932 E0.02036
G1 X164.88 Y175.071 E0.03681
G1 X164.814 Y175.105 E0.00315
G1 X164.786 Y175.118 E0.00132
G1 X164.404 Y175.292 E0.01797
G1 X164.404 Y176.117 E0.03526
G1 E-0.5 F3000
; acceleration to travel
M204 S4000
G1 X133.573 Y160.088 F9000
; decel to extrusion
M204 S1000
G1 X125.866 Y156.081
; end travel
G1 E0.5 F1800
G1 X119.563 Y156.081 E0.26946
G1 X119.563 Y143.919 E0.52001
G1 X125.854 Y143.919 E0.26896
G1 X125.808 Y144.156 E0.01034
G1 X125.649 Y144.974 E0.03561
G1 X125.568 Y145.388 E0.01804
G1 X125.564 Y145.412 E0.00107
G1 X125.503 Y145.83 E0.01804
G1 X125.383 Y146.655 E0.03564
G1 X125.38 Y146.679 E0.00107
G1 X125.299 Y147.51 E0.03566
G1 X125.258 Y147.929 E0.01803
G1 X125.256 Y147.953 E0.00103
G1 X125.213 Y148.788 E0.03575
G1 X125.191 Y149.211 E0.0181
G1 X125.191 Y149.236 E0.00106
G1 X125.189 Y149.659 E0.01809
G1 X125.185 Y150.494 E0.03572
G1 X125.185 Y150.518 E0.00102
G1 X125.217 Y151.285 E0.03282
G1 X125.219 Y151.339 E0.00229
G1 X125.236 Y151.754 E0.01778
G1 X125.237 Y151.779 E0.00106
G1 X125.31 Y152.611 E0.03574
G1 X125.347 Y153.032 E0.01807
G1 X125.35 Y153.056 E0.00103
G1 X125.376 Y153.253 E0.00849
G1 X125.406 Y153.474 E0.00954
G1 X125.516 Y154.3 E0.03563
G1 X125.52 Y154.325 E0.00107
G1 X125.67 Y155.146 E0.03567
G1 X125.746 Y155.561 E0.01804
G1 X125.751 Y155.585 E0.00105
G1 X125.866 Y156.081 E0.02178
G1 X125.363 Y155.974 F9000
G1 F1800
G1 X125.363 Y155.086 E0.03797
G1 X125.233 Y154.374 E0.03096
G1 X125.228 Y154.342 E0.00136
G1 X125.117 Y153.513 E0.03578
G1 X125.087 Y153.292 E0.00954
G1 X125.061 Y153.092 E0.00863
G1 X125.057 Y153.061 E0.00131
G1 X125.02 Y152.637 E0.01821
G1 X124.947 Y151.801 E0.03588
G1 X124.945 Y151.769 E0.00135
G1 X124.928 Y151.35 E0.01792
G1 X124.925 Y151.297 E0.00229
G1 X124.894 Y150.527 E0.03296
G1 X124.894 Y150.496 E0.0013
G1 X124.897 Y149.658 E0.03586
G1 X124.899 Y149.231 E0.01823
G1 X124.9 Y149.199 E0.00135
G1 X124.922 Y148.773 E0.01825
G1 X124.966 Y147.935 E0.03589
G1 X124.968 Y147.904 E0.00131
G1 X125.009 Y147.481 E0.01817
G1 X125.09 Y146.648 E0.03581
G1 X125.094 Y146.616 E0.00136
G1 X125.215 Y145.788 E0.03578
G1 X125.276 Y145.367 E0.01818
G1 X125.281 Y145.335 E0.00137
G1 X125.363 Y144.915 E0.0183
G1 X125.363 Y144.21 E0.03016
G1 X124.887 Y144.21 E0.02036
G1 X124.887 Y155.79 E0.4951
G1 X124.411 Y155.79 E0.02036
G1 X124.411 Y144.21 E0.4951
G1 X123.935 Y144.21 E0.02036
G1 X123.935 Y155.79 E0.4951
G1 X123.459 Y155.79 E0.02036
G1 X123.459 Y144.21 E0.4951
G1 X122.983 Y144.21 E0.02036
G1 X122.983 Y155.79 E0.4951
G1 X122.506 Y155.79 E0.02036
G1 X122.506 Y144.21 E0.4951
G1 X122.03 Y144.21 E0.02036
G1 X122.03 Y155.79 E0.4951
G1 X121.554 Y155.79 E0.02036
G1 X121.554 Y144.21 E0.4951
G1 X121.078 Y144.21 E0.02036
G1 X121.078 Y155.79 E0.4951
G1 X120.602 Y155.79 E0.02036
G1 X120.602 Y144.21 E0.4951
G1 X120.126 Y144.21 E0.02036
G1 X120.126 Y155.974 E0.50298
G1 E-0.5 F3000
; acceleration to travel
M204 S4000
G1 X141.161 Y154.191 F9000
; decel to extrusion
M204 S1000
G1 X146.42 Y153.745
; end travel
G1 E0.5 F1800
G1 X146.42 Y147.76 E0.2559
G1 X146.522 Y147.688 E0.00533
G1 X146.929 Y147.403 E0.02125
G1 X147.336 Y147.118 E0.02125
G1 X147.744 Y146.833 E0.02125
G1 X148.151 Y146.548 E0.02125
G1 X148.558 Y146.263 E0.02125
G1 X148.965 Y145.978 E0.02125
G1 X149.372 Y145.693 E0.02125
G1 X149.779 Y145.407 E0.02125
G1 X150.187 Y145.122 E0.02125
G1 X150.594 Y144.837 E0.02125
G1 X151.001 Y144.552 E0.02125
G1 X151.408 Y144.267 E0.02125
G1 X151.815 Y143.982 E0.02125
G1 X152.63 Y143.412 E0.04251
G1 X153.037 Y143.126 E0.02125
G1 X153.444 Y142.841 E0.02125
G1 X153.851 Y142.556 E0.02125
G1 X154.259 Y142.271 E0.02125
G1 X154.666 Y141.986 E0.02125
G1 X155.073 Y141.701 E0.02125
G1 X155.48 Y141.416 E0.02125
G1 X155.887 Y141.131 E0.02125
G1 X156.295 Y140.845 E0.02125
G1 X156.7 Y140.562 E0.02116
G1 X161.939 Y140.562 E0.22401
G1 X161.939 Y142.753 E0.0937
G1 X161.261 Y143.233 E0.03554
G1 X160.868 Y143.511 E0.02056
G1 X160.493 Y143.772 E0.01955
G1 X160.136 Y143.995 E0.018
G1 X159.674 Y144.236 E0.02228
G1 X159.629 Y144.267 E0.00233
G1 X159.556 Y144.318 E0.00381
G1 X158.807 Y145.018 E0.04383
G1 X159.009 Y146.147 E0.04899
G1 X159.661 Y146.421 E0.03025
G1 X159.818 Y146.495 E0.00744
G1 X160.131 Y146.688 E0.01569
G1 X160.456 Y146.892 E0.01644
G1 X160.75 Y147.112 E0.01571
G1 X161.03 Y147.348 E0.01564
G1 X161.297 Y147.614 E0.0161
G1 X161.565 Y147.882 E0.0162
G1 X161.782 Y148.136 E0.01429
G1 X161.939 Y148.345 E0.0112
G1 X161.939 Y152.724 E0.18722
G1 X158.582 Y152.724 E0.14353
G1 X158.582 Y155.832 E0.13286
G1 X158.395 Y155.856 E0.00807
G1 X158.182 Y155.884 E0.00919
G1 X158.158 Y155.884 E0.00101
G1 X157.813 Y155.89 E0.01477
G1 X157.428 Y155.896 E0.01646
G1 X157.348 Y155.891 E0.00343
G1 X157.059 Y155.873 E0.01235
G1 X156.69 Y155.828 E0.01592
G1 X156.305 Y155.75 E0.01679
G1 X155.932 Y155.674 E0.01628
G1 X155.567 Y155.559 E0.01635
G1 X155.203 Y155.445 E0.0163
G1 X154.847 Y155.29 E0.01661
G1 X154.48 Y155.13 E0.01715
G1 X154.172 Y154.966 E0.0149
G1 X153.936 Y154.815 E0.01201
G1 X153.843 Y154.755 E0.00469
G1 X153.526 Y154.552 E0.0161
G1 X153.237 Y154.319 E0.0159
G1 X152.936 Y154.077 E0.0165
G1 X152.775 Y153.924 E0.00952
G1 X152.675 Y153.83 E0.00583
G1 X152.434 Y153.572 E0.0151
G1 X152.205 Y153.281 E0.01583
G1 X152.164 Y153.23 E0.00281
G1 X151.986 Y153.003 E0.01233
G1 X151.805 Y152.707 E0.01485
G1 X151.618 Y152.4 E0.01533
G1 X151.476 Y152.109 E0.01387
G1 X151.171 Y151.358 E0.03463
G1 X150.193 Y151.072 E0.04358
G1 X149.474 Y151.582 E0.03769
G1 X148.661 Y152.158 E0.0426
G1 X148.254 Y152.446 E0.0213
G1 X147.441 Y153.022 E0.0426
G1 X147.035 Y153.31 E0.0213
G1 X146.42 Y153.745 E0.03221
G1 E-0.5 F3000
; acceleration to travel
M204 S4000
G1 X158.522 Y152.843 F9000
; decel to extrusion
M204 S1000
G1 X161.547 Y152.617
; end travel
G1 E0.5 F1800
G1 X161.547 Y148.31 E0.18416
M73 P1 R47
G1 X161.351 Y148.08 E0.01293
G1 X161.091 Y147.82 E0.01571
G1 X161.071 Y147.801 E0.00119
G1 X161.071 Y152.433 E0.19805
G1 X160.595 Y152.433 E0.02036
G1 X160.595 Y147.362 E0.21679
G1 X160.569 Y147.341 E0.00145
G1 X160.291 Y147.133 E0.01484
G1 X160.119 Y147.024 E0.00869
G1 X160.119 Y152.433 E0.23124
G1 X159.643 Y152.433 E0.02036
G1 X159.643 Y146.735 E0.24363
G1 X159.542 Y146.688 E0.00475
G1 X159.167 Y146.529 E0.01742
G1 X159.167 Y152.433 E0.2524
G1 X158.69 Y152.433 E0.02036
G1 X158.69 Y140.853 E0.4951
G1 X159.167 Y140.853 E0.02036
G1 X159.167 Y144.284 E0.14669
G1 X159.372 Y144.092 E0.01202
G1 X159.461 Y144.029 E0.00465
G1 X159.521 Y143.986 E0.00317
G1 X159.643 Y143.923 E0.00584
G1 X159.643 Y140.853 E0.13126
G1 X160.119 Y140.853 E0.02036
G1 X160.119 Y143.662 E0.12009
G1 X160.332 Y143.528 E0.01077
G1 X160.595 Y143.346 E0.01366
G1 X160.595 Y140.853 E0.1066
G1 X161.071 Y140.853 E0.02036
G1 X161.071 Y143.011 E0.09227
G1 X161.093 Y142.996 E0.00114
G1 X161.547 Y142.674 E0.02381
G1 X161.547 Y140.669 E0.08573
G1 E-0.5 F3000
; acceleration to travel
M204 S4000
G1 X158.881 Y152.751 F9000
; decel to extrusion
M204 S1000
G1 X158.214 Y155.772
; end travel
G1 E0.5 F1800
G1 X158.214 Y140.853 E0.63785
G1 X157.738 Y140.853 E0.02036
G1 X157.738 Y155.6 E0.63051
G1 X157.435 Y155.605 E0.01298
G1 X157.366 Y155.601 E0.00293
G1 X157.262 Y155.594 E0.00446
G1 X157.262 Y140.853 E0.63025
G1 X156.792 Y140.853 E0.02011
G1 X156.786 Y140.857 E0.0003
G1 X156.786 Y155.546 E0.62804
G1 X156.737 Y155.54 E0.00213
G1 X156.363 Y155.464 E0.0163
G1 X156.31 Y155.453 E0.00232
G1 X156.31 Y141.19 E0.60982
G1 X156.055 Y141.369 E0.01333
G1 X155.834 Y141.524 E0.01152
G1 X155.834 Y155.338 E0.59062
G1 X155.654 Y155.281 E0.00804
G1 X155.358 Y155.188 E0.01329
G1 X155.358 Y141.857 E0.56998
G1 X155.24 Y141.94 E0.00614
G1 X154.882 Y142.191 E0.01871
G1 X154.882 Y154.987 E0.54714
G1 X154.607 Y154.868 E0.01283
G1 X154.406 Y154.76 E0.00974
G1 X154.406 Y142.524 E0.52317
G1 X154.019 Y142.795 E0.0202
G1 X153.929 Y142.857 E0.00465
G1 X153.929 Y154.465 E0.49627
G1 X153.697 Y154.316 E0.01181
G1 X153.453 Y154.119 E0.01337
G1 X153.453 Y143.191 E0.46726
G1 X153.204 Y143.365 E0.013
G1 X152.977 Y143.524 E0.01185
G1 X152.977 Y153.715 E0.4357
G1 X152.882 Y153.625 E0.0056
G1 X152.655 Y153.382 E0.01419
G1 X152.501 Y153.186 E0.01067
G1 X152.501 Y143.857 E0.39885
G1 X152.025 Y144.191 E0.02485
G1 X152.025 Y152.507 E0.35558
G1 X151.874 Y152.26 E0.01236
G1 X151.743 Y151.99 E0.01286
G1 X151.549 Y151.513 E0.02201
G1 X151.549 Y144.524 E0.29881
G1 X151.168 Y144.791 E0.01987
G1 X151.073 Y144.858 E0.00498
G1 X151.073 Y151.026 E0.26373
G1 X150.597 Y150.887 E0.02121
G1 X150.597 Y145.191 E0.24353
G1 X150.354 Y145.361 E0.01268
G1 X150.121 Y145.524 E0.01217
G1 X150.121 Y150.767 E0.22414
G1 X149.644 Y151.104 E0.02495
G1 X149.644 Y145.858 E0.22431
G1 X149.539 Y145.931 E0.00548
G1 X149.168 Y146.191 E0.01937
G1 X149.168 Y151.441 E0.22447
G1 X148.692 Y151.778 E0.02495
G1 X148.692 Y146.524 E0.22464
G1 X148.318 Y146.787 E0.01954
G1 X148.216 Y146.858 E0.00531
G1 X148.216 Y152.116 E0.2248
G1 X148.086 Y152.208 E0.00684
G1 X147.74 Y152.453 E0.01811
G1 X147.74 Y147.191 E0.22497
G1 X147.503 Y147.357 E0.01235
G1 X147.264 Y147.525 E0.0125
G1 X147.264 Y152.79 E0.22513
G1 X146.866 Y153.072 E0.02084
G1 X146.788 Y153.127 E0.0041
G1 X146.788 Y147.633 E0.23492
G1 E-0.5 F3000
; acceleration to travel
M204 S4000
G1 X134.738 Y147.633 F9000
; decel to extrusion
M204 S1000
G1 X131.726 Y147.633
; end travel
G1 E0.5 F1800
G1 X131.726 Y153.396 E0.24642
G1 X130.57 Y154.206 E0.06033
G1 X130.164 Y154.49 E0.02119
G1 X129.692 Y154.821 E0.02464
G1 X129.607 Y154.39 E0.01878
G1 X129.538 Y154.043 E0.01512
G1 X129.482 Y153.668 E0.01619
G1 X129.423 Y153.271 E0.01715
G1 X129.368 Y152.898 E0.01615
G1 X129.331 Y152.527 E0.01593
G1 X129.292 Y152.133 E0.01693
G1 X129.255 Y151.761 E0.01595
G1 X129.236 Y151.39 E0.01589
G1 X129.216 Y150.996 E0.01687
G1 X129.197 Y150.625 E0.0159
G1 X129.196 Y150.255 E0.01579
G1 X129.195 Y149.863 E0.01675
G1 X129.193 Y149.495 E0.01575
G1 X129.21 Y149.126 E0.0158
G1 X129.228 Y148.733 E0.01681
G1 X129.245 Y148.363 E0.01584
G1 X129.28 Y147.994 E0.01583
G1 X129.317 Y147.603 E0.01681
G1 X129.351 Y147.234 E0.01583
G1 X129.403 Y146.868 E0.01581
G1 X129.459 Y146.48 E0.01679
G1 X129.498 Y146.205 E0.01187
G1 X129.973 Y145.918 E0.02373
G1 X130.478 Y145.615 E0.02517
