; generated by SuperSlicer 2.4 on 2022-09-02 at 23:54:24 UTC


;
;

;
;
; 

; external perimeters extrusion width = 0.40mm
; perimeters extrusion width = 0.50mm
; infill extrusion width = 0.72mm
; solid infill extrusion width = 0.56mm
; top infill extrusion width = 0.40mm
; support material extrusion width = 0.50mm

; external perimeters extrusion width = 0.40mm
; perimeters extrusion width = 0.50mm
; infill extrusion width = 0.72mm
; solid infill extrusion width = 0.56mm
; top infill extrusion width = 0.40mm
; support material extrusion width = 0.50mm

; object:{"name":"jdo_wallet_v88_-_bottom","id":"jdo_wallet_v88_-_bottom.stl id:0 copy 0","object_center":[165.000000,130.500000,0.000000],"boundingbox_center":[165.000000,130.500000,0.700000],"boundingbox_size":[94.500000,63.000000,1.400000]}
; object:{"name":"Untitled","id":"Untitled.stl id:1 copy 0","object_center":[165.000001,199.500000,0.000000],"boundingbox_center":[165.000001,199.500000,0.700000],"boundingbox_size":[94.500000,63.000000,1.400000]}
; plater:{"center":[165.000000,165.000000,0.000000],"boundingbox_center":[165.000000,165.000000,0.700000],"boundingbox_size":[94.500001,132.000000,1.400000]}

M73 P0 R38
;TYPE:Custom
START_PRINT T_BED=60 T_EXTRUDER=200
M107
G21 ; set units to millimeters
G90 ; use absolute coordinates
M83 ; use relative distances for extrusion
; Filament gcode
;_TOOLCHANGE 0
M104 S200 ; set temperature
M109 S200 ; set temperature and wait for it to be reached
M190 S60 ; set bed temperature and wait for it to be reached
M107
;LAYER_CHANGE
;Z:0.24
;HEIGHT:0.24
G1 Z0.24 F9000
G92 E0
M73 P0 R38
G1 E-0.8 F3000
M204 S1000
G1 X116.081 Y98.578 F9000
G1 E0.8 F1800
;TYPE:Skirt
;WIDTH:0.52
G1 X115.431 Y99.495 E0.0515
G1 X114.905 Y100.489 E0.0515
G1 X114.514 Y101.543 E0.05151
G1 X114.264 Y102.639 E0.0515
G1 X114.15 Y104.003 E0.06273
G1 X114.15 Y225.997 E5.58873
M73 P0 R38
G1 X114.201 Y226.882 E0.0406
G1 X114.389 Y227.99 E0.0515
G1 X114.72 Y229.064 E0.0515
G1 X115.189 Y230.086 E0.05151
G1 X115.787 Y231.038 E0.0515
G1 X116.504 Y231.904 E0.0515
G1 X117.328 Y232.669 E0.05151
G1 X118.245 Y233.319 E0.0515
G1 X119.239 Y233.845 E0.0515
G1 X120.293 Y234.236 E0.05151
G1 X121.389 Y234.486 E0.0515
G1 X122.753 Y234.6 E0.06273
G1 X207.247 Y234.6 E3.87079
G1 X208.132 Y234.549 E0.0406
G1 X209.24 Y234.361 E0.0515
G1 X210.314 Y234.03 E0.0515
G1 X211.336 Y233.561 E0.05151
G1 X212.288 Y232.963 E0.0515
G1 X213.154 Y232.246 E0.0515
G1 X213.919 Y231.422 E0.05151
G1 X214.569 Y230.505 E0.0515
G1 X215.095 Y229.511 E0.0515
G1 X215.486 Y228.457 E0.05151
G1 X215.736 Y227.361 E0.0515
G1 X215.85 Y225.997 E0.06273
G1 X215.842 Y103.761 E5.59982
G1 X215.611 Y102.01 E0.08092
G1 X215.095 Y100.489 E0.07361
G1 X214.213 Y98.962 E0.08076
G1 X213.154 Y97.754 E0.07361
G1 X211.755 Y96.681 E0.08077
G1 X210.314 Y95.97 E0.0736
G1 X208.611 Y95.514 E0.08077
G1 X207.489 Y95.408 E0.05165
G1 X122.511 Y95.408 E3.89296
G1 X120.76 Y95.639 E0.08092
G1 X119.686 Y95.97 E0.05151
G1 X118.664 Y96.439 E0.0515
G1 X117.712 Y97.037 E0.0515
G1 X116.846 Y97.754 E0.0515
G1 X116.081 Y98.578 E0.05151
G1 X116.432 Y98.885 F9000
G1 F1800
G1 X115.818 Y99.754 E0.04871
G1 X115.323 Y100.695 E0.04871
G1 X114.956 Y101.693 E0.04871
G1 X114.721 Y102.73 E0.04871
G1 X114.617 Y104.003 E0.05854
G1 X114.617 Y225.997 E5.58873
G1 X114.666 Y226.851 E0.0392
G1 X114.846 Y227.899 E0.04871
G1 X115.162 Y228.914 E0.04871
G1 X115.607 Y229.88 E0.04871
G1 X116.174 Y230.779 E0.04871
G1 X116.854 Y231.596 E0.04871
G1 X117.635 Y232.318 E0.04871
G1 X118.504 Y232.932 E0.04871
G1 X119.445 Y233.427 E0.04871
G1 X120.443 Y233.794 E0.04871
G1 X121.48 Y234.029 E0.04871
G1 X122.753 Y234.133 E0.05854
G1 X207.247 Y234.133 E3.87079
G1 X208.101 Y234.084 E0.0392
G1 X209.149 Y233.904 E0.04871
G1 X210.164 Y233.588 E0.04871
G1 X211.13 Y233.143 E0.04871
G1 X212.029 Y232.576 E0.04871
G1 X212.846 Y231.896 E0.04871
G1 X213.568 Y231.115 E0.04871
G1 X214.182 Y230.246 E0.04871
G1 X214.677 Y229.305 E0.04871
G1 X215.044 Y228.307 E0.04871
G1 X215.279 Y227.27 E0.04871
M73 P1 R38
G1 X215.383 Y225.997 E0.05854
G1 X215.376 Y103.792 E5.59842
G1 X215.154 Y102.101 E0.07812
G1 X214.677 Y100.695 E0.06803
G1 X213.826 Y99.221 E0.07797
G1 X212.846 Y98.104 E0.06803
G1 X211.496 Y97.068 E0.07797
G1 X210.164 Y96.412 E0.06803
G1 X208.52 Y95.971 E0.07797
G1 X207.458 Y95.874 E0.04886
G1 X122.542 Y95.874 E3.89016
G1 X120.851 Y96.096 E0.07812
G1 X119.836 Y96.412 E0.04871
G1 X118.87 Y96.857 E0.04871
G1 X117.971 Y97.424 E0.04871
G1 X117.154 Y98.104 E0.04871
G1 X116.432 Y98.885 E0.04871
G1 E-0.8 F3000
; printing object jdo_wallet_v88_-_bottom.stl id:0 copy 0
; acceleration to travel
M204 S3000
G1 X134.228 Y136.858 F9000
; decel to extrusion
M204 S1000
G1 X140.16 Y149.516
; end travel
G1 E0.8 F1800
;TYPE:Internal perimeter
;WIDTH:0.5
G1 X139.599 Y149.951 E0.03112
G1 X139.121 Y150.475 E0.03112
G1 X138.739 Y151.073 E0.03112
G1 X138.465 Y151.727 E0.03112
G1 X138.306 Y152.419 E0.03112
G1 X138.267 Y153.127 E0.03112
G1 X138.349 Y153.832 E0.03112
G1 X138.55 Y154.512 E0.03112
G1 X138.864 Y155.149 E0.03112
G1 X139.282 Y155.722 E0.03112
G1 X139.791 Y156.216 E0.03112
G1 X140.377 Y156.616 E0.03112
G1 X141.023 Y156.91 E0.03112
G1 X141.709 Y157.091 E0.03112
G1 X142.367 Y157.147 E0.02896
G1 X188.392 Y157.147 E2.01848
G1 X189.031 Y157.094 E0.02811
G1 X189.698 Y156.924 E0.03021
G1 X190.329 Y156.646 E0.0302
G1 X190.904 Y156.268 E0.03021
G1 X191.409 Y155.8 E0.03021
G1 X191.83 Y155.254 E0.03021
G1 X192.155 Y154.647 E0.0302
G1 X192.375 Y153.994 E0.03021
G1 X192.484 Y153.314 E0.03021
G1 X192.479 Y152.625 E0.03021
G1 X192.36 Y151.947 E0.03021
G1 X192.13 Y151.298 E0.03021
G1 X191.797 Y150.695 E0.0302
G1 X191.368 Y150.156 E0.03021
G1 X190.892 Y149.727 E0.02811
G1 X179.871 Y141.352 E0.60706
G1 X178.895 Y140.666 E0.05233
G1 X177.851 Y140.044 E0.05327
G1 X176.764 Y139.503 E0.05327
G1 X175.639 Y139.045 E0.05327
G1 X174.482 Y138.673 E0.05327
G1 X173.301 Y138.389 E0.05327
G1 X172.102 Y138.195 E0.05327
G1 X170.892 Y138.091 E0.05327
G1 X169.677 Y138.078 E0.05327
G1 X169.259 Y138.106 E0.01839
G1 X168.465 Y138.157 E0.03488
G1 X167.262 Y138.327 E0.05327
G1 X166.076 Y138.587 E0.05327
G1 X164.912 Y138.935 E0.05327
G1 X163.798 Y139.362 E0.05233
G1 X140.743 Y149.205 E1.0994
G1 X140.16 Y149.516 E0.02896
G1 X140.936 Y149.61 F9000
G1 F1800
G1 X140.405 Y149.893 E0.02643
G1 X139.905 Y150.281 E0.02774
G1 X139.479 Y150.749 E0.02774
G1 X139.138 Y151.282 E0.02774
G1 X138.893 Y151.865 E0.02774
G1 X138.752 Y152.482 E0.02774
G1 X138.717 Y153.113 E0.02774
G1 X138.75 Y153.393 E0.01235
G1 X138.79 Y153.742 E0.01539
G1 X138.97 Y154.348 E0.02774
G1 X139.25 Y154.916 E0.02774
G1 X139.622 Y155.427 E0.02774
G1 X140.076 Y155.867 E0.02774
G1 X140.599 Y156.224 E0.02774
G1 X141.174 Y156.486 E0.02774
G1 X141.786 Y156.647 E0.02774
G1 X142.386 Y156.698 E0.02643
G1 X188.374 Y156.698 E2.01682
G1 X188.957 Y156.65 E0.02565
G1 X189.552 Y156.499 E0.02693
G1 X190.114 Y156.251 E0.02693
G1 X190.627 Y155.914 E0.02693
G1 X191.077 Y155.496 E0.02693
G1 X191.452 Y155.01 E0.02693
G1 X191.742 Y154.468 E0.02693
G1 X191.938 Y153.886 E0.02693
G1 X192.035 Y153.28 E0.02693
G1 X192.03 Y152.666 E0.02693
G1 X191.925 Y152.061 E0.02693
G1 X191.72 Y151.482 E0.02693
G1 X191.423 Y150.945 E0.02693
G1 X191.04 Y150.464 E0.02693
G1 X190.606 Y150.073 E0.02565
G1 X179.607 Y141.714 E0.60587
G1 X178.651 Y141.043 E0.05122
G1 X177.636 Y140.438 E0.05179
G1 X176.579 Y139.912 E0.05179
G1 X175.485 Y139.467 E0.05179
G1 X174.361 Y139.105 E0.05179
G1 X173.213 Y138.829 E0.05179
G1 X172.047 Y138.64 E0.05179
G1 X170.87 Y138.539 E0.05179
G1 X169.689 Y138.527 E0.05179
G1 X169.288 Y138.553 E0.01765
G1 X168.511 Y138.604 E0.03414
G1 X167.342 Y138.769 E0.05179
G1 X166.188 Y139.021 E0.05179
G1 X165.056 Y139.36 E0.05179
G1 X163.966 Y139.778 E0.05122
G1 X140.936 Y149.61 E1.09819
G1 X141.109 Y149.97 F9000
;TYPE:External perimeter
;WIDTH:0.4
G1 F1800
G1 X140.622 Y150.229 E0.01879
G1 X140.176 Y150.575 E0.01923
G1 X139.796 Y150.992 E0.01923
G1 X139.492 Y151.468 E0.01923
G1 X139.274 Y151.988 E0.01923
G1 X139.148 Y152.538 E0.01923
G1 X139.117 Y153.101 E0.01923
G1 X139.145 Y153.347 E0.00843
G1 X139.182 Y153.662 E0.0108
G1 X139.342 Y154.203 E0.01923
G1 X139.592 Y154.709 E0.01923
G1 X139.924 Y155.165 E0.01923
G1 X140.329 Y155.557 E0.01923
G1 X140.795 Y155.876 E0.01923
G1 X141.308 Y156.11 E0.01923
G1 X141.854 Y156.253 E0.01923
G1 X142.403 Y156.3 E0.01879
G1 X188.357 Y156.3 E1.56599
G1 X188.89 Y156.256 E0.01824
G1 X189.421 Y156.121 E0.01867
G1 X189.922 Y155.9 E0.01866
G1 X190.38 Y155.599 E0.01867
G1 X190.782 Y155.226 E0.01867
G1 X191.116 Y154.793 E0.01867
G1 X191.375 Y154.31 E0.01866
G1 X191.55 Y153.791 E0.01867
G1 X191.636 Y153.25 E0.01866
G1 X191.632 Y152.702 E0.01867
G1 X191.538 Y152.163 E0.01866
G1 X191.355 Y151.646 E0.01867
G1 X191.09 Y151.167 E0.01867
G1 X190.749 Y150.738 E0.01866
G1 X190.351 Y150.38 E0.01824
G1 X179.372 Y142.036 E0.46996
G1 X178.434 Y141.377 E0.03903
G1 X177.445 Y140.789 E0.03922
G1 X176.415 Y140.276 E0.03922
G1 X175.349 Y139.842 E0.03922
G1 X174.253 Y139.489 E0.03922
G1 X173.134 Y139.22 E0.03922
G1 X171.998 Y139.036 E0.03922
G1 X170.851 Y138.938 E0.03922
G1 X169.7 Y138.926 E0.03922
G1 X169.314 Y138.951 E0.0132
G1 X168.552 Y139 E0.02602
G1 X167.412 Y139.161 E0.03922
G1 X166.288 Y139.407 E0.03922
G1 X165.185 Y139.737 E0.03922
G1 X164.116 Y140.147 E0.03903
G1 X141.109 Y149.97 E0.85249
;WIPE_START
M204 S4000
G1 X140.776 Y149.749 F9000
;WIPE_END
G1 E-0.8 F3000
; acceleration to travel
M204 S3000
G1 X151.323 Y125.797 F9000
; decel to extrusion
M204 S1000
G1 X154.839 Y117.813
; end travel
G1 E0.8 F1800
;TYPE:Internal perimeter
;WIDTH:0.5
G1 X163.798 Y121.638 E0.42722
G1 X164.912 Y122.065 E0.05233
G1 X166.076 Y122.413 E0.05327
G1 X167.262 Y122.673 E0.05327
G1 X168.465 Y122.843 E0.05327
G1 X169.677 Y122.922 E0.05327
G1 X170.892 Y122.909 E0.05327
G1 X172.102 Y122.805 E0.05327
G1 X173.301 Y122.611 E0.05327
G1 X174.482 Y122.327 E0.05327
G1 X175.639 Y121.955 E0.05327
G1 X176.764 Y121.497 E0.05327
G1 X177.851 Y120.956 E0.05327
G1 X178.895 Y120.334 E0.05327
G1 X179.871 Y119.648 E0.05233
G1 X190.892 Y111.273 E0.60706
G1 X191.368 Y110.844 E0.02811
G1 X191.797 Y110.305 E0.03021
G1 X192.13 Y109.702 E0.0302
G1 X192.36 Y109.053 E0.03021
G1 X192.479 Y108.375 E0.03021
G1 X192.484 Y107.686 E0.03021
G1 X192.375 Y107.006 E0.03021
G1 X192.155 Y106.353 E0.03021
G1 X191.83 Y105.746 E0.0302
G1 X191.409 Y105.2 E0.03021
G1 X190.904 Y104.732 E0.03021
G1 X190.329 Y104.354 E0.03021
M73 P2 R37
G1 X189.698 Y104.076 E0.0302
G1 X189.031 Y103.906 E0.03021
G1 X188.392 Y103.853 E0.02811
G1 X142.367 Y103.853 E2.01848
G1 X141.709 Y103.909 E0.02896
G1 X141.023 Y104.09 E0.03112
G1 X140.377 Y104.384 E0.03112
G1 X139.791 Y104.784 E0.03112
G1 X139.282 Y105.278 E0.03112
G1 X138.864 Y105.851 E0.03112
G1 X138.55 Y106.488 E0.03112
G1 X138.349 Y107.168 E0.03112
G1 X138.267 Y107.873 E0.03112
G1 X138.306 Y108.581 E0.03112
G1 X138.465 Y109.273 E0.03112
G1 X138.739 Y109.927 E0.03112
G1 X139.121 Y110.525 E0.03112
G1 X139.599 Y111.049 E0.03112
G1 X140.16 Y111.484 E0.03112
G1 X140.743 Y111.795 E0.02896
G1 X154.839 Y117.813 E0.67218
G1 X155.015 Y117.401 F9000
G1 F1800
G1 X163.966 Y121.222 E0.42685
G1 X165.056 Y121.64 E0.05122
G1 X166.188 Y121.979 E0.05179
G1 X167.342 Y122.231 E0.05179
G1 X168.511 Y122.396 E0.05179
G1 X169.689 Y122.473 E0.05179
G1 X170.87 Y122.461 E0.05179
G1 X172.047 Y122.36 E0.05179
G1 X173.213 Y122.171 E0.05179
G1 X174.361 Y121.895 E0.05179
G1 X175.485 Y121.533 E0.05179
G1 X176.579 Y121.088 E0.05179
G1 X177.636 Y120.562 E0.05179
G1 X178.651 Y119.957 E0.05179
G1 X179.607 Y119.286 E0.05122
G1 X190.606 Y110.927 E0.60587
G1 X191.04 Y110.536 E0.02565
G1 X191.423 Y110.055 E0.02693
G1 X191.72 Y109.518 E0.02693
G1 X191.925 Y108.939 E0.02693
G1 X192.03 Y108.334 E0.02693
G1 X192.035 Y107.72 E0.02693
G1 X191.938 Y107.114 E0.02693
G1 X191.742 Y106.532 E0.02693
G1 X191.452 Y105.99 E0.02693
G1 X191.077 Y105.504 E0.02693
G1 X190.627 Y105.086 E0.02693
G1 X190.114 Y104.749 E0.02693
G1 X189.552 Y104.501 E0.02693
G1 X188.957 Y104.35 E0.02693
G1 X188.374 Y104.302 E0.02565
G1 X142.386 Y104.302 E2.01682
G1 X141.786 Y104.353 E0.02643
G1 X141.174 Y104.514 E0.02774
G1 X140.599 Y104.776 E0.02774
G1 X140.076 Y105.133 E0.02774
G1 X139.622 Y105.573 E0.02774
G1 X139.25 Y106.084 E0.02774
G1 X138.97 Y106.652 E0.02774
G1 X138.79 Y107.258 E0.02774
G1 X138.717 Y107.887 E0.02774
G1 X138.752 Y108.518 E0.02774
G1 X138.893 Y109.135 E0.02774
G1 X139.138 Y109.718 E0.02774
G1 X139.479 Y110.251 E0.02774
G1 X139.905 Y110.719 E0.02774
G1 X140.405 Y111.107 E0.02774
G1 X140.936 Y111.39 E0.02643
G1 X155.015 Y117.401 E0.67134
G1 X155.171 Y117.034 F9000
;TYPE:External perimeter
;WIDTH:0.4
G1 F1800
G1 X164.116 Y120.853 E0.33142
G1 X165.185 Y121.263 E0.03903
G1 X166.288 Y121.593 E0.03922
G1 X167.412 Y121.839 E0.03922
G1 X168.552 Y122 E0.03922
G1 X169.7 Y122.074 E0.03922
G1 X170.851 Y122.062 E0.03922
G1 X171.998 Y121.964 E0.03922
G1 X173.134 Y121.78 E0.03922
G1 X174.253 Y121.511 E0.03922
G1 X175.349 Y121.158 E0.03922
G1 X176.415 Y120.724 E0.03922
G1 X177.445 Y120.211 E0.03922
G1 X178.434 Y119.623 E0.03922
G1 X179.372 Y118.964 E0.03903
G1 X190.351 Y110.62 E0.46996
G1 X190.749 Y110.262 E0.01824
G1 X191.09 Y109.833 E0.01866
G1 X191.355 Y109.354 E0.01867
G1 X191.538 Y108.837 E0.01867
G1 X191.632 Y108.298 E0.01866
G1 X191.636 Y107.75 E0.01867
G1 X191.55 Y107.209 E0.01866
G1 X191.375 Y106.69 E0.01867
G1 X191.116 Y106.207 E0.01866
G1 X190.782 Y105.774 E0.01867
G1 X190.38 Y105.401 E0.01867
G1 X189.922 Y105.1 E0.01867
G1 X189.421 Y104.879 E0.01866
G1 X188.89 Y104.744 E0.01867
G1 X188.357 Y104.7 E0.01824
G1 X142.403 Y104.7 E1.56599
G1 X141.854 Y104.747 E0.01879
G1 X141.308 Y104.89 E0.01923
G1 X140.795 Y105.124 E0.01923
G1 X140.329 Y105.443 E0.01923
G1 X139.924 Y105.835 E0.01923
G1 X139.592 Y106.291 E0.01923
G1 X139.342 Y106.797 E0.01923
G1 X139.182 Y107.338 E0.01923
G1 X139.117 Y107.899 E0.01923
G1 X139.148 Y108.462 E0.01923
G1 X139.274 Y109.012 E0.01923
G1 X139.492 Y109.532 E0.01923
G1 X139.796 Y110.008 E0.01923
G1 X140.176 Y110.425 E0.01923
G1 X140.622 Y110.771 E0.01923
G1 X141.109 Y111.03 E0.01879
G1 X155.171 Y117.034 E0.52107
;WIPE_START
M204 S4000
G1 X155.219 Y117.431 F9000
;WIPE_END
G1 E-0.8 F3000
; acceleration to travel
M204 S3000
G1 X131.575 Y111.584 F9000
; decel to extrusion
M204 S1000
G1 X123.694 Y109.635
; end travel
G1 E0.8 F1800
;TYPE:Internal perimeter
;WIDTH:0.5
G1 X123.737 Y109.532 E0.00489
G1 X123.807 Y109 E0.02355
G1 X123.737 Y108.468 E0.02355
G1 X123.531 Y107.972 E0.02355
G1 X123.204 Y107.546 E0.02355
G1 X122.778 Y107.219 E0.02355
G1 X122.282 Y107.013 E0.02355
G1 X121.75 Y106.943 E0.02355
G1 X121.218 Y107.013 E0.02355
G1 X120.722 Y107.219 E0.02355
G1 X120.296 Y107.546 E0.02355
G1 X119.969 Y107.972 E0.02355
G1 X119.763 Y108.468 E0.02355
G1 X119.693 Y109 E0.02355
G1 X119.763 Y109.532 E0.02355
G1 X119.969 Y110.028 E0.02355
G1 X120.296 Y110.454 E0.02355
G1 X120.722 Y110.781 E0.02355
G1 X121.218 Y110.987 E0.02355
G1 X121.75 Y111.057 E0.02355
G1 X122.282 Y110.987 E0.02355
G1 X122.778 Y110.781 E0.02355
G1 X123.204 Y110.454 E0.02355
G1 X123.531 Y110.028 E0.02355
G1 X123.694 Y109.635 E0.01866
G1 X123.28 Y109.464 F9000
G1 F1800
G1 X123.3 Y109.415 E0.0023
G1 X123.355 Y109 E0.01837
G1 X123.3 Y108.585 E0.01837
G1 X123.14 Y108.198 E0.01837
G1 X122.885 Y107.865 E0.01837
G1 X122.552 Y107.61 E0.01837
G1 X122.165 Y107.45 E0.01837
G1 X121.75 Y107.395 E0.01837
G1 X121.335 Y107.45 E0.01837
G1 X120.948 Y107.61 E0.01837
G1 X120.615 Y107.865 E0.01837
G1 X120.36 Y108.198 E0.01837
G1 X120.2 Y108.585 E0.01837
G1 X120.145 Y109 E0.01837
G1 X120.2 Y109.415 E0.01837
G1 X120.36 Y109.802 E0.01837
G1 X120.615 Y110.135 E0.01837
G1 X120.948 Y110.39 E0.01837
G1 X121.335 Y110.55 E0.01837
G1 X121.75 Y110.605 E0.01837
G1 X122.165 Y110.55 E0.01837
G1 X122.552 Y110.39 E0.01837
G1 X122.885 Y110.135 E0.01837
G1 X123.14 Y109.802 E0.01837
G1 X123.28 Y109.464 E0.01607
G1 X122.912 Y109.311 F9000
;TYPE:External perimeter
;WIDTH:0.4
G1 F1800
G1 X122.953 Y109 E0.0107
G1 X122.912 Y108.689 E0.0107
G1 X122.791 Y108.399 E0.0107
G1 X122.6 Y108.15 E0.0107
G1 X122.351 Y107.959 E0.0107
G1 X122.061 Y107.838 E0.0107
