; generated by SuperSlicer 2.4 on 2022-05-15 at 17:53:12 UTC


;
;

;
;
; 

; external perimeters extrusion width = 0.40mm
; perimeters extrusion width = 0.40mm
; infill extrusion width = 0.72mm
; solid infill extrusion width = 0.56mm
; top infill extrusion width = 0.40mm
; support material extrusion width = 0.40mm
; first layer extrusion width = 0.48mm

; external perimeters extrusion width = 0.40mm
; perimeters extrusion width = 0.40mm
; infill extrusion width = 0.72mm
; solid infill extrusion width = 0.56mm
; top infill extrusion width = 0.40mm
; support material extrusion width = 0.40mm
; first layer extrusion width = 0.48mm

; object:{"name":"Joyce and Jeffrey Park","id":"Joyce and Jeffrey Park.stl id:0 copy 0","object_center":[165.000000,165.000000,0.000000],"boundingbox_center":[165.000000,165.000000,8.819000],"boundingbox_size":[109.954010,60.044014,17.638000]}
; plater:{"center":[165.000000,165.000000,0.000000],"boundingbox_center":[165.000000,165.000000,8.819000],"boundingbox_size":[109.954010,60.044014,17.638000]}

M73 P0 R91
M73 C82
;TYPE:Custom
START_PRINT T_BED=60 T_EXTRUDER=200
M107
G21 ; set units to millimeters
G90 ; use absolute coordinates
M83 ; use relative distances for extrusion
; Filament gcode
M109 S200 ; set temperature and wait for it to be reached
M190 S60 ; set bed temperature and wait for it to be reached
M107
;LAYER_CHANGE
;Z:0.24
;HEIGHT:0.24
G1 Z0.24 F9000
G92 E0
M73 P0 R90
M73 C1
G1 E-0.8 F3000
M204 S1000
G1 X108.716 Y132.432 F9000
G1 E0.8 F1800
;TYPE:Skirt
;WIDTH:0.52
G1 X107.665 Y133.415 E0.06727
G1 X107.061 Y134.331 E0.05125
G1 X106.684 Y135.35 E0.05082
G1 X106.5 Y136.589 E0.05854
G1 X106.517 Y180.184 E2.03791
G1 X106.699 Y181.187 E0.04768
G1 X107.245 Y182.421 E0.06305
G1 X108.158 Y183.528 E0.06709
G1 X109.042 Y184.221 E0.05251
G1 X109.813 Y184.607 E0.0403
G1 X148.663 Y198.374 E1.92676
G1 X149.898 Y198.586 E0.0586
G1 X180.088 Y198.586 E1.41125
G1 X181.322 Y198.374 E0.05856
G1 X220.08 Y184.653 E1.92196
G1 X221.084 Y184.135 E0.05281
G1 X221.843 Y183.526 E0.04551
G1 X222.227 Y183.125 E0.02597
G1 X222.914 Y182.146 E0.05587
G1 X223.301 Y181.188 E0.04835
G1 X223.5 Y179.823 E0.06446
G1 X223.5 Y136.59 E2.021
G1 X223.266 Y135.191 E0.0663
G1 X222.744 Y134 E0.0608
G1 X222.266 Y133.344 E0.03797
G1 X221.597 Y132.672 E0.04433
G1 X220.987 Y132.208 E0.03581
G1 X220.428 Y131.918 E0.02942
G1 X219.283 Y131.562 E0.05606
G1 X218.429 Y131.462 E0.04018
G1 X113.121 Y131.455 E4.92283
G1 X111.634 Y131.455 E0.06949
G1 X110.402 Y131.637 E0.05824
G1 X109.528 Y131.948 E0.04335
G1 X108.716 Y132.432 E0.04419
G1 X108.982 Y132.815 F9000
G1 F1800
G1 X108.012 Y133.727 E0.06222
G1 X107.485 Y134.527 E0.04479
G1 X107.14 Y135.451 E0.04611
G1 X106.966 Y136.589 E0.05382
G1 X106.982 Y180.138 E2.03579
G1 X107.151 Y181.075 E0.04449
G1 X107.649 Y182.187 E0.05696
G1 X108.495 Y183.205 E0.06191
G1 X109.298 Y183.831 E0.04757
G1 X109.972 Y184.169 E0.03522
G1 X148.819 Y197.934 E1.92662
G1 X149.898 Y198.12 E0.05121
G1 X180.088 Y198.12 E1.41125
G1 X181.167 Y197.934 E0.05118
G1 X219.924 Y184.214 E1.92196
G1 X220.842 Y183.736 E0.04838
G1 X221.506 Y183.204 E0.03977
G1 X221.89 Y182.802 E0.02597
G1 X222.51 Y181.913 E0.05069
G1 X222.849 Y181.075 E0.04225
G1 X223.034 Y179.823 E0.05915
G1 X223.034 Y136.59 E2.021
G1 X222.813 Y135.303 E0.06103
G1 X222.342 Y134.236 E0.05456
G1 X221.905 Y133.639 E0.03457
G1 X221.277 Y133.012 E0.04147
G1 X220.745 Y132.606 E0.0313
G1 X220.249 Y132.349 E0.02608
G1 X219.175 Y132.016 E0.05256
G1 X218.429 Y131.928 E0.03511
G1 X113.121 Y131.921 E4.92283
G1 X110.94 Y131.997 E0.10201
G1 X109.738 Y132.365 E0.05875
G1 X108.982 Y132.815 E0.04116
G1 E-0.8 F3000
; printing object Joyce and Jeffrey Park.stl id:0 copy 0
; acceleration to travel
M204 S3000
G1 X162.183 Y172.256 F9000
; decel to extrusion
M204 S1000
G1 X179.917 Y185.403
; end travel
G1 E0.8 F1800
;TYPE:Internal perimeter
;WIDTH:0.48
G1 X179.259 Y186.169 E0.04317
G1 X179.259 Y193.361 E0.30751
G1 X150.741 Y193.361 E1.2193
G1 X150.741 Y186.169 E0.30751
G1 X149.737 Y185.001 E0.06586
G1 X141.981 Y184.397 E0.33265
G1 X134.346 Y183.578 E0.3283
G1 X126.741 Y182.527 E0.32825
G1 X119.172 Y181.243 E0.32822
G1 X111.725 Y179.733 E0.3249
G1 X111.725 Y136.68 E1.84077
G1 X112.122 Y136.68 E0.01698
G1 X218.275 Y136.687 E4.53862
G1 X218.275 Y179.745 E1.84096
G1 X210.828 Y181.243 E0.32478
G1 X203.259 Y182.527 E0.32824
G1 X195.653 Y183.578 E0.32828
M73 P1 R90
G1 X188.019 Y184.397 E0.32826
G1 X180.263 Y185.001 E0.33265
G1 X179.917 Y185.403 E0.02269
G1 X180.242 Y185.682 F9000
G1 F1800
G1 X179.687 Y186.328 E0.03637
G1 X179.688 Y193.79 E0.31904
G1 X150.312 Y193.79 E1.25594
G1 X150.313 Y186.328 E0.31904
G1 X149.528 Y185.414 E0.0515
G1 X141.941 Y184.824 E0.32535
G1 X134.294 Y184.003 E0.32884
G1 X126.676 Y182.95 E0.32881
G1 X119.094 Y181.665 E0.32879
G1 X111.624 Y180.162 E0.32577
G1 X111.551 Y180.135 E0.00333
G1 X111.324 Y179.898 E0.01404
G1 X111.296 Y179.751 E0.00639
G1 X111.296 Y136.709 E1.84029
G1 X111.339 Y136.514 E0.00853
G1 X111.516 Y136.334 E0.01076
G1 X111.597 Y136.286 E0.00406
G1 X111.753 Y136.251 E0.00682
G1 X112.122 Y136.251 E0.01578
G1 X218.301 Y136.258 E4.53972
G1 X218.431 Y136.289 E0.00574
G1 X218.606 Y136.446 E0.01002
G1 X218.647 Y136.496 E0.00279
G1 X218.704 Y136.724 E0.01002
G1 X218.704 Y179.751 E1.83964
G1 X218.676 Y179.898 E0.00639
G1 X218.485 Y180.098 E0.01186
G1 X218.359 Y180.165 E0.00606
G1 X210.906 Y181.665 E0.32505
G1 X203.324 Y182.95 E0.3288
G1 X195.705 Y184.003 E0.32884
G1 X188.059 Y184.824 E0.32881
G1 X180.472 Y185.414 E0.32535
G1 X180.242 Y185.682 E0.01513
G1 X180.858 Y185.814 F9000
G1 F1800
G1 X180.682 Y185.828 E0.00756
G1 X180.116 Y186.486 E0.03715
G1 X180.116 Y193.977 E0.32024
G1 X180.09 Y194.011 E0.00183
G1 X180.041 Y194.148 E0.00626
G1 X179.879 Y194.218 E0.00753
G1 X150.129 Y194.218 E1.27197
G1 X150.083 Y194.182 E0.00247
G1 X149.884 Y194.12 E0.00893
G1 X149.884 Y186.486 E0.32638
G1 X149.318 Y185.828 E0.03715
G1 X141.902 Y185.25 E0.31805
G1 X134.242 Y184.429 E0.32939
G1 X126.611 Y183.374 E0.32937
M73 P1 R89
G1 X119.016 Y182.086 E0.32935
G1 X111.508 Y180.575 E0.32742
G1 X111.373 Y180.527 E0.00614
G1 X111.263 Y180.454 E0.00563
G1 X110.986 Y180.164 E0.01715
G1 X110.915 Y180.041 E0.00608
G1 X110.878 Y179.894 E0.00649
G1 X110.868 Y179.79 E0.00444
G1 X110.868 Y136.662 E1.84398
G1 X110.934 Y136.363 E0.01309
G1 X110.976 Y136.272 E0.00427
G1 X111.249 Y135.995 E0.01664
G1 X111.437 Y135.882 E0.00939
G1 X111.706 Y135.823 E0.01179
G1 X112.122 Y135.823 E0.01777
G1 X218.351 Y135.83 E4.54187
G1 X218.601 Y135.889 E0.01097
G1 X218.649 Y135.909 E0.00225
G1 X218.917 Y136.149 E0.01535
G1 X219.001 Y136.251 E0.00566
G1 X219.048 Y136.333 E0.00406
G1 X219.132 Y136.672 E0.0149
G1 X219.132 Y179.79 E1.84357
G1 X219.122 Y179.894 E0.00444
G1 X219.085 Y180.041 E0.00649
G1 X219.014 Y180.164 E0.00609
G1 X218.747 Y180.444 E0.01654
G1 X218.566 Y180.553 E0.00903
G1 X218.506 Y180.573 E0.00272
G1 X210.984 Y182.086 E0.32802
G1 X203.389 Y183.374 E0.32936
G1 X195.758 Y184.429 E0.3294
G1 X188.098 Y185.25 E0.32935
G1 X180.858 Y185.814 E0.31049
G1 X180.892 Y186.241 F9000
;TYPE:External perimeter
G1 F1800
G1 X180.544 Y186.645 E0.02279
G1 X180.545 Y194.121 E0.31963
G1 X180.471 Y194.218 E0.00519
G1 X180.412 Y194.381 E0.00742
G1 X180.353 Y194.48 E0.00495
G1 X180.063 Y194.605 E0.01349
G1 X180.008 Y194.647 E0.00294
G1 X149.981 Y194.647 E1.2838
G1 X149.881 Y194.568 E0.00545
G1 X149.681 Y194.506 E0.00895
G1 X149.635 Y194.471 E0.00244
G1 X149.556 Y194.362 E0.00576
G1 X149.455 Y194.146 E0.01018
G1 X149.456 Y186.645 E0.32071
G1 X149.108 Y186.241 E0.02279
G1 X141.862 Y185.677 E0.31075
G1 X134.189 Y184.854 E0.32994
G1 X126.545 Y183.798 E0.32993
G1 X118.938 Y182.507 E0.32992
G1 X111.392 Y180.989 E0.32906
G1 X111.18 Y180.912 E0.00966
G1 X110.987 Y180.786 E0.00987
G1 X110.641 Y180.423 E0.02143
G1 X110.513 Y180.203 E0.01087
G1 X110.455 Y179.967 E0.01042
G1 X110.439 Y179.811 E0.00668
G1 X110.439 Y136.615 E1.84688
G1 X110.526 Y136.225 E0.01708
G1 X110.618 Y136.025 E0.00943
G1 X110.981 Y135.655 E0.02215
G1 X111.277 Y135.479 E0.01472
G1 X111.66 Y135.394 E0.01677
G1 X112.122 Y135.394 E0.01976
G1 X218.401 Y135.402 E4.54401
G1 X218.733 Y135.48 E0.01458
G1 X218.881 Y135.541 E0.00683
G1 X219.227 Y135.852 E0.01989
G1 X219.353 Y136.006 E0.00852
G1 X219.45 Y136.17 E0.00814
G1 X219.561 Y136.619 E0.01978
G1 X219.561 Y179.811 E1.84669
G1 X219.545 Y179.967 E0.00668
G1 X219.487 Y180.203 E0.01042
G1 X219.359 Y180.423 E0.01087
G1 X219.017 Y180.781 E0.02116
G1 X218.745 Y180.946 E0.01361
G1 X218.614 Y180.988 E0.00589
G1 X211.062 Y182.507 E0.32933
G1 X203.455 Y183.798 E0.32992
G1 X195.81 Y184.854 E0.32996
G1 X188.138 Y185.677 E0.3299
G1 X180.892 Y186.241 E0.31076
;WIPE_START
M204 S4000
G1 X180.531 Y186.068 F9000
;WIPE_END
; acceleration to travel
M204 S3000
G1 X207.816 Y150.983
; decel to extrusion
M204 S1000
G1 X218.211 Y137.617
; end travel
;TYPE:Solid infill
;WIDTH:0.477907
G1 F3600
G1 X217.529 Y136.935 E0.04106
G1 X216.923 Y136.935 E0.0258
G1 X218.027 Y138.039 E0.06645
G1 X218.027 Y138.645 E0.0258
G1 X216.317 Y136.935 E0.10293
G1 X215.711 Y136.935 E0.0258
G1 X218.027 Y139.251 E0.13942
G1 X218.027 Y139.857 E0.0258
G1 X215.105 Y136.935 E0.1759
G1 X214.499 Y136.935 E0.0258
G1 X218.027 Y140.463 E0.21238
G1 X218.027 Y141.069 E0.0258
G1 X213.893 Y136.935 E0.24887
G1 X213.287 Y136.935 E0.0258
G1 X218.027 Y141.675 E0.28535
G1 X218.027 Y142.281 E0.0258
G1 X212.681 Y136.935 E0.32183
G1 X212.075 Y136.935 E0.0258
G1 X218.027 Y142.887 E0.35832
G1 X218.027 Y143.493 E0.0258
G1 X211.469 Y136.935 E0.3948
G1 X210.863 Y136.935 E0.0258
G1 X218.027 Y144.099 E0.43129
G1 X218.027 Y144.705 E0.0258
G1 X210.257 Y136.935 E0.46777
G1 X209.651 Y136.935 E0.0258
G1 X218.027 Y145.311 E0.50425
G1 X218.027 Y145.917 E0.0258
G1 X209.045 Y136.935 E0.54074
G1 X208.439 Y136.935 E0.0258
G1 X218.027 Y146.523 E0.57722
G1 X218.027 Y147.129 E0.0258
G1 X207.832 Y136.935 E0.6137
G1 X207.226 Y136.935 E0.0258
G1 X218.027 Y147.735 E0.65019
G1 X218.027 Y148.341 E0.0258
G1 X206.62 Y136.935 E0.68667
G1 X206.014 Y136.935 E0.0258
G1 X218.027 Y148.947 E0.72315
G1 X218.027 Y149.553 E0.0258
G1 X205.408 Y136.935 E0.75964
G1 X204.802 Y136.935 E0.0258
G1 X218.027 Y150.159 E0.79612
G1 X218.027 Y150.765 E0.0258
G1 X204.196 Y136.935 E0.83261
G1 X203.59 Y136.935 E0.0258
G1 X218.027 Y151.371 E0.86909
G1 X218.027 Y151.977 E0.0258
G1 X202.984 Y136.934 E0.90557
G1 X202.378 Y136.934 E0.0258
G1 X218.027 Y152.583 E0.94206
G1 X218.027 Y153.189 E0.0258
G1 X201.772 Y136.934 E0.97854
G1 X201.166 Y136.934 E0.0258
G1 X218.027 Y153.795 E1.01502
G1 X218.027 Y154.401 E0.0258
G1 X200.56 Y136.934 E1.05151
G1 X199.954 Y136.934 E0.0258
G1 X218.027 Y155.007 E1.08799
G1 X218.027 Y155.613 E0.0258
G1 X199.348 Y136.934 E1.12448
G1 X198.742 Y136.934 E0.0258
G1 X218.027 Y156.219 E1.16096
G1 X218.027 Y156.825 E0.0258
G1 X198.136 Y136.934 E1.19744
G1 X197.53 Y136.934 E0.0258
G1 X218.027 Y157.431 E1.23393
G1 X218.027 Y158.037 E0.0258
G1 X196.924 Y136.934 E1.27041
G1 X196.318 Y136.934 E0.0258
G1 X218.027 Y158.643 E1.30689
G1 X218.027 Y159.249 E0.0258
G1 X195.712 Y136.934 E1.34338
G1 X195.106 Y136.934 E0.0258
G1 X218.027 Y159.855 E1.37986
G1 X218.027 Y160.461 E0.0258
G1 X194.5 Y136.934 E1.41634
G1 X193.894 Y136.934 E0.0258
G1 X218.027 Y161.067 E1.45283
G1 X218.027 Y161.673 E0.0258
G1 X193.288 Y136.934 E1.48931
G1 X192.682 Y136.934 E0.0258
G1 X218.027 Y162.279 E1.5258
G1 X218.027 Y162.884 E0.0258
G1 X192.076 Y136.934 E1.56228
G1 X191.47 Y136.934 E0.0258
G1 X218.027 Y163.49 E1.59876
G1 X218.027 Y164.096 E0.0258
G1 X190.864 Y136.934 E1.63525
G1 X190.258 Y136.934 E0.0258
G1 X218.027 Y164.702 E1.67173
G1 X218.027 Y165.308 E0.0258
G1 X189.652 Y136.934 E1.70821
G1 X189.046 Y136.934 E0.0258
G1 X218.027 Y165.914 E1.7447
G1 X218.027 Y166.52 E0.0258
G1 X188.44 Y136.934 E1.78118
G1 X187.834 Y136.933 E0.0258
G1 X218.027 Y167.126 E1.81767
M73 P2 R89
G1 X218.027 Y167.732 E0.0258
G1 X187.228 Y136.933 E1.85415
G1 X186.622 Y136.933 E0.0258
G1 X218.027 Y168.338 E1.89063
G1 X218.027 Y168.944 E0.0258
G1 X186.016 Y136.933 E1.92712
G1 X185.41 Y136.933 E0.0258
G1 X218.027 Y169.55 E1.9636
G1 X218.027 Y170.156 E0.0258
G1 X184.804 Y136.933 E2.00008
G1 X184.198 Y136.933 E0.0258
G1 X218.027 Y170.762 E2.03657
G1 X218.027 Y171.368 E0.0258
G1 X183.592 Y136.933 E2.07305
G1 X182.986 Y136.933 E0.0258
G1 X218.027 Y171.974 E2.10954
G1 X218.027 Y172.58 E0.0258
G1 X182.379 Y136.933 E2.14602
G1 X181.773 Y136.933 E0.0258
G1 X218.027 Y173.186 E2.1825
G1 X218.027 Y173.792 E0.0258
G1 X181.167 Y136.933 E2.21899
G1 X180.561 Y136.933 E0.0258
G1 X218.027 Y174.398 E2.25547
G1 X218.027 Y175.004 E0.0258
G1 X179.955 Y136.933 E2.29195
G1 X179.349 Y136.933 E0.0258
G1 X218.027 Y175.61 E2.32844
G1 X218.027 Y176.216 E0.0258
G1 X178.743 Y136.933 E2.36492
G1 X178.137 Y136.933 E0.0258
G1 X218.027 Y176.822 E2.4014
G1 X218.027 Y177.428 E0.0258
G1 X177.531 Y136.933 E2.43789
G1 X176.925 Y136.933 E0.0258
G1 X218.027 Y178.034 E2.47437
G1 X218.027 Y178.64 E0.0258
G1 X176.319 Y136.933 E2.51086
G1 X175.713 Y136.933 E0.0258
G1 X218.027 Y179.246 E2.54734
M73 P2 R88
G1 X218.027 Y179.538 E0.01244
G1 X217.762 Y179.587 E0.01146
G1 X175.107 Y136.933 E2.56788
G1 X174.501 Y136.933 E0.0258
G1 X217.251 Y179.682 E2.57359
G1 X216.739 Y179.777 E0.02213
G1 X173.895 Y136.933 E2.57929
G1 X173.289 Y136.932 E0.0258
G1 X216.228 Y179.871 E2.585
G1 X215.717 Y179.966 E0.02213
G1 X172.683 Y136.932 E2.5907
G1 X172.077 Y136.932 E0.0258
G1 X215.206 Y180.061 E2.59641
G1 X214.694 Y180.156 E0.02213
G1 X171.471 Y136.932 E2.60211
G1 X170.865 Y136.932 E0.0258
G1 X214.183 Y180.25 E2.60782
G1 X213.672 Y180.345 E0.02213
G1 X170.259 Y136.932 E2.61352
G1 X169.653 Y136.932 E0.0258
G1 X213.16 Y180.44 E2.61923
G1 X212.649 Y180.534 E0.02213
G1 X169.047 Y136.932 E2.62493
G1 X168.441 Y136.932 E0.0258
G1 X212.138 Y180.629 E2.63064
G1 X211.627 Y180.724 E0.02213
G1 X167.835 Y136.932 E2.63634
G1 X167.229 Y136.932 E0.0258
G1 X211.115 Y180.819 E2.64204
G1 X210.604 Y180.913 E0.02213
G1 X166.623 Y136.932 E2.64775
G1 X166.017 Y136.932 E0.0258
G1 X210.093 Y181.008 E2.65345
G1 X209.582 Y181.103 E0.02213
G1 X165.411 Y136.932 E2.65916
G1 X164.805 Y136.932 E0.0258
G1 X209.07 Y181.197 E2.66486
G1 X208.559 Y181.292 E0.02213
G1 X164.199 Y136.932 E2.67057
G1 X163.593 Y136.932 E0.0258
G1 X208.048 Y181.387 E2.67627
G1 X207.537 Y181.482 E0.02213
G1 X162.987 Y136.932 E2.68198
G1 X162.381 Y136.932 E0.0258
G1 X207.025 Y181.576 E2.68768
G1 X206.514 Y181.671 E0.02213
G1 X161.775 Y136.932 E2.69339
G1 X161.169 Y136.932 E0.0258
G1 X206.003 Y181.766 E2.69909
G1 X205.491 Y181.861 E0.02213
G1 X160.563 Y136.932 E2.7048
G1 X159.957 Y136.932 E0.0258
G1 X204.98 Y181.955 E2.7105
G1 X204.469 Y182.05 E0.02213
G1 X159.351 Y136.932 E2.71621
G1 X158.745 Y136.932 E0.0258
G1 X203.958 Y182.145 E2.72191
G1 X203.446 Y182.239 E0.02213
G1 X158.139 Y136.931 E2.72761
G1 X157.533 Y136.931 E0.0258
G1 X202.923 Y182.322 E2.73261
G1 X202.391 Y182.396 E0.02288
G1 X156.926 Y136.931 E2.73704
G1 X156.32 Y136.931 E0.0258
G1 X201.859 Y182.47 E2.74148
G1 X201.326 Y182.543 E0.02288
G1 X155.714 Y136.931 E2.74591
M73 P3 R88
G1 X155.108 Y136.931 E0.0258
G1 X200.794 Y182.617 E2.75034
G1 X200.261 Y182.69 E0.02288
G1 X154.502 Y136.931 E2.75477
G1 X153.896 Y136.931 E0.0258
G1 X199.729 Y182.764 E2.75921
G1 X199.197 Y182.837 E0.02288
G1 X153.29 Y136.931 E2.76364
G1 X152.684 Y136.931 E0.0258
G1 X198.664 Y182.911 E2.76807
G1 X198.132 Y182.985 E0.02288
G1 X152.078 Y136.931 E2.7725
G1 X151.472 Y136.931 E0.0258
G1 X197.599 Y183.058 E2.77693
G1 X197.067 Y183.132 E0.02288
G1 X150.866 Y136.931 E2.78137
G1 X150.26 Y136.931 E0.0258
G1 X196.535 Y183.205 E2.7858
G1 X196.002 Y183.279 E0.02288
G1 X149.654 Y136.931 E2.79023
G1 X149.048 Y136.931 E0.0258
G1 X195.463 Y183.346 E2.79427
G1 X194.909 Y183.397 E0.02371
G1 X148.442 Y136.931 E2.79736
G1 X147.836 Y136.931 E0.0258
G1 X194.354 Y183.449 E2.80045
G1 X193.799 Y183.5 E0.02371
G1 X147.23 Y136.931 E2.80354
G1 X146.624 Y136.931 E0.0258
G1 X193.244 Y183.551 E2.80663
G1 X192.69 Y183.602 E0.02371
G1 X146.018 Y136.931 E2.80972
G1 X145.412 Y136.931 E0.0258
G1 X192.135 Y183.654 E2.81281
G1 X191.58 Y183.705 E0.02371
G1 X144.806 Y136.931 E2.8159
