; generated by SuperSlicer 2.4 on 2022-05-03 at 07:15:39 UTC


;
;

;
;
; 

; external perimeters extrusion width = 0.40mm
; perimeters extrusion width = 0.40mm
; infill extrusion width = 0.72mm
; solid infill extrusion width = 0.56mm
; top infill extrusion width = 0.40mm
; first layer extrusion width = 0.48mm

; external perimeters extrusion width = 0.40mm
; perimeters extrusion width = 0.40mm
; infill extrusion width = 0.72mm
; solid infill extrusion width = 0.56mm
; top infill extrusion width = 0.40mm
; first layer extrusion width = 0.48mm

; external perimeters extrusion width = 0.40mm
; perimeters extrusion width = 0.40mm
; infill extrusion width = 0.72mm
; solid infill extrusion width = 0.56mm
; top infill extrusion width = 0.40mm
; first layer extrusion width = 0.48mm

; object:{"name":"test1","id":"test1.stl id:0 copy 0","object_center":[152.200083,172.907037,0.000000],"boundingbox_center":[152.200083,172.907037,2.500000],"boundingbox_size":[29.999999,22.000002,5.000000]}
; object:{"name":"anchor","id":"anchor.stl id:1 copy 0","object_center":[166.636080,138.831869,0.000000],"boundingbox_center":[166.636080,138.831869,2.874870],"boundingbox_size":[30.000002,41.500008,5.749741]}
; object:{"name":"[a]_guidler","id":"[a]_guidler.stl id:2 copy 0","object_center":[183.000084,188.750005,0.000000],"boundingbox_center":[183.000084,188.750005,6.275001],"boundingbox_size":[19.600006,46.336273,12.550001]}
; plater:{"center":[165.000085,165.000003,0.000000],"boundingbox_center":[165.000085,165.000003,6.275001],"boundingbox_size":[55.600003,93.836276,12.550001]}

M73 P0 R34
;TYPE:Custom
START_PRINT T_BED=110 T_EXTRUDER=245
M107
G21 ; set units to millimeters
G90 ; use absolute coordinates
M83 ; use relative distances for extrusion
; Filament gcode
M104 S245 ; set temperature
M109 S245 ; set temperature and wait for it to be reached
M190 S110 ; set bed temperature and wait for it to be reached
M107
;LAYER_CHANGE
;Z:0.24
;HEIGHT:0.24
G1 Z0.24 F9000
G92 E0
G1 E-0.5 F4800
M204 S1000
G1 X149.873 Y128.099 F9000
G1 E0.5 F3000
;TYPE:Skirt
;WIDTH:0.52
G1 F1800
G1 X149.06 Y129.068 E0.05912
G1 X133.965 Y160.406 E1.62607
G1 X133.601 Y162.008 E0.07676
G1 X133.604 Y183.808 E1.01908
G1 X134.028 Y185.529 E0.08287
G1 X135.151 Y186.816 E0.07988
G1 X171.428 Y212.754 E2.08469
G1 X173.58 Y213.444 E0.10563
G1 X188.693 Y213.444 E0.70649
G1 X190.104 Y213.164 E0.06722
G1 X191.49 Y212.166 E0.07988
G1 X192.119 Y211.233 E0.05257
G1 X192.412 Y210.508 E0.03658
G1 X193.03 Y208.376 E0.10376
G1 X193.451 Y206.539 E0.08808
G1 X193.724 Y204.849 E0.08003
G1 X194.019 Y201.752 E0.14545
G1 X194.098 Y199.055 E0.12611
G1 X194.129 Y175.87 E1.08385
G1 X184.888 Y118.54 E2.71457
G1 X184.677 Y117.752 E0.03813
G1 X183.781 Y116.299 E0.07976
G1 X183.398 Y115.916 E0.02536
G1 X182.866 Y115.468 E0.03251
G1 X182.03 Y114.985 E0.04515
G1 X180.698 Y114.629 E0.06443
G1 X176.768 Y114.611 E0.18374
G1 X175.818 Y114.751 E0.04485
G1 X174.912 Y115.052 E0.04466
G1 X151.058 Y127.243 E1.25225
G1 X149.873 Y128.099 E0.06835
G1 X150.203 Y128.429 F9000
G1 F1800
G1 X149.442 Y129.335 E0.05532
G1 X134.385 Y160.608 E1.62252
G1 X134.067 Y162.007 E0.06709
G1 X134.07 Y183.807 E1.01908
G1 X134.394 Y185.217 E0.06762
G1 X135.423 Y186.437 E0.0746
G1 X171.7 Y212.374 E2.08469
G1 X173.58 Y212.978 E0.09232
G1 X188.693 Y212.978 E0.70649
G1 X189.828 Y212.772 E0.0539
G1 X191.138 Y211.86 E0.0746
G1 X191.698 Y211.034 E0.04669
G1 X191.964 Y210.377 E0.0331
G1 X192.799 Y207.379 E0.1455
G1 X193.263 Y204.776 E0.12359
G1 X193.554 Y201.719 E0.14353
G1 X193.632 Y199.048 E0.12493
G1 X193.669 Y175.944 E1.08005
G1 X184.428 Y118.614 E2.71457
G1 X184.234 Y117.898 E0.03465
G1 X183.452 Y116.629 E0.06971
G1 X183.068 Y116.246 E0.02536
G1 X182.582 Y115.838 E0.02965
G1 X181.851 Y115.416 E0.03945
G1 X180.637 Y115.091 E0.05874
G1 X176.808 Y115.076 E0.179
G1 X175.939 Y115.201 E0.04105
G1 X175.109 Y115.475 E0.04086
G1 X151.271 Y127.658 E1.25145
G1 X150.203 Y128.429 E0.06156
; INIT printing object test1.stl id:0 copy 0
G1 E-0.5 F4800
; printing object test1.stl id:0 copy 0
; acceleration to travel
M204 S3000
G1 X143.303 Y164.157 F9000
; decel to extrusion
M204 S1000
G1 X141.003 Y176.067
; end travel
G1 E0.5 F3000
;TYPE:Internal perimeter
;WIDTH:0.48
G1 F1800
G1 X141.003 Y181.104 E0.21536
G1 X165.397 Y181.104 E1.04298
G1 X165.397 Y175.21 E0.252
G1 X141.003 Y175.21 E1.04298
M73 P1 R34
G1 X141.003 Y176.067 E0.03664
G1 X141.432 Y176.067 F9000
G1 F1800
G1 X141.432 Y180.676 E0.19704
G1 X164.969 Y180.676 E1.00633
G1 X164.969 Y175.639 E0.21536
G1 X141.432 Y175.639 E1.00633
G1 X141.432 Y176.067 E0.01832
G1 X141.86 Y176.067 F9000
;TYPE:External perimeter
G1 F1800
G1 X141.86 Y180.247 E0.17872
G1 X164.54 Y180.247 E0.96969
G1 X164.54 Y176.067 E0.17872
G1 X141.86 Y176.067 E0.96969
;WIPE_START
M204 S5000
G1 X141.46 Y176.067 F9000
;WIPE_END
; acceleration to travel
M204 S3000
G1 X141.76 Y171.97
; decel to extrusion
M204 S1000
G1 X141.86 Y170.604
; end travel
;TYPE:Internal perimeter
G1 F1800
G1 X165.397 Y170.604 E1.00633
G1 X165.397 Y164.71 E0.252
G1 X141.003 Y164.71 E1.04298
G1 X141.003 Y170.604 E0.252
G1 X141.86 Y170.604 E0.03664
G1 X141.86 Y170.176 F9000
G1 F1800
G1 X164.969 Y170.176 E0.98801
G1 X164.969 Y165.139 E0.21536
G1 X141.432 Y165.139 E1.00633
G1 X141.432 Y170.176 E0.21536
G1 X141.86 Y170.176 E0.01832
G1 X141.86 Y169.747 F9000
;TYPE:External perimeter
G1 F1800
G1 X164.54 Y169.747 E0.96969
G1 X164.54 Y165.567 E0.17872
G1 X141.86 Y165.567 E0.96969
G1 X141.86 Y169.747 E0.17872
;WIPE_START
M204 S5000
G1 X141.86 Y170.147 F9000
;WIPE_END
M204 S1000
G1 X141.86 Y171.033
;TYPE:Internal perimeter
G1 F1800
G1 X165.575 Y171.033 E1.01393
G1 X165.575 Y174.782 E0.16029
G1 X140.575 Y174.782 E1.06889
G1 X140.575 Y181.533 E0.28864
G1 X165.575 Y181.533 E1.06889
G1 X165.575 Y182.282 E0.03203
G1 X138.828 Y182.282 E1.14355
G1 X138.826 Y163.533 E0.80162
G1 X165.575 Y163.533 E1.14366
G1 X165.575 Y164.282 E0.03203
G1 X140.575 Y164.282 E1.06889
G1 X140.575 Y171.033 E0.28864
G1 X141.86 Y171.033 E0.05496
; acceleration to travel
M204 S3000
G1 X139.263 Y165.086 F9000
; decel to extrusion
M204 S1000
G1 X138.397 Y163.104
; end travel
G1 F1800
G1 X166.003 Y163.104 E1.1803
G1 X166.003 Y182.71 E0.83826
G1 X138.4 Y182.71 E1.18019
G1 X138.397 Y163.104 E0.83826
G1 X137.969 Y162.676 F9000
G1 F1800
G1 X166.432 Y162.676 E1.21694
M73 P2 R34
G1 X166.432 Y183.139 E0.87491
G1 X137.971 Y183.139 E1.21683
G1 X137.969 Y162.676 E0.87491
G1 X137.54 Y162.247 F9000
;TYPE:External perimeter
G1 F1800
G1 X166.86 Y162.247 E1.25359
G1 X166.86 Y183.567 E0.91155
G1 X137.543 Y183.567 E1.25346
G1 X137.54 Y162.247 E0.91155
;WIPE_START
M204 S5000
G1 X137.887 Y162.447 F9000
;WIPE_END
; acceleration to travel
M204 S3000
G1 X139.729 Y163.542
; decel to extrusion
M204 S1000
G1 X140.343 Y163.907
; end travel
;TYPE:Gap fill
;WIDTH:0.406602
G1 F1800
G1 X140.521 Y163.907 E0.00629
G1 X165.378 Y163.907 E0.88073
G1 X165.7 Y164.479 F9000
;WIDTH:0.263591
G1 F1800
G1 X165.7 Y167.657 E0.06726
G1 X165.7 Y170.729 E0.06502
G1 X165.7 Y170.836 E0.00224
; acceleration to travel
M204 S3000
G1 X164.935 Y171.025 F9000
; decel to extrusion
M204 S1000
G1 X164.644 Y171.097
; end travel
;TYPE:Solid infill
;WIDTH:0.456504
G1 F3600
G1 X165.326 Y171.779 E0.03922
G1 X165.326 Y172.385 E0.02464
G1 X164.222 Y171.281 E0.06347
G1 X163.616 Y171.281 E0.02464
G1 X165.326 Y172.991 E0.09831
G1 X165.326 Y173.597 E0.02464
G1 X163.01 Y171.281 E0.13316
G1 X162.404 Y171.281 E0.02464
G1 X165.326 Y174.203 E0.16801
G1 X165.326 Y174.533 E0.01343
G1 X165.051 Y174.533 E0.01121
G1 X161.798 Y171.281 E0.18701
G1 X161.193 Y171.281 E0.02464
G1 X164.445 Y174.533 E0.18701
G1 X163.839 Y174.533 E0.02464
G1 X160.587 Y171.281 E0.18701
G1 X159.981 Y171.281 E0.02464
G1 X163.233 Y174.533 E0.18701
G1 X162.627 Y174.533 E0.02464
G1 X159.375 Y171.281 E0.18701
G1 X158.769 Y171.281 E0.02464
G1 X162.021 Y174.533 E0.18701
G1 X161.415 Y174.533 E0.02464
G1 X158.163 Y171.281 E0.18701
G1 X157.557 Y171.281 E0.02464
G1 X160.809 Y174.533 E0.18701
G1 X160.203 Y174.533 E0.02464
G1 X156.951 Y171.281 E0.18701
G1 X156.345 Y171.281 E0.02464
G1 X159.597 Y174.533 E0.18701
G1 X158.991 Y174.533 E0.02464
G1 X155.739 Y171.281 E0.18701
G1 X155.133 Y171.281 E0.02464
G1 X158.385 Y174.533 E0.18701
G1 X157.779 Y174.533 E0.02464
G1 X154.527 Y171.281 E0.18701
G1 X153.921 Y171.281 E0.02464
G1 X157.173 Y174.533 E0.18701
G1 X156.567 Y174.533 E0.02464
G1 X153.315 Y171.281 E0.18701
G1 X152.709 Y171.281 E0.02464
G1 X155.961 Y174.533 E0.18701
G1 X155.355 Y174.533 E0.02464
G1 X152.103 Y171.281 E0.18701
G1 X151.497 Y171.281 E0.02464
G1 X154.749 Y174.533 E0.18701
G1 X154.143 Y174.533 E0.02464
G1 X150.891 Y171.281 E0.18701
G1 X150.285 Y171.281 E0.02464
G1 X153.537 Y174.533 E0.18701
G1 X152.931 Y174.533 E0.02464
G1 X149.679 Y171.281 E0.18701
G1 X149.073 Y171.281 E0.02464
G1 X152.325 Y174.533 E0.18701
G1 X151.719 Y174.533 E0.02464
G1 X148.467 Y171.281 E0.18701
G1 X147.861 Y171.281 E0.02464
G1 X151.113 Y174.533 E0.18701
G1 X150.507 Y174.533 E0.02464
G1 X147.255 Y171.281 E0.18701
G1 X146.649 Y171.281 E0.02464
G1 X149.901 Y174.533 E0.18701
G1 X149.295 Y174.533 E0.02464
G1 X146.043 Y171.281 E0.18701
G1 X145.437 Y171.281 E0.02464
G1 X148.689 Y174.533 E0.18701
G1 X148.083 Y174.533 E0.02464
G1 X144.831 Y171.281 E0.18701
G1 X144.225 Y171.281 E0.02464
G1 X147.477 Y174.533 E0.18701
G1 X146.871 Y174.533 E0.02464
G1 X143.619 Y171.281 E0.18701
G1 X143.013 Y171.281 E0.02464
G1 X146.265 Y174.533 E0.18701
G1 X145.659 Y174.533 E0.02464
G1 X142.407 Y171.281 E0.18701
G1 X141.801 Y171.281 E0.02464
G1 X145.053 Y174.533 E0.18701
G1 X144.447 Y174.533 E0.02464
G1 X141.011 Y171.097 E0.1976
; acceleration to travel
M204 S3000
G1 X140.635 Y166.177 F9000
; decel to extrusion
M204 S1000
G1 X140.51 Y164.536
; end travel
G1 F3600
G1 X139.755 Y163.781 E0.04344
G1 X139.149 Y163.781 E0.02464
G1 X140.326 Y164.958 E0.0677
G1 X140.326 Y165.564 E0.02464
G1 X139.074 Y164.313 E0.07198
G1 X139.074 Y164.919 E0.02464
G1 X140.326 Y166.17 E0.07197
G1 X140.326 Y166.776 E0.02464
G1 X139.075 Y165.525 E0.07197
G1 X139.075 Y166.131 E0.02464
G1 X140.326 Y167.382 E0.07196
G1 X140.326 Y167.988 E0.02464
G1 X139.075 Y166.737 E0.07196
G1 X139.075 Y167.343 E0.02464
G1 X140.326 Y168.594 E0.07196
G1 X140.326 Y169.2 E0.02464
G1 X139.075 Y167.949 E0.07195
G1 X139.075 Y168.555 E0.02464
G1 X140.326 Y169.806 E0.07195
G1 X140.326 Y170.412 E0.02464
G1 X139.075 Y169.161 E0.07194
G1 X139.075 Y169.767 E0.02464
G1 X143.841 Y174.533 E0.27407
G1 X143.235 Y174.533 E0.02464
G1 X139.075 Y170.373 E0.23922
G1 X139.075 Y170.979 E0.02464
G1 X142.629 Y174.533 E0.20436
G1 X142.023 Y174.533 E0.02464
G1 X139.075 Y171.585 E0.16951
G1 X139.075 Y172.191 E0.02464
G1 X141.417 Y174.533 E0.13466
G1 X140.811 Y174.533 E0.02464
G1 X139.076 Y172.797 E0.09981
G1 X139.076 Y173.404 E0.02464
G1 X140.326 Y174.654 E0.07191
G1 X140.326 Y175.26 E0.02464
G1 X139.076 Y174.01 E0.0719
G1 X139.076 Y174.616 E0.02464
G1 X140.326 Y175.866 E0.0719
G1 X140.326 Y176.472 E0.02464
G1 X139.076 Y175.222 E0.07189
G1 X139.076 Y175.828 E0.02464
G1 X140.326 Y177.078 E0.07189
G1 X140.326 Y177.684 E0.02464
G1 X139.076 Y176.434 E0.07188
G1 X139.076 Y177.04 E0.02464
G1 X140.326 Y178.29 E0.07188
G1 X140.326 Y178.896 E0.02464
G1 X139.076 Y177.646 E0.07187
G1 X139.076 Y178.252 E0.02464
G1 X140.326 Y179.502 E0.07187
G1 X140.326 Y180.108 E0.02464
G1 X139.076 Y178.858 E0.07187
G1 X139.076 Y179.464 E0.02464
G1 X140.326 Y180.714 E0.07186
G1 X140.326 Y181.32 E0.02464
G1 X139.077 Y180.07 E0.07186
G1 X139.077 Y180.676 E0.02464
G1 X140.137 Y181.737 E0.061
G1 X140.137 Y182.033 E0.01203
G1 X139.827 Y182.033 E0.01261
G1 X139.077 Y181.282 E0.04317
G1 X139.077 Y181.888 E0.02464
G1 X139.406 Y182.217 E0.01891
G1 X140.343 Y181.907 F9000
;TYPE:Gap fill
;WIDTH:0.406602
G1 F1800
G1 X140.521 Y181.907 E0.00629
G1 X165.378 Y181.907 E0.88073
G1 X165.7 Y181.336 F9000
;WIDTH:0.263591
G1 F1800
G1 X165.7 Y175.085 E0.13228
G1 X165.7 Y174.979 E0.00224
; INIT stop printing object test1.stl id:0 copy 0
; INIT printing object [a]_guidler.stl id:2 copy 0
G1 E-0.5 F4800
; stop printing object test1.stl id:0 copy 0
; printing object [a]_guidler.stl id:2 copy 0
; acceleration to travel
M204 S3000
G1 X172.949 Y173.232 F9000
; decel to extrusion
M204 S1000
G1 X175.365 Y172.65
; end travel
G1 E0.5 F3000
;TYPE:Internal perimeter
;WIDTH:0.48
G1 F1800
G1 X175.436 Y172.782 E0.00639
G1 X175.89 Y173.347 E0.03101
G1 X176.458 Y173.818 E0.03155
G1 X177.109 Y174.165 E0.03155
M73 P2 R33
G1 X177.817 Y174.375 E0.03155
G1 X178.539 Y174.437 E0.03098
G1 X179.192 Y174.372 E0.02807
G1 X179.889 Y174.165 E0.03107
G1 X180.54 Y173.818 E0.03155
G1 X181.108 Y173.347 E0.03155
G1 X181.563 Y172.782 E0.03101
G1 X181.872 Y172.202 E0.02807
G1 X182.088 Y171.51 E0.03104
G1 X182.163 Y170.775 E0.03155
G1 X182.088 Y170.041 E0.03156
G1 X181.872 Y169.348 E0.03104
G1 X181.563 Y168.769 E0.02807
G1 X181.108 Y168.204 E0.03101
G1 X180.384 Y167.603 E0.04021
G1 X185.168 Y167.603 E0.20455
G1 X185.174 Y174.962 E0.31464
G1 X185.214 Y175.375 E0.01772
G1 X185.372 Y175.922 E0.02435
G1 X185.702 Y176.487 E0.02799
G1 X186.118 Y176.929 E0.02594
G1 X186.731 Y177.312 E0.03088
G1 X187.289 Y177.481 E0.02496
G1 X187.716 Y177.525 E0.01832
G1 X188.913 Y177.524 E0.0512
G1 X188.887 Y178.252 E0.03113
G1 X188.874 Y179.548 E0.05541
G1 X188.874 Y198.987 E0.83111
G1 X188.854 Y200.286 E0.05555
G1 X188.805 Y201.409 E0.04805
G1 X188.737 Y202.388 E0.04199
G1 X188.558 Y204.068 E0.0722
G1 X188.327 Y205.518 E0.0628
G1 X188.176 Y206.252 E0.03204
G1 X187.969 Y207.076 E0.03634
G1 X187.636 Y208.219 E0.05088
G1 X175.106 Y208.219 E0.53575
G1 X175.106 Y172.715 E1.51799
M73 P3 R33
G1 X175.365 Y172.65 E0.01144
G1 X175.487 Y171.919 F9000
G1 F1800
G1 X175.523 Y172.036 E0.00525
G1 X175.795 Y172.545 E0.02464
G1 X176.197 Y173.045 E0.02744
G1 X176.698 Y173.46 E0.02784
G1 X177.273 Y173.767 E0.02784
G1 X177.897 Y173.952 E0.02784
G1 X178.536 Y174.007 E0.02742
G1 X179.109 Y173.949 E0.02464
G1 X179.726 Y173.767 E0.02748
G1 X180.3 Y173.46 E0.02784
G1 X180.802 Y173.045 E0.02784
G1 X181.204 Y172.545 E0.02744
G1 X181.475 Y172.036 E0.02464
G1 X181.667 Y171.423 E0.02746
G1 X181.732 Y170.775 E0.02784
G1 X181.667 Y170.127 E0.02784
G1 X181.475 Y169.514 E0.02746
G1 X181.204 Y169.006 E0.02464
G1 X180.802 Y168.506 E0.02744
G1 X180.3 Y168.09 E0.02784
G1 X179.726 Y167.784 E0.02784
G1 X179.101 Y167.599 E0.02784
G1 X178.462 Y167.544 E0.02742
G1 X177.889 Y167.601 E0.02464
G1 X177.273 Y167.784 E0.02748
G1 X176.698 Y168.09 E0.02784
G1 X176.197 Y168.506 E0.02784
G1 X175.795 Y169.006 E0.02744
G1 X175.523 Y169.514 E0.02464
G1 X175.332 Y170.127 E0.02746
G1 X175.266 Y170.775 E0.02784
G1 X175.332 Y171.423 E0.02784
G1 X175.487 Y171.919 E0.02221
G1 X175.896 Y171.791 F9000
G1 F1800
G1 X175.92 Y171.87 E0.00353
G1 X176.154 Y172.307 E0.02121
G1 X176.503 Y172.743 E0.02387
G1 X176.938 Y173.103 E0.02413
G1 X177.436 Y173.368 E0.02413
G1 X177.977 Y173.528 E0.02413
G1 X178.533 Y173.576 E0.02385
G1 X179.026 Y173.527 E0.0212
G1 X179.562 Y173.368 E0.0239
G1 X180.06 Y173.103 E0.02413
G1 X180.495 Y172.743 E0.02413
G1 X180.844 Y172.307 E0.02387
G1 X181.078 Y171.87 E0.0212
G1 X181.245 Y171.337 E0.02388
G1 X181.302 Y170.775 E0.02413
G1 X181.245 Y170.214 E0.02413
G1 X181.078 Y169.681 E0.02388
G1 X180.844 Y169.243 E0.02121
G1 X180.495 Y168.808 E0.02387
G1 X180.06 Y168.448 E0.02413
G1 X179.562 Y168.182 E0.02413
G1 X179.021 Y168.022 E0.02413
G1 X178.465 Y167.974 E0.02385
G1 X177.972 Y168.024 E0.0212
G1 X177.436 Y168.182 E0.0239
G1 X176.938 Y168.448 E0.02413
G1 X176.503 Y168.808 E0.02413
G1 X176.154 Y169.243 E0.02387
G1 X175.92 Y169.681 E0.0212
G1 X175.754 Y170.214 E0.02388
G1 X175.697 Y170.775 E0.02413
G1 X175.754 Y171.337 E0.02413
G1 X175.896 Y171.791 E0.02035
G1 X176.305 Y171.663 F9000
;TYPE:External perimeter
G1 F1800
G1 X176.317 Y171.704 E0.00181
G1 X176.513 Y172.07 E0.01777
G1 X176.81 Y172.44 E0.0203
G1 X177.178 Y172.745 E0.02041
G1 X177.318 Y172.82 E0.0068
G1 X177.599 Y172.97 E0.01361
G1 X178.057 Y173.105 E0.02041
G1 X178.53 Y173.146 E0.02029
G1 X178.943 Y173.105 E0.01777
G1 X179.399 Y172.97 E0.02031
G1 X179.583 Y172.871 E0.00893
G1 X179.82 Y172.745 E0.01148
G1 X180.188 Y172.44 E0.02041
