; generated by SuperSlicer 2.3.57 on 2022-01-28 at 04:21:51 UTC


;
;

;
;
; 

; external perimeters extrusion width = 0.40mm
; perimeters extrusion width = 0.40mm
; infill extrusion width = 0.40mm
; solid infill extrusion width = 0.40mm
; top infill extrusion width = 0.40mm
; support material extrusion width = 0.40mm
; first layer extrusion width = 0.48mm


;TYPE:Custom
START_PRINT T_BED=60 T_EXTRUDER=200
M107
G21 ; set units to millimeters
G90 ; use absolute coordinates
M83 ; use relative distances for extrusion
; Filament gcode
M109 S200 ; set temperature and wait for it to be reached
M190 S60 ; set bed temperature and wait for it to be reached
;LAYER_CHANGE
;Z:0.24
;HEIGHT:0.24
G1 E-0.8 F3000
G1 Z0.24 F9000
M204 S1500
G1 X48.26 Y125.232
G1 E0.8 F1800
;TYPE:Skirt
;WIDTH:0.48
G1 F600
G1 X47.468 Y125.557 E0.03587
G1 X46.74 Y125.995 E0.03562
G1 X46.085 Y126.537 E0.03562
G1 X45.515 Y127.176 E0.03587
G1 X45.052 Y127.888 E0.03562
G1 X44.698 Y128.668 E0.03587
G1 X44.468 Y129.486 E0.03562
G1 X44.364 Y130.33 E0.03562
G1 X44.357 Y199.42 E2.89487
G1 X44.428 Y200.29 E0.0366
G1 X44.632 Y201.14 E0.0366
G1 X44.965 Y201.947 E0.0366
G1 X45.422 Y202.699 E0.03685
G1 X45.986 Y203.366 E0.0366
G1 X46.646 Y203.938 E0.0366
G1 X47.392 Y204.404 E0.03685
G1 X48.195 Y204.746 E0.0366
G1 X49.042 Y204.961 E0.0366
G1 X49.912 Y205.042 E0.0366
G1 X280.008 Y205.043 E9.6411
G1 X280.884 Y204.973 E0.03685
G1 X281.74 Y204.768 E0.03685
G1 X282.526 Y204.446 E0.03562
G1 X283.256 Y204.009 E0.03562
G1 X283.911 Y203.467 E0.03562
G1 X284.478 Y202.834 E0.03562
G1 X284.943 Y202.122 E0.03562
G1 X285.296 Y201.348 E0.03562
G1 X285.527 Y200.537 E0.03538
G1 X285.635 Y199.693 E0.03562
G1 X285.641 Y130.475 E2.90028
G1 X285.512 Y129.393 E0.04567
G1 X285.177 Y128.355 E0.04567
G1 X284.649 Y127.402 E0.04567
G1 X283.948 Y126.568 E0.04567
G1 X283.099 Y125.884 E0.04567
G1 X282.134 Y125.377 E0.04567
G1 X281.091 Y125.064 E0.04567
G1 X280.006 Y124.957 E0.04567
G1 X49.992 Y124.957 E9.63766
G1 X49.116 Y125.027 E0.03685
G1 X48.319 Y125.218 E0.03433
G1 X48.368 Y125.426 F9000
M204 S500
G1 X48.417 Y125.633
G1 F600
G1 X47.672 Y125.935 E0.03371
G1 X46.994 Y126.339 E0.03306
G1 X46.386 Y126.842 E0.03306
G1 X45.857 Y127.434 E0.0333
G1 X45.426 Y128.096 E0.03306
G1 X45.099 Y128.82 E0.0333
G1 X44.887 Y129.58 E0.03306
G1 X44.791 Y130.369 E0.0333
G1 X44.786 Y199.416 E2.89311
G1 X44.85 Y200.214 E0.03353
G1 X45.037 Y200.998 E0.03377
G1 X45.345 Y201.749 E0.034
G1 X45.762 Y202.438 E0.03377
G1 X46.285 Y203.059 E0.034
G1 X46.898 Y203.591 E0.034
G1 X47.585 Y204.022 E0.034
G1 X48.332 Y204.34 E0.034
G1 X49.119 Y204.539 E0.034
G1 X49.927 Y204.614 E0.034
G1 X280.005 Y204.614 E9.64036
G1 X280.808 Y204.551 E0.03377
G1 X281.598 Y204.363 E0.034
G1 X282.328 Y204.065 E0.03306
G1 X283.006 Y203.661 E0.03306
G1 X283.614 Y203.158 E0.03306
G1 X284.14 Y202.57 E0.03306
G1 X284.568 Y201.914 E0.03283
G1 X284.895 Y201.196 E0.03306
G1 X285.11 Y200.437 E0.03306
G1 X285.208 Y199.654 E0.03306
G1 X285.213 Y130.494 E2.89784
G1 X285.095 Y129.492 E0.04225
G1 X284.787 Y128.532 E0.04225
G1 X284.299 Y127.65 E0.04225
G1 X283.651 Y126.878 E0.04225
G1 X282.867 Y126.244 E0.04225
G1 X281.975 Y125.774 E0.04225
G1 X281.009 Y125.484 E0.04225
G1 X280.006 Y125.386 E0.04225
G1 X49.995 Y125.386 E9.63752
G1 X49.192 Y125.449 E0.03377
G1 X48.476 Y125.619 E0.03083
G1 E-0.8 F3000
M204 S1500
G1 X136.366 Y161.961 F9000
M204 S500
G1 X224.256 Y198.303
G1 E0.8 F1800
;TYPE:Internal perimeter
G1 F600
G1 X51.097 Y198.303 E7.25543
G1 X51.097 Y131.697 E2.79082
G1 X278.903 Y131.697 E9.54515
G1 X278.903 Y198.303 E2.79082
G1 X224.316 Y198.303 E2.28721
M204 S1500
G1 X224.316 Y198.517 F9000
M204 S500
G1 X224.316 Y198.732
G1 F600
G1 X50.668 Y198.732 E7.2759
G1 X50.668 Y131.268 E2.82672
G1 X279.332 Y131.268 E9.58106
G1 X279.332 Y198.732 E2.82672
G1 X224.376 Y198.732 E2.30265
M204 S1500
G1 X224.376 Y198.946 F9000
M204 S500
G1 X224.376 Y199.16
;TYPE:External perimeter
G1 F600
G1 X50.24 Y199.16 E7.29637
G1 X50.24 Y130.84 E2.86263
G1 X279.76 Y130.84 E9.61697
G1 X279.76 Y199.16 E2.86263
G1 X224.436 Y199.16 E2.31809
;WIPE_START
G1 X224.176 Y198.814 F9000
;WIPE_END
G1 E-0.8 F3000
M204 S1500
G1 X251.031 Y165.33 F9000
M204 S500
G1 X277.887 Y131.847
G1 E0.8 F1800
;TYPE:Solid infill
;WIDTH:0.480252
G1 X278.569 Y132.529 E0.04043
G1 X278.569 Y133.135 E0.0254
G1 X277.465 Y132.031 E0.06543
G1 X276.859 Y132.031 E0.0254
G1 X278.569 Y133.741 E0.10136
G1 X278.569 Y134.347 E0.0254
G1 X276.253 Y132.031 E0.13729
G1 X275.647 Y132.031 E0.0254
G1 X278.569 Y134.953 E0.17321
G1 X278.569 Y135.559 E0.0254
G1 X275.041 Y132.031 E0.20914
G1 X274.435 Y132.031 E0.0254
G1 X278.569 Y136.165 E0.24507
G1 X278.569 Y136.771 E0.0254
G1 X273.829 Y132.031 E0.281
G1 X273.223 Y132.031 E0.0254
G1 X278.569 Y137.377 E0.31692
G1 X278.569 Y137.983 E0.0254
G1 X272.617 Y132.031 E0.35285
G1 X272.011 Y132.031 E0.0254
G1 X278.569 Y138.589 E0.38878
G1 X278.569 Y139.195 E0.0254
G1 X271.405 Y132.031 E0.4247
G1 X270.799 Y132.031 E0.0254
G1 X278.569 Y139.801 E0.46063
G1 X278.569 Y140.407 E0.0254
G1 X270.193 Y132.031 E0.49656
G1 X269.587 Y132.031 E0.0254
G1 X278.569 Y141.013 E0.53248
G1 X278.569 Y141.619 E0.0254
G1 X268.981 Y132.031 E0.56841
G1 X268.375 Y132.031 E0.0254
G1 X278.569 Y142.225 E0.60434
G1 X278.569 Y142.831 E0.0254
G1 X267.769 Y132.031 E0.64027
G1 X267.163 Y132.031 E0.0254
G1 X278.569 Y143.437 E0.67619
G1 X278.569 Y144.043 E0.0254
G1 X266.557 Y132.031 E0.71212
G1 X265.951 Y132.031 E0.0254
G1 X278.569 Y144.649 E0.74805
G1 X278.569 Y145.255 E0.0254
G1 X265.345 Y132.031 E0.78397
G1 X264.739 Y132.031 E0.0254
G1 X278.569 Y145.861 E0.8199
G1 X278.569 Y146.467 E0.0254
G1 X264.133 Y132.031 E0.85583
G1 X263.528 Y132.031 E0.0254
G1 X278.569 Y147.072 E0.89175
G1 X278.569 Y147.678 E0.0254
G1 X262.922 Y132.031 E0.92768
G1 X262.316 Y132.031 E0.0254
G1 X278.569 Y148.284 E0.96361
G1 X278.569 Y148.89 E0.0254
G1 X261.71 Y132.031 E0.99954
G1 X261.104 Y132.031 E0.0254
G1 X278.569 Y149.496 E1.03546
G1 X278.569 Y150.102 E0.0254
G1 X260.498 Y132.031 E1.07139
G1 X259.892 Y132.031 E0.0254
G1 X278.569 Y150.708 E1.10732
G1 X278.569 Y151.314 E0.0254
G1 X259.286 Y132.031 E1.14324
G1 X258.68 Y132.031 E0.0254
G1 X278.569 Y151.92 E1.17917
G1 X278.569 Y152.526 E0.0254
G1 X258.074 Y132.031 E1.2151
G1 X257.468 Y132.031 E0.0254
G1 X278.569 Y153.132 E1.25102
G1 X278.569 Y153.738 E0.0254
G1 X256.862 Y132.031 E1.28695
G1 X256.256 Y132.031 E0.0254
G1 X278.569 Y154.344 E1.32288
G1 X278.569 Y154.95 E0.0254
G1 X255.65 Y132.031 E1.35881
G1 X255.044 Y132.031 E0.0254
G1 X278.569 Y155.556 E1.39473
G1 X278.569 Y156.162 E0.0254
G1 X254.438 Y132.031 E1.43066
G1 X253.832 Y132.031 E0.0254
G1 X278.569 Y156.768 E1.46659
G1 X278.569 Y157.374 E0.0254
G1 X253.226 Y132.031 E1.50251
G1 X252.62 Y132.031 E0.0254
G1 X278.569 Y157.98 E1.53844
G1 X278.569 Y158.586 E0.0254
G1 X252.014 Y132.031 E1.57437
G1 X251.408 Y132.031 E0.0254
G1 X278.569 Y159.192 E1.61029
G1 X278.569 Y159.798 E0.0254
G1 X250.802 Y132.031 E1.64622
G1 X250.196 Y132.031 E0.0254
G1 X278.569 Y160.404 E1.68215
G1 X278.569 Y161.01 E0.0254
G1 X249.59 Y132.031 E1.71808
G1 X248.984 Y132.031 E0.0254
G1 X278.569 Y161.616 E1.754
G1 X278.569 Y162.222 E0.0254
G1 X248.378 Y132.031 E1.78993
G1 X247.772 Y132.031 E0.0254
G1 X278.569 Y162.828 E1.82586
G1 X278.569 Y163.434 E0.0254
G1 X247.166 Y132.031 E1.86178
G1 X246.56 Y132.031 E0.0254
G1 X278.569 Y164.04 E1.89771
G1 X278.569 Y164.646 E0.0254
G1 X245.954 Y132.031 E1.93364
G1 X245.348 Y132.031 E0.0254
G1 X278.569 Y165.252 E1.96956
G1 X278.569 Y165.858 E0.0254
G1 X244.742 Y132.031 E2.00549
G1 X244.136 Y132.031 E0.0254
G1 X278.569 Y166.464 E2.04142
G1 X278.569 Y167.07 E0.0254
G1 X243.53 Y132.031 E2.07735
G1 X242.924 Y132.031 E0.0254
G1 X278.569 Y167.676 E2.11327
G1 X278.569 Y168.282 E0.0254
G1 X242.318 Y132.031 E2.1492
G1 X241.712 Y132.031 E0.0254
G1 X278.569 Y168.888 E2.18513
G1 X278.569 Y169.494 E0.0254
G1 X241.106 Y132.031 E2.22105
G1 X240.5 Y132.031 E0.0254
G1 X278.569 Y170.1 E2.25698
G1 X278.569 Y170.706 E0.0254
G1 X239.894 Y132.031 E2.29291
G1 X239.288 Y132.031 E0.0254
G1 X278.569 Y171.312 E2.32884
G1 X278.569 Y171.918 E0.0254
G1 X238.682 Y132.031 E2.36476
G1 X238.076 Y132.031 E0.0254
G1 X278.569 Y172.524 E2.40069
G1 X278.569 Y173.13 E0.0254
G1 X237.47 Y132.031 E2.43662
G1 X236.864 Y132.031 E0.0254
G1 X278.569 Y173.736 E2.47254
G1 X278.569 Y174.342 E0.0254
G1 X236.258 Y132.031 E2.50847
G1 X235.652 Y132.031 E0.0254
G1 X278.569 Y174.948 E2.5444
G1 X278.569 Y175.554 E0.0254
G1 X235.046 Y132.031 E2.58032
G1 X234.44 Y132.031 E0.0254
G1 X278.569 Y176.16 E2.61625
G1 X278.569 Y176.766 E0.0254
G1 X233.834 Y132.031 E2.65218
G1 X233.228 Y132.031 E0.0254
G1 X278.569 Y177.372 E2.68811
G1 X278.569 Y177.978 E0.0254
G1 X232.622 Y132.031 E2.72403
G1 X232.016 Y132.031 E0.0254
G1 X278.569 Y178.584 E2.75996
G1 X278.569 Y179.19 E0.0254
G1 X231.41 Y132.031 E2.79589
G1 X230.804 Y132.031 E0.0254
G1 X278.569 Y179.796 E2.83181
G1 X278.569 Y180.402 E0.0254
G1 X230.198 Y132.031 E2.86774
G1 X229.592 Y132.031 E0.0254
G1 X278.569 Y181.008 E2.90367
G1 X278.569 Y181.614 E0.0254
G1 X228.986 Y132.031 E2.93959
G1 X228.38 Y132.031 E0.0254
G1 X278.569 Y182.22 E2.97552
G1 X278.569 Y182.826 E0.0254
G1 X227.774 Y132.031 E3.01145
G1 X227.169 Y132.031 E0.0254
G1 X278.569 Y183.431 E3.04738
G1 X278.569 Y184.037 E0.0254
G1 X226.563 Y132.031 E3.0833
G1 X225.957 Y132.031 E0.0254
G1 X278.569 Y184.643 E3.11923
G1 X278.569 Y185.249 E0.0254
G1 X225.351 Y132.031 E3.15516
G1 X224.745 Y132.031 E0.0254
G1 X278.569 Y185.855 E3.19108
G1 X278.569 Y186.461 E0.0254
G1 X224.139 Y132.031 E3.22701
G1 X223.533 Y132.031 E0.0254
G1 X278.569 Y187.067 E3.26294
G1 X278.569 Y187.673 E0.0254
G1 X222.927 Y132.031 E3.29886
G1 X222.321 Y132.031 E0.0254
G1 X278.569 Y188.279 E3.33479
G1 X278.569 Y188.885 E0.0254
G1 X221.715 Y132.031 E3.37072
G1 X221.109 Y132.031 E0.0254
G1 X278.569 Y189.491 E3.40665
G1 X278.569 Y190.097 E0.0254
G1 X220.503 Y132.031 E3.44257
G1 X219.897 Y132.031 E0.0254
G1 X278.569 Y190.703 E3.4785
G1 X278.569 Y191.309 E0.0254
G1 X219.291 Y132.031 E3.51443
G1 X218.685 Y132.031 E0.0254
G1 X278.569 Y191.915 E3.55035
G1 X278.569 Y192.521 E0.0254
G1 X218.079 Y132.031 E3.58628
G1 X217.473 Y132.031 E0.0254
G1 X278.569 Y193.127 E3.62221
G1 X278.569 Y193.733 E0.0254
G1 X216.867 Y132.031 E3.65813
G1 X216.261 Y132.031 E0.0254
G1 X278.569 Y194.339 E3.69406
G1 X278.569 Y194.945 E0.0254
G1 X215.655 Y132.031 E3.72999
G1 X215.049 Y132.031 E0.0254
G1 X278.569 Y195.551 E3.76592
G1 X278.569 Y196.157 E0.0254
G1 X214.443 Y132.031 E3.80184
G1 X213.837 Y132.031 E0.0254
G1 X278.569 Y196.763 E3.83777
G1 X278.569 Y197.369 E0.0254
G1 X213.231 Y132.031 E3.8737
G1 X212.625 Y132.031 E0.0254
G1 X278.563 Y197.969 E3.90925
G1 X277.957 Y197.969 E0.0254
G1 X212.019 Y132.031 E3.90925
G1 X211.413 Y132.031 E0.0254
G1 X277.351 Y197.969 E3.90925
G1 X276.745 Y197.969 E0.0254
G1 X210.807 Y132.031 E3.90925
G1 X210.201 Y132.031 E0.0254
G1 X276.139 Y197.969 E3.90925
G1 X275.533 Y197.969 E0.0254
G1 X209.595 Y132.031 E3.90925
G1 X208.989 Y132.031 E0.0254
G1 X274.927 Y197.969 E3.90925
G1 X274.321 Y197.969 E0.0254
G1 X208.383 Y132.031 E3.90925
G1 X207.777 Y132.031 E0.0254
G1 X273.715 Y197.969 E3.90925
G1 X273.109 Y197.969 E0.0254
G1 X207.171 Y132.031 E3.90925
G1 X206.565 Y132.031 E0.0254
G1 X272.503 Y197.969 E3.90925
G1 X271.897 Y197.969 E0.0254
G1 X205.959 Y132.031 E3.90925
G1 X205.353 Y132.031 E0.0254
G1 X271.291 Y197.969 E3.90925
G1 X270.685 Y197.969 E0.0254
G1 X204.747 Y132.031 E3.90925
G1 X204.141 Y132.031 E0.0254
G1 X270.079 Y197.969 E3.90925
G1 X269.473 Y197.969 E0.0254
G1 X203.535 Y132.031 E3.90925
G1 X202.929 Y132.031 E0.0254
G1 X268.867 Y197.969 E3.90925
G1 X268.261 Y197.969 E0.0254
G1 X202.323 Y132.031 E3.90925
G1 X201.717 Y132.031 E0.0254
G1 X267.655 Y197.969 E3.90925
G1 X267.049 Y197.969 E0.0254
G1 X201.111 Y132.031 E3.90925
G1 X200.505 Y132.031 E0.0254
G1 X266.443 Y197.969 E3.90925
G1 X265.837 Y197.969 E0.0254
G1 X199.899 Y132.031 E3.90925
G1 X199.293 Y132.031 E0.0254
G1 X265.231 Y197.969 E3.90925
G1 X264.625 Y197.969 E0.0254
G1 X198.687 Y132.031 E3.90925
G1 X198.081 Y132.031 E0.0254
G1 X264.019 Y197.969 E3.90925
G1 X263.413 Y197.969 E0.0254
G1 X197.475 Y132.031 E3.90925
G1 X196.869 Y132.031 E0.0254
G1 X262.807 Y197.969 E3.90925
G1 X262.201 Y197.969 E0.0254
G1 X196.263 Y132.031 E3.90925
G1 X195.657 Y132.031 E0.0254
G1 X261.595 Y197.969 E3.90925
G1 X260.989 Y197.969 E0.0254
G1 X195.051 Y132.031 E3.90925
G1 X194.445 Y132.031 E0.0254
G1 X260.383 Y197.969 E3.90925
G1 X259.777 Y197.969 E0.0254
G1 X193.839 Y132.031 E3.90925
G1 X193.233 Y132.031 E0.0254
G1 X259.171 Y197.969 E3.90925
G1 X258.565 Y197.969 E0.0254
G1 X192.627 Y132.031 E3.90925
G1 X192.021 Y132.031 E0.0254
G1 X257.959 Y197.969 E3.90925
G1 X257.353 Y197.969 E0.0254
G1 X191.415 Y132.031 E3.90925
G1 X190.809 Y132.031 E0.0254
G1 X256.747 Y197.969 E3.90925
G1 X256.141 Y197.969 E0.0254
G1 X190.204 Y132.031 E3.90925
G1 X189.598 Y132.031 E0.0254
G1 X255.535 Y197.969 E3.90925
G1 X254.929 Y197.969 E0.0254
G1 X188.992 Y132.031 E3.90925
G1 X188.386 Y132.031 E0.0254
G1 X254.323 Y197.969 E3.90925
G1 X253.717 Y197.969 E0.0254
G1 X187.78 Y132.031 E3.90925
G1 X187.174 Y132.031 E0.0254
G1 X253.111 Y197.969 E3.90925
G1 X252.505 Y197.969 E0.0254
G1 X186.568 Y132.031 E3.90925
G1 X185.962 Y132.031 E0.0254
G1 X251.899 Y197.969 E3.90925
G1 X251.293 Y197.969 E0.0254
G1 X185.356 Y132.031 E3.90925
G1 X184.75 Y132.031 E0.0254
G1 X250.687 Y197.969 E3.90925
G1 X250.081 Y197.969 E0.0254
G1 X184.144 Y132.031 E3.90925
G1 X183.538 Y132.031 E0.0254
G1 X249.475 Y197.969 E3.90925
G1 X248.869 Y197.969 E0.0254
G1 X182.932 Y132.031 E3.90925
G1 X182.326 Y132.031 E0.0254
G1 X248.263 Y197.969 E3.90925
G1 X247.657 Y197.969 E0.0254
G1 X181.72 Y132.031 E3.90925
G1 X181.114 Y132.031 E0.0254
G1 X247.051 Y197.969 E3.90925
G1 X246.445 Y197.969 E0.0254
G1 X180.508 Y132.031 E3.90925
G1 X179.902 Y132.031 E0.0254
G1 X245.839 Y197.969 E3.90925
G1 X245.233 Y197.969 E0.0254
G1 X179.296 Y132.031 E3.90925
G1 X178.69 Y132.031 E0.0254
G1 X244.627 Y197.969 E3.90925
G1 X244.021 Y197.969 E0.0254
G1 X178.084 Y132.031 E3.90925
G1 X177.478 Y132.031 E0.0254
G1 X243.415 Y197.969 E3.90925
G1 X242.809 Y197.969 E0.0254
G1 X176.872 Y132.031 E3.90925
G1 X176.266 Y132.031 E0.0254
G1 X242.204 Y197.969 E3.90925
G1 X241.598 Y197.969 E0.0254
G1 X175.66 Y132.031 E3.90925
G1 X175.054 Y132.031 E0.0254
G1 X240.992 Y197.969 E3.90925
G1 X240.386 Y197.969 E0.0254
G1 X174.448 Y132.031 E3.90925
G1 X173.842 Y132.031 E0.0254
G1 X239.78 Y197.969 E3.90925
G1 X239.174 Y197.969 E0.0254
G1 X173.236 Y132.031 E3.90925
G1 X172.63 Y132.031 E0.0254
G1 X238.568 Y197.969 E3.90925
G1 X237.962 Y197.969 E0.0254
G1 X172.024 Y132.031 E3.90925
G1 X171.418 Y132.031 E0.0254
G1 X237.356 Y197.969 E3.90925
G1 X236.75 Y197.969 E0.0254
G1 X170.812 Y132.031 E3.90925
G1 X170.206 Y132.031 E0.0254
G1 X236.144 Y197.969 E3.90925
G1 X235.538 Y197.969 E0.0254
G1 X169.6 Y132.031 E3.90925
G1 X168.994 Y132.031 E0.0254
G1 X234.932 Y197.969 E3.90925
G1 X234.326 Y197.969 E0.0254
G1 X168.388 Y132.031 E3.90925
G1 X167.782 Y132.031 E0.0254
G1 X233.72 Y197.969 E3.90925
G1 X233.114 Y197.969 E0.0254
G1 X167.176 Y132.031 E3.90925
G1 X166.57 Y132.031 E0.0254
G1 X232.508 Y197.969 E3.90925
G1 X231.902 Y197.969 E0.0254
G1 X165.964 Y132.031 E3.90925
G1 X165.358 Y132.031 E0.0254
G1 X231.296 Y197.969 E3.90925
G1 X230.69 Y197.969 E0.0254
G1 X164.752 Y132.031 E3.90925
G1 X164.146 Y132.031 E0.0254
G1 X230.084 Y197.969 E3.90925
G1 X229.478 Y197.969 E0.0254
G1 X163.54 Y132.031 E3.90925
G1 X162.934 Y132.031 E0.0254
G1 X228.872 Y197.969 E3.90925
G1 X228.266 Y197.969 E0.0254
G1 X162.328 Y132.031 E3.90925
G1 X161.722 Y132.031 E0.0254
G1 X227.66 Y197.969 E3.90925
G1 X227.054 Y197.969 E0.0254
G1 X161.116 Y132.031 E3.90925
G1 X160.51 Y132.031 E0.0254
G1 X226.448 Y197.969 E3.90925
G1 X225.842 Y197.969 E0.0254
G1 X159.904 Y132.031 E3.90925
G1 X159.298 Y132.031 E0.0254
G1 X225.236 Y197.969 E3.90925
G1 X224.63 Y197.969 E0.0254
G1 X158.692 Y132.031 E3.90925
G1 X158.086 Y132.031 E0.0254
G1 X224.024 Y197.969 E3.90925
G1 X223.418 Y197.969 E0.0254
G1 X157.48 Y132.031 E3.90925
G1 X156.874 Y132.031 E0.0254
G1 X222.812 Y197.969 E3.90925
