; generated by SuperSlicer 2.3.57 on 2022-04-12 at 18:03:10 UTC


;
;

;
;
; 

; external perimeters extrusion width = 0.40mm
; perimeters extrusion width = 0.45mm
; infill extrusion width = 0.72mm
; solid infill extrusion width = 0.56mm
; top infill extrusion width = 0.40mm
; support material extrusion width = 0.42mm
; first layer extrusion width = 0.48mm

; external perimeters extrusion width = 0.40mm
; perimeters extrusion width = 0.45mm
; infill extrusion width = 0.72mm
; solid infill extrusion width = 0.56mm
; top infill extrusion width = 0.40mm
; support material extrusion width = 0.42mm
; first layer extrusion width = 0.48mm

; external perimeters extrusion width = 0.40mm
; perimeters extrusion width = 0.45mm
; infill extrusion width = 0.72mm
; solid infill extrusion width = 0.56mm
; top infill extrusion width = 0.40mm
; support material extrusion width = 0.42mm
; first layer extrusion width = 0.48mm

; object:{"name":"Killarney Community Centre","id":"Killarney Community Centre.stl id:0 copy 0","object_center":[152.500000,150.000000,0.000000],"boundingbox_center":[152.500000,150.000000,8.819000],"boundingbox_size":[109.953995,60.043999,17.638000]}
; plater:{"center":[152.500000,150.000000,0.000000],"boundingbox_center":[152.500000,150.000000,8.819000],"boundingbox_size":[109.953995,60.043999,17.638000]}

;TYPE:Custom
START_PRINT T_BED=60 T_EXTRUDER=200
M107
G21 ; set units to millimeters
G90 ; use absolute coordinates
M83 ; use relative distances for extrusion
; Filament gcode
M109 S200 ; set temperature and wait for it to be reached
M190 S60 ; set bed temperature and wait for it to be reached
;LAYER_CHANGE
;Z:0.24
;HEIGHT:0.24
G1 E-0.8 F3000
G1 Z0.24 F9000
G1 X90.133 Y115.733
G1 E0.8 F1800
; External perimeter
;Skirt
SET_VELOCITY_LIMIT ACCEL=300 ACCEL_TO_DECEL=3000 SQUARE_CORNER_VELOCITY=5

; Support material

;TYPE:Skirt
;WIDTH:0.48
G1 X89.471 Y116.484 E0.04281
G1 X89.039 Y117.388 E0.04281
G1 X88.87 Y118.374 E0.04281
G1 X88.868 Y167.455 E2.09846
G1 X88.957 Y168.231 E0.0334
G1 X89.21 Y168.97 E0.0334
G1 X89.603 Y169.624 E0.0326
G1 X90.127 Y170.184 E0.0328
G1 X90.752 Y170.62 E0.0326
G1 X91.455 Y170.916 E0.0326
G1 X136.44 Y183.399 E1.99602
G1 X137.352 Y183.529 E0.03941
G1 X167.605 Y183.529 E1.29348
G1 X168.201 Y183.479 E0.02557
G1 X213.463 Y170.94 E2.0081
G1 X214.031 Y170.73 E0.02585
G1 X214.867 Y170.189 E0.04261
G1 X215.524 Y169.445 E0.04241
G1 X215.955 Y168.552 E0.04241
G1 X216.129 Y167.571 E0.04261
G1 X216.092 Y117.953 E2.12143
G1 X215.803 Y116.98 E0.0434
G1 X215.257 Y116.124 E0.0434
G1 X214.5 Y115.455 E0.0432
G1 X213.584 Y115.018 E0.0434
G1 X212.648 Y114.853 E0.04061
G1 X205.638 Y114.665 E0.29984
G1 X99.349 Y114.665 E4.54445
G1 X92.282 Y114.857 E0.30226
G1 X91.608 Y114.963 E0.02919
G1 X90.969 Y115.192 E0.02899
G1 X90.183 Y115.7 E0.04004
G1 X90.417 Y116.054 F9000
G1 F1800
G1 X89.83 Y116.719 E0.03794
G1 X89.446 Y117.524 E0.03813
G1 X89.298 Y118.399 E0.03794
G1 X89.296 Y167.449 E2.09716
G1 X89.374 Y168.13 E0.0293
G1 X89.594 Y168.779 E0.0293
G1 X89.941 Y169.36 E0.02892
G1 X90.405 Y169.858 E0.02911
G1 X90.964 Y170.247 E0.02911
G1 X91.587 Y170.508 E0.02892
G1 X136.551 Y182.985 E1.99507
G1 X137.364 Y183.101 E0.03513
G1 X168.127 Y183.057 E1.31526
G1 X213.837 Y170.348 E2.0285
G1 X214.58 Y169.871 E0.03776
G1 X215.166 Y169.21 E0.03776
G1 X215.549 Y168.414 E0.03776
G1 X215.702 Y167.54 E0.03794
G1 X215.668 Y118.018 E2.11733
G1 X215.407 Y117.143 E0.03907
G1 X214.909 Y116.376 E0.03907
G1 X214.22 Y115.783 E0.03888
G1 X213.387 Y115.406 E0.03907
G1 X212.62 Y115.281 E0.03325
G1 X205.638 Y115.094 E0.29863
G1 X99.355 Y115.094 E4.54415
G1 X92.321 Y115.284 E0.30089
G1 X91.731 Y115.374 E0.02553
G1 X91.163 Y115.574 E0.02572
G1 X90.467 Y116.021 E0.03538
; INIT printing object Killarney Community Centre.stl id:0 copy 0
G1 E-0.8 F3000
; printing object Killarney Community Centre.stl id:0 copy 0
G1 X99.367 Y167.429 F9000
G1 E0.8 F1800
; External perimeter
;SupportMaterial
SET_VELOCITY_LIMIT ACCEL=3000 ACCEL_TO_DECEL=3000 SQUARE_CORNER_VELOCITY=5

; Support material interface

;TYPE:Support material
G1 X99.367 Y167.151 E0.0119
G1 X98.637 Y167.005 E0.0318
G1 X98.581 Y166.989 E0.00251
G1 X98.51 Y166.963 E0.00324
G1 X98.51 Y167.245 E0.01206
G1 X97.653 Y167.245 E0.03664
G1 X97.653 Y166.426 E0.03503
G1 X97.332 Y166.091 E0.01983
G1 X97.274 Y166.015 E0.00409
G1 X97.065 Y165.655 E0.0178
G1 X97.022 Y165.549 E0.00487
G1 X96.928 Y165.175 E0.0165
G1 X96.918 Y165.116 E0.00254
G1 X96.896 Y164.882 E0.01004
G1 X96.894 Y164.843 E0.00167
G1 X96.894 Y121.54 E1.85144
G1 X96.903 Y121.454 E0.00373
G1 X96.998 Y121.022 E0.0189
G1 X97.013 Y120.97 E0.00228
G1 X97.152 Y120.588 E0.01742
G1 X97.268 Y120.419 E0.00876
G1 X97.347 Y120.35 E0.00446
G1 X97.466 Y120.186 E0.0087
G1 X97.507 Y120.138 E0.00265
G1 X97.653 Y119.991 E0.00886
G1 X97.653 Y118.492 E0.06409
G1 X98.51 Y118.492 E0.03664
G1 X98.51 Y119.466 E0.04165
G1 X98.997 Y119.358 E0.02135
G1 X99.085 Y119.349 E0.00376
G1 X99.367 Y119.349 E0.01205
G1 X99.367 Y118.308 E0.0445
G1 E-0.8 F3000
G1 X96.796 Y167.429 F9000
G1 E0.8 F1800
G1 X96.796 Y118.492 E2.09233
G1 X95.939 Y118.492 E0.03664
G1 X95.939 Y167.245 E2.08446
G1 X95.082 Y167.245 E0.03664
G1 X95.082 Y118.492 E2.08446
G1 X94.225 Y118.492 E0.03664
G1 X94.225 Y167.245 E2.08446
G1 X93.368 Y167.245 E0.03664
G1 X93.368 Y118.492 E2.08446
G1 X92.511 Y118.492 E0.03664
G1 X92.511 Y167.429 E2.09233
G1 E-0.8 F3000
G1 X212.489 Y167.429 F9000
G1 E0.8 F1800
G1 X212.489 Y118.492 E2.09233
G1 X211.632 Y118.492 E0.03664
G1 X211.632 Y167.245 E2.08446
G1 X210.775 Y167.245 E0.03664
G1 X210.775 Y118.492 E2.08446
G1 X209.918 Y118.492 E0.03664
G1 X209.918 Y167.245 E2.08446
G1 X209.061 Y167.245 E0.03664
G1 X209.061 Y118.492 E2.08446
G1 X208.204 Y118.492 E0.03664
G1 X208.204 Y167.245 E2.08446
G1 X207.347 Y167.245 E0.03664
G1 X207.347 Y166.426 E0.03503
G1 X207.209 Y166.57 E0.00854
G1 X207.126 Y166.636 E0.00453
G1 X206.727 Y166.878 E0.01997
G1 X206.641 Y166.917 E0.00403
G1 X206.49 Y166.965 E0.00676
G1 X206.49 Y167.245 E0.01196
G1 X205.633 Y167.245 E0.03664
G1 X205.633 Y166.963 E0.01205
G1 E-0.8 F3000
G1 X207.347 Y120.269 F9000
G1 E0.8 F1800
G1 X207.347 Y118.492 E0.07599
G1 X206.49 Y118.492 E0.03664
G1 X206.49 Y119.466 E0.04163
G1 X206.239 Y119.417 E0.01096
G1 X206.192 Y119.395 E0.00222
G1 X206.015 Y119.355 E0.00775
G1 X205.633 Y119.355 E0.01632
G1 X205.633 Y118.308 E0.04475
G1 E-0.8 F3000
G1 X167.188 Y178.79 F9000
G1 E0.8 F1800
; External perimeter
;Perimeter
SET_VELOCITY_LIMIT ACCEL=2000 ACCEL_TO_DECEL=2000 SQUARE_CORNER_VELOCITY=5

; Overhang perimeter

;TYPE:Internal perimeter
G1 X137.812 Y178.79 E1.25594
G1 X137.813 Y171.319 E0.31939
G1 X137.023 Y170.414 E0.05136
G1 X129.441 Y169.824 E0.32517
G1 X121.794 Y169.003 E0.32884
G1 X114.176 Y167.95 E0.32881
G1 X106.594 Y166.665 E0.3288
G1 X99.12 Y165.161 E0.32595
G1 X99.052 Y165.137 E0.00308
G1 X98.824 Y164.898 E0.01411
G1 X98.796 Y164.751 E0.00639
G1 X98.796 Y121.711 E1.84022
G1 X98.845 Y121.521 E0.00838
G1 X99.009 Y121.328 E0.01082
G1 X99.085 Y121.288 E0.00368
G1 X99.249 Y121.251 E0.00716
G1 X205.776 Y121.257 E4.55461
G1 X205.94 Y121.294 E0.0072
G1 X206.125 Y121.477 E0.01112
G1 X206.17 Y121.555 E0.00388
G1 X206.204 Y121.705 E0.00655
G1 X206.204 Y164.751 E1.84048
G1 X206.176 Y164.898 E0.00639
G1 X205.972 Y165.111 E0.01258
G1 X205.914 Y165.146 E0.00295
G1 X198.406 Y166.665 E0.32749
G1 X190.824 Y167.95 E0.32879
G1 X183.205 Y169.003 E0.32884
G1 X175.559 Y169.824 E0.32881
G1 X167.976 Y170.414 E0.3252
G1 X167.187 Y171.32 E0.05136
G1 X167.188 Y178.73 E0.31681
G1 X167.616 Y179.053 F9000
G1 F1800
G1 X167.54 Y179.218 E0.00777
G1 X137.46 Y179.218 E1.2861
G1 X137.384 Y179.053 E0.00778
G1 X137.384 Y171.48 E0.32378
G1 X136.816 Y170.827 E0.03701
G1 X129.402 Y170.25 E0.31795
G1 X121.742 Y169.429 E0.32939
G1 X114.111 Y168.374 E0.32937
G1 X106.516 Y167.086 E0.32936
G1 X99.005 Y165.575 E0.32757
G1 X98.875 Y165.528 E0.00589
G1 X98.765 Y165.457 E0.00561
G1 X98.484 Y165.163 E0.01737
G1 X98.415 Y165.045 E0.00586
G1 X98.378 Y164.895 E0.00663
G1 X98.368 Y164.791 E0.00443
G1 X98.368 Y121.657 E1.84424
G1 X98.423 Y121.408 E0.0109
G1 X98.455 Y121.319 E0.00405
G1 X98.696 Y121.035 E0.01592
G1 X98.785 Y120.963 E0.00489
G1 X98.935 Y120.882 E0.00728
G1 X99.202 Y120.823 E0.0117
G1 X205.823 Y120.829 E4.55863
G1 X206.095 Y120.89 E0.01194
G1 X206.18 Y120.928 E0.00397
G1 X206.466 Y121.212 E0.01724
G1 X206.574 Y121.397 E0.00914
G1 X206.632 Y121.658 E0.01142
G1 X206.632 Y164.791 E1.8442
G1 X206.622 Y164.895 E0.00444
G1 X206.585 Y165.045 E0.00662
G1 X206.516 Y165.163 E0.00586
G1 X206.243 Y165.448 E0.01687
G1 X206.071 Y165.552 E0.00855
G1 X206.006 Y165.573 E0.00292
G1 X198.484 Y167.086 E0.32806
G1 X190.889 Y168.374 E0.32936
G1 X183.258 Y169.429 E0.3294
G1 X175.598 Y170.25 E0.32935
G1 X168.184 Y170.827 E0.31797
G1 X167.616 Y171.48 E0.03701
G1 X167.616 Y178.993 E0.32121
G1 E-0.8 F3000
G1 X168.392 Y171.241 F9000
G1 E0.8 F1800
; External perimeter
;ExternalPerimeter
SET_VELOCITY_LIMIT ACCEL=1000 ACCEL_TO_DECEL=1000 SQUARE_CORNER_VELOCITY=5

; Perimeter

;TYPE:External perimeter
G1 X168.044 Y171.641 E0.02266
G1 X168.045 Y179.147 E0.32092
G1 X167.924 Y179.424 E0.01293
G1 X167.905 Y179.449 E0.00135
G1 X167.81 Y179.531 E0.00537
G1 X167.549 Y179.647 E0.01219
G1 X137.454 Y179.647 E1.28673
G1 X137.187 Y179.529 E0.01249
G1 X137.095 Y179.45 E0.00519
G1 X137.076 Y179.424 E0.00137
G1 X136.955 Y179.147 E0.01293
G1 X136.956 Y171.64 E0.32093
G1 X136.608 Y171.241 E0.02266
G1 X129.362 Y170.677 E0.31072
G1 X121.689 Y169.854 E0.32994
G1 X114.045 Y168.798 E0.32993
G1 X106.438 Y167.507 E0.32992
G1 X98.89 Y165.989 E0.32918
G1 X98.683 Y165.915 E0.00938
G1 X98.49 Y165.789 E0.00986
G1 X98.14 Y165.423 E0.02165
G1 X98.014 Y165.208 E0.01064
G1 X97.955 Y164.968 E0.01058
G1 X97.939 Y164.812 E0.00668
G1 X97.939 Y121.61 E1.84712
G1 X98.01 Y121.288 E0.0141
G1 X98.079 Y121.1 E0.00856
G1 X98.123 Y121.061 E0.00252
G1 X98.284 Y120.84 E0.01169
G1 X98.395 Y120.728 E0.00674
G1 X98.545 Y120.605 E0.00832
G1 X98.784 Y120.477 E0.01159
G1 X99.155 Y120.394 E0.01623
G1 X205.87 Y120.4 E4.56265
G1 X205.908 Y120.419 E0.0018
G1 X206.233 Y120.481 E0.01416
G1 X206.428 Y120.571 E0.00915
G1 X206.808 Y120.947 E0.02289
G1 X206.848 Y120.998 E0.00275
G1 X206.978 Y121.239 E0.01169
G1 X207.061 Y121.61 E0.01629
G1 X207.061 Y164.812 E1.84711
G1 X207.045 Y164.968 E0.00668
G1 X206.986 Y165.208 E0.01057
G1 X206.86 Y165.423 E0.01065
G1 X206.513 Y165.786 E0.02147
G1 X206.25 Y165.944 E0.01313
G1 X206.114 Y165.988 E0.0061
G1 X198.562 Y167.507 E0.32936
G1 X190.955 Y168.798 E0.32992
G1 X183.31 Y169.854 E0.32996
G1 X175.638 Y170.677 E0.3299
G1 X168.452 Y171.236 E0.30817
;WIPE_START
G1 X168.032 Y171.066 F9000
;WIPE_END
G1 X205.606 Y121.322
; External perimeter
;SolidInfill
SET_VELOCITY_LIMIT ACCEL=2000 ACCEL_TO_DECEL=2000 SQUARE_CORNER_VELOCITY=5

; Bridge infill

;TYPE:Solid infill
;WIDTH:0.477938
G1 F2400
G1 X205.938 Y121.653 E0.01997
G1 X205.955 Y121.732 E0.00344
G1 X205.955 Y122.277 E0.02319
G1 X205.184 Y121.506 E0.04642
G1 X204.578 Y121.506 E0.0258
G1 X205.955 Y122.883 E0.08291
G1 X205.955 Y123.489 E0.0258
G1 X203.972 Y121.506 E0.11939
G1 X203.366 Y121.506 E0.0258
G1 X205.955 Y124.095 E0.15588
G1 X205.955 Y124.701 E0.0258
G1 X202.76 Y121.506 E0.19236
G1 X202.154 Y121.506 E0.0258
G1 X205.955 Y125.307 E0.22885
G1 X205.955 Y125.913 E0.0258
G1 X201.548 Y121.506 E0.26533
G1 X200.942 Y121.506 E0.0258
G1 X205.955 Y126.519 E0.30182
G1 X205.955 Y127.125 E0.0258
G1 X200.336 Y121.506 E0.33831
G1 X199.73 Y121.505 E0.0258
G1 X205.955 Y127.731 E0.37479
G1 X205.955 Y128.337 E0.0258
G1 X199.124 Y121.505 E0.41128
G1 X198.518 Y121.505 E0.0258
G1 X205.955 Y128.943 E0.44776
G1 X205.955 Y129.549 E0.0258
G1 X197.912 Y121.505 E0.48425
G1 X197.306 Y121.505 E0.0258
G1 X205.955 Y130.155 E0.52073
G1 X205.955 Y130.761 E0.0258
G1 X196.7 Y121.505 E0.55722
G1 X196.094 Y121.505 E0.0258
G1 X205.955 Y131.367 E0.59371
G1 X205.955 Y131.973 E0.0258
G1 X195.488 Y121.505 E0.63019
G1 X194.882 Y121.505 E0.0258
G1 X205.955 Y132.579 E0.66668
G1 X205.955 Y133.185 E0.0258
G1 X194.276 Y121.505 E0.70316
G1 X193.67 Y121.505 E0.0258
G1 X205.955 Y133.791 E0.73965
G1 X205.955 Y134.396 E0.0258
G1 X193.064 Y121.505 E0.77613
G1 X192.458 Y121.505 E0.0258
G1 X205.955 Y135.002 E0.81262
G1 X205.955 Y135.608 E0.0258
G1 X191.852 Y121.505 E0.84911
G1 X191.246 Y121.505 E0.0258
G1 X205.955 Y136.214 E0.88559
G1 X205.955 Y136.82 E0.0258
G1 X190.64 Y121.505 E0.92208
G1 X190.034 Y121.505 E0.0258
G1 X205.955 Y137.426 E0.95856
G1 X205.955 Y138.032 E0.0258
G1 X189.428 Y121.505 E0.99505
G1 X188.822 Y121.505 E0.0258
G1 X205.955 Y138.638 E1.03153
G1 X205.955 Y139.244 E0.0258
G1 X188.216 Y121.505 E1.06802
G1 X187.61 Y121.505 E0.0258
G1 X205.955 Y139.85 E1.1045
G1 X205.955 Y140.456 E0.0258
G1 X187.004 Y121.505 E1.14099
G1 X186.398 Y121.505 E0.0258
G1 X205.955 Y141.062 E1.17748
G1 X205.955 Y141.668 E0.0258
G1 X185.792 Y121.505 E1.21396
G1 X185.186 Y121.505 E0.0258
G1 X205.955 Y142.274 E1.25045
G1 X205.955 Y142.88 E0.0258
G1 X184.579 Y121.505 E1.28693
G1 X183.973 Y121.505 E0.0258
G1 X205.955 Y143.486 E1.32342
G1 X205.955 Y144.092 E0.0258
G1 X183.367 Y121.505 E1.3599
G1 X182.761 Y121.505 E0.0258
G1 X205.955 Y144.698 E1.39639
G1 X205.955 Y145.304 E0.0258
G1 X182.155 Y121.505 E1.43288
G1 X181.549 Y121.504 E0.0258
G1 X205.955 Y145.91 E1.46936
G1 X205.955 Y146.516 E0.0258
G1 X180.943 Y121.504 E1.50585
G1 X180.337 Y121.504 E0.0258
G1 X205.955 Y147.122 E1.54233
G1 X205.955 Y147.728 E0.0258
G1 X179.731 Y121.504 E1.57882
G1 X179.125 Y121.504 E0.0258
G1 X205.955 Y148.334 E1.6153
G1 X205.955 Y148.94 E0.0258
G1 X178.519 Y121.504 E1.65179
G1 X177.913 Y121.504 E0.0258
G1 X205.955 Y149.546 E1.68828
G1 X205.955 Y150.152 E0.0258
G1 X177.307 Y121.504 E1.72476
G1 X176.701 Y121.504 E0.0258
G1 X205.955 Y150.758 E1.76125
G1 X205.955 Y151.364 E0.0258
G1 X176.095 Y121.504 E1.79773
G1 X175.489 Y121.504 E0.0258
G1 X205.955 Y151.97 E1.83422
G1 X205.955 Y152.576 E0.0258
G1 X174.883 Y121.504 E1.8707
G1 X174.277 Y121.504 E0.0258
G1 X205.955 Y153.182 E1.90719
G1 X205.955 Y153.788 E0.0258
G1 X173.671 Y121.504 E1.94367
G1 X173.065 Y121.504 E0.0258
G1 X205.955 Y154.394 E1.98016
G1 X205.955 Y155 E0.0258
G1 X172.459 Y121.504 E2.01665
G1 X171.853 Y121.504 E0.0258
G1 X205.955 Y155.606 E2.05313
G1 X205.955 Y156.212 E0.0258
G1 X171.247 Y121.504 E2.08962
G1 X170.641 Y121.504 E0.0258
G1 X205.955 Y156.818 E2.1261
G1 X205.955 Y157.424 E0.0258
G1 X170.035 Y121.504 E2.16259
G1 X169.429 Y121.504 E0.0258
G1 X205.955 Y158.03 E2.19907
G1 X205.955 Y158.636 E0.0258
G1 X168.823 Y121.504 E2.23556
G1 X168.217 Y121.504 E0.0258
G1 X205.955 Y159.242 E2.27205
G1 X205.955 Y159.848 E0.0258
G1 X167.611 Y121.504 E2.30853
G1 X167.005 Y121.504 E0.0258
G1 X205.955 Y160.454 E2.34502
G1 X205.955 Y161.06 E0.0258
G1 X166.399 Y121.504 E2.3815
G1 X165.793 Y121.504 E0.0258
G1 X205.955 Y161.666 E2.41799
G1 X205.955 Y162.272 E0.0258
G1 X165.187 Y121.504 E2.45447
G1 X164.581 Y121.504 E0.0258
G1 X205.955 Y162.878 E2.49096
G1 X205.955 Y163.484 E0.0258
G1 X163.975 Y121.503 E2.52745
G1 X163.369 Y121.503 E0.0258
G1 X205.955 Y164.09 E2.56393
G1 X205.955 Y164.696 E0.0258
G1 X162.763 Y121.503 E2.60042
G1 X162.157 Y121.503 E0.0258
G1 X205.608 Y164.955 E2.61601
G1 X205.104 Y165.057 E0.02189
G1 X161.551 Y121.503 E2.62215
G1 X160.945 Y121.503 E0.0258
G1 X204.6 Y165.159 E2.62829
G1 X204.096 Y165.26 E0.02189
G1 X160.339 Y121.503 E2.63443
G1 X159.733 Y121.503 E0.0258
G1 X203.592 Y165.362 E2.64057
G1 X203.088 Y165.464 E0.02189
G1 X159.127 Y121.503 E2.6467
G1 X158.521 Y121.503 E0.0258
G1 X202.584 Y165.566 E2.65284
G1 X202.08 Y165.668 E0.02189
G1 X157.915 Y121.503 E2.65898
G1 X157.309 Y121.503 E0.0258
G1 X201.576 Y165.77 E2.66512
G1 X201.072 Y165.872 E0.02189
G1 X156.703 Y121.503 E2.67126
G1 X156.097 Y121.503 E0.0258
G1 X200.568 Y165.974 E2.6774
G1 X200.063 Y166.076 E0.02189
G1 X155.491 Y121.503 E2.68354
G1 X154.885 Y121.503 E0.0258
G1 X199.559 Y166.178 E2.68967
G1 X199.055 Y166.28 E0.02189
G1 X154.279 Y121.503 E2.69581
G1 X153.673 Y121.503 E0.0258
G1 X198.551 Y166.382 E2.70195
G1 X198.361 Y166.42 E0.00829
G1 X198.039 Y166.475 E0.0139
G1 X153.067 Y121.503 E2.70756
G1 X152.461 Y121.503 E0.0258
