; generated by SuperSlicer 2.4 on 2022-05-17 at 15:52:45 UTC


;
;

;
;
; 

; external perimeters extrusion width = 0.40mm
; perimeters extrusion width = 0.40mm
; infill extrusion width = 0.72mm
; solid infill extrusion width = 0.56mm
; top infill extrusion width = 0.40mm
; support material extrusion width = 0.40mm
; first layer extrusion width = 0.40mm

; external perimeters extrusion width = 0.40mm
; perimeters extrusion width = 0.40mm
; infill extrusion width = 0.72mm
; solid infill extrusion width = 0.56mm
; top infill extrusion width = 0.40mm
; support material extrusion width = 0.40mm
; first layer extrusion width = 0.40mm

; object:{"name":"Nespresso_Kartenhalter_U","id":"Nespresso_Kartenhalter_U.stl id:0 copy 0","object_center":[132.300000,150.000001,0.000000],"boundingbox_center":[132.300000,150.000001,1.250000],"boundingbox_size":[34.400002,37.400002,2.500000]}
; object:{"name":"Nespresso_Kartenhalter_U","id":"Nespresso_Kartenhalter_U.stl id:1 copy 0","object_center":[172.700000,150.000001,0.000000],"boundingbox_center":[172.700000,150.000001,1.250000],"boundingbox_size":[34.400002,37.400002,2.500000]}
; plater:{"center":[152.500000,150.000001,0.000000],"boundingbox_center":[152.500000,150.000001,1.250000],"boundingbox_size":[74.800002,37.400002,2.500000]}

M73 P0 R6
;TYPE:Custom
START_PRINT T_BED=60 T_EXTRUDER=200
M107
G21 ; set units to millimeters
G90 ; use absolute coordinates
M83 ; use relative distances for extrusion
; Filament gcode
M104 S200 ; set temperature
M109 S200 ; set temperature and wait for it to be reached
M190 S60 ; set bed temperature and wait for it to be reached
M107
;LAYER_CHANGE
;Z:0.2
;HEIGHT:0.2
G1 Z0.2 F9000
G92 E0
M73 P5 R6
G1 E-0.8 F3000
M204 S1000
G1 X113.09 Y128.9 F9000
G1 E0.8 F1800
;TYPE:Skirt
;WIDTH:0.52
G1 X112.219 Y129.896 E0.05247
G1 X111.797 Y130.601 E0.0326
G1 X111.398 Y131.589 E0.04227
G1 X111.163 Y132.894 E0.05261
G1 X111.143 Y166.698 E1.34097
G1 X111.258 Y167.844 E0.04572
G1 X111.558 Y168.867 E0.04227
G1 X111.909 Y169.61 E0.03261
G1 X112.81 Y170.824 E0.05996
G1 X113.337 Y171.313 E0.02854
G1 X114.143 Y171.864 E0.03871
G1 X115.539 Y172.442 E0.05996
G1 X117.105 Y172.657 E0.06271
G1 X187.898 Y172.657 E2.8083
M73 P6 R6
G1 X189.044 Y172.542 E0.04572
G1 X190.067 Y172.242 E0.04227
G1 X190.81 Y171.891 E0.03261
G1 X192.023 Y170.991 E0.05991
G1 X192.781 Y170.103 E0.04633
G1 X193.159 Y169.491 E0.02854
G1 X193.541 Y168.593 E0.03871
G1 X193.837 Y167.106 E0.06015
G1 X193.823 Y132.701 E1.36481
G1 X193.542 Y131.408 E0.05252
G1 X193.064 Y130.344 E0.04628
G1 X192.388 Y129.393 E0.04627
G1 X191.54 Y128.592 E0.04628
G1 X190.551 Y127.973 E0.04628
G1 X189.46 Y127.557 E0.04632
G1 X188.499 Y127.377 E0.03881
G1 X186.436 Y127.343 E0.08184
G1 X117.105 Y127.343 E2.7503
M73 P7 R6
G1 X115.539 Y127.558 E0.06271
G1 X114.308 Y128.042 E0.05247
G1 X113.09 Y128.9 E0.0591
G1 X113.419 Y129.245 F9000
G1 F1800
G1 X112.603 Y130.18 E0.04922
G1 X112.228 Y130.805 E0.02889
G1 X111.858 Y131.716 E0.03903
G1 X111.638 Y132.941 E0.04936
G1 X111.62 Y166.698 E1.33911
M73 P7 R5
G1 X111.728 Y167.763 E0.04247
G1 X112.007 Y168.706 E0.03903
G1 X112.318 Y169.364 E0.0289
G1 X113.163 Y170.503 E0.05625
G1 X113.63 Y170.937 E0.02529
G1 X114.367 Y171.443 E0.03546
G1 X115.677 Y171.986 E0.05625
G1 X117.105 Y172.18 E0.05715
M73 P8 R5
G1 X187.898 Y172.18 E2.8083
G1 X188.963 Y172.072 E0.04247
G1 X189.906 Y171.793 E0.03902
G1 X190.564 Y171.482 E0.0289
G1 X191.702 Y170.638 E0.0562
G1 X192.398 Y169.819 E0.04262
G1 X192.733 Y169.276 E0.02529
G1 X193.085 Y168.455 E0.03546
G1 X193.362 Y167.059 E0.05644
G1 X193.35 Y132.76 E1.36064
G1 X193.085 Y131.546 E0.04927
G1 X192.644 Y130.568 E0.04257
G1 X192.02 Y129.696 E0.04257
M73 P9 R5
G1 X191.237 Y128.961 E0.04257
G1 X190.327 Y128.393 E0.04257
G1 X189.322 Y128.014 E0.04262
G1 X188.44 Y127.85 E0.03556
G1 X186.436 Y127.82 E0.07952
G1 X117.105 Y127.82 E2.7503
G1 X115.677 Y128.014 E0.05716
G1 X114.522 Y128.468 E0.04922
G1 X113.419 Y129.245 E0.05355
G1 X113.748 Y129.591 F9000
G1 F1800
G1 X112.986 Y130.464 E0.04597
G1 X112.659 Y131.008 E0.02518
G1 X112.317 Y131.843 E0.03578
G1 X112.113 Y132.987 E0.04611
G1 X112.097 Y166.698 E1.33726
M73 P10 R5
G1 X112.198 Y167.681 E0.03922
G1 X112.456 Y168.545 E0.03578
G1 X112.728 Y169.119 E0.02519
G1 X113.517 Y170.183 E0.05254
G1 X114.592 Y171.022 E0.05413
G1 X115.816 Y171.529 E0.05254
G1 X117.105 Y171.703 E0.0516
G1 X187.898 Y171.703 E2.8083
G1 X188.881 Y171.602 E0.03922
G1 X189.745 Y171.344 E0.03578
G1 X190.319 Y171.072 E0.02519
G1 X191.382 Y170.284 E0.05249
G1 X192.015 Y169.535 E0.03891
G1 X192.628 Y168.316 E0.05412
G1 X192.887 Y167.013 E0.05273
G1 X192.876 Y132.818 E1.35647
M73 P11 R5
G1 X192.629 Y131.685 E0.04602
G1 X192.223 Y130.793 E0.03886
G1 X191.651 Y129.998 E0.03886
G1 X190.935 Y129.33 E0.03886
G1 X190.102 Y128.814 E0.03886
G1 X189.183 Y128.471 E0.03891
G1 X188.382 Y128.324 E0.03232
G1 X186.436 Y128.297 E0.07721
G1 X117.105 Y128.297 E2.7503
G1 X115.816 Y128.471 E0.0516
G1 X114.737 Y128.894 E0.04597
G1 X113.748 Y129.591 E0.048
G1 E-0.8 F3000
; printing object Nespresso_Kartenhalter_U.stl id:0 copy 0
; acceleration to travel
M204 S3000
G1 X116.407 Y131.994 F9000
; decel to extrusion
M204 S1000
G1 X117.293 Y132.794
; end travel
G1 E0.8 F1800
;TYPE:Internal perimeter
;WIDTH:0.4
G1 X117.293 Y166.507 E1.00096
M73 P12 R5
G1 X147.307 Y166.507 E0.89114
G1 X147.307 Y132.816 E1.00031
G1 X147.596 Y132.823 E0.00859
G1 X147.686 Y132.85 E0.0028
G1 X147.77 Y132.895 E0.00283
G1 X147.844 Y132.956 E0.00283
G1 X147.905 Y133.03 E0.00283
G1 X147.95 Y133.114 E0.00283
G1 X147.982 Y133.221 E0.00334
G1 X147.991 Y133.293 E0.00214
G1 X147.993 Y166.633 E0.9899
G1 X147.977 Y166.795 E0.00484
G1 X147.95 Y166.883 E0.00274
G1 X147.852 Y167.034 E0.00534
G1 X147.79 Y167.091 E0.0025
G1 X147.708 Y167.14 E0.00283
G1 X147.628 Y167.169 E0.00254
G1 X147.427 Y167.193 E0.00599
G1 X117.167 Y167.193 E0.89846
M73 P13 R5
G1 X117.005 Y167.177 E0.00484
G1 X116.914 Y167.15 E0.00283
G1 X116.832 Y167.106 E0.00274
G1 X116.703 Y166.98 E0.00534
G1 X116.66 Y166.908 E0.0025
G1 X116.631 Y166.828 E0.00254
G1 X116.607 Y166.627 E0.00599
G1 X116.607 Y133.377 E0.98725
G1 X116.644 Y133.132 E0.00735
G1 X116.678 Y133.061 E0.00234
G1 X116.797 Y132.92 E0.00547
G1 X116.911 Y132.851 E0.00396
G1 X117.005 Y132.823 E0.00292
G1 X117.293 Y132.794 E0.00859
G1 X117.65 Y132.45 F9000
G1 F1800
G1 X117.65 Y166.15 E1.00059
G1 X146.95 Y166.15 E0.86993
M73 P14 R5
G1 X146.95 Y132.451 E1.00055
G1 X147.529 Y132.452 E0.01718
G1 X147.653 Y132.467 E0.00372
G1 X147.824 Y132.519 E0.00529
G1 X147.97 Y132.597 E0.00492
G1 X148.098 Y132.702 E0.00492
G1 X148.203 Y132.83 E0.00492
G1 X148.281 Y132.976 E0.00492
G1 X148.333 Y133.147 E0.00529
G1 X148.348 Y133.271 E0.0037
G1 X148.35 Y166.65 E0.99108
G1 X148.329 Y166.865 E0.00641
G1 X148.277 Y167.036 E0.00529
G1 X148.233 Y167.125 E0.00296
G1 X148.126 Y167.268 E0.00529
G1 X148.004 Y167.379 E0.00492
G1 X147.861 Y167.464 E0.00492
G1 X147.711 Y167.518 E0.00476
G1 X147.449 Y167.55 E0.00782
G1 X117.15 Y167.55 E0.89962
G1 X116.935 Y167.529 E0.00641
G1 X116.776 Y167.481 E0.00492
G1 X116.619 Y167.397 E0.00529
G1 X116.541 Y167.336 E0.00296
G1 X116.421 Y167.204 E0.00529
G1 X116.336 Y167.061 E0.00492
G1 X116.282 Y166.911 E0.00476
G1 X116.25 Y166.649 E0.00782
G1 X116.25 Y133.35 E0.9887
M73 P15 R5
G1 X116.272 Y133.123 E0.00678
G1 X116.299 Y133.027 E0.00296
G1 X116.375 Y132.865 E0.00529
G1 X116.481 Y132.722 E0.00529
G1 X116.562 Y132.645 E0.00333
G1 X116.664 Y132.573 E0.0037
G1 X116.764 Y132.523 E0.00333
G1 X116.935 Y132.471 E0.00529
G1 X117.15 Y132.45 E0.00641
G1 X117.491 Y132.45 E0.01013
G1 X117.65 Y132.45 E0.00473
G1 X118.007 Y132.093 F9000
G1 F1800
G1 X118.007 Y165.793 E1.00059
G1 X146.593 Y165.793 E0.84873
G1 X146.593 Y132.094 E1.00057
M73 P16 R5
G1 X147.551 Y132.095 E0.02844
G1 X147.727 Y132.117 E0.00528
G1 X147.961 Y132.187 E0.00725
G1 X148.169 Y132.299 E0.00701
G1 X148.351 Y132.449 E0.00701
G1 X148.501 Y132.631 E0.00701
G1 X148.613 Y132.839 E0.00701
G1 X148.683 Y133.073 E0.00725
G1 X148.705 Y133.249 E0.00527
G1 X148.707 Y166.668 E0.99225
G1 X148.681 Y166.935 E0.00797
G1 X148.61 Y167.169 E0.00725
G1 X148.538 Y167.313 E0.00478
G1 X148.392 Y167.509 E0.00725
G1 X148.217 Y167.667 E0.00701
G1 X148.015 Y167.789 E0.00701
G1 X147.793 Y167.868 E0.00698
G1 X147.471 Y167.907 E0.00965
G1 X117.132 Y167.907 E0.90079
G1 X116.865 Y167.881 E0.00797
G1 X116.639 Y167.813 E0.00701
G1 X116.424 Y167.697 E0.00725
G1 X116.297 Y167.598 E0.00478
G1 X116.133 Y167.417 E0.00725
G1 X116.011 Y167.215 E0.00701
G1 X115.932 Y166.993 E0.00698
G1 X115.893 Y166.671 E0.00965
G1 X115.893 Y133.332 E0.98987
G1 X115.92 Y133.057 E0.00821
G1 X115.963 Y132.902 E0.00478
G1 X116.067 Y132.681 E0.00725
G1 X116.213 Y132.485 E0.00725
G1 X116.335 Y132.368 E0.00503
G1 X116.48 Y132.266 E0.00527
G1 X116.631 Y132.19 E0.00503
G1 X116.865 Y132.119 E0.00725
G1 X117.132 Y132.093 E0.00797
G1 X117.491 Y132.093 E0.01065
G1 X118.007 Y132.093 E0.01533
G1 X118.364 Y131.736 F9000
;TYPE:External perimeter
G1 F1800
G1 X118.364 Y165.436 E1.00059
M73 P17 R5
G1 X146.236 Y165.436 E0.82753
G1 X146.236 Y131.736 E1.00058
G1 X147.573 Y131.738 E0.0397
G1 X147.801 Y131.766 E0.00684
G1 X148.098 Y131.856 E0.00921
G1 X148.368 Y132 E0.0091
G1 X148.605 Y132.195 E0.0091
G1 X148.8 Y132.432 E0.0091
G1 X148.944 Y132.702 E0.0091
G1 X149.034 Y132.999 E0.00921
G1 X149.062 Y133.227 E0.00683
G1 X149.064 Y166.685 E0.99342
M73 P18 R5
G1 X149.033 Y167.005 E0.00954
G1 X148.943 Y167.302 E0.00921
G1 X148.843 Y167.501 E0.00661
G1 X148.658 Y167.75 E0.00921
G1 X148.431 Y167.955 E0.0091
G1 X148.168 Y168.113 E0.0091
G1 X147.876 Y168.217 E0.00921
G1 X147.493 Y168.264 E0.01148
G1 X117.115 Y168.264 E0.90196
G1 X116.795 Y168.233 E0.00954
G1 X116.502 Y168.144 E0.0091
G1 X116.228 Y167.998 E0.00921
G1 X116.053 Y167.861 E0.00661
G1 X115.845 Y167.631 E0.00921
G1 X115.687 Y167.368 E0.0091
G1 X115.583 Y167.076 E0.00921
G1 X115.536 Y166.693 E0.01148
G1 X115.536 Y133.315 E0.99103
G1 X115.567 Y132.991 E0.00965
G1 X115.627 Y132.777 E0.00661
G1 X115.759 Y132.496 E0.00921
G1 X115.944 Y132.247 E0.00921
G1 X116.108 Y132.091 E0.00672
G1 X116.296 Y131.959 E0.00683
G1 X116.498 Y131.857 E0.00672
G1 X116.795 Y131.767 E0.00921
G1 X117.115 Y131.736 E0.00954
G1 X117.491 Y131.736 E0.01117
G1 X118.364 Y131.736 E0.02593
;WIPE_START
M204 S4000
G1 X118.164 Y132.082 F9000
;WIPE_END
; acceleration to travel
M204 S3000
G1 X117.344 Y132.756
; decel to extrusion
M204 S1000
G1 X117.071 Y132.981
; end travel
;TYPE:Gap fill
;WIDTH:0.152623
G1 F1800
G1 X116.994 Y133.119 E0.00144
;WIDTH:0.271619
G1 X116.963 Y133.236 E0.0023
;WIDTH:0.388433
G1 X116.95 Y133.403 E0.0048
G1 X116.95 Y166.606 E0.95393
M73 P19 R5
G1 X116.987 Y166.778 E0.00505
;WIDTH:0.409467
G1 X117.129 Y166.844 E0.00478
G1 X117.197 Y166.85 E0.00207
G1 X147.406 Y166.85 E0.92074
G1 X147.547 Y166.833 E0.00431
G1 X147.644 Y166.671 E0.00577
G1 X147.65 Y166.604 E0.00206
G1 X147.649 Y133.332 E1.01407
;WIDTH:0.34632
G1 X147.619 Y133.167 E0.00423
;WIDTH:0.165901
G1 X147.519 Y133.005 E0.00195
;WIDTH:0.097693
G1 X147.506 Y132.985 E0.00011
G1 E-0.8 F3000
; stop printing object Nespresso_Kartenhalter_U.stl id:0 copy 0
; printing object Nespresso_Kartenhalter_U.stl id:1 copy 0
; acceleration to travel
M204 S3000
G1 X155.146 Y132.842 F9000
; decel to extrusion
M204 S1000
G1 X157.693 Y132.794
; end travel
G1 E0.8 F1800
;TYPE:Internal perimeter
;WIDTH:0.4
G1 X157.693 Y166.507 E1.00096
G1 X187.707 Y166.507 E0.89114
M73 P20 R5
G1 X187.707 Y132.816 E1.00031
G1 X187.996 Y132.823 E0.00859
G1 X188.086 Y132.85 E0.0028
G1 X188.17 Y132.895 E0.00283
G1 X188.244 Y132.956 E0.00283
G1 X188.305 Y133.03 E0.00283
G1 X188.35 Y133.114 E0.00283
G1 X188.382 Y133.221 E0.00334
G1 X188.391 Y133.293 E0.00214
G1 X188.393 Y166.633 E0.9899
G1 X188.377 Y166.795 E0.00484
G1 X188.35 Y166.883 E0.00274
G1 X188.252 Y167.034 E0.00534
G1 X188.19 Y167.091 E0.0025
G1 X188.108 Y167.14 E0.00283
G1 X188.028 Y167.169 E0.00254
G1 X187.827 Y167.193 E0.00599
G1 X157.567 Y167.193 E0.89846
M73 P21 R5
G1 X157.405 Y167.177 E0.00484
G1 X157.314 Y167.15 E0.00283
G1 X157.232 Y167.106 E0.00274
G1 X157.103 Y166.98 E0.00534
G1 X157.06 Y166.908 E0.0025
G1 X157.031 Y166.828 E0.00254
G1 X157.007 Y166.627 E0.00599
G1 X157.007 Y133.377 E0.98725
G1 X157.044 Y133.132 E0.00735
G1 X157.078 Y133.061 E0.00234
G1 X157.197 Y132.92 E0.00547
G1 X157.311 Y132.851 E0.00396
G1 X157.405 Y132.823 E0.00292
G1 X157.693 Y132.794 E0.00859
G1 X158.05 Y132.45 F9000
G1 F1800
G1 X158.05 Y166.15 E1.00059
G1 X187.35 Y166.15 E0.86993
G1 X187.35 Y132.451 E1.00055
M73 P22 R5
G1 X187.929 Y132.452 E0.01718
G1 X188.053 Y132.467 E0.00372
G1 X188.224 Y132.519 E0.00529
G1 X188.37 Y132.597 E0.00492
G1 X188.498 Y132.702 E0.00492
G1 X188.603 Y132.83 E0.00492
G1 X188.681 Y132.976 E0.00492
G1 X188.733 Y133.147 E0.00529
G1 X188.748 Y133.271 E0.0037
G1 X188.75 Y166.65 E0.99108
G1 X188.729 Y166.865 E0.00641
G1 X188.677 Y167.036 E0.00529
G1 X188.633 Y167.125 E0.00296
G1 X188.526 Y167.268 E0.00529
G1 X188.404 Y167.379 E0.00492
G1 X188.261 Y167.464 E0.00492
G1 X188.111 Y167.518 E0.00476
G1 X187.849 Y167.55 E0.00782
G1 X157.55 Y167.55 E0.89962
G1 X157.335 Y167.529 E0.00641
G1 X157.176 Y167.481 E0.00492
G1 X157.019 Y167.397 E0.00529
G1 X156.941 Y167.336 E0.00296
G1 X156.821 Y167.204 E0.00529
G1 X156.736 Y167.061 E0.00492
G1 X156.682 Y166.911 E0.00476
G1 X156.65 Y166.649 E0.00782
G1 X156.65 Y133.35 E0.9887
M73 P23 R5
G1 X156.672 Y133.123 E0.00678
G1 X156.699 Y133.027 E0.00296
G1 X156.775 Y132.865 E0.00529
G1 X156.881 Y132.722 E0.00529
G1 X156.962 Y132.645 E0.00333
G1 X157.064 Y132.573 E0.0037
G1 X157.164 Y132.523 E0.00333
G1 X157.335 Y132.471 E0.00529
G1 X157.55 Y132.45 E0.00641
G1 X157.891 Y132.45 E0.01013
G1 X158.05 Y132.45 E0.00473
G1 X158.407 Y132.093 F9000
G1 F1800
G1 X158.407 Y165.793 E1.00059
M73 P23 R4
G1 X186.993 Y165.793 E0.84873
G1 X186.993 Y132.094 E1.00057
G1 X187.951 Y132.095 E0.02844
G1 X188.127 Y132.117 E0.00528
G1 X188.361 Y132.187 E0.00725
G1 X188.569 Y132.299 E0.00701
G1 X188.751 Y132.449 E0.00701
G1 X188.901 Y132.631 E0.00701
G1 X189.013 Y132.839 E0.00701
G1 X189.083 Y133.073 E0.00725
G1 X189.105 Y133.249 E0.00527
G1 X189.107 Y166.668 E0.99225
M73 P24 R4
G1 X189.081 Y166.935 E0.00797
G1 X189.01 Y167.169 E0.00725
G1 X188.938 Y167.313 E0.00478
G1 X188.792 Y167.509 E0.00725
G1 X188.617 Y167.667 E0.00701
G1 X188.415 Y167.789 E0.00701
G1 X188.193 Y167.868 E0.00698
G1 X187.871 Y167.907 E0.00965
G1 X157.532 Y167.907 E0.90079
G1 X157.265 Y167.881 E0.00797
G1 X157.039 Y167.813 E0.00701
G1 X156.824 Y167.697 E0.00725
G1 X156.697 Y167.598 E0.00478
G1 X156.533 Y167.417 E0.00725
G1 X156.411 Y167.215 E0.00701
G1 X156.332 Y166.993 E0.00698
G1 X156.293 Y166.671 E0.00965
G1 X156.293 Y133.332 E0.98987
G1 X156.32 Y133.057 E0.00821
G1 X156.363 Y132.902 E0.00478
G1 X156.467 Y132.681 E0.00725
G1 X156.613 Y132.485 E0.00725
G1 X156.735 Y132.368 E0.00503
G1 X156.88 Y132.266 E0.00527
G1 X157.031 Y132.19 E0.00503
G1 X157.265 Y132.119 E0.00725
G1 X157.532 Y132.093 E0.00797
G1 X157.891 Y132.093 E0.01065
G1 X158.407 Y132.093 E0.01533
G1 X158.764 Y131.736 F9000
;TYPE:External perimeter
G1 F1800
G1 X158.764 Y165.436 E1.00059
M73 P25 R4
G1 X186.636 Y165.436 E0.82753
G1 X186.636 Y131.736 E1.00058
G1 X187.973 Y131.738 E0.0397
G1 X188.201 Y131.766 E0.00684
G1 X188.498 Y131.856 E0.00921
G1 X188.768 Y132 E0.0091
G1 X189.005 Y132.195 E0.0091
G1 X189.2 Y132.432 E0.0091
G1 X189.344 Y132.702 E0.0091
G1 X189.434 Y132.999 E0.00921
G1 X189.462 Y133.227 E0.00683
G1 X189.464 Y166.685 E0.99342
M73 P26 R4
G1 X189.433 Y167.005 E0.00954
G1 X189.343 Y167.302 E0.00921
G1 X189.243 Y167.501 E0.00661
G1 X189.058 Y167.75 E0.00921
G1 X188.831 Y167.955 E0.0091
G1 X188.568 Y168.113 E0.0091
G1 X188.276 Y168.217 E0.00921
G1 X187.893 Y168.264 E0.01148
G1 X157.515 Y168.264 E0.90196
G1 X157.195 Y168.233 E0.00954
G1 X156.902 Y168.144 E0.0091
G1 X156.628 Y167.998 E0.00921
G1 X156.453 Y167.861 E0.00661
G1 X156.245 Y167.631 E0.00921
G1 X156.087 Y167.368 E0.0091
G1 X155.983 Y167.076 E0.00921
G1 X155.936 Y166.693 E0.01148
G1 X155.936 Y133.315 E0.99103
G1 X155.967 Y132.991 E0.00965
G1 X156.027 Y132.777 E0.00661
G1 X156.159 Y132.496 E0.00921
