; generated by SuperSlicer 2.4 on 2022-04-22 at 20:00:24 UTC


;
;

;
;
; 

; external perimeters extrusion width = 0.40mm
; perimeters extrusion width = 0.45mm
; infill extrusion width = 0.72mm
; solid infill extrusion width = 0.56mm
; top infill extrusion width = 0.40mm
; support material extrusion width = 0.42mm
; first layer extrusion width = 0.48mm

; object:{"name":"Solution_lace_8mm_V3","id":"Solution_lace_8mm_V3.stl id:0 copy 0","object_center":[183.500000,165.000000,0.000000],"boundingbox_center":[183.500000,165.000000,2.000000],"boundingbox_size":[12.500000,24.800000,4.000000]}
; plater:{"center":[183.500000,165.000000,0.000000],"boundingbox_center":[183.500000,165.000000,2.000000],"boundingbox_size":[12.500000,24.800000,4.000000]}

M73 P0 R4
;TYPE:Custom
START_PRINT T_BED=70 T_EXTRUDER=230
M107
G21 ; set units to millimeters
G90 ; use absolute coordinates
M83 ; use relative distances for extrusion
; Filament gcode
M109 S230 ; set temperature and wait for it to be reached
M190 S70 ; set bed temperature and wait for it to be reached
M107
;LAYER_CHANGE
;Z:0.24
;HEIGHT:0.24
G1 E-1 F3000
G1 Z0.24 F9000
G92 E0
; INIT printing object Solution_lace_8mm_V3.stl id:0 copy 0
; printing object Solution_lace_8mm_V3.stl id:0 copy 0
M204 S1000
G1 X189.412 Y152.135
G1 E1 F1800
;TYPE:Support material
;WIDTH:0.48
G1 X192.988 Y152.135 E0.15292
G1 X192.988 Y167.734 E0.66697
M73 P1 R4
G1 X190.704 Y167.734 E0.09766
G1 X190.704 Y154.585 E0.56221
G1 X190.703 Y154.547 E0.00161
G1 X190.68 Y154.23 E0.0136
G1 X190.67 Y154.158 E0.00311
G1 X190.636 Y153.996 E0.00708
G1 X190.595 Y153.804 E0.00839
G1 X190.572 Y153.725 E0.00352
G1 X190.438 Y153.375 E0.01603
G1 X190.402 Y153.301 E0.00351
G1 X190.209 Y152.963 E0.01663
G1 X190.16 Y152.893 E0.00366
G1 X189.905 Y152.58 E0.01725
G1 X189.845 Y152.517 E0.0037
G1 X189.457 Y152.174 E0.02217
G1 E-1 F3000
; acceleration to travel
M204 S4000
G1 X191.928 Y164.536 F9000
; decel to extrusion
M204 S1000
G1 X192.546 Y167.627
; end travel
G1 E1 F1800
G1 X192.546 Y152.426 E0.64993
G1 X192.07 Y152.426 E0.02036
G1 X192.07 Y167.443 E0.64205
G1 X191.594 Y167.443 E0.02036
G1 X191.594 Y152.426 E0.64205
M73 P2 R4
G1 X191.118 Y152.426 E0.02036
G1 X191.118 Y167.443 E0.64205
G1 X190.996 Y167.443 E0.00522
G1 X190.996 Y154.58 E0.54997
G1 X190.994 Y154.532 E0.00205
G1 X190.97 Y154.199 E0.01425
G1 X190.968 Y154.182 E0.00073
G1 X190.957 Y154.107 E0.00324
G1 X190.921 Y153.935 E0.00751
G1 X190.878 Y153.732 E0.00888
G1 X190.848 Y153.631 E0.00449
G1 X190.706 Y153.26 E0.017
G1 X190.661 Y153.165 E0.00448
G1 X190.642 Y153.132 E0.00164
G1 X190.642 Y152.426 E0.03019
G1 X190.165 Y152.426 E0.02036
G1 X190.165 Y152.73 E0.01298
G1 E-1 F3000
; acceleration to travel
M204 S4000
G1 X187.456 Y155.801 F9000
; decel to extrusion
M204 S1000
G1 X186.779 Y156.569
; end travel
G1 E1 F1800
G1 X186.787 Y156.58 E0.00058
G1 X186.792 Y156.596 E0.00072
G1 X186.795 Y156.636 E0.00171
G1 X186.795 Y156.707 E0.00304
G1 X186.795 Y157.086 E0.0162
G1 X186.794 Y158.07 E0.04209
G1 X186.794 Y158.562 E0.02104
G1 X186.794 Y159.054 E0.02104
G1 X186.793 Y159.546 E0.02104
G1 X186.793 Y160.531 E0.04209
G1 X186.793 Y161.023 E0.02104
G1 X186.792 Y161.515 E0.02104
G1 X186.792 Y162.499 E0.04209
G1 X186.791 Y162.882 E0.01637
G1 X186.78 Y162.929 E0.00204
G1 X186.773 Y162.936 E0.00045
G1 X186.76 Y162.941 E0.0006
G1 X186.709 Y162.946 E0.00218
G1 X186.278 Y162.945 E0.0184
G1 X185.806 Y162.945 E0.02021
G1 X185.333 Y162.944 E0.02021
G1 X184.86 Y162.944 E0.02021
G1 X184.388 Y162.943 E0.02021
G1 X183.915 Y162.943 E0.02021
G1 X183.442 Y162.942 E0.02021
G1 X182.969 Y162.942 E0.02021
G1 X182.497 Y162.941 E0.02021
G1 X182.024 Y162.941 E0.02021
G1 X181.551 Y162.94 E0.02021
G1 X181.079 Y162.94 E0.02021
G1 X180.606 Y162.939 E0.02021
G1 X180.253 Y162.939 E0.01508
G1 X180.223 Y162.931 E0.00132
G1 X180.215 Y162.924 E0.00045
G1 X180.211 Y162.616 E0.01318
G1 X180.201 Y161.951 E0.02843
G1 X179.886 Y161.451 E0.02524
G1 X179.106 Y161.061 E0.03733
G1 X179.059 Y161.04 E0.00218
G1 X178.827 Y160.951 E0.01063
G1 X178.742 Y160.926 E0.0038
G1 X178.518 Y160.881 E0.00976
G1 X178.467 Y160.877 E0.0022
G1 X178.405 Y160.871 E0.00265
G1 X178.017 Y160.877 E0.01659
G1 X177.992 Y160.881 E0.0011
G1 X177.869 Y160.901 E0.00533
G1 X177.674 Y160.961 E0.00869
G1 X177.48 Y161.022 E0.00869
G1 X177.347 Y161.085 E0.00633
G1 X177.029 Y161.293 E0.01625
G1 X176.943 Y161.364 E0.00474
G1 X176.779 Y161.53 E0.01
G1 X176.708 Y161.619 E0.00486
G1 X176.499 Y161.95 E0.01674
G1 X176.438 Y162.085 E0.00634
G1 X176.332 Y162.451 E0.01626
G1 X176.312 Y162.559 E0.00473
G1 X176.297 Y162.764 E0.00878
G1 X176.296 Y162.803 E0.00166
G1 X176.297 Y163.803 E0.04274
G1 X176.297 Y164.295 E0.02103
G1 X176.297 Y164.357 E0.00267
G1 X174.012 Y164.357 E0.09772
G1 X174.012 Y152.135 E0.52258
M73 P3 R4
G1 X177.525 Y152.135 E0.15022
G1 X177.108 Y152.577 E0.026
G1 X176.961 Y152.734 E0.00922
G1 X176.906 Y152.803 E0.00372
G1 X176.691 Y153.124 E0.01655
G1 X176.649 Y153.2 E0.00373
G1 X176.481 Y153.572 E0.01744
G1 X176.451 Y153.656 E0.0038
G1 X176.347 Y154.052 E0.01748
G1 X176.332 Y154.14 E0.00383
G1 X176.298 Y154.537 E0.01705
G1 X176.296 Y154.585 E0.00206
G1 X176.298 Y155.051 E0.01991
G1 X176.301 Y155.545 E0.02112
G1 X176.314 Y155.662 E0.00505
G1 X176.398 Y156.024 E0.01586
G1 X176.44 Y156.139 E0.00524
G1 X176.559 Y156.378 E0.0114
G1 X176.604 Y156.452 E0.00372
G1 X176.74 Y156.641 E0.00995
G1 X176.799 Y156.709 E0.00384
G1 X176.975 Y156.881 E0.01053
G1 X177.048 Y156.941 E0.00406
G1 X177.199 Y157.043 E0.00776
G1 X177.26 Y157.084 E0.00316
G1 X177.336 Y157.127 E0.00372
G1 X177.548 Y157.224 E0.00996
G1 X177.632 Y157.254 E0.00384
G1 X177.729 Y157.28 E0.00427
G1 X177.869 Y157.317 E0.00619
G1 X177.958 Y157.332 E0.00389
G1 X178.002 Y157.336 E0.00186
G1 X178.186 Y157.352 E0.00791
G1 X178.231 Y157.354 E0.00195
G1 X179.587 Y157.354 E0.05794
G1 X180.204 Y156.737 E0.03734
G1 X180.204 Y156.554 E0.0078
G1 X186.702 Y156.554 E0.27783
G1 X186.721 Y156.556 E0.00082
; acceleration to travel
M204 S4000
G1 X186.43 Y161.582 F9000
; decel to extrusion
M204 S1000
G1 X186.357 Y162.838
; end travel
G1 F1800
G1 X186.357 Y156.846 E0.25622
G1 X185.881 Y156.846 E0.02036
G1 X185.881 Y162.653 E0.24832
G1 X185.806 Y162.653 E0.00319
G1 X185.404 Y162.653 E0.01717
G1 X185.404 Y156.846 E0.24829
G1 X184.928 Y156.846 E0.02036
G1 X184.928 Y162.652 E0.24827
G1 X184.861 Y162.652 E0.0029
G1 X184.452 Y162.652 E0.01746
G1 X184.452 Y156.846 E0.24825
G1 X183.976 Y156.846 E0.02036
G1 X183.976 Y162.651 E0.24823
G1 X183.915 Y162.651 E0.00261
G1 X183.5 Y162.651 E0.01775
G1 X183.5 Y156.846 E0.24821
G1 X183.024 Y156.846 E0.02036
M73 P4 R4
G1 X183.024 Y162.65 E0.24818
G1 X182.97 Y162.65 E0.00231
G1 X182.548 Y162.65 E0.01804
G1 X182.548 Y156.846 E0.24816
G1 X182.072 Y156.846 E0.02036
G1 X182.072 Y162.649 E0.24814
G1 X182.024 Y162.649 E0.00202
G1 X181.596 Y162.649 E0.01833
G1 X181.596 Y156.846 E0.24812
G1 X181.119 Y156.846 E0.02036
G1 X181.119 Y162.648 E0.2481
G1 X181.079 Y162.648 E0.00173
G1 X180.643 Y162.648 E0.01862
G1 X180.643 Y156.846 E0.24807
G1 X180.496 Y156.846 E0.00632
G1 X180.496 Y156.857 E0.0005
G1 X180.167 Y157.186 E0.01985
G1 X180.167 Y161.351 E0.17807
G1 X180.09 Y161.227 E0.00623
G1 X179.691 Y161.028 E0.01905
G1 X179.691 Y157.646 E0.14461
G1 X179.215 Y157.646 E0.02036
G1 X179.215 Y160.791 E0.13447
G1 X179.17 Y160.771 E0.0021
G1 X178.92 Y160.675 E0.01145
G1 X178.811 Y160.643 E0.00485
G1 X178.739 Y160.629 E0.00315
G1 X178.739 Y157.646 E0.12754
G1 X178.263 Y157.646 E0.02036
G1 X178.263 Y160.582 E0.12554
G1 X178.018 Y160.586 E0.01047
G1 X177.992 Y160.586 E0.00113
G1 X177.946 Y160.594 E0.00199
G1 X177.802 Y160.617 E0.00622
G1 X177.787 Y160.621 E0.00068
G1 X177.787 Y157.597 E0.12932
G1 X177.654 Y157.561 E0.00587
G1 X177.545 Y157.533 E0.0048
G1 X177.438 Y157.494 E0.0049
G1 X177.311 Y157.436 E0.00597
G1 X177.311 Y160.779 E0.14296
G1 X177.204 Y160.83 E0.00506
G1 X176.856 Y161.058 E0.01778
G1 X176.835 Y161.076 E0.0012
G1 X176.835 Y157.143 E0.16817
M73 P5 R4
G1 X176.78 Y157.099 E0.00299
G1 X176.586 Y156.908 E0.01163
G1 X176.511 Y156.822 E0.0049
G1 X176.358 Y156.61 E0.01117
G1 X176.358 Y161.627 E0.21451
G1 X176.242 Y161.812 E0.00934
G1 X176.164 Y161.984 E0.0081
G1 X176.048 Y162.384 E0.01779
G1 X176.023 Y162.523 E0.00604
G1 X176.006 Y162.748 E0.00966
G1 X176.004 Y162.798 E0.00212
G1 X176.005 Y163.803 E0.04297
G1 X176.006 Y164.066 E0.01123
G1 X175.882 Y164.066 E0.00527
G1 X175.882 Y152.426 E0.49766
G1 X176.358 Y152.426 E0.02036
G1 X176.358 Y153.135 E0.03031
G1 X176.388 Y153.069 E0.00308
G1 X176.442 Y152.972 E0.00476
G1 X176.671 Y152.63 E0.01758
G1 X176.74 Y152.543 E0.00475
G1 X176.835 Y152.443 E0.00589
G1 X176.835 Y152.242 E0.00861
; acceleration to travel
M204 S4000
G1 X175.692 Y161.848 F9000
; decel to extrusion
M204 S1000
G1 X175.406 Y164.25
; end travel
G1 F1800
G1 X175.406 Y152.426 E0.50554
M73 P5 R3
G1 X174.93 Y152.426 E0.02036
G1 X174.93 Y164.066 E0.49766
G1 X174.454 Y164.066 E0.02036
G1 X174.454 Y152.242 E0.50554
G1 E-1 F3000
; acceleration to travel
M204 S4000
G1 X178.019 Y171.383 F9000
; decel to extrusion
M204 S1000
M73 P6 R3
G1 X178.91 Y176.168
; end travel
G1 E1 F1800
;TYPE:Internal perimeter
G1 X188.186 Y176.168 E0.3966
G1 X188.227 Y176.551 E0.01645
G1 X187.926 Y176.617 E0.01321
G1 X187.722 Y176.632 E0.00874
G1 X179.283 Y176.632 E0.36079
G1 X179.04 Y176.61 E0.01046
G1 X178.779 Y176.542 E0.0115
G1 X178.827 Y176.168 E0.01611
G1 X178.85 Y176.168 E0.00096
; acceleration to travel
M204 S4000
G1 X178.898 Y171.796 F9000
; decel to extrusion
M204 S1000
G1 X178.91 Y170.703
; end travel
G1 F1800
G1 X178.454 Y170.703 E0.01949
G1 X178.448 Y164.284 E0.27446
G1 X179.087 Y164.769 E0.0343
G1 X179.451 Y164.954 E0.01744
G1 X179.98 Y165.09 E0.02338
G1 X186.802 Y165.097 E0.29165
G1 X187.129 Y165.068 E0.01406
G1 X187.484 Y164.975 E0.01566
G1 X187.834 Y164.816 E0.01647
G1 X188.148 Y164.6 E0.01629
G1 X188.553 Y164.203 E0.02424
G1 X188.553 Y170.703 E0.27789
G1 X178.97 Y170.703 E0.40973
G1 E-1 F3000
; acceleration to travel
M204 S4000
G1 X178.922 Y157.663 F9000
; decel to extrusion
M204 S1000
G1 X178.91 Y154.403
; end travel
G1 E1 F1800
M73 P7 R3
G1 X178.344 Y154.403 E0.02419
G1 X178.724 Y154 E0.02367
G1 X178.828 Y153.922 E0.00558
G1 X178.94 Y153.865 E0.00536
G1 X179.147 Y153.809 E0.00918
G1 X187.714 Y153.798 E0.36626
G1 X187.877 Y153.811 E0.007
G1 X188.001 Y153.841 E0.00546
G1 X188.117 Y153.89 E0.00537
G1 X188.235 Y153.965 E0.00599
G1 X188.322 Y154.042 E0.00494
G1 X188.409 Y154.149 E0.0059
G1 X188.474 Y154.262 E0.00557
G1 X188.517 Y154.375 E0.00518
G1 X188.542 Y154.495 E0.00524
G1 X188.553 Y154.643 E0.00633
G1 X188.553 Y155.201 E0.02388
G1 X187.885 Y154.713 E0.03538
G1 X187.544 Y154.547 E0.01624
G1 X187.177 Y154.44 E0.01631
G1 X186.81 Y154.403 E0.01579
G1 X178.97 Y154.403 E0.33519
G1 E-1 F3000
; acceleration to travel
M204 S4000
G1 X178.922 Y167.786 F9000
; decel to extrusion
M204 S1000
G1 X178.91 Y171.132
; end travel
G1 E1 F1800
G1 X178.482 Y171.132 E0.01832
G1 X178.482 Y175.825 E0.20069
G1 X178.118 Y175.881 E0.01573
G1 X178.048 Y175.658 E0.00999
G1 X178.03 Y175.547 E0.00482
G1 X178.019 Y162.846 E0.54304
G1 X178.021 Y162.811 E0.00151
G1 X178.042 Y162.74 E0.00314
G1 X178.167 Y162.564 E0.00923
G1 X178.489 Y162.663 E0.01438
G1 X178.496 Y163.164 E0.02144
G1 X178.581 Y163.494 E0.01457
G1 X178.706 Y163.768 E0.01286
G1 X178.872 Y164.013 E0.01264
G1 X179.06 Y164.211 E0.01167
G1 X179.315 Y164.405 E0.01371
G1 X179.603 Y164.55 E0.01378
G1 X180.035 Y164.661 E0.01907
G1 X186.783 Y164.669 E0.28853
G1 X187.056 Y164.645 E0.0117
G1 X187.34 Y164.57 E0.01255
G1 X187.623 Y164.442 E0.0133
G1 X187.875 Y164.268 E0.01308
G1 X188.094 Y164.053 E0.01313
G1 X188.264 Y163.819 E0.01237
G1 X188.412 Y163.52 E0.01426
G1 X188.514 Y163.081 E0.01928
G1 X188.518 Y156.561 E0.27878
G1 X188.495 Y156.292 E0.01152
G1 X188.413 Y155.993 E0.01324
G1 X188.293 Y155.73 E0.0124
G1 X188.124 Y155.483 E0.01276
G1 X187.915 Y155.266 E0.0129
G1 X187.663 Y155.082 E0.01336
G1 X187.388 Y154.948 E0.01305
G1 X187.095 Y154.862 E0.01305
G1 X186.788 Y154.832 E0.01319
G1 X178.482 Y154.832 E0.35516
M73 P8 R3
G1 X178.482 Y155.625 E0.03394
G1 X178.177 Y155.621 E0.01304
G1 X178.08 Y155.546 E0.00523
G1 X178.041 Y155.48 E0.00327
G1 X178.023 Y155.402 E0.00344
G1 X178.019 Y154.631 E0.03296
G1 X178.04 Y154.39 E0.01037
G1 X178.092 Y154.19 E0.00882
G1 X178.178 Y154 E0.0089
G1 X178.283 Y153.843 E0.00809
G1 X178.438 Y153.679 E0.00965
G1 X178.601 Y153.557 E0.00873
G1 X178.786 Y153.463 E0.00884
G1 X178.995 Y153.397 E0.00937
G1 X179.091 Y153.381 E0.00417
G1 X187.731 Y153.369 E0.3694
G1 X187.946 Y153.387 E0.00922
G1 X188.136 Y153.433 E0.0084
G1 X188.317 Y153.51 E0.00836
G1 X188.493 Y153.622 E0.00896
G1 X188.632 Y153.744 E0.00789
G1 X188.763 Y153.905 E0.0089
G1 X188.862 Y154.078 E0.00849
G1 X188.929 Y154.253 E0.00804
G1 X188.968 Y154.435 E0.00794
G1 X188.982 Y154.627 E0.00825
G1 X188.982 Y175.369 E0.88683
G1 X188.963 Y175.596 E0.00972
G1 X188.896 Y175.872 E0.01217
G1 X188.518 Y175.827 E0.01624
G1 X188.518 Y171.132 E0.20074
G1 X178.97 Y171.132 E0.40825
G1 X178.91 Y171.56 F9000
;TYPE:External perimeter
G1 F1800
G1 X178.91 Y175.74 E0.17872
G1 X188.09 Y175.74 E0.3925
G1 X188.09 Y171.56 E0.17872
M73 P9 R3
G1 X178.97 Y171.56 E0.38993
;WIPE_START
M204 S4000
G1 X178.51 Y171.56 F9000
;WIPE_END
G1 E-1 F3000
; acceleration to travel
G1 X178.83 Y158.52 F9000
; decel to extrusion
M204 S1000
G1 X178.91 Y155.26
; end travel
G1 E1 F1800
G1 X178.91 Y156.06 E0.0342
G1 X178.265 Y156.06 E0.02759
G1 X178.136 Y156.049 E0.00551
G1 X178.027 Y156.02 E0.00484
G1 X177.932 Y155.976 E0.00445
G1 X177.83 Y155.908 E0.00526
G1 X177.75 Y155.829 E0.00478
G1 X177.689 Y155.745 E0.00445
G1 X177.639 Y155.643 E0.00487
G1 X177.594 Y155.452 E0.00837
G1 X177.59 Y154.614 E0.03585
G1 X177.616 Y154.316 E0.01277
G1 X177.687 Y154.046 E0.01193
G1 X177.802 Y153.791 E0.01196
G1 X177.947 Y153.575 E0.01112
G1 X178.151 Y153.358 E0.01277
G1 X178.374 Y153.191 E0.01189
G1 X178.623 Y153.064 E0.01194
G1 X178.895 Y152.979 E0.01217
G1 X179.055 Y152.952 E0.00694
G1 X179.725 Y152.94 E0.02866
G1 X187.748 Y152.941 E0.34301
G1 X188.014 Y152.962 E0.01143
G1 X188.272 Y153.025 E0.01134
G1 X188.516 Y153.129 E0.01135
G1 X188.752 Y153.278 E0.01192
G1 X188.942 Y153.446 E0.01084
G1 X189.117 Y153.662 E0.01189
G1 X189.25 Y153.893 E0.01141
G1 X189.341 Y154.131 E0.01091
G1 X189.393 Y154.375 E0.01064
G1 X189.41 Y154.612 E0.01017
G1 X189.41 Y175.386 E0.88821
G1 X189.388 Y175.664 E0.01192
G1 X189.325 Y175.922 E0.01133
G1 X189.221 Y176.167 E0.01139
G1 X189.08 Y176.392 E0.01135
G1 X188.894 Y176.6 E0.01192
G1 X188.698 Y176.761 E0.01087
G1 X188.467 Y176.896 E0.0114
G1 X188.217 Y176.992 E0.01145
G1 X187.987 Y177.042 E0.01009
G1 X187.737 Y177.06 E0.01071
G1 X179.265 Y177.06 E0.36224
G1 X178.966 Y177.034 E0.01281
G1 X178.696 Y176.963 E0.01193
G1 X178.441 Y176.848 E0.01196
G1 X178.225 Y176.703 E0.01112
G1 X178.008 Y176.499 E0.01277
G1 X177.841 Y176.276 E0.01189
G1 X177.714 Y176.027 E0.01194
G1 X177.63 Y175.757 E0.01212
G1 X177.602 Y175.581 E0.00759
G1 X177.59 Y162.83 E0.54518
M73 P10 R3
G1 X177.597 Y162.734 E0.00411
G1 X177.65 Y162.55 E0.00818
G1 X177.758 Y162.381 E0.00858
G1 X177.807 Y162.331 E0.00302
G1 X177.967 Y162.226 E0.00819
G1 X178.148 Y162.17 E0.00807
G1 X178.331 Y162.167 E0.00786
G1 X178.567 Y162.239 E0.01055
G1 X178.913 Y162.412 E0.01653
G1 X178.924 Y163.107 E0.02972
G1 X178.987 Y163.351 E0.01077
G1 X179.081 Y163.557 E0.0097
G1 X179.207 Y163.743 E0.00961
G1 X179.347 Y163.891 E0.0087
G1 X179.544 Y164.04 E0.01056
G1 X179.755 Y164.147 E0.01011
G1 X180.089 Y164.233 E0.01477
G1 X186.765 Y164.24 E0.28542
G1 X186.982 Y164.221 E0.00933
G1 X187.196 Y164.165 E0.00944
G1 X187.411 Y164.067 E0.01013
G1 X187.602 Y163.936 E0.00987
G1 X187.768 Y163.773 E0.00998
G1 X187.895 Y163.597 E0.00929
G1 X188.006 Y163.374 E0.01061
G1 X188.085 Y163.031 E0.01506
G1 X188.09 Y156.579 E0.27587
G1 X188.071 Y156.368 E0.00908
G1 X188.009 Y156.14 E0.0101
G1 X187.918 Y155.941 E0.00934
G1 X187.791 Y155.755 E0.00966
G1 X187.632 Y155.59 E0.00977
G1 X187.441 Y155.45 E0.01015
G1 X187.233 Y155.349 E0.00986
G1 X187.013 Y155.285 E0.0098
G1 X186.767 Y155.26 E0.01058
G1 X178.97 Y155.26 E0.33336
;WIPE_START
