; generated by SuperSlicer 2.4 on 2022-04-22 at 18:47:11 UTC


;
;

;
;
; 

; external perimeters extrusion width = 0.40mm
; perimeters extrusion width = 0.45mm
; infill extrusion width = 0.72mm
; solid infill extrusion width = 0.56mm
; top infill extrusion width = 0.40mm
; support material extrusion width = 0.42mm
; first layer extrusion width = 0.48mm

; external perimeters extrusion width = 0.40mm
; perimeters extrusion width = 0.45mm
; infill extrusion width = 0.72mm
; solid infill extrusion width = 0.56mm
; top infill extrusion width = 0.40mm
; support material extrusion width = 0.42mm
; first layer extrusion width = 0.48mm

; external perimeters extrusion width = 0.40mm
; perimeters extrusion width = 0.45mm
; infill extrusion width = 0.72mm
; solid infill extrusion width = 0.56mm
; top infill extrusion width = 0.40mm
; support material extrusion width = 0.42mm
; first layer extrusion width = 0.48mm

; object:{"name":"Solution_lace_18mm_V2","id":"Solution_lace_18mm_V2.STL id:0 copy 0","object_center":[165.000000,165.000001,0.000000],"boundingbox_center":[165.000000,165.000001,2.000000],"boundingbox_size":[12.500000,33.799998,4.000000]}
; object:{"name":"Solution_lace_8mm_V3","id":"Solution_lace_8mm_V3.stl id:1 copy 0","object_center":[183.500000,165.000000,0.000000],"boundingbox_center":[183.500000,165.000000,2.000000],"boundingbox_size":[12.500000,24.800000,4.000000]}
; object:{"name":"Solution_lace_18mm_V2_Tough","id":"Solution_lace_18mm_V2_Tough.stl id:2 copy 0","object_center":[146.500000,165.000001,0.000000],"boundingbox_center":[146.500000,165.000001,2.000000],"boundingbox_size":[12.500000,35.800002,4.000000]}
; plater:{"center":[165.000000,165.000001,0.000000],"boundingbox_center":[165.000000,165.000001,2.000000],"boundingbox_size":[49.500000,35.800002,4.000000]}

M73 P0 R14
;TYPE:Custom
START_PRINT T_BED=70 T_EXTRUDER=230
M107
G21 ; set units to millimeters
G90 ; use absolute coordinates
M83 ; use relative distances for extrusion
; Filament gcode
M109 S230 ; set temperature and wait for it to be reached
M190 S70 ; set bed temperature and wait for it to be reached
M107
;LAYER_CHANGE
;Z:0.24
;HEIGHT:0.24
G1 E-1 F3000
G1 Z0.24 F9000
G92 E0
; INIT printing object Solution_lace_18mm_V2.STL id:0 copy 0
; printing object Solution_lace_18mm_V2.STL id:0 copy 0
M204 S500
G1 X155.512 Y148.757
G1 E1 F1800
;TYPE:Support material
;WIDTH:0.48
G1 X158.095 Y148.757 E0.11046
G1 X157.959 Y149.133 E0.01708
G1 X157.885 Y149.408 E0.01218
G1 X157.849 Y149.542 E0.00591
G1 X157.833 Y149.632 E0.00394
G1 X157.798 Y150.035 E0.0173
G1 X157.796 Y150.081 E0.00197
G1 X157.796 Y150.919 E0.0358
G1 X157.798 Y150.965 E0.00197
G1 X157.818 Y151.194 E0.00984
G1 X157.834 Y151.285 E0.00394
G1 X157.898 Y151.525 E0.01064
G1 X157.93 Y151.612 E0.00394
G1 X158.035 Y151.837 E0.01064
G1 X158.081 Y151.917 E0.00394
G1 X158.224 Y152.121 E0.01064
G1 X158.283 Y152.191 E0.00394
G1 X158.459 Y152.367 E0.01064
G1 X158.529 Y152.426 E0.00394
G1 X158.733 Y152.569 E0.01064
G1 X158.813 Y152.615 E0.00394
G1 X159.038 Y152.72 E0.01064
G1 X159.125 Y152.752 E0.00394
G1 X159.365 Y152.816 E0.01064
G1 X159.408 Y152.824 E0.00187
G1 X159.456 Y152.832 E0.00207
G1 X159.685 Y152.852 E0.00984
G1 X159.731 Y152.854 E0.00197
G1 X161.087 Y152.854 E0.05795
G1 X161.704 Y152.237 E0.03734
G1 X161.704 Y152.054 E0.0078
G1 X168.209 Y152.054 E0.27813
G1 X168.257 Y152.058 E0.00206
G1 X168.277 Y152.067 E0.00093
G1 X168.285 Y152.077 E0.00055
G1 X168.291 Y152.092 E0.00069
G1 X168.296 Y152.142 E0.00213
G1 X168.296 Y158.358 E0.26578
G1 X168.291 Y158.409 E0.00217
G1 X168.281 Y158.428 E0.00096
G1 X168.259 Y158.441 E0.0011
G1 X168.208 Y158.446 E0.00218
G1 X161.792 Y158.446 E0.27433
G1 X161.743 Y158.441 E0.0021
G1 X161.729 Y158.436 E0.00062
G1 X161.717 Y158.426 E0.00068
G1 X161.712 Y158.12 E0.01308
G1 X161.7 Y157.446 E0.02885
G1 X161.45 Y157.057 E0.01973
G1 X161.376 Y156.941 E0.0059
G1 X160.405 Y156.478 E0.04599
G1 X160.286 Y156.438 E0.00538
G1 X160.031 Y156.384 E0.01111
G1 X160.011 Y156.382 E0.00087
G1 X159.943 Y156.373 E0.00293
G1 X159.706 Y156.364 E0.01015
G1 X159.617 Y156.368 E0.0038
G1 X159.378 Y156.399 E0.01032
G1 X159.29 Y156.418 E0.00382
G1 X159.059 Y156.49 E0.01034
G1 X158.976 Y156.523 E0.00382
G1 X158.816 Y156.604 E0.00767
G1 X158.761 Y156.632 E0.00267
G1 X158.685 Y156.679 E0.00382
G1 X158.491 Y156.824 E0.01034
G1 X158.424 Y156.883 E0.00382
G1 X158.256 Y157.057 E0.01034
G1 X158.2 Y157.127 E0.00382
G1 X158.065 Y157.328 E0.01034
G1 X158.022 Y157.406 E0.00382
G1 X157.922 Y157.626 E0.01034
G1 X157.892 Y157.71 E0.00382
G1 X157.832 Y157.944 E0.01034
G1 X157.817 Y158.032 E0.00382
G1 X157.805 Y158.164 E0.00565
G1 X157.798 Y158.255 E0.00391
G1 X157.796 Y158.3 E0.00191
G1 X157.796 Y160.98 E0.11459
G1 X155.512 Y160.98 E0.09766
G1 X155.512 Y148.817 E0.52001
G1 E-1 F3000
; acceleration to travel
M204 S2500
G1 X165.799 Y156.752 F9000
; decel to extrusion
M204 S500
G1 X167.857 Y158.339
; end travel
G1 E1 F1800
G1 X167.857 Y152.346 E0.25623
G1 X167.381 Y152.346 E0.02036
G1 X167.381 Y158.154 E0.24836
G1 X166.904 Y158.154 E0.02036
G1 X166.904 Y152.346 E0.24836
G1 X166.428 Y152.346 E0.02036
G1 X166.428 Y158.154 E0.24836
G1 X165.952 Y158.154 E0.02036
G1 X165.952 Y152.346 E0.24836
G1 X165.476 Y152.346 E0.02036
G1 X165.476 Y158.154 E0.24836
G1 X165 Y158.154 E0.02036
G1 X165 Y152.346 E0.24836
G1 X164.524 Y152.346 E0.02036
G1 X164.524 Y158.154 E0.24836
G1 X164.048 Y158.154 E0.02036
G1 X164.048 Y152.346 E0.24836
G1 X163.572 Y152.346 E0.02036
G1 X163.572 Y158.154 E0.24836
G1 X163.096 Y158.154 E0.02036
G1 X163.096 Y152.346 E0.24836
G1 X162.619 Y152.346 E0.02036
G1 X162.619 Y158.154 E0.24836
G1 X162.143 Y158.154 E0.02036
G1 X162.143 Y152.346 E0.24836
G1 X161.996 Y152.346 E0.00632
G1 X161.996 Y152.357 E0.0005
G1 X161.667 Y152.686 E0.01985
G1 X161.667 Y156.856 E0.1783
G1 X161.576 Y156.714 E0.00721
G1 X161.191 Y156.53 E0.01824
G1 X161.191 Y153.146 E0.14471
G1 X160.715 Y153.146 E0.02036
G1 X160.715 Y156.303 E0.135
G1 X160.515 Y156.207 E0.00948
G1 X160.363 Y156.156 E0.00687
G1 X160.239 Y156.13 E0.0054
G1 X160.239 Y153.146 E0.1276
G1 X159.763 Y153.146 E0.02036
G1 X159.763 Y156.075 E0.12523
G1 X159.705 Y156.072 E0.00248
G1 X159.592 Y156.078 E0.00485
G1 X159.328 Y156.112 E0.01138
G1 X159.287 Y156.121 E0.0018
G1 X159.287 Y153.097 E0.1293
G1 X159.037 Y153.03 E0.01104
G1 X158.927 Y152.99 E0.00502
G1 X158.811 Y152.936 E0.00548
G1 X158.811 Y156.281 E0.14302
G1 X158.685 Y156.344 E0.00603
G1 X158.618 Y156.378 E0.0032
G1 X158.521 Y156.438 E0.00488
G1 X158.335 Y156.577 E0.00993
G1 X158.335 Y152.643 E0.16817
M73 P1 R14
G1 X158.262 Y152.582 E0.00406
G1 X158.068 Y152.388 E0.01173
G1 X157.992 Y152.298 E0.00502
G1 X157.858 Y152.107 E0.00998
G1 X157.858 Y157.113 E0.21403
G1 X157.817 Y157.175 E0.00319
G1 X157.761 Y157.275 E0.00488
G1 X157.652 Y157.517 E0.01139
G1 X157.614 Y157.625 E0.00488
G1 X157.547 Y157.883 E0.01139
G1 X157.527 Y157.995 E0.00488
G1 X157.515 Y158.139 E0.00618
G1 X157.507 Y158.237 E0.00418
G1 X157.504 Y158.294 E0.00244
G1 X157.504 Y160.689 E0.1024
G1 X157.382 Y160.689 E0.00522
G1 X157.382 Y149.049 E0.49766
G1 X156.906 Y149.049 E0.02036
G1 X156.906 Y160.689 E0.49766
G1 X156.43 Y160.689 E0.02036
G1 X156.43 Y149.049 E0.49766
G1 X155.954 Y149.049 E0.02036
G1 X155.954 Y160.873 E0.50554
G1 E-1 F3000
; acceleration to travel
M204 S2500
G1 X169.496 Y160.873 F9000
; decel to extrusion
M204 S500
G1 X172.204 Y160.873
; end travel
G1 E1 F1800
G1 X172.204 Y150.081 E0.4614
G1 X172.202 Y150.035 E0.00197
G1 X172.167 Y149.632 E0.0173
G1 X172.151 Y149.542 E0.00394
G1 X172.041 Y149.133 E0.01809
G1 X172.029 Y149.1 E0.0015
G1 X172.01 Y149.046 E0.00244
G1 X171.905 Y148.757 E0.01315
G1 X174.488 Y148.757 E0.11046
G1 X174.488 Y160.98 E0.52258
G1 X172.204 Y160.98 E0.09766
G1 X172.204 Y160.933 E0.00201
G1 X174.046 Y160.873 F9000
G1 F1800
G1 X174.046 Y149.049 E0.50554
G1 X173.57 Y149.049 E0.02036
G1 X173.57 Y160.689 E0.49766
G1 X173.094 Y160.689 E0.02036
G1 X173.094 Y149.049 E0.49766
G1 X172.618 Y149.049 E0.02036
G1 X172.618 Y160.873 E0.50554
G1 E-1 F3000
; acceleration to travel
M204 S2500
G1 X170.095 Y177.369 F9000
; decel to extrusion
M204 S500
G1 X169.59 Y180.668
; end travel
G1 E1 F1800
;TYPE:Internal perimeter
G1 X169.668 Y180.668 E0.00335
G1 X169.718 Y181.04 E0.01604
G1 X169.46 Y181.11 E0.01141
G1 X169.216 Y181.132 E0.01048
G1 X160.784 Y181.132 E0.36053
G1 X160.537 Y181.11 E0.0106
G1 X160.28 Y181.041 E0.01137
G1 X160.329 Y180.668 E0.01607
G1 X169.53 Y180.668 E0.3934
; acceleration to travel
M204 S2500
G1 X169.58 Y176.114 F9000
; decel to extrusion
M204 S500
G1 X169.59 Y175.203
; end travel
G1 F1800
G1 X159.947 Y175.203 E0.41229
G1 X159.947 Y159.699 E0.6629
G1 X160.335 Y160.086 E0.02345
G1 X160.649 Y160.307 E0.01641
G1 X160.997 Y160.469 E0.01641
G1 X161.368 Y160.568 E0.01641
G1 X161.698 Y160.597 E0.01416
G1 X168.303 Y160.597 E0.2824
G1 X168.634 Y160.568 E0.01422
G1 X168.998 Y160.47 E0.0161
G1 X169.345 Y160.31 E0.01636
G1 X169.672 Y160.08 E0.01706
G1 X170.053 Y159.699 E0.02306
G1 X170.053 Y175.203 E0.66288
G1 X169.65 Y175.203 E0.01723
G1 E-1 F3000
; acceleration to travel
M204 S2500
G1 X161.95 Y154.12 F9000
; decel to extrusion
M204 S500
M73 P2 R14
G1 X160.41 Y149.903
; end travel
G1 E1 F1800
G1 X159.822 Y149.903 E0.02513
G1 X160.237 Y149.488 E0.02507
G1 X160.351 Y149.409 E0.00595
G1 X160.477 Y149.35 E0.00595
G1 X160.611 Y149.314 E0.00595
G1 X160.802 Y149.297 E0.00819
G1 X169.198 Y149.297 E0.35895
G1 X169.389 Y149.314 E0.00819
G1 X169.523 Y149.35 E0.00595
G1 X169.649 Y149.409 E0.00595
G1 X169.763 Y149.488 E0.00595
G1 X169.862 Y149.587 E0.00595
G1 X169.941 Y149.701 E0.00595
G1 X170 Y149.827 E0.00595
G1 X170.036 Y149.961 E0.00595
G1 X170.053 Y150.152 E0.00819
G1 X170.053 Y150.8 E0.02771
G1 X169.662 Y150.411 E0.02359
G1 X169.347 Y150.191 E0.01642
G1 X168.999 Y150.03 E0.01642
G1 X168.628 Y149.931 E0.01641
G1 X168.301 Y149.903 E0.01402
G1 X160.47 Y149.903 E0.33482
G1 E-1 F3000
; acceleration to travel
M204 S2500
G1 X168.07 Y171.343 F9000
; decel to extrusion
M204 S500
G1 X169.59 Y175.632
; end travel
G1 E1 F1800
G1 X159.982 Y175.632 E0.41082
G1 X159.982 Y180.321 E0.20051
G1 X159.609 Y180.37 E0.01607
G1 X159.54 Y180.113 E0.01137
G1 X159.518 Y179.866 E0.0106
G1 X159.518 Y158.368 E0.91919
G1 X159.542 Y158.224 E0.00624
G1 X159.602 Y158.15 E0.00405
G1 X159.736 Y158.067 E0.00673
G1 X159.99 Y158.189 E0.01205
G1 X159.998 Y158.681 E0.02107
G1 X160.085 Y159.006 E0.01436
G1 X160.216 Y159.286 E0.0132
G1 X160.393 Y159.539 E0.0132
G1 X160.611 Y159.757 E0.0132
G1 X160.864 Y159.934 E0.0132
G1 X161.144 Y160.065 E0.0132
G1 X161.442 Y160.145 E0.0132
G1 X161.716 Y160.168 E0.01176
G1 X168.284 Y160.168 E0.2808
G1 X168.559 Y160.144 E0.01182
G1 X168.852 Y160.066 E0.01293
G1 X169.13 Y159.937 E0.01313
G1 X169.395 Y159.751 E0.01382
G1 X169.602 Y159.544 E0.01252
G1 X169.782 Y159.29 E0.0133
G1 X169.917 Y158.999 E0.01373
G1 X169.994 Y158.71 E0.01279
G1 X170.018 Y158.434 E0.01183
G1 X170.018 Y152.066 E0.27224
G1 X169.995 Y151.793 E0.01174
G1 X169.916 Y151.498 E0.01303
G1 X169.783 Y151.213 E0.01347
G1 X169.605 Y150.959 E0.01325
G1 X169.386 Y150.741 E0.01322
G1 X169.133 Y150.564 E0.01321
G1 X168.853 Y150.434 E0.01321
G1 X168.554 Y150.355 E0.01321
G1 X168.283 Y150.332 E0.01164
G1 X159.982 Y150.332 E0.35492
G1 X159.982 Y151.123 E0.03382
G1 X159.668 Y151.118 E0.01342
G1 X159.563 Y151.031 E0.00583
G1 X159.529 Y150.936 E0.0043
G1 X159.519 Y150.131 E0.03444
G1 X159.54 Y149.887 E0.01048
G1 X159.596 Y149.68 E0.00916
G1 X159.686 Y149.486 E0.00916
G1 X159.809 Y149.31 E0.00916
G1 X159.96 Y149.159 E0.00916
G1 X160.136 Y149.036 E0.00916
G1 X160.33 Y148.946 E0.00916
G1 X160.537 Y148.89 E0.00916
G1 X160.784 Y148.868 E0.0106
G1 X169.216 Y148.868 E0.36055
G1 X169.463 Y148.89 E0.0106
G1 X169.67 Y148.946 E0.00916
G1 X169.864 Y149.036 E0.00916
G1 X170.04 Y149.159 E0.00916
G1 X170.191 Y149.31 E0.00916
G1 X170.314 Y149.486 E0.00916
G1 X170.404 Y149.68 E0.00916
G1 X170.46 Y149.887 E0.00916
G1 X170.482 Y150.134 E0.0106
G1 X170.482 Y179.867 E1.27125
G1 X170.46 Y180.112 E0.01055
G1 X170.391 Y180.37 E0.01141
G1 X170.018 Y180.321 E0.01607
G1 X170.018 Y175.632 E0.20052
G1 X169.65 Y175.632 E0.01576
G1 X169.59 Y176.06 F9000
;TYPE:External perimeter
G1 F1800
G1 X160.41 Y176.06 E0.3925
G1 X160.41 Y180.24 E0.17872
G1 X169.59 Y180.24 E0.3925
G1 X169.59 Y176.12 E0.17615
;WIPE_START
G1 X169.59 Y175.66 F9000
;WIPE_END
G1 E-1 F3000
; acceleration to travel
M204 S2500
G1 X161.94 Y154.91 F9000
; decel to extrusion
M204 S500
G1 X160.41 Y150.76
; end travel
G1 E1 F1800
G1 X160.41 Y151.557 E0.03407
G1 X159.627 Y151.546 E0.03348
G1 X159.525 Y151.519 E0.00453
G1 X159.421 Y151.47 E0.00491
G1 X159.327 Y151.405 E0.00491
G1 X159.245 Y151.323 E0.00491
G1 X159.18 Y151.229 E0.00491
G1 X159.131 Y151.125 E0.00491
G1 X159.101 Y151.014 E0.00491
G1 X159.09 Y150.885 E0.00555
G1 X159.09 Y150.115 E0.03293
G1 X159.116 Y149.812 E0.013
G1 X159.191 Y149.533 E0.01236
G1 X159.314 Y149.271 E0.01236
G1 X159.479 Y149.034 E0.01236
G1 X159.684 Y148.829 E0.01236
G1 X159.921 Y148.664 E0.01236
G1 X160.183 Y148.541 E0.01236
G1 X160.462 Y148.467 E0.01236
G1 X160.765 Y148.44 E0.013
G1 X169.235 Y148.44 E0.36215
G1 X169.538 Y148.467 E0.013
G1 X169.817 Y148.541 E0.01236
G1 X170.079 Y148.664 E0.01236
G1 X170.316 Y148.829 E0.01236
G1 X170.521 Y149.034 E0.01236
G1 X170.686 Y149.271 E0.01236
G1 X170.809 Y149.533 E0.01236
G1 X170.884 Y149.812 E0.01236
G1 X170.91 Y150.115 E0.013
G1 X170.91 Y179.885 E1.27285
G1 X170.884 Y180.187 E0.01295
G1 X170.809 Y180.465 E0.01231
G1 X170.688 Y180.726 E0.01231
G1 X170.524 Y180.962 E0.01229
G1 X170.312 Y181.174 E0.01281
G1 X170.076 Y181.339 E0.01231
G1 X169.825 Y181.455 E0.01181
G1 X169.536 Y181.534 E0.01284
G1 X169.235 Y181.56 E0.01291
M73 P3 R14
G1 X160.765 Y181.56 E0.36213
G1 X160.462 Y181.534 E0.013
G1 X160.183 Y181.459 E0.01236
G1 X159.921 Y181.336 E0.01236
G1 X159.684 Y181.171 E0.01236
G1 X159.479 Y180.966 E0.01236
G1 X159.314 Y180.729 E0.01236
G1 X159.191 Y180.467 E0.01236
G1 X159.116 Y180.188 E0.01236
G1 X159.09 Y179.885 E0.013
G1 X159.09 Y158.332 E0.9215
G1 X159.101 Y158.207 E0.00539
G1 X159.129 Y158.099 E0.00477
G1 X159.175 Y157.997 E0.00477
G1 X159.237 Y157.905 E0.00477
G1 X159.314 Y157.824 E0.00477
G1 X159.404 Y157.758 E0.00477
G1 X159.503 Y157.707 E0.00477
G1 X159.61 Y157.674 E0.00477
G1 X159.721 Y157.66 E0.00478
G1 X159.829 Y157.664 E0.00463
G1 X159.93 Y157.685 E0.00443
G1 X160.414 Y157.916 E0.02291
G1 X160.426 Y158.621 E0.03015
G1 X160.49 Y158.859 E0.01051
G1 X160.588 Y159.071 E0.01
G1 X160.723 Y159.262 E0.01
G1 X160.888 Y159.427 E0.01
G1 X161.079 Y159.562 E0.01
G1 X161.291 Y159.66 E0.01
G1 X161.517 Y159.721 E0.01
G1 X161.735 Y159.74 E0.00936
G1 X168.265 Y159.74 E0.27919
G1 X168.485 Y159.721 E0.00943
G1 X168.705 Y159.662 E0.00977
G1 X168.916 Y159.564 E0.0099
G1 X169.118 Y159.422 E0.01058
G1 X169.273 Y159.267 E0.00939
G1 X169.409 Y159.075 E0.01007
G1 X169.512 Y158.852 E0.01048
G1 X169.571 Y158.635 E0.00962
G1 X169.59 Y158.415 E0.00943
G1 X169.59 Y152.085 E0.27064
G1 X169.571 Y151.867 E0.00935
G1 X169.512 Y151.645 E0.00984
G1 X169.411 Y151.428 E0.01024
G1 X169.276 Y151.236 E0.01001
G1 X169.11 Y151.071 E0.01001
G1 X168.918 Y150.937 E0.01
G1 X168.706 Y150.838 E0.01
G1 X168.48 Y150.778 E0.01
G1 X168.264 Y150.76 E0.00926
G1 X160.47 Y150.76 E0.33326
;WIPE_START
G1 X160.01 Y150.76 F9000
;WIPE_END
G1 X160.372 Y149.674
;TYPE:Gap fill
;WIDTH:0.143865
G1 F1800
G1 X160.415 Y149.66 E0.00042
;WIDTH:0.173424
G1 X160.574 Y149.624 E0.00198
;WIDTH:0.264167
G1 X160.676 Y149.606 E0.0022
G1 X160.816 Y149.6 E0.00296
G1 X168.309 Y149.6 E0.15902
G1 X168.495 Y149.608 E0.00395
;WIDTH:0.297718
G1 X168.672 Y149.615 E0.00435
G1 X168.798 Y149.631 E0.00312
;WIDTH:0.334427
G1 X168.903 Y149.644 E0.00298
;WIDTH:0.370856
G1 X169.007 Y149.658 E0.00336
;WIDTH:0.407285
G1 X169.112 Y149.672 E0.00374
;WIDTH:0.44326
G1 X169.299 Y149.717 E0.00754
;WIDTH:0.48559
G1 X169.481 Y149.796 E0.00859
;WIDTH:0.453081
G1 X169.615 Y149.909 E0.007
;WIDTH:0.38626
G1 X169.699 Y150.021 E0.00468
;WIDTH:0.269741
G1 X169.782 Y150.164 E0.00361
;WIDTH:0.199628
G1 X169.856 Y150.292 E0.00218
; acceleration to travel
M204 S2500
G1 X169.597 Y158.38 F9000
