; generated by SuperSlicer 2.3.57 on 2022-02-10 at 00:13:28 UTC


;
;

;
;
; 

; external perimeters extrusion width = 0.40mm
; perimeters extrusion width = 0.45mm
; infill extrusion width = 0.72mm
; solid infill extrusion width = 0.56mm
; top infill extrusion width = 0.40mm
; first layer extrusion width = 0.48mm

; object:{"name":"Lack_Reverse_Bowden_Adapter_-_Inside_Part","id":"Lack_Reverse_Bowden_Adapter_-_Inside_Part.stl id:0 copy 0","object_center":[164.999173,158.552553,0.000000],"boundingbox_center":[164.999173,158.552553,5.375000],"boundingbox_size":[11.996719,11.998360,10.750000]}
; object:{"name":"Lack_Reverse_Bowden_Adapter_-_Inside_Part","id":"Lack_Reverse_Bowden_Adapter_-_Inside_Part.stl id:1 copy 0","object_center":[152.002455,158.552517,0.000000],"boundingbox_center":[152.002455,158.552517,4.875000],"boundingbox_size":[11.996719,11.998360,9.750000]}
; plater:{"center":[158.500814,158.552535,0.000000],"boundingbox_center":[158.500814,158.552535,5.375000],"boundingbox_size":[24.993437,11.998396,10.750000]}

;TYPE:Custom
START_PRINT T_BED=60 T_EXTRUDER=200
M107
G21 ; set units to millimeters
G90 ; use absolute coordinates
M83 ; use relative distances for extrusion
; Filament gcode
M104 S200 ; set temperature
M109 S200 ; set temperature and wait for it to be reached
M190 S60 ; set bed temperature and wait for it to be reached
M107
;LAYER_CHANGE
;Z:0.24
;HEIGHT:0.24
G1 E-0.6 F3000
G1 Z0.24 F9000
G1 X145.073 Y151.99
G1 E0.6 F1800
; External perimeter
;Skirt
SET_VELOCITY_LIMIT ACCEL=3000 ACCEL_TO_DECEL=3000 SQUARE_CORNER_VELOCITY=8

; Support material

;TYPE:Skirt
;WIDTH:0.48
G1 X143.915 Y153.484 E0.08082
G1 X143.08 Y155.164 E0.08022
G1 X142.585 Y157.003 E0.08142
G1 X142.464 Y158.875 E0.08022
G1 X142.714 Y160.749 E0.08082
G1 X143.329 Y162.536 E0.08082
G1 X144.293 Y164.179 E0.08142
G1 X145.022 Y165.06 E0.0489
G1 X145.617 Y165.644 E0.03564
G1 X146.518 Y166.363 E0.0493
G1 X147.501 Y166.967 E0.0493
G1 X148.257 Y167.329 E0.03584
G1 X149.338 Y167.716 E0.0491
G1 X151.234 Y168.064 E0.08243
G1 X164.908 Y168.094 E0.58465
G1 X166.027 Y168.039 E0.04789
G1 X167.324 Y167.807 E0.05634
G1 X168.52 Y167.421 E0.05373
G1 X169.667 Y166.875 E0.05433
G1 X170.701 Y166.203 E0.05272
G1 X171.754 Y165.29 E0.05956
G1 X172.838 Y163.99 E0.07239
G1 X173.537 Y162.812 E0.05855
G1 X174.058 Y161.546 E0.05855
G1 X174.443 Y159.907 E0.07198
G1 X174.54 Y158.536 E0.05875
G1 X174.439 Y157.175 E0.05835
G1 X174.03 Y155.474 E0.0748
G1 X173.491 Y154.205 E0.05896
G1 X172.592 Y152.776 E0.07218
G1 X171.687 Y151.747 E0.05855
G1 X170.648 Y150.863 E0.05835
G1 X169.208 Y149.99 E0.07198
G1 X167.939 Y149.475 E0.05855
G1 X166.614 Y149.149 E0.05835
G1 X164.9 Y149.011 E0.07353
G1 X151.163 Y149.047 E0.58732
G1 X149.954 Y149.232 E0.05232
G1 X148.729 Y149.588 E0.05453
G1 X147.579 Y150.096 E0.05373
G1 X146.453 Y150.789 E0.05654
G1 X145.118 Y151.95 E0.07564
G1 X145.396 Y152.272 F9000
G1 F1800
G1 X144.287 Y153.698 E0.07724
G1 X143.483 Y155.31 E0.077
G1 X143.011 Y157.052 E0.07719
G1 X142.892 Y158.854 E0.07719
G1 X143.129 Y160.639 E0.077
G1 X143.714 Y162.347 E0.07719
G1 X144.609 Y163.885 E0.07606
G1 X145.838 Y165.267 E0.07908
G1 X147.359 Y166.395 E0.08096
G1 X148.344 Y166.901 E0.04735
G1 X149.392 Y167.285 E0.04773
G1 X151.266 Y167.637 E0.08152
G1 X164.904 Y167.666 E0.58313
G1 X165.971 Y167.614 E0.04565
G1 X167.218 Y167.392 E0.05415
G1 X168.352 Y167.027 E0.05094
G1 X169.452 Y166.504 E0.05208
G1 X170.408 Y165.886 E0.04867
G1 X171.439 Y165 E0.05812
G1 X172.483 Y163.75 E0.06965
G1 X173.15 Y162.627 E0.05585
G1 X173.645 Y161.428 E0.05547
G1 X174.019 Y159.842 E0.06965
G1 X174.112 Y158.544 E0.05566
G1 X174.016 Y157.245 E0.05566
G1 X173.625 Y155.614 E0.07172
G1 X173.112 Y154.403 E0.05623
G1 X172.246 Y153.029 E0.06946
G1 X171.389 Y152.055 E0.05547
G1 X170.401 Y151.214 E0.05547
G1 X169.012 Y150.371 E0.06946
G1 X167.81 Y149.883 E0.05547
G1 X166.55 Y149.573 E0.05547
G1 X164.9 Y149.439 E0.07078
G1 X151.222 Y149.472 E0.58482
G1 X150.052 Y149.649 E0.05056
G1 X148.891 Y149.985 E0.0517
G1 X147.792 Y150.468 E0.05132
G1 X146.748 Y151.104 E0.05226
G1 X145.442 Y152.233 E0.07382
; INIT printing object Lack_Reverse_Bowden_Adapter_-_Inside_Part.stl id:0 copy 0
G1 E-0.6 F3000
; printing object Lack_Reverse_Bowden_Adapter_-_Inside_Part.stl id:0 copy 0
G1 X161.043 Y157.013 F9000
G1 E0.6 F1800
; External perimeter
;Perimeter
SET_VELOCITY_LIMIT ACCEL=2000 ACCEL_TO_DECEL=2000 SQUARE_CORNER_VELOCITY=8

; Overhang perimeter

;TYPE:Internal perimeter
G1 F1200
G1 X160.934 Y157.428 E0.01833
G1 X160.856 Y157.993 E0.02441
G1 X160.849 Y158.409 E0.01779
G1 X160.881 Y158.809 E0.01714
G1 X160.951 Y159.201 E0.01703
G1 X161.058 Y159.582 E0.01692
G1 X161.202 Y159.952 E0.01697
G1 X161.411 Y160.356 E0.01945
G1 X161.823 Y160.933 E0.0303
G1 X162.351 Y161.441 E0.03132
G1 X162.967 Y161.842 E0.03144
G1 X163.628 Y162.111 E0.03053
G1 X164.045 Y162.211 E0.01833
G1 X164.45 Y162.264 E0.01747
G1 X165.341 Y162.254 E0.03809
G1 X165.722 Y162.197 E0.01648
G1 X166.076 Y162.108 E0.01559
G1 X166.42 Y161.986 E0.01559
G1 X166.749 Y161.83 E0.01559
G1 X167.062 Y161.642 E0.01559
G1 X167.343 Y161.434 E0.01495
G1 X167.795 Y161.046 E0.02547
G1 X168.048 Y160.775 E0.01586
G1 X168.27 Y160.485 E0.01564
G1 X168.467 Y160.168 E0.01594
G1 X168.653 Y159.786 E0.01815
G1 X168.784 Y159.422 E0.01656
G1 X168.878 Y159.047 E0.01651
G1 X168.936 Y158.658 E0.01684
G1 X168.954 Y158.2 E0.0196
G1 X168.931 Y157.848 E0.01507
G1 X168.856 Y157.396 E0.01959
G1 X168.731 Y156.964 E0.01925
G1 X168.555 Y156.536 E0.01978
G1 X168.337 Y156.142 E0.01925
G1 X168.127 Y155.837 E0.01582
G1 X167.846 Y155.504 E0.01863
G1 X167.572 Y155.237 E0.01637
G1 X167.223 Y154.958 E0.01912
G1 X166.641 Y154.607 E0.02905
G1 X166.22 Y154.46 E0.01904
G1 X165.818 Y154.36 E0.01774
G1 X165.401 Y154.3 E0.01801
G1 X164.939 Y154.282 E0.01976
G1 X164.57 Y154.302 E0.0158
G1 X164.14 Y154.367 E0.0186
G1 X163.459 Y154.565 E0.03033
G1 X162.832 Y154.869 E0.0298
G1 X162.473 Y155.106 E0.01838
G1 X162.153 Y155.366 E0.01762
G1 X161.857 Y155.657 E0.01777
G1 X161.576 Y155.994 E0.01875
G1 X161.199 Y156.591 E0.03017
G1 X161.063 Y156.957 E0.0167
G1 X161.465 Y157.105 F9000
G1 F1200
G1 X161.452 Y157.142 E0.00168
G1 X161.354 Y157.512 E0.01634
G1 X161.284 Y158.026 E0.02221
G1 X161.277 Y158.396 E0.0158
G1 X161.306 Y158.754 E0.01536
G1 X161.369 Y159.105 E0.01525
G1 X161.465 Y159.446 E0.01514
G1 X161.594 Y159.775 E0.01513
G1 X161.778 Y160.132 E0.01717
G1 X162.148 Y160.652 E0.02727
G1 X162.618 Y161.104 E0.02788
G1 X163.166 Y161.46 E0.02795
G1 X163.76 Y161.702 E0.02739
G1 X164.123 Y161.789 E0.01598
G1 X164.476 Y161.835 E0.0152
G1 X165.307 Y161.826 E0.03556
G1 X165.639 Y161.776 E0.01434
G1 X165.952 Y161.698 E0.01379
G1 X166.255 Y161.589 E0.01379
G1 X166.547 Y161.451 E0.01379
G1 X166.824 Y161.286 E0.01379
G1 X167.075 Y161.099 E0.0134
G1 X167.498 Y160.736 E0.0238
G1 X167.72 Y160.498 E0.01395
G1 X167.918 Y160.24 E0.01386
G1 X168.092 Y159.961 E0.01409
G1 X168.257 Y159.62 E0.01621
G1 X168.374 Y159.297 E0.01468
G1 X168.458 Y158.963 E0.01469
G1 X168.509 Y158.618 E0.01492
G1 X168.525 Y158.205 E0.01766
G1 X168.505 Y157.897 E0.0132
G1 X168.437 Y157.491 E0.0176
G1 X168.325 Y157.105 E0.01719
G1 X168.168 Y156.721 E0.01772
G1 X167.972 Y156.367 E0.01729
G1 X167.786 Y156.097 E0.01402
G1 X167.533 Y155.797 E0.01683
G1 X167.288 Y155.559 E0.01458
G1 X166.977 Y155.31 E0.01702
G1 X166.457 Y154.997 E0.02595
G1 X166.098 Y154.871 E0.01628
G1 X165.735 Y154.781 E0.01598
G1 X165.362 Y154.727 E0.01615
G1 X164.943 Y154.711 E0.01792
G1 X164.614 Y154.729 E0.01409
G1 X164.232 Y154.786 E0.01651
G1 X163.613 Y154.967 E0.02755
G1 X163.044 Y155.243 E0.02704
G1 X162.727 Y155.453 E0.01627
G1 X162.439 Y155.686 E0.01585
G1 X162.172 Y155.948 E0.01599
G1 X161.923 Y156.247 E0.01664
G1 X161.585 Y156.781 E0.02703
G1 X161.486 Y157.049 E0.0122
G1 X161.888 Y157.198 F9000
; External perimeter
;ExternalPerimeter
SET_VELOCITY_LIMIT ACCEL=1000 ACCEL_TO_DECEL=1000 SQUARE_CORNER_VELOCITY=8

; Perimeter

;TYPE:External perimeter
G1 F605.67706
G1 X161.861 Y157.271 E0.00336
G1 X161.775 Y157.596 E0.01435
G1 X161.712 Y158.059 E0.02
G1 X161.706 Y158.382 E0.01381
G1 X161.732 Y158.699 E0.01358
G1 X161.787 Y159.009 E0.01347
G1 X161.872 Y159.31 E0.01335
G1 X161.985 Y159.599 E0.01328
G1 X162.144 Y159.909 E0.0149
G1 X162.474 Y160.37 E0.02425
G1 X162.886 Y160.767 E0.02445
G1 X163.365 Y161.079 E0.02446
G1 X163.891 Y161.293 E0.02426
G1 X164.201 Y161.367 E0.01362
G1 X164.501 Y161.406 E0.01294
G1 X165.273 Y161.397 E0.03302
G1 X165.555 Y161.356 E0.01219
G1 X165.827 Y161.287 E0.01199
G1 X166.091 Y161.193 E0.01199
G1 X166.345 Y161.073 E0.01199
G1 X166.585 Y160.929 E0.01199
G1 X166.808 Y160.764 E0.01185
G1 X167.201 Y160.427 E0.02213
G1 X167.393 Y160.221 E0.01205
G1 X167.565 Y159.996 E0.01209
G1 X167.716 Y159.753 E0.01224
G1 X167.862 Y159.453 E0.01428
G1 X167.963 Y159.171 E0.01279
G1 X168.037 Y158.879 E0.01287
G1 X168.082 Y158.578 E0.01301
G1 X168.096 Y158.211 E0.01572
G1 X168.079 Y157.946 E0.01134
G1 X168.018 Y157.586 E0.01561
G1 X167.92 Y157.246 E0.01514
G1 X167.781 Y156.907 E0.01567
G1 X167.608 Y156.593 E0.01533
G1 X167.445 Y156.358 E0.01222
G1 X167.219 Y156.089 E0.01503
G1 X167.004 Y155.88 E0.0128
G1 X166.732 Y155.662 E0.01492
G1 X166.274 Y155.386 E0.02284
G1 X165.976 Y155.282 E0.01352
G1 X165.653 Y155.202 E0.01421
G1 X165.322 Y155.154 E0.01428
G1 X164.946 Y155.14 E0.01609
G1 X164.657 Y155.156 E0.01237
G1 X164.324 Y155.206 E0.01441
G1 X163.768 Y155.368 E0.02477
G1 X163.257 Y155.616 E0.02429
G1 X162.98 Y155.799 E0.01417
G1 X162.724 Y156.006 E0.01408
G1 X162.488 Y156.239 E0.0142
G1 X162.27 Y156.5 E0.01453
G1 X161.971 Y156.972 E0.02389
G1 X161.909 Y157.141 E0.00771
;WIPE_START
G1 X161.811 Y157.211 F9000
;WIPE_END
G1 X160.573 Y156.692
; External perimeter
;Perimeter
SET_VELOCITY_LIMIT ACCEL=2000 ACCEL_TO_DECEL=2000 SQUARE_CORNER_VELOCITY=8

; Overhang perimeter

;TYPE:Internal perimeter
G1 F1200
G1 X160.632 Y156.551 E0.00654
G1 X160.774 Y156.267 E0.01358
G1 X160.934 Y155.993 E0.01358
G1 X161.112 Y155.73 E0.01358
G1 X161.307 Y155.479 E0.01358
G1 X161.519 Y155.242 E0.01358
G1 X161.745 Y155.019 E0.01358
G1 X161.986 Y154.812 E0.01358
G1 X162.239 Y154.621 E0.01358
G1 X162.505 Y154.448 E0.01358
G1 X162.782 Y154.292 E0.01358
G1 X163.068 Y154.155 E0.01358
G1 X163.363 Y154.037 E0.01358
G1 X163.665 Y153.939 E0.01358
G1 X163.973 Y153.861 E0.01358
G1 X164.286 Y153.803 E0.01358
G1 X164.601 Y153.767 E0.01358
G1 X164.918 Y153.751 E0.01358
G1 X165.236 Y153.756 E0.01358
G1 X165.552 Y153.782 E0.01358
G1 X165.866 Y153.829 E0.01358
G1 X166.176 Y153.897 E0.01358
G1 X166.482 Y153.985 E0.01358
G1 X166.78 Y154.093 E0.01358
G1 X167.071 Y154.221 E0.01358
G1 X167.353 Y154.367 E0.01358
G1 X167.624 Y154.532 E0.01358
G1 X167.884 Y154.715 E0.01358
G1 X168.131 Y154.914 E0.01358
G1 X168.365 Y155.129 E0.01358
G1 X168.584 Y155.359 E0.01358
G1 X168.787 Y155.603 E0.01358
G1 X168.974 Y155.86 E0.01358
G1 X169.143 Y156.128 E0.01358
G1 X169.294 Y156.408 E0.01358
G1 X169.427 Y156.696 E0.01358
G1 X169.54 Y156.993 E0.01358
G1 X169.633 Y157.297 E0.01358
G1 X169.706 Y157.606 E0.01358
G1 X169.758 Y157.919 E0.01358
G1 X169.789 Y158.235 E0.01358
G1 X169.8 Y158.553 E0.01358
G1 X169.789 Y158.87 E0.01358
G1 X169.758 Y159.186 E0.01358
G1 X169.706 Y159.499 E0.01358
G1 X169.633 Y159.808 E0.01358
G1 X169.54 Y160.112 E0.01358
G1 X169.427 Y160.409 E0.01358
G1 X169.294 Y160.697 E0.01358
G1 X169.143 Y160.977 E0.01358
G1 X168.974 Y161.245 E0.01358
G1 X168.787 Y161.502 E0.01358
G1 X168.584 Y161.746 E0.01358
G1 X168.365 Y161.976 E0.01358
G1 X168.131 Y162.191 E0.01358
G1 X167.884 Y162.391 E0.01358
G1 X167.624 Y162.573 E0.01358
G1 X167.353 Y162.738 E0.01358
G1 X167.071 Y162.884 E0.01358
G1 X166.78 Y163.012 E0.01358
G1 X166.482 Y163.12 E0.01358
G1 X166.176 Y163.208 E0.01358
G1 X165.866 Y163.276 E0.01358
G1 X165.552 Y163.323 E0.01358
G1 X165.236 Y163.349 E0.01358
G1 X164.918 Y163.354 E0.01358
G1 X164.601 Y163.339 E0.01358
G1 X164.286 Y163.302 E0.01358
G1 X163.973 Y163.244 E0.01358
G1 X163.665 Y163.166 E0.01358
G1 X163.363 Y163.068 E0.01358
G1 X163.068 Y162.95 E0.01358
G1 X162.782 Y162.813 E0.01358
G1 X162.505 Y162.658 E0.01358
G1 X162.239 Y162.484 E0.01358
G1 X161.986 Y162.293 E0.01358
G1 X161.745 Y162.086 E0.01358
G1 X161.519 Y161.863 E0.01358
G1 X161.307 Y161.626 E0.01358
G1 X161.112 Y161.375 E0.01358
G1 X160.934 Y161.112 E0.01358
G1 X160.774 Y160.838 E0.01358
G1 X160.632 Y160.554 E0.01358
G1 X160.509 Y160.261 E0.01358
G1 X160.406 Y159.961 E0.01358
G1 X160.323 Y159.654 E0.01358
G1 X160.261 Y159.343 E0.01358
G1 X160.219 Y159.028 E0.01358
G1 X160.198 Y158.711 E0.01358
G1 X160.198 Y158.394 E0.01358
G1 X160.219 Y158.077 E0.01358
G1 X160.261 Y157.762 E0.01358
G1 X160.323 Y157.451 E0.01358
G1 X160.406 Y157.144 E0.01358
G1 X160.509 Y156.844 E0.01358
G1 X160.55 Y156.748 E0.00447
G1 X160.155 Y156.582 F9000
G1 F1200
G1 X160.242 Y156.372 E0.00972
G1 X160.397 Y156.063 E0.01479
G1 X160.572 Y155.764 E0.01479
G1 X160.765 Y155.478 E0.01479
G1 X160.978 Y155.205 E0.01479
G1 X161.208 Y154.946 E0.01479
G1 X161.455 Y154.704 E0.01479
G1 X161.717 Y154.478 E0.01479
G1 X161.993 Y154.27 E0.01479
G1 X162.283 Y154.081 E0.01479
G1 X162.584 Y153.911 E0.01479
G1 X162.896 Y153.762 E0.01479
G1 X163.217 Y153.634 E0.01479
G1 X163.546 Y153.527 E0.01479
G1 X163.882 Y153.442 E0.01479
G1 X164.222 Y153.379 E0.01479
G1 X164.566 Y153.339 E0.01479
G1 X164.911 Y153.322 E0.01479
G1 X165.257 Y153.328 E0.01479
G1 X165.602 Y153.356 E0.01479
G1 X165.944 Y153.408 E0.01479
G1 X166.282 Y153.482 E0.01479
G1 X166.614 Y153.577 E0.01479
G1 X166.939 Y153.695 E0.01479
G1 X167.256 Y153.834 E0.01479
G1 X167.563 Y153.994 E0.01479
G1 X167.859 Y154.173 E0.01479
G1 X168.142 Y154.372 E0.01479
G1 X168.411 Y154.589 E0.01479
G1 X168.666 Y154.823 E0.01479
G1 X168.904 Y155.074 E0.01479
G1 X169.126 Y155.34 E0.01479
G1 X169.329 Y155.619 E0.01479
G1 X169.513 Y155.912 E0.01479
G1 X169.678 Y156.216 E0.01479
G1 X169.822 Y156.531 E0.01479
G1 X169.945 Y156.854 E0.01479
G1 X170.047 Y157.185 E0.01479
G1 X170.126 Y157.521 E0.01479
G1 X170.183 Y157.863 E0.01479
G1 X170.217 Y158.207 E0.01479
G1 X170.229 Y158.553 E0.01479
G1 X170.217 Y158.898 E0.01479
G1 X170.183 Y159.242 E0.01479
G1 X170.126 Y159.584 E0.01479
G1 X170.047 Y159.92 E0.01479
G1 X169.945 Y160.251 E0.01479
G1 X169.822 Y160.574 E0.01479
G1 X169.678 Y160.889 E0.01479
G1 X169.513 Y161.193 E0.01479
G1 X169.329 Y161.486 E0.01479
G1 X169.126 Y161.766 E0.01479
G1 X168.904 Y162.031 E0.01479
G1 X168.666 Y162.282 E0.01479
G1 X168.411 Y162.516 E0.01479
G1 X168.142 Y162.733 E0.01479
G1 X167.859 Y162.932 E0.01479
G1 X167.563 Y163.111 E0.01479
G1 X167.256 Y163.271 E0.01479
G1 X166.939 Y163.41 E0.01479
G1 X166.614 Y163.528 E0.01479
G1 X166.282 Y163.624 E0.01479
G1 X165.944 Y163.697 E0.01479
G1 X165.602 Y163.749 E0.01479
G1 X165.257 Y163.777 E0.01479
G1 X164.911 Y163.783 E0.01479
G1 X164.566 Y163.766 E0.01479
G1 X164.222 Y163.726 E0.01479
G1 X163.882 Y163.663 E0.01479
G1 X163.546 Y163.578 E0.01479
G1 X163.217 Y163.471 E0.01479
G1 X162.896 Y163.343 E0.01479
G1 X162.584 Y163.194 E0.01479
G1 X162.283 Y163.024 E0.01479
G1 X161.993 Y162.835 E0.01479
G1 X161.717 Y162.627 E0.01479
G1 X161.455 Y162.401 E0.01479
G1 X161.208 Y162.159 E0.01479
G1 X160.978 Y161.9 E0.01479
G1 X160.765 Y161.627 E0.01479
G1 X160.572 Y161.341 E0.01479
G1 X160.397 Y161.042 E0.01479
G1 X160.242 Y160.733 E0.01479
G1 X160.109 Y160.414 E0.01479
G1 X159.996 Y160.087 E0.01479
G1 X159.906 Y159.753 E0.01479
G1 X159.838 Y159.414 E0.01479
G1 X159.792 Y159.071 E0.01479
G1 X159.769 Y158.726 E0.01479
G1 X159.769 Y158.38 E0.01479
G1 X159.792 Y158.034 E0.01479
G1 X159.838 Y157.692 E0.01479
G1 X159.906 Y157.352 E0.01479
G1 X159.996 Y157.019 E0.01479
G1 X160.109 Y156.691 E0.01479
G1 X160.131 Y156.637 E0.00251
G1 X159.736 Y156.472 F9000
; External perimeter
;ExternalPerimeter
SET_VELOCITY_LIMIT ACCEL=1000 ACCEL_TO_DECEL=1000 SQUARE_CORNER_VELOCITY=8

; Perimeter

;TYPE:External perimeter
G1 F600
G1 X159.853 Y156.194 E0.01289
G1 X160.02 Y155.859 E0.016
G1 X160.209 Y155.536 E0.016
G1 X160.419 Y155.226 E0.016
G1 X160.649 Y154.93 E0.016
G1 X160.897 Y154.651 E0.016
G1 X161.164 Y154.388 E0.016
G1 X161.448 Y154.144 E0.016
