; generated by SuperSlicer 2.3.57 on 2022-04-19 at 03:02:42 UTC


;
;

;
;
; 

; external perimeters extrusion width = 0.40mm
; perimeters extrusion width = 0.45mm
; infill extrusion width = 0.72mm
; solid infill extrusion width = 0.56mm
; top infill extrusion width = 0.40mm
; support material extrusion width = 0.42mm
; first layer extrusion width = 0.48mm

; object:{"name":"CrossBar","id":"CrossBar.stl id:0 copy 0","object_center":[165.000000,165.000000,0.000000],"boundingbox_center":[165.000000,165.000000,5.000000],"boundingbox_size":[20.000000,224.960007,10.000000]}
; plater:{"center":[165.000000,165.000000,0.000000],"boundingbox_center":[165.000000,165.000000,5.000000],"boundingbox_size":[20.000000,224.960007,10.000000]}

;TYPE:Custom
START_PRINT T_BED=60 T_EXTRUDER=200
M107
G21 ; set units to millimeters
G90 ; use absolute coordinates
M83 ; use relative distances for extrusion
; Filament gcode
M104 S200 ; set temperature
M109 S200 ; set temperature and wait for it to be reached
M190 S60 ; set bed temperature and wait for it to be reached
M107
;LAYER_CHANGE
;Z:0.24
;HEIGHT:0.24
G1 E-0.6 F3000
G1 Z0.24 F9000
G1 X151.692 Y61.274
G1 E0.6 F1800
; External perimeter
;Skirt
SET_VELOCITY_LIMIT ACCEL=300 ACCEL_TO_DECEL=3000 SQUARE_CORNER_VELOCITY=5

; Support material

;TYPE:Skirt
;WIDTH:0.48
G1 X151.516 Y61.91 E0.02819
G1 X151.457 Y62.561 E0.02798
G1 X151.464 Y267.664 E8.76924
G1 X151.552 Y268.265 E0.02598
G1 X151.739 Y268.843 E0.02598
G1 X152.019 Y269.382 E0.02598
G1 X152.385 Y269.867 E0.02598
G1 X162.446 Y279.936 E0.60858
G1 X162.995 Y280.38 E0.03019
G1 X163.62 Y280.71 E0.03019
G1 X164.296 Y280.913 E0.03019
G1 X164.999 Y280.981 E0.03019
G1 X165.711 Y280.911 E0.03059
G1 X166.391 Y280.705 E0.03039
G1 X167.023 Y280.368 E0.03059
G1 X167.576 Y279.914 E0.03059
G1 X177.636 Y269.843 E0.60863
G1 X178.022 Y269.315 E0.02798
G1 X178.308 Y268.726 E0.02798
G1 X178.484 Y268.09 E0.02819
G1 X178.543 Y267.439 E0.02798
G1 X178.536 Y62.336 E8.76924
G1 X178.448 Y61.735 E0.02598
G1 X178.261 Y61.157 E0.02598
G1 X177.981 Y60.618 E0.02598
G1 X177.615 Y60.133 E0.02598
G1 X167.554 Y50.064 E0.60858
G1 X167.005 Y49.62 E0.03019
G1 X166.38 Y49.29 E0.03019
G1 X165.709 Y49.088 E0.02999
G1 X165.006 Y49.019 E0.03019
G1 X164.294 Y49.088 E0.03059
G1 X163.609 Y49.295 E0.03059
G1 X162.977 Y49.632 E0.03059
G1 X162.424 Y50.086 E0.03059
G1 X152.364 Y60.157 E0.60863
G1 X151.978 Y60.685 E0.02798
G1 X151.718 Y61.22 E0.02542
G1 X152.101 Y61.407 F9000
G1 F1800
G1 X151.939 Y61.98 E0.02545
G1 X151.886 Y62.561 E0.02496
G1 X151.892 Y267.633 E8.76794
G1 X152.137 Y268.685 E0.04618
G1 X152.717 Y269.596 E0.04618
G1 X162.743 Y279.627 E0.60635
G1 X163.227 Y280.02 E0.02666
G1 X163.778 Y280.311 E0.02666
G1 X164.379 Y280.492 E0.02685
G1 X165 Y280.553 E0.02666
G1 X165.625 Y280.492 E0.02685
G1 X166.23 Y280.308 E0.02704
G1 X166.784 Y280.012 E0.02685
G1 X167.273 Y279.611 E0.02704
G1 X177.3 Y269.576 E0.60655
G1 X177.647 Y269.107 E0.02496
G1 X177.904 Y268.582 E0.02496
G1 X178.061 Y268.02 E0.02496
G1 X178.114 Y267.439 E0.02496
G1 X178.108 Y62.367 E8.76794
G1 X177.863 Y61.315 E0.04618
G1 X177.283 Y60.404 E0.04618
G1 X167.257 Y50.373 E0.60635
G1 X166.773 Y49.98 E0.02666
G1 X166.222 Y49.689 E0.02666
G1 X165.625 Y49.509 E0.02666
G1 X165.005 Y49.447 E0.02666
G1 X164.375 Y49.508 E0.02704
G1 X163.77 Y49.692 E0.02704
G1 X163.216 Y49.988 E0.02685
G1 X162.727 Y50.389 E0.02704
G1 X152.7 Y60.424 E0.60655
G1 X152.353 Y60.893 E0.02496
G1 X152.128 Y61.354 E0.02191
; INIT printing object CrossBar.stl id:0 copy 0
G1 E-0.6 F3000
; printing object CrossBar.stl id:0 copy 0
G1 X165 Y275.787 F9000
G1 E0.6 F1800
; External perimeter
;Perimeter
SET_VELOCITY_LIMIT ACCEL=2000 ACCEL_TO_DECEL=2000 SQUARE_CORNER_VELOCITY=5

; Overhang perimeter

;TYPE:Internal perimeter
G1 X156.197 Y266.984 E0.53228
G1 X156.197 Y63.016 E8.72076
G1 X165 Y54.213 E0.53228
G1 X173.803 Y63.016 E0.53228
G1 X173.803 Y266.984 E8.72076
G1 X165.042 Y275.745 E0.52971
G1 X165 Y276.393 F9000
G1 F1800
G1 X155.768 Y267.162 E0.55819
G1 X155.768 Y62.838 E8.73594
G1 X165 Y53.607 E0.55819
G1 X174.232 Y62.838 E0.55819
G1 X174.232 Y267.162 E8.73594
G1 X165.042 Y276.351 E0.55562
G1 X165 Y276.999 F9000
; External perimeter
;ExternalPerimeter
SET_VELOCITY_LIMIT ACCEL=1000 ACCEL_TO_DECEL=1000 SQUARE_CORNER_VELOCITY=5

; Perimeter

;TYPE:External perimeter
G1 F1800
G1 X155.34 Y267.339 E0.5841
G1 X155.34 Y62.661 E8.75112
G1 X165 Y53.001 E0.5841
G1 X165.085 Y53.086 E0.0046
G1 X165.104 Y53.105 E0.00065
G1 X174.66 Y62.661 E0.57778
G1 X174.66 Y267.339 E8.75112
G1 X165.042 Y276.957 E0.58153
;WIPE_START
G1 X164.896 Y276.613 F9000
;WIPE_END
G1 X173.739 Y63.315
; External perimeter
;SolidInfill
SET_VELOCITY_LIMIT ACCEL=2000 ACCEL_TO_DECEL=2000 SQUARE_CORNER_VELOCITY=5

; Bridge infill

;TYPE:Solid infill
;WIDTH:0.476048
G1 F2400
G1 X164.994 Y54.57 E0.52441
G1 X164.691 Y54.873 E0.01817
G1 X173.555 Y63.737 E0.53153
G1 X173.555 Y64.343 E0.0257
G1 X164.388 Y55.176 E0.5497
G1 X164.085 Y55.479 E0.01817
G1 X173.555 Y64.949 E0.56787
G1 X173.555 Y65.555 E0.0257
G1 X163.782 Y55.782 E0.58604
G1 X163.479 Y56.085 E0.01817
G1 X173.555 Y66.161 E0.60421
G1 X173.555 Y66.767 E0.0257
G1 X163.176 Y56.388 E0.62238
G1 X162.873 Y56.691 E0.01817
G1 X173.555 Y67.373 E0.64055
G1 X173.555 Y67.979 E0.0257
G1 X162.57 Y56.994 E0.65871
G1 X162.267 Y57.297 E0.01817
G1 X173.555 Y68.585 E0.67688
G1 X173.555 Y69.191 E0.0257
G1 X161.964 Y57.6 E0.69505
G1 X161.661 Y57.903 E0.01817
G1 X173.555 Y69.797 E0.71322
G1 X173.555 Y70.403 E0.0257
G1 X161.358 Y58.206 E0.73139
G1 X161.055 Y58.509 E0.01817
G1 X173.555 Y71.009 E0.74956
G1 X173.555 Y71.615 E0.0257
G1 X160.752 Y58.812 E0.76773
G1 X160.449 Y59.115 E0.01817
G1 X173.555 Y72.221 E0.7859
G1 X173.555 Y72.827 E0.0257
G1 X160.146 Y59.418 E0.80407
G1 X159.843 Y59.721 E0.01817
G1 X173.555 Y73.433 E0.82224
G1 X173.555 Y74.039 E0.0257
G1 X159.54 Y60.024 E0.84041
G1 X159.237 Y60.327 E0.01817
G1 X173.555 Y74.645 E0.85858
G1 X173.555 Y75.251 E0.0257
G1 X158.934 Y60.63 E0.87675
G1 X158.631 Y60.933 E0.01817
G1 X173.555 Y75.857 E0.89492
G1 X173.555 Y76.463 E0.0257
G1 X158.328 Y61.236 E0.91309
G1 X158.025 Y61.539 E0.01817
G1 X173.555 Y77.069 E0.93126
G1 X173.555 Y77.675 E0.0257
G1 X157.722 Y61.842 E0.94943
G1 X157.419 Y62.145 E0.01817
G1 X173.555 Y78.281 E0.9676
G1 X173.555 Y78.887 E0.0257
G1 X157.116 Y62.448 E0.98577
G1 X156.813 Y62.751 E0.01817
G1 X173.555 Y79.492 E1.00394
G1 X173.555 Y80.098 E0.0257
G1 X156.51 Y63.054 E1.02211
G1 X156.445 Y63.119 E0.00388
G1 X156.445 Y63.595 E0.02021
G1 X173.555 Y80.704 E1.02598
G1 X173.555 Y81.31 E0.0257
G1 X156.445 Y64.201 E1.02598
G1 X156.445 Y64.807 E0.0257
G1 X173.555 Y81.916 E1.02598
G1 X173.555 Y82.522 E0.0257
G1 X156.445 Y65.413 E1.02598
G1 X156.445 Y66.019 E0.0257
G1 X173.555 Y83.128 E1.02598
G1 X173.555 Y83.734 E0.0257
G1 X156.445 Y66.625 E1.02598
G1 X156.445 Y67.231 E0.0257
G1 X173.555 Y84.34 E1.02598
G1 X173.555 Y84.946 E0.0257
G1 X156.445 Y67.837 E1.02598
G1 X156.445 Y68.443 E0.0257
G1 X173.555 Y85.552 E1.02598
G1 X173.555 Y86.158 E0.0257
G1 X156.445 Y69.049 E1.02598
G1 X156.445 Y69.655 E0.0257
G1 X173.555 Y86.764 E1.02598
G1 X173.555 Y87.37 E0.0257
G1 X156.445 Y70.261 E1.02598
G1 X156.445 Y70.867 E0.0257
G1 X173.555 Y87.976 E1.02598
G1 X173.555 Y88.582 E0.0257
G1 X156.445 Y71.473 E1.02598
G1 X156.445 Y72.079 E0.0257
G1 X173.555 Y89.188 E1.02598
G1 X173.555 Y89.794 E0.0257
G1 X156.445 Y72.685 E1.02598
G1 X156.445 Y73.291 E0.0257
G1 X173.555 Y90.4 E1.02598
G1 X173.555 Y91.006 E0.0257
G1 X156.445 Y73.897 E1.02598
G1 X156.445 Y74.503 E0.0257
G1 X173.555 Y91.612 E1.02598
G1 X173.555 Y92.218 E0.0257
G1 X156.445 Y75.109 E1.02598
G1 X156.445 Y75.715 E0.0257
G1 X173.555 Y92.824 E1.02598
G1 X173.555 Y93.43 E0.0257
G1 X156.445 Y76.321 E1.02598
G1 X156.445 Y76.927 E0.0257
G1 X173.555 Y94.036 E1.02598
G1 X173.555 Y94.642 E0.0257
G1 X156.445 Y77.533 E1.02598
G1 X156.445 Y78.139 E0.0257
G1 X173.555 Y95.248 E1.02598
G1 X173.555 Y95.854 E0.0257
G1 X156.445 Y78.745 E1.02598
G1 X156.445 Y79.351 E0.0257
G1 X173.555 Y96.46 E1.02598
G1 X173.555 Y97.066 E0.0257
G1 X156.445 Y79.957 E1.02598
G1 X156.445 Y80.563 E0.0257
G1 X173.555 Y97.672 E1.02598
G1 X173.555 Y98.278 E0.0257
G1 X156.445 Y81.169 E1.02598
G1 X156.445 Y81.775 E0.0257
G1 X173.555 Y98.884 E1.02598
G1 X173.555 Y99.49 E0.0257
G1 X156.445 Y82.381 E1.02598
G1 X156.445 Y82.987 E0.0257
G1 X173.555 Y100.096 E1.02598
G1 X173.555 Y100.702 E0.0257
G1 X156.445 Y83.593 E1.02598
G1 X156.445 Y84.199 E0.0257
G1 X173.555 Y101.308 E1.02598
G1 X173.555 Y101.914 E0.0257
G1 X156.445 Y84.805 E1.02598
G1 X156.445 Y85.411 E0.0257
G1 X173.555 Y102.52 E1.02598
G1 X173.555 Y103.126 E0.0257
G1 X156.445 Y86.017 E1.02598
G1 X156.445 Y86.623 E0.0257
G1 X173.555 Y103.732 E1.02598
G1 X173.555 Y104.338 E0.0257
G1 X156.445 Y87.229 E1.02598
G1 X156.445 Y87.835 E0.0257
G1 X173.555 Y104.944 E1.02598
G1 X173.555 Y105.55 E0.0257
G1 X156.445 Y88.441 E1.02598
G1 X156.445 Y89.047 E0.0257
G1 X173.555 Y106.156 E1.02598
G1 X173.555 Y106.762 E0.0257
G1 X156.445 Y89.653 E1.02598
G1 X156.445 Y90.259 E0.0257
G1 X173.555 Y107.368 E1.02598
G1 X173.555 Y107.974 E0.0257
G1 X156.445 Y90.865 E1.02598
G1 X156.445 Y91.471 E0.0257
G1 X173.555 Y108.58 E1.02598
G1 X173.555 Y109.186 E0.0257
G1 X156.445 Y92.077 E1.02598
G1 X156.445 Y92.683 E0.0257
G1 X173.555 Y109.792 E1.02598
G1 X173.555 Y110.398 E0.0257
G1 X156.445 Y93.289 E1.02598
G1 X156.445 Y93.895 E0.0257
G1 X173.555 Y111.004 E1.02598
G1 X173.555 Y111.61 E0.0257
G1 X156.445 Y94.501 E1.02598
G1 X156.445 Y95.107 E0.0257
G1 X173.555 Y112.216 E1.02598
G1 X173.555 Y112.822 E0.0257
G1 X156.445 Y95.713 E1.02598
G1 X156.445 Y96.319 E0.0257
G1 X173.555 Y113.428 E1.02598
G1 X173.555 Y114.034 E0.0257
G1 X156.445 Y96.925 E1.02598
G1 X156.445 Y97.531 E0.0257
G1 X173.555 Y114.64 E1.02598
G1 X173.555 Y115.246 E0.0257
G1 X156.445 Y98.137 E1.02598
G1 X156.445 Y98.742 E0.0257
G1 X173.555 Y115.851 E1.02598
G1 X173.555 Y116.457 E0.0257
G1 X156.445 Y99.348 E1.02598
G1 X156.445 Y99.954 E0.0257
G1 X173.555 Y117.063 E1.02598
G1 X173.555 Y117.669 E0.0257
G1 X156.445 Y100.56 E1.02598
G1 X156.445 Y101.166 E0.0257
G1 X173.555 Y118.275 E1.02598
G1 X173.555 Y118.881 E0.0257
G1 X156.445 Y101.772 E1.02598
G1 X156.445 Y102.378 E0.0257
G1 X173.555 Y119.487 E1.02598
G1 X173.555 Y120.093 E0.0257
G1 X156.445 Y102.984 E1.02598
G1 X156.445 Y103.59 E0.0257
G1 X173.555 Y120.699 E1.02598
G1 X173.555 Y121.305 E0.0257
G1 X156.445 Y104.196 E1.02598
G1 X156.445 Y104.802 E0.0257
G1 X173.555 Y121.911 E1.02598
G1 X173.555 Y122.517 E0.0257
G1 X156.445 Y105.408 E1.02598
G1 X156.445 Y106.014 E0.0257
G1 X173.555 Y123.123 E1.02598
G1 X173.555 Y123.729 E0.0257
G1 X156.445 Y106.62 E1.02598
G1 X156.445 Y107.226 E0.0257
G1 X173.555 Y124.335 E1.02598
G1 X173.555 Y124.941 E0.0257
G1 X156.445 Y107.832 E1.02598
G1 X156.445 Y108.438 E0.0257
G1 X173.555 Y125.547 E1.02598
G1 X173.555 Y126.153 E0.0257
G1 X156.445 Y109.044 E1.02598
G1 X156.445 Y109.65 E0.0257
G1 X173.555 Y126.759 E1.02598
G1 X173.555 Y127.365 E0.0257
G1 X156.445 Y110.256 E1.02598
G1 X156.445 Y110.862 E0.0257
G1 X173.555 Y127.971 E1.02598
G1 X173.555 Y128.577 E0.0257
G1 X156.445 Y111.468 E1.02598
G1 X156.445 Y112.074 E0.0257
G1 X173.555 Y129.183 E1.02598
G1 X173.555 Y129.789 E0.0257
G1 X156.445 Y112.68 E1.02598
G1 X156.445 Y113.286 E0.0257
G1 X173.555 Y130.395 E1.02598
G1 X173.555 Y131.001 E0.0257
G1 X156.445 Y113.892 E1.02598
G1 X156.445 Y114.498 E0.0257
G1 X173.555 Y131.607 E1.02598
G1 X173.555 Y132.213 E0.0257
G1 X156.445 Y115.104 E1.02598
G1 X156.445 Y115.71 E0.0257
G1 X173.555 Y132.819 E1.02598
G1 X173.555 Y133.425 E0.0257
G1 X156.445 Y116.316 E1.02598
G1 X156.445 Y116.922 E0.0257
G1 X173.555 Y134.031 E1.02598
G1 X173.555 Y134.637 E0.0257
G1 X156.445 Y117.528 E1.02598
G1 X156.445 Y118.134 E0.0257
G1 X173.555 Y135.243 E1.02598
G1 X173.555 Y135.849 E0.0257
G1 X156.445 Y118.74 E1.02598
G1 X156.445 Y119.346 E0.0257
G1 X173.555 Y136.455 E1.02598
G1 X173.555 Y137.061 E0.0257
G1 X156.445 Y119.952 E1.02598
G1 X156.445 Y120.558 E0.0257
G1 X173.555 Y137.667 E1.02598
G1 X173.555 Y138.273 E0.0257
G1 X156.445 Y121.164 E1.02598
G1 X156.445 Y121.77 E0.0257
G1 X173.555 Y138.879 E1.02598
G1 X173.555 Y139.485 E0.0257
G1 X156.445 Y122.376 E1.02598
G1 X156.445 Y122.982 E0.0257
G1 X173.555 Y140.091 E1.02598
G1 X173.555 Y140.697 E0.0257
G1 X156.445 Y123.588 E1.02598
G1 X156.445 Y124.194 E0.0257
G1 X173.555 Y141.303 E1.02598
G1 X173.555 Y141.909 E0.0257
G1 X156.445 Y124.8 E1.02598
G1 X156.445 Y125.406 E0.0257
G1 X173.555 Y142.515 E1.02598
G1 X173.555 Y143.121 E0.0257
G1 X156.445 Y126.012 E1.02598
G1 X156.445 Y126.618 E0.0257
G1 X173.555 Y143.727 E1.02598
G1 X173.555 Y144.333 E0.0257
G1 X156.445 Y127.224 E1.02598
G1 X156.445 Y127.83 E0.0257
G1 X173.555 Y144.939 E1.02598
G1 X173.555 Y145.545 E0.0257
G1 X156.445 Y128.436 E1.02598
G1 X156.445 Y129.042 E0.0257
G1 X173.555 Y146.151 E1.02598
G1 X173.555 Y146.757 E0.0257
G1 X156.445 Y129.648 E1.02598
G1 X156.445 Y130.254 E0.0257
G1 X173.555 Y147.363 E1.02598
G1 X173.555 Y147.969 E0.0257
G1 X156.445 Y130.86 E1.02598
G1 X156.445 Y131.466 E0.0257
G1 X173.555 Y148.575 E1.02598
G1 X173.555 Y149.181 E0.0257
G1 X156.445 Y132.072 E1.02598
G1 X156.445 Y132.678 E0.0257
G1 X173.555 Y149.787 E1.02598
G1 X173.555 Y150.393 E0.0257
G1 X156.445 Y133.284 E1.02598
G1 X156.445 Y133.89 E0.0257
G1 X173.555 Y150.999 E1.02598
G1 X173.555 Y151.605 E0.0257
G1 X156.445 Y134.496 E1.02598
G1 X156.445 Y135.101 E0.0257
G1 X173.555 Y152.21 E1.02598
G1 X173.555 Y152.816 E0.0257
G1 X156.445 Y135.707 E1.02598
G1 X156.445 Y136.313 E0.0257
G1 X173.555 Y153.422 E1.02598
G1 X173.555 Y154.028 E0.0257
G1 X156.445 Y136.919 E1.02598
G1 X156.445 Y137.525 E0.0257
G1 X173.555 Y154.634 E1.02598
G1 X173.555 Y155.24 E0.0257
G1 X156.445 Y138.131 E1.02598
G1 X156.445 Y138.737 E0.0257
G1 X173.555 Y155.846 E1.02598
G1 X173.555 Y156.452 E0.0257
G1 X156.445 Y139.343 E1.02598
G1 X156.445 Y139.949 E0.0257
G1 X173.555 Y157.058 E1.02598
G1 X173.555 Y157.664 E0.0257
G1 X156.445 Y140.555 E1.02598
G1 X156.445 Y141.161 E0.0257
G1 X173.555 Y158.27 E1.02598
G1 X173.555 Y158.876 E0.0257
G1 X156.445 Y141.767 E1.02598
G1 X156.445 Y142.373 E0.0257
G1 X173.555 Y159.482 E1.02598
G1 X173.555 Y160.088 E0.0257
G1 X156.445 Y142.979 E1.02598
G1 X156.445 Y143.585 E0.0257
G1 X173.555 Y160.694 E1.02598
G1 X173.555 Y161.3 E0.0257
G1 X156.445 Y144.191 E1.02598
G1 X156.445 Y144.797 E0.0257
G1 X173.555 Y161.906 E1.02598
G1 X173.555 Y162.512 E0.0257
G1 X156.445 Y145.403 E1.02598
G1 X156.445 Y146.009 E0.0257
G1 X173.555 Y163.118 E1.02598
G1 X173.555 Y163.724 E0.0257
G1 X156.445 Y146.615 E1.02598
G1 X156.445 Y147.221 E0.0257
G1 X173.555 Y164.33 E1.02598
G1 X173.555 Y164.936 E0.0257
G1 X156.445 Y147.827 E1.02598
G1 X156.445 Y148.433 E0.0257
G1 X173.555 Y165.542 E1.02598
G1 X173.555 Y166.148 E0.0257
G1 X156.445 Y149.039 E1.02598
G1 X156.445 Y149.645 E0.0257
G1 X173.555 Y166.754 E1.02598
G1 X173.555 Y167.36 E0.0257
G1 X156.445 Y150.251 E1.02598
G1 X156.445 Y150.857 E0.0257
G1 X173.555 Y167.966 E1.02598
G1 X173.555 Y168.572 E0.0257
G1 X156.445 Y151.463 E1.02598
G1 X156.445 Y152.069 E0.0257
G1 X173.555 Y169.178 E1.02598
G1 X173.555 Y169.784 E0.0257
G1 X156.445 Y152.675 E1.02598
G1 X156.445 Y153.281 E0.0257
G1 X173.555 Y170.39 E1.02598
G1 X173.555 Y170.996 E0.0257
G1 X156.445 Y153.887 E1.02598
G1 X156.445 Y154.493 E0.0257
G1 X173.555 Y171.602 E1.02598
G1 X173.555 Y172.208 E0.0257
G1 X156.445 Y155.099 E1.02598
G1 X156.445 Y155.705 E0.0257
G1 X173.555 Y172.814 E1.02598
G1 X173.555 Y173.42 E0.0257
G1 X156.445 Y156.311 E1.02598
G1 X156.445 Y156.917 E0.0257
G1 X173.555 Y174.026 E1.02598
G1 X173.555 Y174.632 E0.0257
G1 X156.445 Y157.523 E1.02598
G1 X156.445 Y158.129 E0.0257
G1 X173.555 Y175.238 E1.02598
G1 X173.555 Y175.844 E0.0257
G1 X156.445 Y158.735 E1.02598
G1 X156.445 Y159.341 E0.0257
G1 X173.555 Y176.45 E1.02598
G1 X173.555 Y177.056 E0.0257
G1 X156.445 Y159.947 E1.02598
G1 X156.445 Y160.553 E0.0257
G1 X173.555 Y177.662 E1.02598
G1 X173.555 Y178.268 E0.0257
G1 X156.445 Y161.159 E1.02598
G1 X156.445 Y161.765 E0.0257
G1 X173.555 Y178.874 E1.02598
G1 X173.555 Y179.48 E0.0257
G1 X156.445 Y162.371 E1.02598
