; generated by SuperSlicer 2.4 on 2022-05-09 at 04:01:04 UTC


;
;

;
;
; 

; external perimeters extrusion width = 0.40mm
; perimeters extrusion width = 0.40mm
; infill extrusion width = 0.72mm
; solid infill extrusion width = 0.56mm
; top infill extrusion width = 0.40mm
; first layer extrusion width = 0.48mm

; object:{"name":"latch_shuttle","id":"latch_shuttle.stl id:0 copy 0","object_center":[164.999962,165.000202,0.000000],"boundingbox_center":[164.999962,165.000202,5.300001],"boundingbox_size":[11.476082,20.850708,10.600001]}
; plater:{"center":[164.999962,165.000202,0.000000],"boundingbox_center":[164.999962,165.000202,5.300001],"boundingbox_size":[11.476082,20.850708,10.600001]}

M73 P0 R13
;TYPE:Custom
START_PRINT T_BED=110 T_EXTRUDER=245
M107
G21 ; set units to millimeters
G90 ; use absolute coordinates
M83 ; use relative distances for extrusion
; Filament gcode
M104 S245 ; set temperature
M109 S245 ; set temperature and wait for it to be reached
M190 S110 ; set bed temperature and wait for it to be reached
M107
;LAYER_CHANGE
;Z:0.24
;HEIGHT:0.24
G1 Z0.24 F9000
G92 E0
G1 E-0.5 F3000
M204 S1000
G1 X155.98 Y153.551 F9000
G1 E0.5 F1800
;TYPE:Skirt
;WIDTH:0.52
G1 X154.722 Y155.274 E0.09575
G1 X154.11 Y157.466 E0.10213
G1 X154.605 Y172.692 E0.68368
G1 X154.881 Y175.559 E0.12924
G1 X155.358 Y177.038 E0.06975
G1 X156.455 Y178.651 E0.08753
G1 X158.055 Y179.878 E0.09047
G1 X159.87 Y180.506 E0.0862
G1 X160.935 Y180.609 E0.04803
G1 X169.731 Y180.61 E0.39473
G1 X170.662 Y180.535 E0.04192
G1 X172.283 Y180.052 E0.07588
G1 X174.013 Y178.887 E0.09362
G1 X175.17 Y177.365 E0.08579
G1 X175.804 Y175.608 E0.08383
G1 X175.913 Y174.162 E0.06507
G1 X175.839 Y172.815 E0.06057
G1 X175.325 Y168.51 E0.19453
G1 X174.413 Y164.254 E0.19536
G1 X173.635 Y161.653 E0.12182
G1 X170.617 Y154.491 E0.34879
G1 X169.516 Y152.468 E0.10337
G1 X168.234 Y150.924 E0.09006
G1 X166.827 Y149.992 E0.07574
G1 X165.363 Y149.509 E0.06914
G1 X163.711 Y149.415 E0.07426
G1 X161.962 Y149.808 E0.08045
G1 X160.91 Y150.32 E0.05252
G1 X157.014 Y152.733 E0.20568
G1 X155.98 Y153.551 E0.05914
G1 X156.387 Y153.849 F9000
G1 F1800
G1 X155.044 Y155.687 E0.1022
G1 X154.575 Y157.498 E0.08394
G1 X154.552 Y158.243 E0.03346
G1 X155.071 Y172.676 E0.64811
G1 X155.341 Y175.479 E0.12637
G1 X155.783 Y176.847 E0.06453
G1 X156.8 Y178.338 E0.081
G1 X158.111 Y179.376 E0.07502
G1 X159.77 Y180.011 E0.07972
G1 X160.935 Y180.143 E0.05264
G1 X169.731 Y180.144 E0.39473
G1 X170.599 Y180.073 E0.03905
G1 X172.278 Y179.539 E0.07908
G1 X173.576 Y178.658 E0.07039
G1 X174.658 Y177.323 E0.0771
G1 X175.313 Y175.675 E0.07961
G1 X175.447 Y174.188 E0.067
G1 X175.373 Y172.84 E0.06057
G1 X175.14 Y170.477 E0.10657
G1 X174.824 Y168.345 E0.09673
G1 X173.96 Y164.363 E0.18284
G1 X173.341 Y162.22 E0.10009
G1 X169.929 Y154.147 E0.39333
G1 X169.11 Y152.697 E0.07475
G1 X167.92 Y151.269 E0.08341
G1 X166.631 Y150.415 E0.0694
G1 X165.269 Y149.966 E0.06437
G1 X163.739 Y149.88 E0.06875
G1 X162.137 Y150.241 E0.07371
G1 X161.156 Y150.717 E0.04894
G1 X157.259 Y153.13 E0.20568
G1 X156.478 Y153.725 E0.04407
G1 X156.387 Y153.849 E0.00688
G1 X156.757 Y154.119 F9000
G1 F1800
G1 X155.466 Y155.885 E0.09817
G1 X155.04 Y157.53 E0.07626
G1 X155.018 Y158.226 E0.03127
G1 X155.537 Y172.659 E0.64811
G1 X155.8 Y175.398 E0.1235
G1 X156.208 Y176.655 E0.05932
M73 P1 R13
G1 X157.145 Y178.025 E0.07447
G1 X158.336 Y178.968 E0.06816
G1 X159.859 Y179.553 E0.07321
G1 X160.935 Y179.676 E0.04862
G1 X169.731 Y179.678 E0.39473
G1 X170.535 Y179.611 E0.03619
G1 X172.078 Y179.117 E0.07272
G1 X173.257 Y178.317 E0.06395
G1 X174.252 Y177.094 E0.07072
G1 X174.857 Y175.579 E0.07321
G1 X174.982 Y174.214 E0.06155
G1 X174.907 Y172.866 E0.06057
G1 X174.678 Y170.544 E0.1047
G1 X174.366 Y168.433 E0.09576
G1 X173.506 Y164.473 E0.18188
G1 X172.895 Y162.358 E0.0988
G1 X169.523 Y154.377 E0.38882
G1 X168.704 Y152.927 E0.07475
G1 X167.785 Y151.776 E0.06606
G1 X166.435 Y150.838 E0.07376
G1 X165.174 Y150.422 E0.05959
G1 X163.767 Y150.346 E0.06325
G1 X162.311 Y150.673 E0.06697
G1 X161.401 Y151.113 E0.04535
G1 X157.505 Y153.526 E0.20568
G1 X156.795 Y154.067 E0.04004
G1 X156.757 Y154.119 E0.00288
G1 X157.112 Y154.409 F9000
G1 F1800
G1 X155.888 Y156.082 E0.09302
G1 X155.506 Y157.562 E0.06858
G1 X155.484 Y158.21 E0.02908
G1 X156.003 Y172.642 E0.64811
G1 X156.259 Y175.318 E0.12063
G1 X156.633 Y176.464 E0.0541
G1 X157.491 Y177.712 E0.06794
G1 X158.562 Y178.559 E0.0613
G1 X159.948 Y179.096 E0.06671
G1 X160.935 Y179.21 E0.04459
G1 X169.731 Y179.211 E0.39473
G1 X170.471 Y179.149 E0.03332
G1 X171.879 Y178.696 E0.06636
G1 X172.939 Y177.976 E0.05752
G1 X173.845 Y176.865 E0.06433
G1 X174.4 Y175.484 E0.0668
G1 X174.516 Y174.239 E0.0561
G1 X174.442 Y172.892 E0.06057
G1 X174.217 Y170.611 E0.10283
G1 X173.908 Y168.522 E0.09479
G1 X173.053 Y164.582 E0.18091
G1 X172.45 Y162.495 E0.09751
G1 X169.117 Y154.606 E0.38432
G1 X168.298 Y153.156 E0.07475
G1 X167.472 Y152.121 E0.05941
G1 X166.24 Y151.262 E0.06742
G1 X165.08 Y150.879 E0.05482
G1 X163.795 Y150.811 E0.05774
G1 X162.485 Y151.106 E0.06023
G1 X161.647 Y151.51 E0.04177
G1 X157.75 Y153.923 E0.20568
G1 X157.112 Y154.409 E0.03601
G1 X157.429 Y154.751 F9000
G1 F1800
G1 X156.311 Y156.28 E0.085
G1 X155.971 Y157.594 E0.06091
G1 X155.95 Y158.193 E0.02689
G1 X156.469 Y172.625 E0.64811
G1 X156.719 Y175.238 E0.11776
G1 X157.059 Y176.272 E0.04888
G1 X157.836 Y177.398 E0.06141
G1 X158.788 Y178.151 E0.05443
G1 X160.038 Y178.638 E0.06021
G1 X160.936 Y178.744 E0.04057
G1 X169.731 Y178.745 E0.39473
G1 X170.408 Y178.687 E0.03046
G1 X171.679 Y178.274 E0.06001
G1 X172.621 Y177.635 E0.05108
G1 X173.439 Y176.636 E0.05794
G1 X173.944 Y175.388 E0.06039
G1 X174.05 Y174.265 E0.05065
G1 X173.776 Y170.848 E0.15382
G1 X173.087 Y166.725 E0.18759
G1 X172.564 Y164.554 E0.10025
G1 X171.903 Y162.346 E0.1034
G1 X168.711 Y154.835 E0.36623
G1 X167.892 Y153.385 E0.07475
G1 X167.158 Y152.467 E0.05276
G1 X166.044 Y151.685 E0.06107
G1 X164.985 Y151.336 E0.05005
G1 X163.822 Y151.277 E0.05224
G1 X162.66 Y151.538 E0.05349
G1 X161.892 Y151.906 E0.03819
G1 X157.996 Y154.319 E0.20568
G1 X157.429 Y154.751 E0.03198
G1 X157.746 Y155.093 F9000
G1 F1800
G1 X156.733 Y156.478 E0.07698
G1 X156.436 Y157.626 E0.05323
G1 X156.416 Y158.176 E0.0247
G1 X156.935 Y172.609 E0.64811
G1 X157.178 Y175.157 E0.11489
G1 X157.484 Y176.081 E0.04366
G1 X158.182 Y177.085 E0.05488
G1 X159.013 Y177.743 E0.04757
G1 X160.127 Y178.18 E0.0537
G1 X160.936 Y178.277 E0.03655
G1 X170.344 Y178.225 E0.42222
M73 P2 R13
G1 X171.48 Y177.853 E0.05365
G1 X172.423 Y177.182 E0.0519
G1 X173.139 Y176.219 E0.05385
G1 X173.521 Y175.131 E0.0518
G1 X173.585 Y174.291 E0.0378
G1 X173.312 Y170.894 E0.15292
G1 X172.629 Y166.814 E0.18566
G1 X172.115 Y164.68 E0.09847
G1 X171.47 Y162.519 E0.10121
G1 X168.305 Y155.065 E0.36344
G1 X167.486 Y153.615 E0.07475
G1 X166.845 Y152.812 E0.04611
G1 X165.849 Y152.108 E0.05473
G1 X164.89 Y151.792 E0.04528
G1 X163.85 Y151.742 E0.04673
G1 X162.834 Y151.971 E0.04674
G1 X162.138 Y152.303 E0.03461
G1 X158.241 Y154.716 E0.20568
G1 X157.746 Y155.093 E0.02795
; INIT printing object latch_shuttle.stl id:0 copy 0
G1 E-0.5 F3000
; printing object latch_shuttle.stl id:0 copy 0
; acceleration to travel
M204 S3000
G1 X162.145 Y160.946 F9000
; decel to extrusion
M204 S1000
G1 X163.611 Y162.897
; end travel
G1 E0.5 F1800
;TYPE:Internal perimeter
;WIDTH:0.48
G1 X166.988 Y164.139 E0.14771
G1 X167.194 Y164.768 E0.02718
G1 X167.528 Y165.947 E0.05028
G1 X167.963 Y167.75 E0.07615
G1 X168.314 Y169.565 E0.07589
G1 X168.58 Y171.395 E0.07589
G1 X168.761 Y173.238 E0.076
G1 X168.776 Y173.52 E0.0116
G1 X161.794 Y173.519 E0.28659
G1 X161.732 Y172.85 E0.02757
G1 X162.029 Y172.615 E0.01555
G1 X162.682 Y171.961 E0.03791
G1 X163.251 Y171.231 E0.038
G1 X163.727 Y170.437 E0.038
G1 X164.095 Y169.611 E0.03712
G1 X164.27 Y169.087 E0.0227
G1 X164.425 Y168.477 E0.02581
G1 X164.558 Y167.578 E0.03732
G1 X164.581 Y166.652 E0.038
G1 X164.491 Y165.731 E0.038
G1 X164.294 Y164.844 E0.0373
G1 X164.006 Y163.974 E0.0376
G1 X163.611 Y162.897 E0.04709
G1 X163.072 Y162.048 F9000
G1 F1800
G1 X163.398 Y162.296 E0.01683
G1 X163.947 Y162.564 E0.02507
G1 X167.146 Y163.74 E0.13989
G1 X167.248 Y163.802 E0.00487
G1 X167.277 Y163.827 E0.00158
G1 X167.389 Y163.985 E0.00794
G1 X167.604 Y164.643 E0.02843
G1 X167.942 Y165.838 E0.05098
G1 X168.382 Y167.659 E0.07689
G1 X168.736 Y169.494 E0.0767
G1 X169.005 Y171.343 E0.0767
G1 X169.188 Y173.205 E0.07678
G1 X169.229 Y173.948 E0.03057
G1 X161.404 Y173.947 E0.3212
G1 X161.284 Y172.658 E0.05315
G1 X161.744 Y172.295 E0.02407
G1 X162.36 Y171.677 E0.03579
G1 X162.897 Y170.988 E0.03585
G1 X163.346 Y170.239 E0.03586
G1 X163.695 Y169.456 E0.0352
G1 X163.859 Y168.966 E0.0212
G1 X164.004 Y168.393 E0.02426
G1 X164.13 Y167.541 E0.03536
G1 X164.152 Y166.668 E0.03585
G1 X164.067 Y165.798 E0.03585
G1 X163.881 Y164.958 E0.03534
G1 X163.602 Y164.115 E0.03643
G1 X163.197 Y163.014 E0.04816
G1 X162.864 Y162.208 E0.03579
G1 X163.072 Y162.048 E0.01077
; acceleration to travel
M204 S3000
G1 X161.443 Y159.134 F9000
; decel to extrusion
M204 S1000
G1 X160.9 Y158.162
; end travel
G1 F1800
G1 X162.378 Y157.247 E0.07137
G1 X162.57 Y157.439 E0.01115
G1 X162.187 Y158.057 E0.02985
G1 X162.012 Y158.492 E0.01925
G1 X161.906 Y158.901 E0.01731
G1 X161.859 Y159.416 E0.02124
G1 X161.605 Y159.464 E0.01063
G1 X161.517 Y159.289 E0.00804
G1 X160.9 Y158.162 E0.05271
G1 X160.329 Y158.012 F9000
G1 F1800
G1 X164.151 Y155.645 E0.18454
G1 X164.673 Y156.568 E0.04351
G1 X163.877 Y156.95 E0.03625
G1 X163.548 Y157.136 E0.01548
G1 X163.147 Y157.46 E0.02119
G1 X162.869 Y157.771 E0.01713
G1 X162.571 Y158.251 E0.0232
G1 X162.42 Y158.627 E0.01659
G1 X162.33 Y158.974 E0.01474
G1 X162.279 Y159.533 E0.02303
G1 X162.313 Y159.936 E0.01662
G1 X162.387 Y160.278 E0.01436
G1 X162.54 Y160.699 E0.01837
G1 X162.806 Y161.162 E0.02191
G1 X163.192 Y161.6 E0.02399
G1 X163.624 Y161.93 E0.02229
G1 X164.116 Y162.17 E0.02244
G1 X167.333 Y163.353 E0.1407
G1 X167.502 Y163.455 E0.00812
G1 X167.597 Y163.538 E0.00516
G1 X167.707 Y163.672 E0.00713
G1 X167.776 Y163.789 E0.00558
G1 X167.837 Y163.944 E0.00682
G1 X168.014 Y164.518 E0.02467
G1 X168.357 Y165.73 E0.05168
G1 X168.801 Y167.568 E0.07764
G1 X169.159 Y169.423 E0.07751
G1 X169.431 Y171.291 E0.07751
G1 X169.616 Y173.172 E0.07757
G1 X169.682 Y174.377 E0.04953
G1 X161.013 Y174.376 E0.35581
G1 X160.835 Y172.466 E0.07874
G1 X161.459 Y171.974 E0.03258
G1 X162.038 Y171.393 E0.03367
G1 X162.543 Y170.746 E0.03371
G1 X162.965 Y170.041 E0.03371
G1 X163.295 Y169.3 E0.03329
G1 X163.448 Y168.845 E0.0197
G1 X163.583 Y168.309 E0.0227
G1 X163.702 Y167.504 E0.03339
G1 X163.723 Y166.683 E0.03371
G1 X163.643 Y165.866 E0.03371
G1 X163.467 Y165.072 E0.03338
G1 X163.197 Y164.256 E0.03526
G1 X162.798 Y163.169 E0.04753
G1 X162.139 Y161.574 E0.07084
G1 X161.655 Y160.523 E0.04752
G1 X161.138 Y159.488 E0.04749
G1 X160.329 Y158.012 E0.06906
G1 X159.96 Y157.776 F9000
;TYPE:External perimeter
G1 F1800
G1 X160.09 Y157.656 E0.00726
G1 X163.949 Y155.266 E0.18632
G1 X164.096 Y155.207 E0.0065
G1 X164.217 Y155.2 E0.00497
G1 X164.293 Y155.216 E0.00321
G1 X164.326 Y155.231 E0.00146
G1 X164.358 Y155.246 E0.00146
G1 X164.481 Y155.357 E0.0068
G1 X165.271 Y156.756 E0.06595
G1 X164.075 Y157.33 E0.05446
G1 X163.933 Y157.41 E0.00672
G1 X163.79 Y157.491 E0.00672
G1 X163.478 Y157.743 E0.01646
G1 X163.443 Y157.771 E0.00185
G1 X163.32 Y157.909 E0.00756
G1 X163.213 Y158.029 E0.0066
G1 X162.954 Y158.446 E0.02014
G1 X162.882 Y158.626 E0.00797
G1 X162.828 Y158.761 E0.00596
G1 X162.753 Y159.048 E0.01218
G1 X162.709 Y159.535 E0.02006
G1 X162.737 Y159.873 E0.01394
G1 X162.799 Y160.159 E0.01201
G1 X162.93 Y160.517 E0.01565
G1 X163.156 Y160.911 E0.01863
G1 X163.486 Y161.286 E0.02049
G1 X163.85 Y161.563 E0.01881
G1 X164.284 Y161.775 E0.0198
G1 X166.496 Y162.588 E0.09672
G1 X167.52 Y162.965 E0.04479
G1 X167.757 Y163.108 E0.01137
G1 X167.905 Y163.239 E0.00812
G1 X168.06 Y163.426 E0.00995
G1 X168.162 Y163.6 E0.0083
G1 X168.242 Y163.801 E0.00885
G1 X168.425 Y164.397 E0.0256
G1 X168.771 Y165.621 E0.05222
G1 X169.22 Y167.477 E0.07839
G1 X169.581 Y169.351 E0.07833
G1 X169.856 Y171.24 E0.07833
G1 X170.043 Y173.139 E0.07835
G1 X170.115 Y174.45 E0.05389
G1 X170.095 Y174.546 E0.00399
G1 X170.026 Y174.668 E0.00579
G1 X169.961 Y174.729 E0.00366
G1 X169.834 Y174.789 E0.00578
G1 X169.716 Y174.806 E0.00488
G1 X160.959 Y174.804 E0.3594
G1 X160.863 Y174.785 E0.00403
G1 X160.83 Y174.779 E0.00139
G1 X160.728 Y174.723 E0.00477
G1 X160.635 Y174.62 E0.00568
G1 X160.598 Y174.538 E0.00369
G1 X160.407 Y172.485 E0.08463
G1 X160.41 Y172.385 E0.00411
G1 X160.431 Y172.304 E0.00342
G1 X160.469 Y172.23 E0.00342
G1 X160.503 Y172.191 E0.00212
G1 X160.526 Y172.163 E0.00149
G1 X160.796 Y171.951 E0.01411
G1 X161.173 Y171.653 E0.01971
G1 X161.716 Y171.109 E0.03155
G1 X161.92 Y170.847 E0.01365
G1 X162.189 Y170.503 E0.01792
G1 X162.585 Y169.843 E0.03157
G1 X162.895 Y169.145 E0.03138
G1 X163.036 Y168.724 E0.0182
G1 X163.163 Y168.225 E0.02115
G1 X163.275 Y167.467 E0.03143
G1 X163.277 Y167.367 E0.00414
G1 X163.294 Y166.699 E0.02743
G1 X163.219 Y165.933 E0.03157
G1 X163.053 Y165.186 E0.03142
G1 X162.792 Y164.398 E0.03408
G1 X162.399 Y163.325 E0.04689
G1 X162.176 Y162.786 E0.02395
G1 X161.746 Y161.746 E0.04618
G1 X161.588 Y161.403 E0.01549
G1 X161.268 Y160.708 E0.0314
G1 X160.758 Y159.686 E0.04688
G1 X160.408 Y159.048 E0.02988
G1 X159.921 Y158.159 E0.04162
G1 X159.889 Y158.037 E0.00514
G1 X159.898 Y157.909 E0.00529
G1 X159.927 Y157.846 E0.00283
G1 X159.96 Y157.776 E0.00317
;WIPE_START
M204 S5000
G1 X159.96 Y157.776 F9000
;WIPE_END
; acceleration to travel
M204 S3000
G1 X161.234 Y158.755
; decel to extrusion
M204 S1000
G1 X161.659 Y159.082
; end travel
;TYPE:Gap fill
;WIDTH:0.143865
G1 F1800
G1 X161.65 Y159.036 E0.00041
;WIDTH:0.196647
G1 X161.613 Y158.858 E0.00254
;WIDTH:0.300377
M73 P3 R13
G1 X161.591 Y158.68 E0.00426
;WIDTH:0.438215
G1 X161.571 Y158.52 E0.00598
;WIDTH:0.571164
G1 X161.552 Y158.36 E0.00803
;WIDTH:0.630043
G1 X161.643 Y158.223 E0.00911
;WIDTH:0.484945
G1 X161.77 Y158.073 E0.00817
;WIDTH:0.344572
G1 X161.896 Y157.922 E0.00553
;WIDTH:0.265982
G1 X162.021 Y157.796 E0.00364
;WIDTH:0.143864
G1 X162.131 Y157.686 E0.00138
G1 X162.164 Y157.653 E0.00041
G1 X162.636 Y157.226 F9000
;WIDTH:0.668269
G1 F1800
G1 X162.784 Y157.102 E0.01141
G1 X162.875 Y157.029 E0.00689
G1 X163.069 Y156.892 E0.014
;WIDTH:0.624188
G1 X163.262 Y156.755 E0.013
G1 X163.3 Y156.731 E0.0025
G1 X163.472 Y156.629 E0.01098
G1 X163.644 Y156.526 E0.01098
G1 X163.816 Y156.432 E0.01076
;WIDTH:0.662133
G1 X163.971 Y156.347 E0.01033
G1 X164.105 Y156.273 E0.00893
;WIDTH:0.696919
G1 X164.238 Y156.198 E0.00944
; acceleration to travel
M204 S3000
G1 X162.402 Y158.772 F9000
; decel to extrusion
M204 S1000
G1 X161.79 Y159.629
; end travel
;WIDTH:0.651178
G1 F1800
G1 X161.834 Y159.821 E0.01127
;WIDTH:0.562105
G1 X161.877 Y159.986 E0.00833
;WIDTH:0.529534
G1 X161.886 Y160.016 E0.00144
G1 X161.945 Y160.184 E0.00815
;WIDTH:0.435706
G1 X162.006 Y160.357 E0.00678
G1 X162.021 Y160.398 E0.00158
G1 X162.112 Y160.619 E0.00881
;WIDTH:0.387852
G1 X162.203 Y160.84 E0.00771
G1 X162.215 Y160.866 E0.00093
G1 X162.346 Y161.12 E0.0092
;WIDTH:0.439749
G1 X162.477 Y161.374 E0.01062
G1 X162.504 Y161.419 E0.00197
;WIDTH:0.472477
G1 X162.606 Y161.583 E0.00779
;WIDTH:0.556994
G1 X162.708 Y161.747 E0.00935
G1 X162.784 Y161.855 E0.00638
;WIDTH:0.630784
G1 X162.86 Y161.963 E0.00731
; acceleration to travel
M204 S3000
G1 X166.015 Y164.412 F9000
; decel to extrusion
M204 S1000
G1 X167.217 Y165.345
; end travel
;TYPE:Solid infill
;WIDTH:0.458099
G1 F3600
G1 X165.861 Y163.989 E0.0751
G1 X164.903 Y163.637 E0.04
G1 X167.162 Y165.896 E0.12513
G1 X167.357 Y166.697 E0.03233
G1 X164.013 Y163.353 E0.1853
G1 X164.286 Y164.232 E0.03606
G1 X167.553 Y167.499 E0.18101
G1 X167.749 Y168.301 E0.03233
G1 X164.559 Y165.111 E0.17673
G1 X164.741 Y165.696 E0.02401
G1 X164.736 Y165.894 E0.00775
G1 X167.945 Y169.103 E0.17776
G1 X168.069 Y169.61 E0.02044
G1 X168.098 Y169.862 E0.00995
G1 X164.722 Y166.486 E0.18705
G1 X164.707 Y167.077 E0.02318
G1 X168.178 Y170.548 E0.19229
G1 X168.259 Y171.235 E0.02707
