; generated by SuperSlicer 2.4 on 2022-05-03 at 17:12:49 UTC


;
;

;
;
; 

; external perimeters extrusion width = 0.40mm
; perimeters extrusion width = 0.40mm
; infill extrusion width = 0.72mm
; solid infill extrusion width = 0.56mm
; top infill extrusion width = 0.40mm
; first layer extrusion width = 0.48mm

; object:{"name":"latch","id":"latch.stl id:0 copy 0","object_center":[165.000002,165.000004,0.000000],"boundingbox_center":[165.000002,165.000004,2.874870],"boundingbox_size":[30.000002,41.500008,5.749741]}
; plater:{"center":[165.000002,165.000004,0.000000],"boundingbox_center":[165.000002,165.000004,2.874870],"boundingbox_size":[30.000002,41.500008,5.749741]}

M73 P0 R9
;TYPE:Custom
START_PRINT T_BED=110 T_EXTRUDER=245
M107
G21 ; set units to millimeters
G90 ; use absolute coordinates
M83 ; use relative distances for extrusion
; Filament gcode
M104 S245 ; set temperature
M109 S245 ; set temperature and wait for it to be reached
M190 S110 ; set bed temperature and wait for it to be reached
M107
;LAYER_CHANGE
;Z:0.24
;HEIGHT:0.24
G1 Z0.24 F9000
G92 E0
G1 E-0.5 F3540
M204 S1000
G1 X147.907 Y153.937 F9000
G1 E0.5 F1800
;TYPE:Skirt
;WIDTH:0.52
G1 X147.042 Y154.968 E0.06292
G1 X146.547 Y155.879 E0.04845
G1 X146.299 Y156.561 E0.03394
G1 X146.065 Y157.891 E0.06313
G1 X146.092 Y172.923 E0.70268
G1 X146.299 Y173.939 E0.04845
G1 X146.679 Y174.903 E0.04844
G1 X147.22 Y175.787 E0.04845
G1 X147.687 Y176.343 E0.03395
G1 X148.463 Y177.03 E0.04844
G1 X149.273 Y177.536 E0.04466
G1 X172.723 Y189.036 E1.22092
G1 X173.761 Y189.451 E0.05226
G1 X175.091 Y189.685 E0.06312
G1 X178.579 Y189.701 E0.16307
G1 X179.333 Y189.638 E0.03535
G1 X180.572 Y189.278 E0.06032
G1 X181.514 Y188.734 E0.05084
G1 X182.472 Y187.867 E0.06042
G1 X183.46 Y186.3 E0.08658
G1 X183.72 Y185.364 E0.04541
G1 X183.86 Y184.241 E0.0529
G1 X183.887 Y146.694 E1.75521
G1 X183.775 Y145.115 E0.07401
G1 X183.484 Y143.773 E0.06417
G1 X182.475 Y142.138 E0.08982
G1 X181.514 Y141.266 E0.06066
G1 X180.572 Y140.722 E0.05084
G1 X179.123 Y140.335 E0.07012
G1 X175.091 Y140.315 E0.18849
G1 X174.062 Y140.469 E0.04865
G1 X173.079 Y140.797 E0.04846
G1 X149.21 Y152.996 E1.25305
M73 P1 R9
G1 X148.463 Y153.47 E0.04135
G1 X147.907 Y153.937 E0.03394
G1 X148.237 Y154.267 F9000
G1 F1800
G1 X147.424 Y155.236 E0.05912
G1 X146.97 Y156.076 E0.04465
G1 X146.75 Y156.682 E0.03014
G1 X146.53 Y157.932 E0.05933
G1 X146.53 Y172.568 E0.68418
G1 X146.669 Y173.517 E0.04486
G1 X146.97 Y174.424 E0.04465
G1 X147.424 Y175.264 E0.04465
G1 X148.017 Y176.013 E0.04465
G1 X148.731 Y176.648 E0.04464
G1 X149.479 Y177.117 E0.04128
G1 X172.928 Y188.617 E1.22092
G1 X173.882 Y189 E0.04804
G1 X175.132 Y189.22 E0.05932
G1 X179.272 Y189.175 E0.19356
G1 X180.393 Y188.847 E0.05463
G1 X181.23 Y188.364 E0.04515
G1 X182.143 Y187.537 E0.0576
G1 X183.02 Y186.145 E0.07689
G1 X183.262 Y185.275 E0.04222
G1 X183.397 Y184.189 E0.05116
G1 X183.42 Y146.694 E1.75277
G1 X183.31 Y145.151 E0.0723
G1 X183.041 Y143.92 E0.05892
G1 X182.145 Y142.468 E0.07976
G1 X181.23 Y141.636 E0.05781
G1 X180.394 Y141.153 E0.04515
G1 X179.062 Y140.797 E0.06443
G1 X175.132 Y140.78 E0.18374
G1 X174.182 Y140.919 E0.04485
G1 X173.276 Y141.22 E0.04466
G1 X149.422 Y153.411 E1.25225
G1 X148.237 Y154.267 E0.06835
G1 X148.567 Y154.597 F9000
G1 F1800
G1 X147.806 Y155.503 E0.05532
G1 X147.2 Y156.803 E0.06703
G1 X146.994 Y157.973 E0.05553
G1 X146.994 Y172.527 E0.68039
M73 P2 R9
G1 X147.119 Y173.397 E0.04106
G1 X147.393 Y174.227 E0.04085
G1 X147.806 Y174.997 E0.04086
G1 X148.347 Y175.683 E0.04086
G1 X148.998 Y176.266 E0.04084
G1 X149.684 Y176.698 E0.03791
G1 X173.134 Y188.198 E1.22092
G1 X174.002 Y188.55 E0.04381
G1 X175.172 Y188.756 E0.05552
G1 X179.211 Y188.713 E0.18881
G1 X180.215 Y188.416 E0.04894
G1 X180.946 Y187.994 E0.03945
G1 X181.813 Y187.206 E0.05478
G1 X182.58 Y185.99 E0.0672
G1 X182.805 Y185.186 E0.03904
G1 X182.933 Y184.137 E0.04942
G1 X182.954 Y146.694 E1.75032
G1 X182.845 Y145.188 E0.07059
G1 X182.598 Y144.066 E0.05368
G1 X181.816 Y142.797 E0.06971
G1 X180.946 Y142.006 E0.05496
G1 X180.215 Y141.584 E0.03945
G1 X179.001 Y141.259 E0.05874
G1 X175.172 Y141.244 E0.179
G1 X174.303 Y141.369 E0.04105
G1 X173.473 Y141.643 E0.04086
G1 X149.635 Y153.826 E1.25145
G1 X148.567 Y154.597 E0.06156
; INIT printing object latch.stl id:0 copy 0
G1 E-0.5 F3540
; printing object latch.stl id:0 copy 0
; acceleration to travel
M204 S3000
G1 X160.381 Y161.197 F9000
; decel to extrusion
M204 S1000
G1 X164.32 Y163.397
; end travel
G1 E0.5 F1800
;TYPE:Internal perimeter
;WIDTH:0.48
G1 X164.154 Y163.692 E0.01449
G1 X163.941 Y164.297 E0.02742
G1 X163.832 Y164.929 E0.02742
G1 X163.832 Y165.571 E0.02742
G1 X163.941 Y166.203 E0.02742
G1 X164.154 Y166.808 E0.02742
G1 X164.467 Y167.367 E0.02742
G1 X164.87 Y167.866 E0.02742
G1 X165.351 Y168.29 E0.02742
G1 X165.898 Y168.626 E0.02742
G1 X166.493 Y168.866 E0.02742
G1 X167.12 Y169.001 E0.02742
G1 X167.761 Y169.028 E0.02742
G1 X168.397 Y168.946 E0.02742
G1 X169.01 Y168.759 E0.02742
G1 X169.583 Y168.47 E0.02742
G1 X170.098 Y168.089 E0.02742
G1 X170.542 Y167.626 E0.02742
G1 X170.901 Y167.094 E0.02742
G1 X171.165 Y166.51 E0.02742
G1 X171.327 Y165.889 E0.02742
G1 X171.381 Y165.25 E0.02742
G1 X171.327 Y164.611 E0.02742
G1 X171.165 Y163.99 E0.02742
G1 X170.901 Y163.406 E0.02742
G1 X170.542 Y162.874 E0.02742
G1 X170.098 Y162.411 E0.02742
G1 X169.583 Y162.03 E0.02742
G1 X169.01 Y161.741 E0.02742
G1 X168.397 Y161.554 E0.02742
G1 X167.761 Y161.472 E0.02742
G1 X167.436 Y161.486 E0.01388
G1 X167.12 Y161.499 E0.01354
G1 X166.493 Y161.634 E0.02742
G1 X165.898 Y161.874 E0.02742
G1 X165.351 Y162.21 E0.02742
G1 X164.87 Y162.634 E0.02742
G1 X164.467 Y163.133 E0.02742
G1 X164.32 Y163.397 E0.01293
G1 X164.694 Y163.606 F9000
G1 F1800
G1 X164.546 Y163.87 E0.01293
G1 X164.357 Y164.406 E0.0243
G1 X164.261 Y164.966 E0.0243
G1 X164.261 Y165.534 E0.0243
G1 X164.357 Y166.094 E0.0243
G1 X164.546 Y166.63 E0.0243
G1 X164.823 Y167.127 E0.0243
G1 X165.18 Y167.569 E0.0243
G1 X165.607 Y167.944 E0.0243
M73 P3 R9
G1 X166.091 Y168.242 E0.0243
G1 X166.619 Y168.454 E0.0243
G1 X167.174 Y168.574 E0.0243
G1 X167.742 Y168.598 E0.02431
G1 X168.306 Y168.526 E0.0243
G1 X168.85 Y168.36 E0.0243
G1 X169.357 Y168.104 E0.0243
G1 X169.814 Y167.766 E0.0243
G1 X170.207 Y167.355 E0.0243
G1 X170.526 Y166.884 E0.0243
G1 X170.76 Y166.366 E0.0243
G1 X170.903 Y165.816 E0.0243
G1 X170.951 Y165.25 E0.0243
G1 X170.903 Y164.684 E0.0243
G1 X170.76 Y164.134 E0.0243
G1 X170.526 Y163.616 E0.0243
G1 X170.207 Y163.145 E0.0243
G1 X169.814 Y162.734 E0.0243
G1 X169.357 Y162.396 E0.0243
G1 X168.85 Y162.14 E0.0243
G1 X168.306 Y161.974 E0.0243
G1 X167.742 Y161.902 E0.0243
G1 X167.454 Y161.914 E0.01232
G1 X167.174 Y161.926 E0.01198
G1 X166.619 Y162.046 E0.0243
G1 X166.091 Y162.258 E0.0243
G1 X165.607 Y162.556 E0.0243
G1 X165.18 Y162.931 E0.0243
G1 X164.823 Y163.373 E0.0243
G1 X164.694 Y163.606 E0.01137
G1 X165.068 Y163.815 F9000
G1 F1800
G1 X164.938 Y164.047 E0.01137
G1 X164.773 Y164.514 E0.02118
G1 X164.689 Y165.002 E0.02119
G1 X164.689 Y165.498 E0.02119
G1 X164.773 Y165.986 E0.02118
G1 X164.938 Y166.453 E0.02118
G1 X165.18 Y166.886 E0.02118
G1 X165.491 Y167.271 E0.02118
G1 X165.863 Y167.599 E0.02119
G1 X166.285 Y167.858 E0.02118
G1 X166.745 Y168.043 E0.02119
G1 X167.229 Y168.148 E0.02118
G1 X167.724 Y168.169 E0.02119
G1 X168.215 Y168.106 E0.02118
G1 X168.689 Y167.961 E0.02118
G1 X169.132 Y167.738 E0.02118
G1 X169.53 Y167.443 E0.02119
G1 X169.873 Y167.085 E0.02118
G1 X170.15 Y166.675 E0.02118
G1 X170.354 Y166.223 E0.02118
G1 X170.479 Y165.744 E0.02119
G1 X170.521 Y165.25 E0.02118
G1 X170.479 Y164.756 E0.02119
G1 X170.354 Y164.277 E0.02118
G1 X170.15 Y163.825 E0.02119
G1 X169.873 Y163.415 E0.02118
G1 X169.53 Y163.057 E0.02118
G1 X169.132 Y162.762 E0.02119
G1 X168.689 Y162.539 E0.02118
G1 X168.215 Y162.394 E0.02118
G1 X167.724 Y162.331 E0.02118
G1 X167.473 Y162.342 E0.01076
G1 X167.229 Y162.352 E0.01043
G1 X166.745 Y162.457 E0.02119
G1 X166.285 Y162.642 E0.02118
G1 X165.863 Y162.901 E0.02118
G1 X165.491 Y163.229 E0.02119
G1 X165.18 Y163.614 E0.02118
G1 X165.068 Y163.815 E0.00981
G1 X165.442 Y164.023 F9000
;TYPE:External perimeter
G1 F1800
G1 X165.33 Y164.224 E0.00981
G1 X165.189 Y164.622 E0.01807
G1 X165.118 Y165.039 E0.01807
G1 X165.118 Y165.461 E0.01807
G1 X165.189 Y165.878 E0.01807
G1 X165.255 Y166.065 E0.00849
G1 X165.33 Y166.276 E0.00957
G1 X165.536 Y166.645 E0.01807
G1 X165.801 Y166.974 E0.01807
G1 X165.893 Y167.055 E0.00524
G1 X166.119 Y167.253 E0.01283
G1 X166.311 Y167.371 E0.00966
G1 X166.478 Y167.474 E0.00841
G1 X166.871 Y167.632 E0.01807
G1 X167.284 Y167.721 E0.01807
G1 X167.706 Y167.739 E0.01807
G1 X168.017 Y167.699 E0.01344
G1 X168.125 Y167.685 E0.00463
G1 X168.529 Y167.562 E0.01807
G1 X168.906 Y167.371 E0.01807
G1 X169.246 Y167.12 E0.01807
G1 X169.538 Y166.815 E0.01807
G1 X169.775 Y166.465 E0.01807
G1 X169.86 Y166.276 E0.00886
G1 X169.949 Y166.08 E0.00921
G1 X170.055 Y165.671 E0.01807
G1 X170.073 Y165.461 E0.009
G1 X170.091 Y165.25 E0.00907
G1 X170.055 Y164.829 E0.01807
G1 X169.949 Y164.42 E0.01807
G1 X169.775 Y164.035 E0.01807
G1 X169.538 Y163.685 E0.01807
G1 X169.246 Y163.38 E0.01807
G1 X168.906 Y163.129 E0.01807
G1 X168.529 Y162.938 E0.01807
G1 X168.125 Y162.815 E0.01807
G1 X167.91 Y162.787 E0.00925
G1 X167.706 Y162.761 E0.00881
G1 X167.491 Y162.77 E0.0092
G1 X167.284 Y162.779 E0.00887
G1 X166.871 Y162.868 E0.01807
G1 X166.478 Y163.026 E0.01807
G1 X166.119 Y163.247 E0.01807
G1 X165.801 Y163.526 E0.01807
G1 X165.688 Y163.667 E0.00774
G1 X165.536 Y163.855 E0.01032
G1 X165.442 Y164.023 E0.00825
;WIPE_START
M204 S5000
G1 X165.212 Y164.027 F9000
;WIPE_END
; acceleration to travel
M204 S3000
G1 X162.305 Y164.547
; decel to extrusion
M204 S1000
G1 X161.336 Y164.72
; end travel
;TYPE:Internal perimeter
G1 F1800
G1 X161.327 Y164.611 E0.00468
G1 X161.165 Y163.99 E0.02742
G1 X160.901 Y163.406 E0.02742
G1 X160.542 Y162.874 E0.02742
G1 X160.098 Y162.411 E0.02742
G1 X159.583 Y162.03 E0.02742
G1 X159.01 Y161.741 E0.02742
G1 X158.397 Y161.554 E0.02742
G1 X157.761 Y161.472 E0.02742
G1 X157.436 Y161.486 E0.01388
G1 X157.12 Y161.499 E0.01354
G1 X156.493 Y161.634 E0.02742
G1 X155.898 Y161.874 E0.02742
G1 X155.351 Y162.21 E0.02742
G1 X154.87 Y162.634 E0.02742
G1 X154.467 Y163.133 E0.02742
G1 X154.154 Y163.692 E0.02742
G1 X153.941 Y164.297 E0.02742
G1 X153.832 Y164.929 E0.02742
G1 X153.832 Y165.571 E0.02742
G1 X153.941 Y166.203 E0.02742
G1 X154.154 Y166.808 E0.02742
G1 X154.467 Y167.367 E0.02742
G1 X154.87 Y167.866 E0.02742
G1 X155.351 Y168.29 E0.02742
G1 X155.898 Y168.626 E0.02742
G1 X156.493 Y168.866 E0.02742
G1 X157.12 Y169.001 E0.02742
G1 X157.761 Y169.028 E0.02742
G1 X158.397 Y168.946 E0.02742
G1 X159.01 Y168.759 E0.02742
G1 X159.583 Y168.47 E0.02742
G1 X160.098 Y168.089 E0.02742
G1 X160.542 Y167.626 E0.02742
G1 X160.901 Y167.094 E0.02742
G1 X161.165 Y166.51 E0.02742
G1 X161.327 Y165.889 E0.02742
G1 X161.381 Y165.25 E0.02742
G1 X161.336 Y164.72 E0.02274
G1 X160.909 Y164.756 F9000
G1 F1800
G1 X160.903 Y164.684 E0.00312
G1 X160.76 Y164.134 E0.0243
G1 X160.526 Y163.616 E0.0243
G1 X160.207 Y163.145 E0.0243
G1 X159.814 Y162.734 E0.0243
G1 X159.357 Y162.396 E0.0243
G1 X158.85 Y162.14 E0.0243
G1 X158.306 Y161.974 E0.0243
G1 X157.742 Y161.902 E0.0243
G1 X157.454 Y161.914 E0.01232
G1 X157.174 Y161.926 E0.01198
G1 X156.619 Y162.046 E0.0243
G1 X156.091 Y162.258 E0.0243
G1 X155.607 Y162.556 E0.0243
G1 X155.18 Y162.931 E0.0243
G1 X154.823 Y163.373 E0.0243
G1 X154.546 Y163.87 E0.0243
G1 X154.357 Y164.406 E0.0243
G1 X154.261 Y164.966 E0.0243
G1 X154.261 Y165.534 E0.0243
G1 X154.357 Y166.094 E0.0243
G1 X154.546 Y166.63 E0.0243
G1 X154.823 Y167.127 E0.0243
G1 X155.18 Y167.569 E0.0243
G1 X155.607 Y167.944 E0.0243
G1 X156.091 Y168.242 E0.0243
G1 X156.619 Y168.454 E0.0243
G1 X157.174 Y168.574 E0.0243
G1 X157.742 Y168.598 E0.02431
G1 X158.306 Y168.526 E0.0243
G1 X158.85 Y168.36 E0.0243
G1 X159.357 Y168.104 E0.0243
G1 X159.814 Y167.766 E0.0243
G1 X160.207 Y167.355 E0.0243
G1 X160.526 Y166.884 E0.0243
G1 X160.76 Y166.366 E0.0243
G1 X160.903 Y165.816 E0.0243
G1 X160.951 Y165.25 E0.0243
G1 X160.909 Y164.756 E0.02118
G1 X160.482 Y164.793 F9000
G1 F1800
G1 X160.479 Y164.756 E0.00156
G1 X160.354 Y164.277 E0.02118
G1 X160.15 Y163.825 E0.02119
G1 X159.873 Y163.415 E0.02118
G1 X159.53 Y163.057 E0.02118
G1 X159.132 Y162.762 E0.02119
G1 X158.689 Y162.539 E0.02118
G1 X158.215 Y162.394 E0.02118
G1 X157.724 Y162.331 E0.02118
G1 X157.473 Y162.342 E0.01076
G1 X157.229 Y162.352 E0.01043
G1 X156.745 Y162.457 E0.02119
G1 X156.285 Y162.642 E0.02119
G1 X155.863 Y162.901 E0.02118
G1 X155.491 Y163.229 E0.02119
G1 X155.18 Y163.614 E0.02118
G1 X154.938 Y164.047 E0.02118
G1 X154.773 Y164.514 E0.02118
G1 X154.689 Y165.002 E0.02118
G1 X154.689 Y165.498 E0.02118
G1 X154.773 Y165.986 E0.02118
G1 X154.938 Y166.453 E0.02118
G1 X155.18 Y166.886 E0.02118
G1 X155.491 Y167.271 E0.02119
G1 X155.863 Y167.599 E0.02118
G1 X156.285 Y167.858 E0.02118
G1 X156.745 Y168.043 E0.02118
G1 X157.229 Y168.148 E0.02118
G1 X157.724 Y168.169 E0.02119
G1 X158.215 Y168.106 E0.02118
G1 X158.689 Y167.961 E0.02118
G1 X159.132 Y167.738 E0.02118
G1 X159.53 Y167.443 E0.02119
G1 X159.873 Y167.085 E0.02118
G1 X160.15 Y166.675 E0.02118
G1 X160.354 Y166.223 E0.02118
G1 X160.479 Y165.744 E0.02119
G1 X160.521 Y165.25 E0.02118
G1 X160.482 Y164.793 E0.01963
G1 X160.055 Y164.829 F9000
;TYPE:External perimeter
G1 F1800
G1 X159.949 Y164.42 E0.01807
G1 X159.775 Y164.035 E0.01807
G1 X159.538 Y163.685 E0.01807
G1 X159.246 Y163.38 E0.01807
G1 X158.906 Y163.129 E0.01807
G1 X158.529 Y162.938 E0.01807
G1 X158.125 Y162.815 E0.01807
G1 X157.91 Y162.787 E0.00925
G1 X157.706 Y162.761 E0.00881
G1 X157.491 Y162.77 E0.0092
G1 X157.284 Y162.779 E0.00887
G1 X156.987 Y162.843 E0.01297
G1 X156.871 Y162.868 E0.00509
G1 X156.478 Y163.026 E0.01807
G1 X156.389 Y163.081 E0.00451
G1 X156.119 Y163.247 E0.01356
G1 X155.801 Y163.526 E0.01807
G1 X155.536 Y163.855 E0.01807
G1 X155.33 Y164.224 E0.01807
G1 X155.189 Y164.622 E0.01807
G1 X155.118 Y165.039 E0.01807
G1 X155.118 Y165.461 E0.01807
G1 X155.189 Y165.878 E0.01807
G1 X155.33 Y166.276 E0.01807
G1 X155.536 Y166.645 E0.01807
G1 X155.801 Y166.974 E0.01807
G1 X156.119 Y167.253 E0.01807
G1 X156.311 Y167.371 E0.00966
G1 X156.478 Y167.474 E0.00841
G1 X156.871 Y167.632 E0.01807
G1 X157.284 Y167.721 E0.01807
G1 X157.706 Y167.739 E0.01807
G1 X158.039 Y167.696 E0.01436
G1 X158.125 Y167.685 E0.00371
G1 X158.529 Y167.562 E0.01807
G1 X158.906 Y167.371 E0.01807
G1 X159.246 Y167.12 E0.01807
G1 X159.538 Y166.815 E0.01807
G1 X159.775 Y166.465 E0.01807
G1 X159.86 Y166.276 E0.00886
G1 X159.949 Y166.08 E0.00921
G1 X160.055 Y165.671 E0.01807
G1 X160.073 Y165.461 E0.009
G1 X160.091 Y165.25 E0.00907
G1 X160.055 Y164.829 E0.01807
;WIPE_START
M204 S5000
G1 X160.356 Y164.565 F9000
;WIPE_END
; acceleration to travel
M204 S3000
G1 X164.17 Y159.634
; decel to extrusion
M204 S1000
G1 X165.442 Y157.99
; end travel
;TYPE:Internal perimeter
G1 F1800
G1 X165.483 Y157.99 E0.00177
G1 X166.254 Y157.959 E0.03299
G1 X167.053 Y157.859 E0.03442
G1 X167.841 Y157.694 E0.03443
G1 X168.613 Y157.464 E0.03443
G1 X169.363 Y157.171 E0.03442
G1 X170.086 Y156.818 E0.03443
G1 X170.778 Y156.406 E0.03442
G1 X171.433 Y155.938 E0.03442
G1 X172.048 Y155.417 E0.03442
G1 X172.617 Y154.848 E0.03443
G1 X173.137 Y154.234 E0.03443
G1 X173.605 Y153.578 E0.03442
G1 X174.137 Y152.686 E0.04443
G1 X174.497 Y153.091 E0.02318
G1 X175.021 Y153.524 E0.02907
G1 X175.591 Y153.87 E0.0285
G1 X176.154 Y154.112 E0.02618
G1 X176.857 Y154.302 E0.03118
G1 X177.535 Y154.376 E0.02913
G1 X178.1 Y154.355 E0.0242
G1 X178.095 Y176.144 E0.93161
M73 P4 R9
G1 X177.534 Y176.124 E0.02398
G1 X176.866 Y176.197 E0.02876
G1 X176.215 Y176.366 E0.02874
G1 X175.596 Y176.628 E0.02874
G1 X175.021 Y176.976 E0.02874
G1 X174.503 Y177.404 E0.02874
G1 X174.135 Y177.811 E0.02345
G1 X173.605 Y176.922 E0.04425
G1 X173.137 Y176.266 E0.03442
G1 X172.617 Y175.652 E0.03442
G1 X172.048 Y175.083 E0.03443
G1 X171.433 Y174.562 E0.03443
G1 X170.778 Y174.094 E0.03443
G1 X170.086 Y173.682 E0.03442
G1 X169.363 Y173.329 E0.03443
G1 X168.613 Y173.036 E0.03442
