; Postprocessed by [ArcWelder](https://github.com/FormerLurker/ArcWelderLib)
; Copyright(C) 2021 - Brad Hochgesang
; Version: 1.2.0, Branch: HEAD, BuildDate: 2021-11-21T20:25:43Z
; resolution=0.05mm
; path_tolerance=5.0%
; max_radius=9999.00mm
; g90_influences_extruder=True
; default_xyz_precision=3
; default_e_precision=5
; extrusion_rate_variance_percent=5.0%

; generated by SuperSlicer 2.4 on 2022-05-03 at 03:35:05 UTC







; 

; external perimeters extrusion width = 0.40mm
; perimeters extrusion width = 0.40mm
; infill extrusion width = 0.72mm
; solid infill extrusion width = 0.56mm
; top infill extrusion width = 0.40mm
; first layer extrusion width = 0.48mm

; external perimeters extrusion width = 0.40mm
; perimeters extrusion width = 0.40mm
; infill extrusion width = 0.72mm
; solid infill extrusion width = 0.56mm
; top infill extrusion width = 0.40mm
; first layer extrusion width = 0.48mm

; object:{"name":"[a]_latch","id":"[a]_latch.stl id:0 copy 0","object_center":[177.243715,158.967108,0.000000],"boundingbox_center":[177.243715,158.967108,5.500000],"boundingbox_size":[24.060699,34.332947,11.000000]}
; object:{"name":"[a]_guidler","id":"[a]_guidler.stl id:1 copy 0","object_center":[150.525461,165.031373,0.000000],"boundingbox_center":[150.525461,165.031373,6.275001],"boundingbox_size":[19.600006,46.336273,12.550001]}
; plater:{"center":[164.999761,165.000072,0.000000],"boundingbox_center":[164.999761,165.000072,6.275001],"boundingbox_size":[48.548607,46.398875,12.550001]}

M73 P0 R24
;TYPE:Custom
START_PRINT T_BED=110 T_EXTRUDER=245
M107
G21 ; set units to millimeters
G90 ; use absolute coordinates
M83 ; use relative distances for extrusion
; Filament gcode
M104 S245 ; set temperature
M109 S245 ; set temperature and wait for it to be reached
M190 S110 ; set bed temperature and wait for it to be reached
M107
;LAYER_CHANGE
;Z:0.24
;HEIGHT:0.24
G1 Z0.24 F9000
G92 E0
G1 E-0.5 F3000
M204 S1000
G1 X138.651 Y139.77 F9000
G1 E0.5 F1800
;TYPE:Skirt
;WIDTH:0.52
G1 X137.719 Y140.845 E0.06652
G1 X137.611 Y141.012 E0.00932
G1 X136.94 Y143.279 E0.11054
G1 X136.94 Y186.026 E1.99825
G1 X137.073 Y187.07 E0.04923
G1 X137.899 Y188.686 E0.08483
G1 X139.334 Y189.796 E0.08483
G1 X141.105 Y190.192 E0.08483
G1 X156.219 Y190.192 E0.70649
G1 X157.6 Y189.956 E0.06553
G1 X189.691 Y178.672 E1.59017
G1 X190.642 Y178.205 E0.04952
G1 X191.363 Y177.676 E0.04181
G1 X192.328 Y176.584 E0.06812
G1 X192.873 Y175.542 E0.05499
G1 X193.184 Y174.406 E0.05505
G2 X192.952 Y171.728 I-5.565 J-0.867 E0.12678
G1 X183.522 Y145.475 E1.30401
G1 X181.773 Y141.81 E0.18984
G2 X180.398 Y140.071 I-7.153 J4.243 E0.10384
G1 X179.259 Y139.166 E0.06802
G1 X178.24 Y138.59 E0.05473
G1 X176.757 Y138.06 E0.07363
G1 X175.199 Y137.825 E0.07363
G1 X142.559 Y138.194 E1.52591
G2 X140.562 Y138.592 I0.282 J6.626 E0.09548
G1 X139.839 Y138.927 E0.03727
G1 X138.651 Y139.77 E0.06807
G1 X138.971 Y140.109 F9000
G1 F1800
G1 X138.11 Y141.098 E0.06128
G1 X137.406 Y143.279 E0.10714
G1 X137.406 Y186.026 E1.99825
G1 X138.135 Y188.231 E0.10858
G1 X139.443 Y189.331 E0.07988
G1 X141.105 Y189.725 E0.07988
G1 X156.219 Y189.725 E0.70649
G1 X157.446 Y189.516 E0.0582
G1 X189.537 Y178.232 E1.59017
G2 X191.049 Y177.332 I-1.803 J-4.748 E0.08258
G1 X191.947 Y176.315 E0.06344
G1 X192.444 Y175.36 E0.05031
G1 X192.725 Y174.32 E0.05037
G2 X192.513 Y171.885 I-5.066 J-0.786 E0.11526
G1 X183.099 Y145.672 E1.30199
G1 X181.379 Y142.06 E0.18703
G2 X180.071 Y140.403 I-6.703 J3.947 E0.09890
G1 X179.014 Y139.563 E0.0631
G1 X177.706 Y138.866 E0.0693
G1 X176.636 Y138.51 E0.0527
G1 X175.168 Y138.291 E0.06941
G1 X142.565 Y138.66 E1.52418
G2 X140.054 Y139.341 I0.257 J5.917 E0.12254
G1 X138.971 Y140.109 E0.06211
G1 X139.29 Y140.449 F9000
G1 F1800
G1 X138.502 Y141.352 E0.05605
G1 X137.872 Y143.279 E0.09477
G1 X137.872 Y186.026 E1.99825
M73 P1 R24
G1 X138.389 Y187.78 E0.08548
G1 X139.559 Y188.865 E0.0746
G1 X141.105 Y189.259 E0.0746
G1 X156.219 Y189.259 E0.70649
G1 X157.291 Y189.076 E0.05086
G1 X189.382 Y177.792 E1.59017
G2 X190.735 Y176.988 I-1.653 J-4.323 E0.07384
G1 X191.403 Y176.276 E0.04563
G1 X192.014 Y175.178 E0.05876
G1 X192.267 Y174.234 E0.04569
G1 X192.32 Y173.386 E0.03972
G1 X192.074 Y172.042 E0.06386
G1 X182.677 Y145.869 E1.29998
G1 X180.986 Y142.309 E0.18423
G2 X179.743 Y140.735 I-6.336 J3.726 E0.09398
G1 X178.769 Y139.96 E0.05817
G1 X177.542 Y139.303 E0.06508
G1 X176.516 Y138.96 E0.05058
G1 X175.136 Y138.756 E0.06519
G1 X142.57 Y139.126 E1.52244
G1 X141.074 Y139.398 E0.0711
G1 X140.27 Y139.754 E0.0411
G1 X139.29 Y140.449 E0.05615
; INIT printing object [a]_latch.stl id:0 copy 0
G1 E-0.5 F3000
; printing object [a]_latch.stl id:0 copy 0
; acceleration to travel
M204 S4000
G1 X170.562 Y155.554 F9000
; decel to extrusion
M204 S1000
G1 X178.38 Y159.33
; end travel
G1 E0.5 F1800
;TYPE:Internal perimeter
;WIDTH:0.48
G1 X178.699 Y159.309 E0.0137
G2 X182.929 Y168.536 I16.503 J-1.982 E0.44102
G1 X185.374 Y171.213 E0.155
G1 X185.244 Y171.432 E0.01087
G2 X184.476 Y171.331 I-0.709 J2.424 E0.03320
G1 X177.899 Y171.331 E0.2812
G1 X177.408 Y171.374 E0.02107
G2 X178.380 Y168.221 I-4.779 J-3.200 E0.14298
G1 X178.38 Y159.33 E0.38013
; acceleration to travel
M204 S4000
G1 X176.07 Y151.322 F9000
; decel to extrusion
M204 S1000
G1 X175.493 Y149.32
; end travel
G1 F1800
G2 X178.015 Y147.133 I-0.643 J-3.289 E0.14937
G3 X178.561 Y148.854 I-3.260 J1.981 E0.07782
G1 X178.566 Y154.129 E0.22554
G1 X178.249 Y154.153 E0.01359
G2 X175.493 Y149.320 I-7.903 J1.305 E0.24297
G1 X174.724 Y148.963 F9000
G1 F1800
G2 X177.801 Y146.216 I0.080 J-3.007 E0.19409
G1 X178.047 Y146.187 E0.01059
G1 X178.727 Y147.646 E0.06883
G3 X178.990 Y148.830 I-3.445 J1.387 E0.05206
G1 X178.997 Y157.301 E0.3622
G2 X183.248 Y168.250 I16.266 J-0.016 E0.51367
G1 X187.895 Y173.338 E0.29464
G3 X187.598 Y173.667 I-0.122 J0.189 E0.03281
G2 X186.392 Y172.424 I-8.070 J6.624 E0.07411
G2 X184.457 Y171.759 I-1.987 J2.635 E0.08885
G1 X177.918 Y171.759 E0.27958
G2 X176.486 Y172.108 I0.072 J3.408 E0.06351
G1 X176.33 Y171.863 E0.01239
G2 X177.439 Y170.440 I-2.002 J-2.704 E0.07795
G2 X177.951 Y168.207 I-4.705 J-2.254 E0.09868
G1 X177.951 Y155.526 E0.54218
G2 X174.648 Y149.202 I-7.735 J0.015 E0.31699
G1 X174.724 Y148.963 E0.01071
G1 E-0.5 F3000
; acceleration to travel
M204 S4000
G1 X172.691 Y146.405 F9000
; decel to extrusion
M204 S1000
G1 X172.182 Y145.766
; end travel
G1 E0.5 F1800
G2 X172.273 Y145.232 I2.592 J0.167 E0.67478
G2 X172.182 Y145.766 I1.398 J0.513 E0.02317
G1 X172.611 Y145.762 F9000
;TYPE:External perimeter
G1 F1800
G2 X172.687 Y145.351 I2.158 J0.187 E0.56458
G1 X172.611 Y145.762 E0.01785
;WIPE_START
M204 S5000
G1 X172.341 Y145.898 F9000
;WIPE_END
; acceleration to travel
M204 S4000
G1 X171.576 Y146.445
; decel to extrusion
M204 S1000
G1 X171.385 Y146.582
; end travel
;TYPE:Internal perimeter
G1 F1800
G2 X171.681 Y147.488 I2.512 J-0.319 E0.04093
G1 X170.627 Y147.301 E0.04576
G1 X170.598 Y147.047 E0.01093
G1 X170.706 Y147.002 E0.00498
G1 X171.385 Y146.582 E0.03415
G1 X171.805 Y146.496 F9000
G1 F1800
G2 X172.101 Y147.380 I2.401 J-0.312 E0.04002
G1 X172.628 Y148.172 E0.04068
G2 X171.552 Y147.900 I-2.642 J8.186 E0.04748
G1 X166.737 Y147.048 E0.20906
G3 X166.692 Y146.595 I-0.017 J-0.227 E0.02927
G1 X168.543 Y146.914 E0.0803
G2 X171.062 Y146.278 I0.516 J-3.262 E0.11412
G1 X171.753 Y145.637 E0.04028
G2 X171.805 Y146.496 I2.243 J0.295 E0.03692
G1 E-0.5 F3000
; acceleration to travel
M204 S4000
G1 X173.533 Y167.424 F9000
; decel to extrusion
M204 S1000
G1 X173.965 Y172.656
; end travel
G1 E0.5 F1800
G2 X175.067 Y172.733 I0.809 J-3.647 E0.04737
G3 X173.637 Y174.142 I-6.040 J-4.700 E0.08620
G1 X173.965 Y172.656 E0.06504
G1 X173.552 Y172.571 F9000
G1 F1800
G1 X173.653 Y172.084 E0.02127
G2 X176.014 Y172.044 I1.135 J-2.685 E0.10382
G1 X176.153 Y172.29 E0.01207
G1 X175.641 Y172.727 E0.02876
G3 X174.324 Y174.171 I-12.667 J-10.230 E0.08359
G3 X172.998 Y174.826 I-1.938 J-2.255 E0.06383
G2 X173.552 Y172.571 I-26.606 J-7.732 E0.09928
G1 E-0.5 F3000
; acceleration to travel
M204 S4000
G1 X171.878 Y150.683 F9000
; decel to extrusion
M204 S1000
G1 X171.46 Y145.211
; end travel
G1 E0.5 F1800
G1 X171.484 Y145.178 E0.00176
G3 X172.891 Y143.238 I4.065 J1.468 E0.10395
G3 X177.669 Y144.364 I1.883 J2.712 E0.23649
G1 X179.126 Y147.486 E0.14731
G3 X179.418 Y148.806 I-3.792 J1.531 E0.05805
G1 X179.426 Y157.294 E0.36289
G2 X183.567 Y167.964 I15.841 J-0.009 E0.50057
G1 X188.227 Y173.066 E0.29547
G3 X187.310 Y173.987 I-0.453 J0.466 E0.08764
G2 X186.133 Y172.768 I-7.799 J6.353 E0.07247
G2 X184.438 Y172.188 I-1.730 J2.290 E0.07782
G1 X177.937 Y172.188 E0.27796
M73 P2 R24
G2 X175.943 Y173.033 I0.031 J2.848 E0.09491
G3 X174.471 Y174.608 I-10.680 J-8.506 E0.09226
G3 X172.482 Y175.283 I-1.937 J-2.439 E0.09157
G1 X172.491 Y175.071 E0.00907
G2 X173.352 Y171.420 I-40.138 J-11.393 E0.16041
G2 X176.697 Y170.891 I1.414 J-1.900 E0.16099
G2 X177.523 Y168.194 I-4.089 J-2.727 E0.12223
G1 X177.523 Y155.536 E0.54118
G2 X171.469 Y148.321 I-7.346 J0.017 E0.43696
G1 X166.64 Y147.466 E0.2097
G3 X166.752 Y146.171 I0.075 J-0.646 E0.08542
G1 X168.598 Y146.489 E0.08007
G2 X171.460 Y145.211 I0.463 J-2.807 E0.14182
G1 X171.117 Y144.954 F9000
;TYPE:External perimeter
G1 F1800
G3 X172.832 Y142.765 I4.249 J1.563 E0.12104
G3 X178.226 Y144.546 I1.934 J3.202 E0.27610
G1 X179.524 Y147.326 E0.13119
G3 X179.847 Y148.783 I-4.264 J1.709 E0.06406
G1 X179.854 Y157.287 E0.36358
G2 X183.886 Y167.677 I15.419 J-0.006 E0.48749
G1 X188.559 Y172.794 E0.2963
G3 X187.021 Y174.306 I-0.784 J0.741 E0.14262
G2 X185.875 Y173.112 I-7.841 J6.379 E0.07083
G2 X184.419 Y172.616 I-1.474 J1.942 E0.06682
G1 X177.956 Y172.616 E0.27633
G2 X176.245 Y173.339 I0.023 J2.442 E0.08140
G3 X174.731 Y174.949 I-10.601 J-8.452 E0.09465
G3 X172.572 Y175.709 I-2.211 J-2.834 E0.09958
G3 X172.064 Y175.007 I0.063 J-0.581 E0.04172
G2 X173.010 Y171.065 I-61.504 J-16.844 E0.17342
G3 X173.491 Y170.969 I0.283 J0.163 E0.02370
G2 X176.342 Y170.647 I1.281 J-1.439 E0.13820
G2 X177.094 Y168.180 I-3.705 J-2.478 E0.11175
G1 X177.094 Y155.546 E0.54017
G2 X171.386 Y148.741 I-6.945 J0.029 E0.41215
G1 X168.566 Y148.242 E0.12248
G1 X166.542 Y147.884 E0.08785
G3 X166.784 Y145.741 I0.171 J-1.066 E0.14034
G2 X169.068 Y146.100 I7.926 J-42.978 E0.09892
G2 X171.117 Y144.954 I-0.014 J-2.431 E0.10464
;WIPE_START
M204 S5000
G1 X171.517 Y144.951 F9000
;WIPE_END
M204 S1000
G1 X171.884 Y145.246
;TYPE:Gap fill
;WIDTH:0.400175
G1 F1800
G3 X172.054 Y144.819 I3.228 J1.038 E0.01602
;WIDTH:0.350894
G3 X177.511 Y144.865 I2.719 J1.121 E0.20864
;WIDTH:0.383181
G3 X177.672 Y145.276 I-2.086 J1.054 E0.01463
;WIDTH:0.434048
G1 X177.714 Y145.406 E0.00518
;WIDTH:0.479832
G1 X177.755 Y145.535 E0.0058
;WIDTH:0.527843
G1 X177.809 Y145.71 E0.00869
;WIDTH:0.552972
G2 X177.874 Y146.009 I14.520 J-3.000 E0.01534
; acceleration to travel
M204 S4000
G1 X178.206 Y148.145 F9000
; decel to extrusion
M204 S1000
G1 X178.3 Y148.755
; end travel
;TYPE:Solid infill
;WIDTH:0.504061
G1 F3600
G1 X177.646 Y148.1 E0.04155
G1 X177.398 Y148.458 E0.01955
G1 X178.132 Y149.193 E0.04665
G1 X178.156 Y149.822 E0.02829
G1 X177.146 Y148.812 E0.06416
G1 X176.734 Y149.007 E0.02043
G1 X178.18 Y150.452 E0.09177
G1 X178.203 Y151.081 E0.02829
G1 X176.323 Y149.201 E0.11937
G1 X175.912 Y149.396 E0.02043
G1 X178.252 Y151.737 E0.14861
; acceleration to travel
M204 S4000
G1 X178.151 Y148.807 F9000
; decel to extrusion
M204 S1000
G1 X178.128 Y148.166
; end travel
;TYPE:Gap fill
;WIDTH:0.195598
G1 F1800
G1 X178.065 Y148.057 E0.00182
;WIDTH:0.305186
G1 X177.969 Y147.893 E0.0048
;WIDTH:0.373998
G1 X177.857 Y147.737 E0.0062
; acceleration to travel
M204 S4000
G1 X178.007 Y150.991 F9000
; decel to extrusion
M204 S1000
G1 X178.045 Y151.805
; end travel
;WIDTH:0.668437
G1 F1800
G1 X178.088 Y151.999 E0.01222
;WIDTH:0.580684
G1 X178.103 Y152.063 E0.00349
;WIDTH:0.540441
G1 X178.143 Y152.243 E0.009
;WIDTH:0.501026
G1 X178.162 Y152.354 E0.00505
;WIDTH:0.455535
G1 X178.182 Y152.465 E0.00454
;WIDTH:0.410044
G1 X178.201 Y152.576 E0.00403
;WIDTH:0.364553
G1 X178.221 Y152.687 E0.00352
;WIDTH:0.319062
G1 X178.241 Y152.798 E0.00301
;WIDTH:0.273571
G1 X178.26 Y152.909 E0.0025
;WIDTH:0.227998
G3 X178.302 Y153.188 I-3.135 J0.615 E0.00496
;WIDTH:0.143664
G2 X178.328 Y153.393 I22.424 J-2.740 E0.00190
G1 X178.422 Y154.337 F9000
;WIDTH:0.804017
G1 F1800
G1 X178.436 Y154.511 E0.0131
;WIDTH:0.73488
G3 X178.465 Y155.150 I-7.037 J0.640 E0.04363
;WIDTH:0.703796
G2 X178.483 Y157.852 I110.059 J0.618 E0.17587
;WIDTH:0.740854
G2 X178.500 Y158.585 I15.406 J0.009 E0.05040
;WIDTH:0.786564
G2 X178.524 Y159.123 I47.625 J-1.855 E0.03953
; acceleration to travel
M204 S4000
G1 X178.599 Y160.113 F9000
; decel to extrusion
M204 S1000
G1 X178.618 Y160.361
; end travel
;WIDTH:0.143664
G1 F1800
G3 X178.640 Y160.575 I-10.274 J1.164 E0.00198
;WIDTH:0.186434
G1 X178.657 Y160.744 E0.00229
;WIDTH:0.229203
G1 X178.674 Y160.913 E0.00301
;WIDTH:0.271973
G1 X178.691 Y161.082 E0.00374
;WIDTH:0.316785
G2 X178.728 Y161.402 I5.108 J-0.428 E0.00852
;WIDTH:0.360828
G1 X178.748 Y161.544 E0.00443
;WIDTH:0.404811
G1 X178.767 Y161.686 E0.00506
;WIDTH:0.448794
G1 X178.786 Y161.828 E0.00569
;WIDTH:0.492777
G1 X178.805 Y161.971 E0.00632
;WIDTH:0.53676
G1 X178.825 Y162.113 E0.00694
;WIDTH:0.580743
G1 X178.844 Y162.255 E0.00757
;WIDTH:0.624726
G1 X178.863 Y162.397 E0.0082
;WIDTH:0.649384
G1 X178.893 Y162.577 E0.01087
;WIDTH:0.725845
G1 X178.918 Y162.721 E0.00983
G1 X178.704 Y162.779 F9000
;TYPE:Solid infill
;WIDTH:0.469204
G1 F3600
G1 X179.579 Y163.654 E0.05171
G1 X180.111 Y164.792 E0.05252
G1 X178.611 Y163.291 E0.08869
G1 X178.608 Y163.895 E0.02522
G1 X180.968 Y166.255 E0.13951
G1 X182.33 Y168.222 E0.09998
G1 X178.605 Y164.498 E0.22013
G1 X178.603 Y165.101 E0.02522
G1 X184.68 Y171.179 E0.35921
G1 X184.07 Y171.174 E0.02551
G1 X178.6 Y165.705 E0.32329
G1 X178.597 Y166.308 E0.02522
G1 X183.459 Y171.17 E0.28736
G1 X182.849 Y171.166 E0.02551
G1 X178.595 Y166.911 E0.25144
G1 X178.592 Y167.515 E0.02522
G1 X182.238 Y171.161 E0.21551
G1 X181.628 Y171.157 E0.02551
G1 X178.59 Y168.118 E0.17959
G1 X178.587 Y168.722 E0.02522
G1 X181.018 Y171.152 E0.14367
G1 X180.407 Y171.148 E0.02551
G1 X178.479 Y169.219 E0.11399
G1 X178.314 Y169.66 E0.01968
G1 X179.797 Y171.143 E0.08765
G1 X179.186 Y171.139 E0.02551
G1 X178.149 Y170.101 E0.06131
G1 X177.984 Y170.543 E0.01968
G1 X178.576 Y171.134 E0.03497
G1 X177.965 Y171.13 E0.02551
G1 X177.676 Y170.841 E0.0171
; acceleration to travel
M204 S4000
G1 X181.553 Y168.867 F9000
; decel to extrusion
M204 S1000
G1 X182.401 Y168.435
; end travel
;TYPE:Gap fill
;WIDTH:0.283265
G1 F1800
G2 X182.970 Y169.034 I23.923 J-22.155 E0.01910
;WIDTH:0.237576
G1 X183.46 Y169.548 E0.01319
;WIDTH:0.192541
G1 X183.95 Y170.062 E0.00999
;WIDTH:0.147505
G2 X184.473 Y170.610 I30.788 J-28.860 E0.00726
; acceleration to travel
M204 S4000
G1 X185.28 Y171.257 F9000
; decel to extrusion
M204 S1000
G1 X185.481 Y171.418
; end travel
;WIDTH:0.602843
G1 F1800
G1 X185.567 Y171.476 E0.00568
;WIDTH:0.549775
G1 X185.677 Y171.555 E0.00674
;WIDTH:0.50761
G1 X185.794 Y171.635 E0.00646
;WIDTH:0.426661
G1 X185.911 Y171.715 E0.00531
;WIDTH:0.364565
G3 X186.083 Y171.847 I-0.780 J1.194 E0.00676
;WIDTH:0.315679
G1 X186.174 Y171.922 E0.00311
;WIDTH:0.275692
G1 X186.265 Y171.997 E0.00264
;WIDTH:0.235705
G1 X186.356 Y172.071 E0.00217
;WIDTH:0.195718
G1 X186.447 Y172.146 E0.0017
;WIDTH:0.155665
G3 X186.659 Y172.342 I-0.996 J1.291 E0.00300
; acceleration to travel
M204 S4000
G1 X176.799 Y172.793 F9000
; decel to extrusion
M204 S1000
G1 X174.334 Y172.906
; end travel
;WIDTH:0.464321
G1 F1800
G1 X174.26 Y173.079 E0.00778
;WIDTH:0.392406
G1 X174.218 Y173.162 E0.00316
;WIDTH:0.346775
G1 X174.153 Y173.281 E0.004
;WIDTH:0.256504
G1 X174.088 Y173.4 E0.00278
;WIDTH:0.157619
G1 X174.001 Y173.56 E0.00192
G1 E-0.5 F3000
; acceleration to travel
M204 S4000
G1 X174.428 Y153.838 F9000
; decel to extrusion
M204 S1000
G1 X174.535 Y148.908
; end travel
G1 E0.5 F1800
;WIDTH:0.489928
G3 X174.273 Y148.938 I-0.491 J-3.132 E0.01156
;WIDTH:0.533581
G1 X174.176 Y148.901 E0.00498
;WIDTH:0.490657
G1 X174.079 Y148.863 E0.00454
;WIDTH:0.447732
G1 X173.983 Y148.826 E0.0041
