; generated by SuperSlicer 2.4 on 2022-05-27 at 14:52:14 UTC


;
;

;
;
; 

; external perimeters extrusion width = 0.40mm
; perimeters extrusion width = 0.40mm
; infill extrusion width = 0.72mm
; solid infill extrusion width = 0.56mm
; top infill extrusion width = 0.40mm
; first layer extrusion width = 0.48mm

; external perimeters extrusion width = 0.40mm
; perimeters extrusion width = 0.40mm
; infill extrusion width = 0.72mm
; solid infill extrusion width = 0.56mm
; top infill extrusion width = 0.40mm
; first layer extrusion width = 0.48mm

; external perimeters extrusion width = 0.40mm
; perimeters extrusion width = 0.40mm
; infill extrusion width = 0.72mm
; solid infill extrusion width = 0.56mm
; top infill extrusion width = 0.40mm
; first layer extrusion width = 0.48mm

; object:{"name":"latch_shuttle","id":"latch_shuttle.stl id:0 copy 0","object_center":[178.847778,151.543084,0.000000],"boundingbox_center":[178.847778,151.543084,5.300001],"boundingbox_size":[11.476082,20.850708,10.600001]}
; object:{"name":"[a]_latch","id":"[a]_latch.stl id:1 copy 0","object_center":[157.445247,152.539826,0.000000],"boundingbox_center":[157.445247,152.539826,5.500000],"boundingbox_size":[24.060699,34.332947,11.000000]}
; object:{"name":"latch_shuttle","id":"latch_shuttle.stl id:2 copy 0","object_center":[174.031315,181.297762,0.000000],"boundingbox_center":[174.031315,181.297762,5.299995],"boundingbox_size":[15.118256,26.658058,10.599991]}
; plater:{"center":[165.000358,165.000072,0.000000],"boundingbox_center":[165.000358,165.000072,5.500000],"boundingbox_size":[39.170922,59.253438,11.000000]}

M73 P0 R18
;TYPE:Custom
START_PRINT T_BED=110 T_EXTRUDER=245
M107
G21 ; set units to millimeters
G90 ; use absolute coordinates
M83 ; use relative distances for extrusion
; Filament gcode
M104 S245 ; set temperature
M109 S245 ; set temperature and wait for it to be reached
M190 S110 ; set bed temperature and wait for it to be reached
M107
;LAYER_CHANGE
;Z:0.24
;HEIGHT:0.24
G1 Z0.24 F9000
G92 E0
M73 P1 R18
G1 E-0.5 F3000
M204 S1000
G1 X143.013 Y136.536 F9000
G1 E0.5 F1800
;TYPE:Skirt
;WIDTH:0.52
G1 X142.444 Y137.217 E0.04149
G1 X142.001 Y137.96 E0.04043
G1 X141.723 Y138.628 E0.03382
G1 X141.523 Y139.402 E0.03739
G1 X141.433 Y140.403 E0.04697
G1 X141.575 Y141.645 E0.05842
G1 X148.039 Y170.064 E1.36243
M73 P2 R18
G1 X148.576 Y171.307 E0.06329
G1 X163.405 Y196.138 E1.35202
G1 X164.228 Y197.135 E0.06042
G1 X165.437 Y197.95 E0.06817
G1 X166.65 Y198.334 E0.05946
G1 X167.48 Y198.413 E0.03897
G1 X176.247 Y198.413 E0.40983
G1 X177.053 Y198.338 E0.03783
G1 X178.234 Y197.976 E0.05778
G1 X179.609 Y197.026 E0.07812
G1 X180.398 Y196.007 E0.06024
G1 X180.9 Y194.753 E0.06314
G1 X188.282 Y161.864 E1.57568
G1 X188.364 Y160.782 E0.05073
G1 X188.29 Y159.434 E0.06309
G1 X187.788 Y155.255 E0.1968
G1 X187.352 Y152.991 E0.10775
G1 X186.298 Y149.038 E0.19128
G1 X182.965 Y141.149 E0.40033
G1 X182.146 Y139.699 E0.07786
G1 X181.32 Y138.664 E0.06188
G1 X180.087 Y137.804 E0.07024
G1 X179.276 Y137.5 E0.0405
G1 X156.94 Y131.627 E1.07965
G1 X155.401 Y131.398 E0.07272
G1 X154.483 Y131.405 E0.04292
G1 X153.439 Y131.537 E0.04918
G1 X151.931 Y131.982 E0.07352
G1 X144.192 Y135.631 E0.39994
G1 X143.013 Y136.536 E0.06951
G1 X143.348 Y136.86 F9000
G1 F1800
G1 X142.819 Y137.493 E0.03859
G1 X142.414 Y138.176 E0.0371
G1 X141.983 Y139.478 E0.0641
G1 X141.899 Y140.392 E0.04291
G1 X142.029 Y141.541 E0.05409
G1 X148.49 Y169.947 E1.36176
G1 X148.977 Y171.068 E0.05713
G1 X163.805 Y195.899 E1.35202
G1 X164.551 Y196.799 E0.05463
G1 X165.644 Y197.532 E0.06152
G1 X166.721 Y197.873 E0.0528
G1 X167.48 Y197.946 E0.03563
G1 X176.247 Y197.946 E0.40983
G1 X176.983 Y197.877 E0.03459
G1 X178.033 Y197.555 E0.05131
G1 X179.289 Y196.687 E0.07138
G1 X179.989 Y195.782 E0.0535
G1 X180.445 Y194.651 E0.05702
G1 X187.826 Y161.769 E1.57536
G1 X187.898 Y160.808 E0.04505
G1 X187.812 Y159.302 E0.07052
G1 X187.327 Y155.322 E0.18743
G1 X186.898 Y153.101 E0.10573
G1 X185.852 Y149.175 E0.18993
G1 X182.559 Y141.378 E0.39564
G1 X181.74 Y139.928 E0.07786
G1 X181.006 Y139.01 E0.05495
G1 X179.892 Y138.228 E0.06363
G1 X179.158 Y137.951 E0.03667
G1 X156.821 Y132.078 E1.07965
M73 P2 R17
G1 X155.369 Y131.863 E0.0686
G1 X154.497 Y131.871 E0.0408
M73 P3 R17
G1 X153.513 Y131.997 E0.04637
G1 X152.092 Y132.42 E0.0693
G1 X144.417 Y136.04 E0.3967
G1 X143.348 Y136.86 E0.06294
G1 X143.684 Y137.183 F9000
G1 F1800
G1 X143.195 Y137.77 E0.0357
G1 X142.828 Y138.392 E0.03378
G1 X142.444 Y139.553 E0.05717
G1 X142.365 Y140.38 E0.03885
G1 X142.484 Y141.438 E0.04976
G1 X148.941 Y169.829 E1.36108
G1 X149.377 Y170.828 E0.05096
G1 X164.205 Y195.66 E1.35202
G1 X164.875 Y196.463 E0.04885
G1 X165.851 Y197.114 E0.05487
G1 X166.792 Y197.412 E0.04615
G1 X167.48 Y197.48 E0.0323
G1 X176.247 Y197.48 E0.40983
G1 X176.914 Y197.416 E0.03134
G1 X177.831 Y197.135 E0.04484
G1 X178.969 Y196.348 E0.06464
G1 X179.58 Y195.557 E0.04675
G1 X179.99 Y194.548 E0.05089
G1 X187.369 Y161.673 E1.57504
G1 X187.433 Y160.833 E0.03938
G1 X187.348 Y159.347 E0.06959
G1 X186.865 Y155.389 E0.18642
G1 X186.445 Y153.21 E0.10371
G1 X185.406 Y149.312 E0.18858
G1 X182.153 Y141.608 E0.39095
G1 X181.334 Y140.158 E0.07786
G1 X180.692 Y139.355 E0.04803
G1 X179.696 Y138.651 E0.05702
G1 X179.039 Y138.402 E0.03285
G1 X156.702 Y132.529 E1.07965
G1 X155.338 Y132.329 E0.06448
G1 X153.586 Y132.458 E0.0821
G1 X152.252 Y132.857 E0.06509
G1 X144.641 Y136.449 E0.39345
G1 X143.684 Y137.183 E0.05636
G1 E-0.5 F3000
; printing object latch_shuttle.stl id:0 copy 0
; acceleration to travel
M204 S3000
G1 X168.611 Y145.739 F9000
; decel to extrusion
M204 S1000
G1 X176.92 Y148.591
; end travel
G1 E0.5 F1800
;TYPE:Internal perimeter
;WIDTH:0.48
G1 X177.246 Y148.839 E0.01753
G1 X177.795 Y149.107 E0.02612
G1 X180.994 Y150.283 E0.14572
G1 X181.095 Y150.345 E0.00507
G1 X181.124 Y150.37 E0.00164
G1 X181.237 Y150.528 E0.00827
G1 X181.452 Y151.186 E0.02961
G1 X181.79 Y152.381 E0.0531
G1 X182.23 Y154.202 E0.0801
G1 X182.584 Y156.037 E0.07989
G1 X182.853 Y157.886 E0.0799
G1 X183.036 Y159.748 E0.07998
G1 X183.077 Y160.491 E0.03184
G1 X175.252 Y160.49 E0.33458
G1 X175.131 Y159.201 E0.05537
G1 X175.592 Y158.838 E0.02507
G1 X176.208 Y158.22 E0.03728
G1 X176.745 Y157.531 E0.03735
G1 X177.194 Y156.782 E0.03735
G1 X177.543 Y155.999 E0.03667
G1 X177.707 Y155.509 E0.02208
G1 X177.852 Y154.936 E0.02527
G1 X177.978 Y154.084 E0.03683
G1 X178 Y153.211 E0.03735
G1 X177.915 Y152.341 E0.03735
G1 X177.728 Y151.501 E0.03682
G1 X177.45 Y150.658 E0.03795
G1 X177.045 Y149.557 E0.05017
G1 X176.712 Y148.751 E0.03728
G1 X176.92 Y148.591 E0.01122
; acceleration to travel
M204 S3000
G1 X175.291 Y145.677 F9000
; decel to extrusion
M204 S1000
G1 X174.748 Y144.705
; end travel
G1 F1800
G1 X176.226 Y143.79 E0.07435
G1 X176.418 Y143.982 E0.01162
G1 X176.035 Y144.6 E0.0311
G1 X175.86 Y145.035 E0.02005
G1 X175.754 Y145.443 E0.01803
G1 X175.707 Y145.959 E0.02212
G1 X175.453 Y146.007 E0.01107
G1 X175.365 Y145.832 E0.00837
G1 X174.748 Y144.705 E0.05491
G1 X174.177 Y144.555 F9000
G1 F1800
G1 X177.999 Y142.188 E0.19223
G1 X178.521 Y143.111 E0.04532
G1 X177.724 Y143.493 E0.03776
G1 X177.396 Y143.679 E0.01613
G1 X176.995 Y144.003 E0.02207
G1 X176.716 Y144.314 E0.01784
G1 X176.418 Y144.794 E0.02417
G1 X176.268 Y145.169 E0.01728
G1 X176.178 Y145.517 E0.01536
G1 X176.127 Y146.076 E0.02399
G1 X176.16 Y146.479 E0.01731
G1 X176.234 Y146.821 E0.01496
G1 X176.388 Y147.242 E0.01914
G1 X176.654 Y147.704 E0.02282
G1 X177.04 Y148.143 E0.02499
G1 X177.472 Y148.473 E0.02322
G1 X177.964 Y148.712 E0.02337
G1 X181.181 Y149.895 E0.14657
G1 X181.35 Y149.998 E0.00846
G1 X181.444 Y150.081 E0.00537
G1 X181.555 Y150.215 E0.00742
G1 X181.624 Y150.332 E0.00581
G1 X181.685 Y150.486 E0.0071
G1 X181.862 Y151.061 E0.0257
G1 X182.205 Y152.272 E0.05383
G1 X182.649 Y154.111 E0.08088
G1 X183.007 Y155.965 E0.08074
G1 X183.278 Y157.834 E0.08075
G1 X183.463 Y159.715 E0.0808
G1 X183.53 Y160.92 E0.0516
G1 X174.861 Y160.918 E0.37063
G1 X174.683 Y159.008 E0.08202
G1 X175.306 Y158.517 E0.03394
G1 X175.886 Y157.936 E0.03507
G1 X176.391 Y157.288 E0.03512
G1 X176.813 Y156.584 E0.03512
G1 X177.143 Y155.843 E0.03468
G1 X177.295 Y155.388 E0.02052
G1 X177.431 Y154.852 E0.02365
G1 X177.55 Y154.047 E0.03478
G1 X177.571 Y153.226 E0.03512
G1 X177.491 Y152.409 E0.03511
G1 X177.315 Y151.615 E0.03477
G1 X177.045 Y150.799 E0.03672
G1 X176.646 Y149.712 E0.04951
G1 X175.987 Y148.117 E0.07379
G1 X175.503 Y147.066 E0.0495
G1 X174.986 Y146.03 E0.04947
G1 X174.177 Y144.555 E0.07193
G1 X173.746 Y144.452 F9000
;TYPE:External perimeter
G1 F1800
G1 X173.808 Y144.319 E0.00625
G1 X173.938 Y144.199 E0.00756
G1 X177.797 Y141.809 E0.19409
G1 X177.944 Y141.75 E0.00677
G1 X178.139 Y141.758 E0.00837
G1 X178.206 Y141.788 E0.00313
G1 X178.329 Y141.9 E0.00709
G1 X179.119 Y143.299 E0.0687
G1 X177.923 Y143.873 E0.05673
G1 X177.638 Y144.034 E0.014
G1 X177.291 Y144.314 E0.01908
G1 X177.061 Y144.572 E0.01476
G1 X176.802 Y144.989 E0.02098
G1 X176.676 Y145.304 E0.01451
G1 X176.601 Y145.591 E0.01269
G1 X176.557 Y146.077 E0.0209
G1 X176.585 Y146.416 E0.01452
G1 X176.647 Y146.702 E0.01251
G1 X176.778 Y147.06 E0.0163
G1 X177.004 Y147.454 E0.01941
G1 X177.334 Y147.828 E0.02134
G1 X177.698 Y148.106 E0.01959
G1 X178.132 Y148.318 E0.02063
G1 X181.368 Y149.508 E0.14741
G1 X181.605 Y149.651 E0.01184
G1 X181.753 Y149.782 E0.00845
G1 X181.907 Y149.969 E0.01036
G1 X182.01 Y150.143 E0.00865
G1 X182.09 Y150.344 E0.00922
G1 X182.273 Y150.94 E0.02666
G1 X182.619 Y152.164 E0.0544
G1 X183.068 Y154.02 E0.08165
G1 X183.429 Y155.894 E0.08159
M73 P4 R17
G1 X183.704 Y157.782 E0.08159
G1 X183.891 Y159.682 E0.08162
G1 X183.963 Y160.993 E0.05614
G1 X183.943 Y161.088 E0.00416
G1 X183.874 Y161.211 E0.00603
G1 X183.809 Y161.272 E0.00381
G1 X183.681 Y161.332 E0.00602
G1 X183.564 Y161.348 E0.00509
G1 X174.807 Y161.347 E0.37438
G1 X174.677 Y161.322 E0.00565
G1 X174.576 Y161.265 E0.00496
G1 X174.483 Y161.163 E0.00592
G1 X174.446 Y161.081 E0.00385
G1 X174.255 Y159.028 E0.08816
G1 X174.279 Y158.847 E0.00779
G1 X174.374 Y158.706 E0.00727
G1 X175.021 Y158.196 E0.03522
G1 X175.564 Y157.652 E0.03286
G1 X176.037 Y157.046 E0.03288
G1 X176.432 Y156.386 E0.03288
G1 X176.743 Y155.688 E0.03269
G1 X176.884 Y155.267 E0.01895
G1 X177.011 Y154.768 E0.02203
G1 X177.122 Y154.01 E0.03274
G1 X177.142 Y153.242 E0.03288
G1 X177.067 Y152.476 E0.03288
G1 X176.901 Y151.729 E0.03273
G1 X176.64 Y150.94 E0.0355
G1 X176.246 Y149.868 E0.04885
G1 X175.594 Y148.289 E0.07306
G1 X175.116 Y147.251 E0.04884
G1 X174.606 Y146.229 E0.04883
G1 X173.768 Y144.701 E0.07449
G1 X173.737 Y144.58 E0.00535
G1 X173.746 Y144.452 E0.00551
;WIPE_START
M204 S4000
G1 X174.137 Y144.369 F9000
;WIPE_END
; acceleration to travel
M204 S3000
G1 X174.97 Y145.003
; decel to extrusion
M204 S1000
G1 X175.248 Y145.215
; end travel
;TYPE:Gap fill
;WIDTH:0.794981
G1 F1800
G1 X175.295 Y145.093 E0.00972
;WIDTH:0.643197
G1 X175.376 Y144.923 E0.01111
;WIDTH:0.560891
G1 X175.406 Y144.867 E0.00324
G1 X175.533 Y144.716 E0.01001
;WIDTH:0.437967
G1 X175.66 Y144.565 E0.00759
;WIDTH:0.316877
G1 X175.759 Y144.449 E0.00405
;WIDTH:0.262168
G1 X175.869 Y144.339 E0.00327
;WIDTH:0.167365
G1 X175.979 Y144.229 E0.0018
;WIDTH:0.134108
G1 X176.012 Y144.196 E0.00038
G1 X176.484 Y143.769 F9000
;WIDTH:0.668266
G1 F1800
G1 X176.632 Y143.645 E0.01189
G1 X176.723 Y143.572 E0.00718
G1 X176.917 Y143.435 E0.01458
;WIDTH:0.62418
G1 X177.11 Y143.298 E0.01354
G1 X177.148 Y143.273 E0.0026
G1 X177.32 Y143.171 E0.01143
G1 X177.492 Y143.069 E0.01143
G1 X177.664 Y142.975 E0.01121
;WIDTH:0.662132
G1 X177.819 Y142.89 E0.01076
G1 X177.952 Y142.816 E0.0093
;WIDTH:0.696917
G1 X178.086 Y142.741 E0.00983
; acceleration to travel
M204 S3000
G1 X176.25 Y145.314 F9000
; decel to extrusion
M204 S1000
G1 X175.638 Y146.172
; end travel
;WIDTH:0.651184
G1 F1800
G1 X175.682 Y146.364 E0.01174
;WIDTH:0.562108
G1 X175.724 Y146.528 E0.00868
;WIDTH:0.529542
G1 X175.734 Y146.558 E0.0015
G1 X175.793 Y146.726 E0.0085
;WIDTH:0.435697
G1 X175.854 Y146.9 E0.00706
G1 X175.869 Y146.941 E0.00164
G1 X175.96 Y147.162 E0.00917
;WIDTH:0.387851
G1 X176.051 Y147.383 E0.00803
G1 X176.063 Y147.409 E0.00097
G1 X176.194 Y147.663 E0.00958
;WIDTH:0.439752
G1 X176.325 Y147.917 E0.01106
G1 X176.352 Y147.962 E0.00205
;WIDTH:0.472465
G1 X176.454 Y148.126 E0.00811
;WIDTH:0.556996
G1 X176.556 Y148.29 E0.00974
G1 X176.632 Y148.398 E0.00665
;WIDTH:0.630788
G1 X176.708 Y148.505 E0.00762
; acceleration to travel
M204 S3000
G1 X178.849 Y149.539 F9000
; decel to extrusion
M204 S1000
G1 X179.665 Y149.932
; end travel
;TYPE:Solid infill
;WIDTH:0.462919
G1 F3600
G1 X181.214 Y151.482 E0.09036
G1 X181.41 Y152.284 E0.03405
G1 X178.961 Y149.835 E0.14283
G1 X177.911 Y149.39 E0.04703
G1 X181.607 Y153.086 E0.21552
G1 X181.803 Y153.888 E0.03405
G1 X177.13 Y149.215 E0.27249
G1 X177.435 Y150.127 E0.03963
G1 X181.999 Y154.69 E0.26612
G1 X182.195 Y155.493 E0.03405
G1 X177.741 Y151.038 E0.25976
G1 X178.046 Y151.949 E0.03963
G1 X182.359 Y156.262 E0.25151
G1 X182.434 Y156.944 E0.02827
G1 X178.156 Y152.665 E0.2495
G1 X178.141 Y153.257 E0.0244
G1 X182.51 Y157.625 E0.25474
G1 X182.585 Y158.307 E0.02827
G1 X178.127 Y153.848 E0.25997
G1 X178.113 Y154.44 E0.0244
G1 X182.661 Y158.988 E0.26521
G1 X182.736 Y159.669 E0.02827
G1 X178.086 Y155.02 E0.27114
G1 X177.905 Y155.445 E0.01904
G1 X182.703 Y160.243 E0.2798
G1 X182.097 Y160.243 E0.02499
G1 X177.724 Y155.869 E0.25503
G1 X177.543 Y156.294 E0.01904
G1 X181.491 Y160.243 E0.23025
G1 X180.885 Y160.242 E0.02499
G1 X177.361 Y156.719 E0.20548
G1 X177.18 Y157.144 E0.01904
G1 X180.279 Y160.242 E0.1807
G1 X179.673 Y160.242 E0.02499
G1 X176.999 Y157.568 E0.15593
G1 X176.955 Y157.671 E0.0046
G1 X176.729 Y157.905 E0.0134
G1 X179.067 Y160.242 E0.13631
G1 X178.461 Y160.242 E0.02499
G1 X176.432 Y158.213 E0.11833
G1 X176.134 Y158.521 E0.01767
G1 X177.855 Y160.242 E0.10036
G1 X177.249 Y160.242 E0.02499
G1 X175.836 Y158.829 E0.08238
G1 X175.538 Y159.137 E0.01767
G1 X176.643 Y160.242 E0.0644
G1 X176.036 Y160.242 E0.02499
G1 X175.216 Y159.422 E0.04782
G1 E-0.5 F3000
; stop printing object latch_shuttle.stl id:0 copy 0
; printing object [a]_latch.stl id:1 copy 0
; acceleration to travel
M204 S3000
G1 X161.263 Y145.603 F9000
; decel to extrusion
M204 S1000
G1 X157.193 Y141.572
; end travel
G1 E0.5 F1800
;TYPE:Internal perimeter
;WIDTH:0.48
G1 X157.326 Y141.438 E0.00808
G1 X157.649 Y140.953 E0.02494
G1 X157.874 Y140.414 E0.02494
G1 X158.002 Y139.789 E0.0273
G1 X158.248 Y139.76 E0.01059
G1 X158.929 Y141.219 E0.06883
G1 X159.061 Y141.607 E0.01754
G1 X159.147 Y141.994 E0.01695
G1 X159.191 Y142.403 E0.01757
G1 X159.199 Y150.874 E0.3622
G1 X159.234 Y151.938 E0.0455
G1 X159.282 Y152.503 E0.02427
G1 X159.428 Y153.579 E0.04639
G1 X159.647 Y154.651 E0.04681
G1 X159.938 Y155.707 E0.04682
G1 X160.3 Y156.741 E0.04682
G1 X160.729 Y157.745 E0.04669
G1 X161.228 Y158.726 E0.04706
G1 X161.788 Y159.663 E0.04669
G1 X162.411 Y160.564 E0.04681
G1 X163.087 Y161.412 E0.04639
G1 X163.45 Y161.823 E0.02341
G1 X168.097 Y166.911 E0.29463
G1 X168.162 Y167 E0.00474
G1 X168.189 Y167.061 E0.00283
G1 X168.172 Y167.219 E0.00682
G1 X168.104 Y167.283 E0.00396
G1 X168.049 Y167.314 E0.00271
G1 X167.91 Y167.323 E0.00596
G1 X167.799 Y167.24 E0.00592
G1 X166.988 Y166.358 E0.05123
G1 X166.593 Y165.997 E0.02288
G1 X166.027 Y165.652 E0.02835
G1 X165.582 Y165.479 E0.02042
G1 X165.168 Y165.377 E0.0182
G1 X164.658 Y165.332 E0.02191
G1 X157.875 Y165.342 E0.29003
G1 X157.312 Y165.442 E0.02443
G1 X156.683 Y165.674 E0.02866
G1 X156.537 Y165.432 E0.01212
G1 X156.979 Y165.034 E0.02545
G1 X157.252 Y164.708 E0.01817
G1 X157.641 Y164.013 E0.03405
G1 X157.789 Y163.67 E0.01596
G1 X157.989 Y163.057 E0.02757
G1 X158.113 Y162.405 E0.02838
G1 X158.153 Y161.78 E0.02677
G1 X158.153 Y149.099 E0.54218
G1 X158.12 Y148.402 E0.02985
G1 X157.984 Y147.51 E0.03855
G1 X157.801 Y146.809 E0.03099
G1 X157.555 Y146.134 E0.03072
G1 X157.245 Y145.478 E0.03102
G1 X156.777 Y144.707 E0.03855
G1 X156.337 Y144.131 E0.031
G1 X155.845 Y143.596 E0.03104
G1 X155.167 Y143 E0.03861
G1 X154.85 Y142.775 E0.01665
G1 X154.926 Y142.536 E0.01071
G1 X155.315 Y142.536 E0.01665
