; generated by SuperSlicer 2.4 on 2022-05-15 at 01:13:46 UTC


;
;

;
;
; 

; external perimeters extrusion width = 0.40mm
; perimeters extrusion width = 0.40mm
; infill extrusion width = 0.72mm
; solid infill extrusion width = 0.56mm
; top infill extrusion width = 0.40mm
; first layer extrusion width = 0.48mm

; external perimeters extrusion width = 0.40mm
; perimeters extrusion width = 0.40mm
; infill extrusion width = 0.72mm
; solid infill extrusion width = 0.56mm
; top infill extrusion width = 0.40mm
; first layer extrusion width = 0.48mm

; object:{"name":"lens-hood-tensioner","id":"lens-hood-tensioner.stl id:0 copy 0","object_center":[164.999907,157.999953,0.000000],"boundingbox_center":[164.999907,157.999953,12.500000],"boundingbox_size":[15.923113,15.847011,25.000000]}
; object:{"name":"sigma-somun-m4","id":"sigma-somun-m4.stl id:1 copy 0","object_center":[165.000000,175.923554,0.000000],"boundingbox_center":[165.000000,175.923554,3.500000],"boundingbox_size":[19.000000,8.000000,7.000000]}
; plater:{"center":[165.000000,165.000001,0.000000],"boundingbox_center":[165.000000,165.000001,12.500000],"boundingbox_size":[19.000000,29.847106,25.000000]}

M73 P0 R28
;TYPE:Custom
START_PRINT T_BED=110 T_EXTRUDER=245
M107
G21 ; set units to millimeters
G90 ; use absolute coordinates
M83 ; use relative distances for extrusion
; Filament gcode
M104 S245 ; set temperature
M109 S245 ; set temperature and wait for it to be reached
M190 S110 ; set bed temperature and wait for it to be reached
M107
;LAYER_CHANGE
;Z:0.24
;HEIGHT:0.24
G1 Z0.24 F9000
G92 E0
G1 E-0.5 F3000
M204 S1000
G1 X156.665 Y150.31 F9000
G1 E0.5 F1800
;TYPE:Skirt
;WIDTH:0.52
G1 X155.513 Y151.801 E0.08806
G1 X154.695 Y153.309 E0.0802
G1 X154.334 Y154.228 E0.04617
G1 X153.987 Y155.435 E0.05872
G1 X151.06 Y172.83 E0.8246
G1 X150.968 Y173.928 E0.05149
G1 X150.985 Y178.323 E0.20545
G1 X151.241 Y179.772 E0.06879
G1 X151.657 Y180.831 E0.05318
G1 X152.25 Y181.802 E0.05318
G1 X153.003 Y182.654 E0.05318
G1 X153.893 Y183.363 E0.05318
G1 X154.893 Y183.907 E0.05318
G1 X155.971 Y184.269 E0.05318
G1 X157.412 Y184.455 E0.0679
G1 X162.5 Y184.556 E0.23791
G1 X172.588 Y184.455 E0.47162
G1 X174.029 Y184.269 E0.0679
G1 X175.107 Y183.907 E0.05318
G1 X176.107 Y183.363 E0.05318
G1 X177.231 Y182.42 E0.06859
G1 X177.75 Y181.802 E0.03775
G1 X178.343 Y180.831 E0.05318
G1 X178.845 Y179.452 E0.06859
G1 X179.032 Y177.919 E0.0722
G1 X179.032 Y173.928 E0.18658
G1 X178.94 Y172.83 E0.05149
G1 X176.146 Y156.104 E0.79273
G1 X175.9 Y154.989 E0.05338
G1 X175.509 Y153.795 E0.05872
G1 X174.905 Y152.504 E0.06664
G1 X173.971 Y151.067 E0.08013
G1 X172.777 Y149.742 E0.08336
G1 X171.666 Y148.814 E0.06768
G1 X170.15 Y147.875 E0.08334
G1 X168.907 Y147.333 E0.06341
G1 X167.191 Y146.847 E0.08338
G1 X165.397 Y146.642 E0.08439
G1 X163.616 Y146.718 E0.08333
G1 X161.518 Y147.186 E0.10048
G1 X159.849 Y147.876 E0.08444
G1 X158.252 Y148.874 E0.08806
G1 X156.665 Y150.31 E0.10003
G1 X156.998 Y150.637 F9000
G1 F1800
G1 X155.899 Y152.063 E0.08416
G1 X155.125 Y153.489 E0.07588
G1 X154.444 Y155.527 E0.10045
G1 X151.52 Y172.907 E0.82387
G1 X151.434 Y173.928 E0.04788
G1 X151.45 Y178.282 E0.20355
G1 X151.691 Y179.651 E0.06499
G1 X152.079 Y180.634 E0.04938
G1 X152.632 Y181.534 E0.04938
G1 X153.333 Y182.324 E0.04938
G1 X154.161 Y182.981 E0.04938
G1 X155.09 Y183.484 E0.04939
G1 X156.092 Y183.818 E0.04938
G1 X157.421 Y183.989 E0.06264
G1 X162.5 Y184.089 E0.23747
G1 X172.579 Y183.989 E0.47118
G1 X173.908 Y183.818 E0.06264
G1 X174.91 Y183.484 E0.04938
G1 X175.839 Y182.981 E0.04938
G1 X176.901 Y182.09 E0.06479
G1 X177.368 Y181.534 E0.03395
G1 X177.921 Y180.634 E0.04938
G1 X178.395 Y179.332 E0.06479
G1 X178.566 Y177.919 E0.06651
G1 X178.566 Y173.928 E0.18658
G1 X178.48 Y172.907 E0.04788
G1 X175.686 Y156.181 E0.79273
G1 X175.454 Y155.126 E0.05049
G1 X175.079 Y153.976 E0.05655
G1 X174.491 Y152.718 E0.06491
G1 X173.607 Y151.359 E0.07581
G1 X172.444 Y150.068 E0.08119
G1 X171.404 Y149.2 E0.06336
G1 X169.928 Y148.285 E0.08117
G1 X168.761 Y147.776 E0.05951
G1 X167.089 Y147.302 E0.08121
G1 X165.397 Y147.109 E0.07963
G1 X163.662 Y147.182 E0.08116
G1 X161.646 Y147.634 E0.09658
G1 X160.071 Y148.286 E0.07968
G1 X158.544 Y149.238 E0.08416
G1 X156.998 Y150.637 E0.09743
G1 X157.382 Y150.973 F9000
G1 F1800
G1 X156.582 Y151.887 E0.05681
G1 X155.555 Y153.67 E0.09617
G1 X154.991 Y155.263 E0.07899
G1 X151.98 Y172.984 E0.84027
G1 X151.9 Y173.928 E0.04428
G1 X151.9 Y177.919 E0.18658
G1 X151.944 Y178.576 E0.03076
G1 X152.141 Y179.531 E0.04559
G1 X152.502 Y180.437 E0.04558
G1 X153.014 Y181.267 E0.04559
G1 X153.663 Y181.995 E0.04559
G1 X154.428 Y182.599 E0.04559
G1 X155.287 Y183.062 E0.04559
G1 X156.213 Y183.368 E0.04558
G1 X157.43 Y183.522 E0.05738
G1 X167.5 Y183.623 E0.47075
G1 X172.57 Y183.522 E0.23704
G1 X173.787 Y183.368 E0.05738
G1 X174.713 Y183.062 E0.04559
G1 X175.572 Y182.599 E0.04559
G1 X176.571 Y181.761 E0.06099
G1 X176.986 Y181.267 E0.03015
G1 X177.498 Y180.437 E0.04558
G1 X177.944 Y179.211 E0.06099
G1 X178.1 Y177.919 E0.06082
G1 X178.1 Y173.928 E0.18658
G1 X178.02 Y172.984 E0.04428
G1 X175.226 Y156.258 E0.79273
G1 X175.009 Y155.263 E0.0476
G1 X174.649 Y154.156 E0.05439
G1 X174.077 Y152.932 E0.06317
G1 X173.243 Y151.65 E0.07148
G1 X172.111 Y150.395 E0.07903
G1 X171.142 Y149.585 E0.05903
G1 X169.705 Y148.695 E0.07901
G1 X168.615 Y148.219 E0.05562
G1 X166.988 Y147.758 E0.07904
G1 X165.397 Y147.575 E0.07487
G1 X163.709 Y147.646 E0.079
G1 X161.775 Y148.082 E0.09269
G1 X160.294 Y148.696 E0.07492
G1 X158.835 Y149.602 E0.08027
G1 X157.888 Y150.396 E0.05777
G1 X157.382 Y150.973 E0.03589
G1 X157.731 Y151.28 F9000
G1 F1800
G1 X156.968 Y152.149 E0.05411
G1 X155.985 Y153.851 E0.09184
G1 X155.437 Y155.4 E0.07683
G1 X152.44 Y173.061 E0.83739
G1 X152.367 Y173.928 E0.04067
G1 X152.367 Y177.919 E0.18658
G1 X152.592 Y179.41 E0.07048
G1 X152.925 Y180.24 E0.04179
G1 X153.396 Y180.999 E0.04179
G1 X153.993 Y181.665 E0.04179
G1 X154.696 Y182.217 E0.04179
G1 X155.484 Y182.639 E0.04179
G1 X156.333 Y182.917 E0.04179
G1 X157.44 Y183.056 E0.05212
G1 X162.5 Y183.157 E0.2366
G1 X172.56 Y183.056 E0.47031
G1 X173.667 Y182.917 E0.05212
G1 X174.516 Y182.639 E0.04179
G1 X175.304 Y182.217 E0.04179
G1 X176.241 Y181.431 E0.05719
G1 X177.075 Y180.24 E0.06797
G1 X177.494 Y179.09 E0.05719
G1 X177.633 Y177.919 E0.05513
G1 X177.633 Y173.928 E0.18658
G1 X177.56 Y173.061 E0.04067
G1 X174.766 Y156.335 E0.79273
M73 P0 R27
G1 X174.219 Y154.337 E0.09681
G1 X173.663 Y153.147 E0.06144
G1 X172.879 Y151.942 E0.06716
G1 X171.778 Y150.721 E0.07686
G1 X170.88 Y149.971 E0.0547
G1 X169.948 Y149.357 E0.05219
G1 X168.469 Y148.662 E0.07637
G1 X166.887 Y148.213 E0.07688
G1 X165.397 Y148.041 E0.07012
G1 X163.755 Y148.11 E0.07683
G1 X161.903 Y148.531 E0.0888
G1 X160.516 Y149.106 E0.07016
G1 X159.127 Y149.966 E0.07637
G1 X158.221 Y150.722 E0.05517
G1 X157.731 Y151.28 E0.03469
; INIT printing object lens-hood-tensioner.stl id:0 copy 0
G1 E-0.5 F3000
; printing object lens-hood-tensioner.stl id:0 copy 0
; acceleration to travel
M204 S3000
G1 X160.27 Y153.745 F9000
; decel to extrusion
M204 S1000
G1 X161.116 Y154.567
; end travel
G1 E0.5 F1800
;TYPE:Internal perimeter
;WIDTH:0.48
G1 X161.555 Y154.118 E0.02686
G1 X162.046 Y153.725 E0.02686
G1 X162.374 Y153.512 E0.01676
G1 X162.719 Y153.325 E0.01676
G1 X163.298 Y153.081 E0.02686
G1 X163.902 Y152.909 E0.02686
G1 X164.288 Y152.839 E0.01676
G1 X164.678 Y152.8 E0.01676
G1 X165 Y152.8 E0.01377
G1 X165.306 Y152.8 E0.01308
G1 X165.929 Y152.875 E0.02683
G1 X166.297 Y152.956 E0.0161
G1 X166.909 Y153.158 E0.02755
G1 X167.267 Y153.317 E0.01676
G1 X167.612 Y153.504 E0.01676
G1 X168.144 Y153.865 E0.02753
G1 X168.433 Y154.107 E0.01609
G1 X168.884 Y154.567 E0.02755
G1 X169.12 Y154.86 E0.01609
G1 X169.47 Y155.4 E0.02751
G1 X169.651 Y155.749 E0.01679
G1 X169.803 Y156.11 E0.01676
G1 X169.992 Y156.726 E0.02755
G1 X170.066 Y157.094 E0.01607
G1 X170.13 Y157.735 E0.02753
G1 X170.13 Y158.111 E0.01609
G1 X170.066 Y158.753 E0.02755
G1 X169.992 Y159.121 E0.01607
G1 X169.803 Y159.737 E0.02755
G1 X169.651 Y160.098 E0.01676
G1 X169.471 Y160.447 E0.01676
G1 X169.119 Y160.987 E0.02755
G1 X168.884 Y161.28 E0.01607
G1 X168.433 Y161.74 E0.02755
G1 X168.145 Y161.981 E0.01607
G1 X167.612 Y162.343 E0.02755
G1 X167.281 Y162.522 E0.01607
G1 X166.687 Y162.772 E0.02755
G1 X166.328 Y162.882 E0.01607
G1 X165.696 Y163.01 E0.02755
G1 X165.322 Y163.047 E0.01607
M73 P1 R27
G1 X164.678 Y163.047 E0.02755
G1 X164.304 Y163.01 E0.01607
G1 X163.688 Y162.886 E0.02686
G1 X163.091 Y162.689 E0.02688
G1 X162.747 Y162.536 E0.01607
G1 X162.188 Y162.218 E0.02752
G1 X161.868 Y161.992 E0.01676
G1 X161.567 Y161.74 E0.01676
G1 X161.127 Y161.292 E0.02686
G1 X160.744 Y160.794 E0.02686
G1 X160.537 Y160.461 E0.01676
G1 X160.349 Y160.098 E0.01746
G1 X160.197 Y159.737 E0.01676
G1 X160.008 Y159.121 E0.02755
G1 X159.934 Y158.753 E0.01607
G1 X159.87 Y158.111 E0.02755
G1 X159.87 Y157.736 E0.01607
G1 X159.934 Y157.094 E0.02755
G1 X160.008 Y156.726 E0.01607
G1 X160.197 Y156.11 E0.02755
G1 X160.343 Y155.763 E0.01607
G1 X160.65 Y155.197 E0.02755
G1 X160.87 Y154.873 E0.01676
G1 X161.116 Y154.567 E0.01676
G1 X160.795 Y154.282 F9000
G1 F1800
G1 X161.267 Y153.8 E0.02886
G1 X161.794 Y153.378 E0.02886
G1 X162.155 Y153.143 E0.0184
G1 X162.533 Y152.938 E0.0184
G1 X163.156 Y152.676 E0.02886
G1 X163.805 Y152.491 E0.02886
G1 X164.228 Y152.414 E0.0184
G1 X164.656 Y152.371 E0.0184
G1 X165 Y152.371 E0.01469
G1 X165.332 Y152.371 E0.01418
G1 X166.001 Y152.452 E0.02883
G1 X166.41 Y152.543 E0.01792
G1 X167.063 Y152.758 E0.02937
G1 X167.456 Y152.932 E0.0184
G1 X167.835 Y153.137 E0.0184
G1 X168.403 Y153.523 E0.02935
G1 X168.724 Y153.792 E0.01792
G1 X169.205 Y154.282 E0.02937
G1 X169.467 Y154.609 E0.01792
G1 X169.841 Y155.184 E0.02933
G1 X170.039 Y155.567 E0.01843
G1 X170.206 Y155.964 E0.0184
G1 X170.408 Y156.62 E0.02937
G1 X170.49 Y157.031 E0.0179
G1 X170.559 Y157.714 E0.02935
G1 X170.559 Y158.133 E0.01791
G1 X170.49 Y158.816 E0.02937
G1 X170.408 Y159.227 E0.01789
G1 X170.206 Y159.883 E0.02937
G1 X170.039 Y160.28 E0.0184
G1 X169.842 Y160.662 E0.0184
G1 X169.467 Y161.238 E0.02937
G1 X169.205 Y161.565 E0.01789
G1 X168.724 Y162.055 E0.02937
G1 X168.403 Y162.324 E0.01789
G1 X167.835 Y162.71 E0.02937
G1 X167.467 Y162.909 E0.01789
G1 X166.833 Y163.175 E0.02937
G1 X166.433 Y163.298 E0.01789
G1 X165.76 Y163.434 E0.02937
G1 X165.343 Y163.475 E0.01789
G1 X164.656 Y163.475 E0.02937
G1 X164.24 Y163.434 E0.01789
G1 X163.578 Y163.301 E0.02886
G1 X162.937 Y163.089 E0.02889
G1 X162.554 Y162.919 E0.0179
G1 X161.957 Y162.58 E0.02935
G1 X161.606 Y162.331 E0.0184
G1 X161.276 Y162.055 E0.0184
G1 X160.803 Y161.573 E0.02886
G1 X160.391 Y161.038 E0.02886
G1 X160.164 Y160.673 E0.0184
G1 X159.961 Y160.28 E0.01891
G1 X159.794 Y159.883 E0.0184
G1 X159.592 Y159.227 E0.02937
G1 X159.51 Y158.816 E0.01789
G1 X159.441 Y158.133 E0.02937
G1 X159.441 Y157.714 E0.01789
G1 X159.51 Y157.031 E0.02937
G1 X159.592 Y156.62 E0.01789
G1 X159.794 Y155.964 E0.02937
G1 X159.956 Y155.578 E0.01789
G1 X160.284 Y154.974 E0.02937
G1 X160.526 Y154.618 E0.0184
G1 X160.795 Y154.282 E0.0184
G1 X160.489 Y153.982 F9000
G1 F1800
G1 X160.979 Y153.482 E0.02997
G1 X161.543 Y153.03 E0.03087
G1 X161.936 Y152.775 E0.02004
G1 X162.348 Y152.551 E0.02004
G1 X163.013 Y152.271 E0.03087
G1 X163.707 Y152.073 E0.03087
G1 X164.169 Y151.99 E0.02004
G1 X164.635 Y151.943 E0.02004
G1 X165 Y151.943 E0.0156
G1 X165.357 Y151.943 E0.01527
G1 X166.073 Y152.029 E0.03084
G1 X166.524 Y152.129 E0.01975
G1 X167.217 Y152.357 E0.0312
G1 X167.646 Y152.547 E0.02004
G1 X168.058 Y152.771 E0.02004
G1 X168.661 Y153.18 E0.03117
G1 X169.015 Y153.476 E0.01974
G1 X169.526 Y153.997 E0.03119
G1 X169.815 Y154.358 E0.01974
G1 X170.212 Y154.968 E0.03115
G1 X170.428 Y155.385 E0.02007
G1 X170.609 Y155.817 E0.02004
G1 X170.824 Y156.515 E0.03119
G1 X170.915 Y156.967 E0.01972
G1 X170.987 Y157.692 E0.03117
G1 X170.987 Y158.154 E0.01974
G1 X170.915 Y158.88 E0.0312
G1 X170.824 Y159.332 E0.01972
G1 X170.609 Y160.03 E0.03119
G1 X170.428 Y160.462 E0.02004
G1 X170.212 Y160.878 E0.02004
G1 X169.815 Y161.49 E0.0312
G1 X169.526 Y161.85 E0.01972
G1 X169.015 Y162.371 E0.0312
G1 X168.661 Y162.666 E0.01972
G1 X168.058 Y163.076 E0.0312
G1 X167.652 Y163.296 E0.01972
G1 X166.98 Y163.579 E0.0312
G1 X166.539 Y163.714 E0.01972
G1 X165.824 Y163.858 E0.0312
G1 X165.365 Y163.904 E0.01972
G1 X164.635 Y163.904 E0.0312
G1 X164.176 Y163.858 E0.01972
G1 X163.469 Y163.716 E0.03087
G1 X162.782 Y163.49 E0.0309
G1 X162.361 Y163.302 E0.01972
G1 X161.727 Y162.942 E0.03117
G1 X161.344 Y162.671 E0.02004
G1 X160.985 Y162.371 E0.02004
G1 X160.479 Y161.855 E0.03087
G1 X160.039 Y161.283 E0.03087
G1 X159.791 Y160.885 E0.02004
G1 X159.572 Y160.462 E0.02037
G1 X159.391 Y160.03 E0.02004
G1 X159.176 Y159.332 E0.03119
G1 X159.085 Y158.88 E0.01972
G1 X159.013 Y158.154 E0.0312
G1 X159.013 Y157.693 E0.01971
G1 X159.085 Y156.967 E0.0312
G1 X159.176 Y156.515 E0.01972
G1 X159.391 Y155.817 E0.03119
G1 X159.569 Y155.392 E0.01972
G1 X159.917 Y154.751 E0.0312
G1 X160.181 Y154.363 E0.02004
G1 X160.474 Y153.997 E0.02004
G1 X160.489 Y153.982 E0.00089
G1 X160.183 Y153.682 F9000
;TYPE:External perimeter
G1 F1800
G1 X160.691 Y153.164 E0.03107
G1 X161.097 Y152.838 E0.02226
G1 X161.291 Y152.682 E0.01062
G1 X161.716 Y152.406 E0.02168
G1 X162.013 Y152.245 E0.01446
G1 X162.162 Y152.164 E0.00723
G1 X162.871 Y151.866 E0.03288
G1 X163.425 Y151.708 E0.02464
G1 X163.61 Y151.655 E0.00823
G1 X164.109 Y151.565 E0.02168
G1 X164.614 Y151.515 E0.02168
G1 X165 Y151.515 E0.01651
G1 X165.383 Y151.515 E0.01636
G1 X165.525 Y151.532 E0.00614
G1 X166.145 Y151.606 E0.0267
G1 X166.638 Y151.715 E0.02157
G1 X167.371 Y151.957 E0.03302
G1 X167.835 Y152.163 E0.02168
G1 X168.281 Y152.404 E0.02168
G1 X168.69 Y152.682 E0.02117
G1 X168.919 Y152.838 E0.01183
G1 X169.306 Y153.161 E0.02156
G1 X169.847 Y153.713 E0.03302
G1 X170.162 Y154.106 E0.02156
G1 X170.493 Y154.615 E0.02594
G1 X170.583 Y154.753 E0.00703
G1 X170.816 Y155.204 E0.02171
G1 X171.013 Y155.671 E0.02168
G1 X171.239 Y156.409 E0.03302
G1 X171.306 Y156.739 E0.01436
G1 X171.339 Y156.903 E0.00718
G1 X171.416 Y157.671 E0.033
G1 X171.416 Y158.175 E0.02156
G1 X171.339 Y158.944 E0.03302
G1 X171.239 Y159.438 E0.02154
G1 X171.013 Y160.176 E0.03302
G1 X170.816 Y160.643 E0.02168
G1 X170.583 Y161.094 E0.02168
G1 X170.162 Y161.741 E0.03302
G1 X169.847 Y162.134 E0.02154
G1 X169.777 Y162.206 E0.00427
G1 X169.306 Y162.686 E0.02874
G1 X168.92 Y163.009 E0.02154
G1 X168.281 Y163.443 E0.03302
G1 X167.838 Y163.683 E0.02154
G1 X167.126 Y163.982 E0.03302
G1 X166.644 Y164.13 E0.02154
G1 X165.887 Y164.282 E0.03302
G1 X165.386 Y164.332 E0.02154
G1 X164.614 Y164.332 E0.03302
G1 X164.113 Y164.282 E0.02154
G1 X163.359 Y164.131 E0.03287
G1 X162.628 Y163.89 E0.0329
G1 X162.167 Y163.685 E0.02154
G1 X161.832 Y163.495 E0.01649
G1 X161.497 Y163.304 E0.01649
G1 X161.083 Y163.011 E0.02168
G1 X160.694 Y162.686 E0.02168
G1 X160.155 Y162.137 E0.03288
G1 X160.053 Y162.004 E0.00715
G1 X159.851 Y161.741 E0.01418
G1 X159.686 Y161.527 E0.01154
G1 X159.418 Y161.097 E0.02168
G1 X159.184 Y160.643 E0.02183
G1 X158.987 Y160.176 E0.02168
G1 X158.761 Y159.438 E0.03302
G1 X158.661 Y158.944 E0.02154
G1 X158.584 Y158.175 E0.03302
G1 X158.584 Y157.672 E0.02154
G1 X158.661 Y156.903 E0.03302
G1 X158.761 Y156.409 E0.02154
G1 X158.987 Y155.671 E0.03302
G1 X159.183 Y155.207 E0.02154
G1 X159.551 Y154.528 E0.03302
G1 X159.836 Y154.108 E0.02168
G1 X160.153 Y153.713 E0.02168
G1 X160.183 Y153.682 E0.00181
;WIPE_START
M204 S4000
G1 X160.57 Y153.782 F9000
;WIPE_END
; acceleration to travel
M204 S3000
G1 X166.798 Y154.815
; decel to extrusion
M204 S1000
G1 X169.17 Y155.209
; end travel
;TYPE:Solid infill
;WIDTH:0.46767
G1 F3600
G1 X168.243 Y154.281 E0.05466
G1 X166.817 Y153.394 E0.06995
G1 X166.734 Y153.378 E0.00353
G1 X169.488 Y156.132 E0.16225
G1 X169.68 Y156.931 E0.03423
G1 X165.988 Y153.238 E0.21754
G1 X165.242 Y153.098 E0.03161
G1 X169.873 Y157.729 E0.27283
G1 X169.877 Y157.745 E0.00065
G1 X169.793 Y158.255 E0.02156
G1 X164.669 Y153.131 E0.30188
G1 X164.176 Y153.244 E0.02106
G1 X169.708 Y158.776 E0.32589
G1 X169.623 Y159.297 E0.02198
