; generated by SuperSlicer 2.3.57 on 2022-01-02 at 03:04:08 UTC


;
;

;
;
; 

; external perimeters extrusion width = 0.40mm
; perimeters extrusion width = 0.40mm
; infill extrusion width = 0.40mm
; solid infill extrusion width = 0.40mm
; top infill extrusion width = 0.40mm
; support material extrusion width = 0.40mm
; first layer extrusion width = 0.48mm


;TYPE:Custom
START_PRINT T_BED=70 T_EXTRUDER=235
M107
G21 ; set units to millimeters
G90 ; use absolute coordinates
M83 ; use relative distances for extrusion
M104 S235 ; set temperature
M109 S235 ; set temperature and wait for it to be reached
M190 S70 ; set bed temperature and wait for it to be reached
M107
;LAYER_CHANGE
;Z:0.24
;HEIGHT:0.24
G1 Z0.24 F12000
G1 E-1.5 F3000
G1 X122.736 Y117.082 F12000
G1 E1.5 F1800
;TYPE:Skirt
;WIDTH:0.48
G1 F600
G1 X122.261 Y117.726 E0.03421
G1 X122. Y118.482 E0.03421
G1 X120.744 Y127.125 E0.37341
G1 X120.73 Y128.111 E0.04215
G1 X127.878 Y189.724 E2.65198
G1 X128.125 Y190.556 E0.03709
G1 X128.628 Y191.262 E0.03709
G1 X129.03 Y191.594 E0.02229
G1 X129.486 Y191.838 E0.02212
G1 X129.981 Y191.988 E0.02212
G1 X130.5 Y192.04 E0.02229
G1 X198.53 Y192.04 E2.90864
G1 X199.036 Y191.985 E0.02177
G1 X199.522 Y191.834 E0.02177
G1 X199.971 Y191.593 E0.02177
G1 X200.365 Y191.27 E0.02177
G1 X200.872 Y190.562 E0.03726
G1 X201.122 Y189.727 E0.03726
G1 X208.275 Y128.211 E2.64786
G1 X208.235 Y127.251 E0.04108
G1 X206.404 Y118.049 E0.40113
G1 X206.018 Y117.348 E0.03421
G1 X205.438 Y116.792 E0.03438
G1 X204.72 Y116.437 E0.03421
G1 X203.926 Y116.314 E0.03438
G1 X124.572 Y116.314 E3.3928
G1 X124.066 Y116.368 E0.02177
G1 X123.579 Y116.519 E0.02177
G1 X123.13 Y116.76 E0.02177
G1 X122.783 Y117.044 E0.01921
G1 X123.041 Y117.384 F12000
G1 F600
G1 X122.638 Y117.929 E0.02896
G1 X122.418 Y118.573 E0.02912
G1 X121.169 Y127.18 E0.37183
G1 X121.157 Y128.08 E0.03851
G1 X128.302 Y189.669 E2.65091
G1 X128.508 Y190.364 E0.03098
G1 X128.927 Y190.955 E0.03098
G1 X129.648 Y191.441 E0.03717
G1 X130.5 Y191.611 E0.03717
G1 X198.52 Y191.611 E2.90821
G1 X199.353 Y191.44 E0.03639
G1 X200.059 Y190.97 E0.03624
G1 X200.488 Y190.373 E0.03145
G1 X200.697 Y189.671 E0.03129
G1 X207.847 Y128.2 E2.64595
G1 X207.814 Y127.331 E0.03721
G1 X206.016 Y118.238 E0.39629
G1 X205.698 Y117.635 E0.02912
G1 X205.21 Y117.155 E0.02927
G1 X204.598 Y116.848 E0.02927
G1 X203.925 Y116.742 E0.02912
G1 X124.58 Y116.742 E3.39246
G1 X123.746 Y116.913 E0.03639
G1 X123.091 Y117.35 E0.03368
G1 E-1.5 F3000
G1 X140.546 Y128.804 F12000
G1 E1.5 F1800
;TYPE:Support material interface
;WIDTH:0.4
G1 F600
G1 X140.546 Y121.922 E0.23931
G1 X139.989 Y121.922 E0.01937
G1 X139.989 Y128.651 E0.23397
G1 X139.771 Y128.651 E0.00755
G1 X139.771 Y126.019 E0.09151
G1 X139.431 Y125.679 E0.01672
G1 X139.431 Y125.279 E0.01391
G1 X138.874 Y125.279 E0.01937
G1 X138.874 Y125.567 E0.01001
G1 X138.317 Y125.567 E0.01937
G1 X138.317 Y125.279 E0.01001
G1 X137.76 Y125.279 E0.01937
G1 X137.76 Y125.567 E0.01001
G1 X137.203 Y125.567 E0.01937
G1 X137.203 Y125.279 E0.01001
G1 X136.646 Y125.279 E0.01937
G1 X136.646 Y125.567 E0.01001
G1 X136.089 Y125.567 E0.01937
G1 X136.089 Y125.279 E0.01001
G1 X135.532 Y125.279 E0.01937
G1 X135.532 Y125.567 E0.01001
G1 X134.975 Y125.567 E0.01937
G1 X134.975 Y125.279 E0.01001
G1 X134.418 Y125.279 E0.01937
G1 X134.418 Y125.567 E0.01001
G1 X133.861 Y125.567 E0.01937
G1 X133.861 Y125.279 E0.01001
G1 X133.304 Y125.279 E0.01937
G1 X133.304 Y125.567 E0.01001
G1 X132.746 Y125.567 E0.01937
G1 X132.746 Y125.279 E0.01001
G1 X132.189 Y125.279 E0.01937
G1 X132.189 Y125.567 E0.01001
G1 X131.632 Y125.567 E0.01937
G1 X131.632 Y125.279 E0.01001
G1 X131.075 Y125.279 E0.01937
G1 X131.075 Y125.567 E0.01001
G1 X130.518 Y125.567 E0.01937
G1 X130.518 Y125.279 E0.01001
G1 X129.961 Y125.279 E0.01937
G1 X129.961 Y125.786 E0.01764
G1 X129.729 Y126.019 E0.01143
G1 X129.729 Y128.651 E0.09151
G1 X129.404 Y128.651 E0.01129
G1 X129.404 Y121.922 E0.23397
G1 X129.961 Y121.922 E0.01937
G1 X129.961 Y124.842 E0.10155
G1 X130.18 Y124.623 E0.01079
G1 X130.518 Y124.623 E0.01174
G1 X130.518 Y121.922 E0.09392
G1 X131.075 Y121.922 E0.01937
G1 X131.075 Y124.623 E0.09392
G1 X131.632 Y124.623 E0.01937
G1 X131.632 Y121.922 E0.09392
G1 X132.189 Y121.922 E0.01937
G1 X132.189 Y124.623 E0.09392
G1 X132.746 Y124.623 E0.01937
G1 X132.746 Y121.922 E0.09392
G1 X133.304 Y121.922 E0.01937
G1 X133.304 Y124.623 E0.09392
G1 X133.861 Y124.623 E0.01937
G1 X133.861 Y121.922 E0.09392
G1 X134.418 Y121.922 E0.01937
G1 X134.418 Y124.623 E0.09392
G1 X134.975 Y124.623 E0.01937
G1 X134.975 Y121.922 E0.09392
G1 X135.532 Y121.922 E0.01937
G1 X135.532 Y124.623 E0.09392
G1 X136.089 Y124.623 E0.01937
G1 X136.089 Y121.922 E0.09392
G1 X136.646 Y121.922 E0.01937
G1 X136.646 Y124.623 E0.09392
G1 X137.203 Y124.623 E0.01937
G1 X137.203 Y121.922 E0.09392
G1 X137.76 Y121.922 E0.01937
G1 X137.76 Y124.623 E0.09392
G1 X138.317 Y124.623 E0.01937
G1 X138.317 Y121.922 E0.09392
G1 X138.874 Y121.922 E0.01937
G1 X138.874 Y124.623 E0.09392
G1 X139.32 Y124.623 E0.01548
G1 X139.431 Y124.735 E0.0055
G1 X139.431 Y121.768 E0.10315
G1 E-1.5 F3000
G1 X128.847 Y128.804 F12000
G1 E1.5 F1800
G1 F600
G1 X128.847 Y121.922 E0.23931
G1 X128.29 Y121.922 E0.01937
G1 X128.29 Y128.651 E0.23397
G1 X127.733 Y128.651 E0.01937
G1 X127.733 Y121.768 E0.23931
G1 E-1.5 F3000
G1 X174.527 Y128.804 F12000
G1 E1.5 F1800
G1 F600
G1 X174.527 Y121.922 E0.23931
G1 X173.97 Y121.922 E0.01937
G1 X173.97 Y128.651 E0.23397
G1 X173.413 Y128.651 E0.01937
G1 X173.413 Y121.922 E0.23397
G1 X172.856 Y121.922 E0.01937
G1 X172.856 Y128.651 E0.23397
G1 X172.771 Y128.651 E0.00295
G1 X172.771 Y126.019 E0.09151
G1 X172.32 Y125.567 E0.02222
G1 X172.299 Y125.567 E0.00071
G1 X172.299 Y125.279 E0.01001
G1 X171.742 Y125.279 E0.01937
G1 X171.742 Y125.567 E0.01001
G1 X171.185 Y125.567 E0.01937
G1 X171.185 Y125.279 E0.01001
G1 X170.628 Y125.279 E0.01937
G1 X170.628 Y125.567 E0.01001
G1 X170.071 Y125.567 E0.01937
G1 X170.071 Y125.279 E0.01001
G1 X169.514 Y125.279 E0.01937
G1 X169.514 Y125.567 E0.01001
G1 X168.957 Y125.567 E0.01937
G1 X168.957 Y125.279 E0.01001
G1 X168.4 Y125.279 E0.01937
G1 X168.4 Y125.567 E0.01001
G1 X167.842 Y125.567 E0.01937
G1 X167.842 Y125.279 E0.01001
G1 X167.285 Y125.279 E0.01937
G1 X167.285 Y125.567 E0.01001
G1 X166.728 Y125.567 E0.01937
G1 X166.728 Y125.279 E0.01001
G1 X166.171 Y125.279 E0.01937
G1 X166.171 Y125.567 E0.01001
G1 X165.614 Y125.567 E0.01937
G1 X165.614 Y125.279 E0.01001
G1 X165.057 Y125.279 E0.01937
G1 X165.057 Y125.567 E0.01001
G1 X164.5 Y125.567 E0.01937
G1 X164.5 Y125.279 E0.01001
G1 X163.943 Y125.279 E0.01937
G1 X163.943 Y125.567 E0.01001
G1 X163.386 Y125.567 E0.01937
G1 X163.386 Y125.279 E0.01001
G1 X162.829 Y125.279 E0.01937
G1 X162.829 Y125.567 E0.01001
G1 X162.272 Y125.567 E0.01937
G1 X162.272 Y125.279 E0.01001
G1 X161.715 Y125.279 E0.01937
G1 X161.715 Y125.567 E0.01001
G1 X161.158 Y125.567 E0.01937
G1 X161.158 Y125.279 E0.01001
G1 X160.6 Y125.279 E0.01937
G1 X160.6 Y125.567 E0.01001
G1 X160.043 Y125.567 E0.01937
G1 X160.043 Y125.279 E0.01001
G1 X159.486 Y125.279 E0.01937
G1 X159.486 Y125.567 E0.01001
G1 X158.929 Y125.567 E0.01937
G1 X158.929 Y125.279 E0.01001
G1 X158.372 Y125.279 E0.01937
G1 X158.372 Y125.567 E0.01001
G1 X157.815 Y125.567 E0.01937
G1 X157.815 Y125.279 E0.01001
G1 X157.258 Y125.279 E0.01937
G1 X157.258 Y125.567 E0.01001
G1 X156.701 Y125.567 E0.01937
G1 X156.701 Y125.126 E0.01535
G1 E-1.5 F3000
G1 X172.299 Y124.82 F12000
G1 E1.5 F1800
G1 F600
G1 X172.299 Y121.922 E0.10076
G1 X171.742 Y121.922 E0.01937
G1 X171.742 Y124.623 E0.09392
G1 X171.185 Y124.623 E0.01937
G1 X171.185 Y121.922 E0.09392
G1 X170.628 Y121.922 E0.01937
G1 X170.628 Y124.623 E0.09392
G1 X170.071 Y124.623 E0.01937
G1 X170.071 Y121.922 E0.09392
G1 X169.514 Y121.922 E0.01937
G1 X169.514 Y124.623 E0.09392
G1 X168.957 Y124.623 E0.01937
G1 X168.957 Y121.922 E0.09392
G1 X168.4 Y121.922 E0.01937
G1 X168.4 Y124.623 E0.09392
G1 X167.842 Y124.623 E0.01937
G1 X167.842 Y121.922 E0.09392
G1 X167.285 Y121.922 E0.01937
G1 X167.285 Y124.623 E0.09392
G1 X166.728 Y124.623 E0.01937
G1 X166.728 Y121.922 E0.09392
G1 X166.171 Y121.922 E0.01937
G1 X166.171 Y124.623 E0.09392
G1 X165.614 Y124.623 E0.01937
G1 X165.614 Y121.922 E0.09392
G1 X165.057 Y121.922 E0.01937
G1 X165.057 Y124.623 E0.09392
G1 X164.5 Y124.623 E0.01937
G1 X164.5 Y121.922 E0.09392
G1 X163.943 Y121.922 E0.01937
G1 X163.943 Y124.623 E0.09392
G1 X163.386 Y124.623 E0.01937
G1 X163.386 Y121.922 E0.09392
G1 X162.829 Y121.922 E0.01937
G1 X162.829 Y124.623 E0.09392
G1 X162.272 Y124.623 E0.01937
G1 X162.272 Y121.922 E0.09392
G1 X161.715 Y121.922 E0.01937
G1 X161.715 Y124.623 E0.09392
G1 X161.158 Y124.623 E0.01937
G1 X161.158 Y121.922 E0.09392
G1 X160.6 Y121.922 E0.01937
G1 X160.6 Y124.623 E0.09392
G1 X160.043 Y124.623 E0.01937
G1 X160.043 Y121.922 E0.09392
G1 X159.486 Y121.922 E0.01937
G1 X159.486 Y124.623 E0.09392
G1 X158.929 Y124.623 E0.01937
G1 X158.929 Y121.922 E0.09392
G1 X158.372 Y121.922 E0.01937
G1 X158.372 Y124.623 E0.09392
G1 X157.815 Y124.623 E0.01937
G1 X157.815 Y121.922 E0.09392
G1 X157.258 Y121.922 E0.01937
G1 X157.258 Y124.623 E0.09392
G1 X156.701 Y124.623 E0.01937
G1 X156.701 Y121.922 E0.09392
G1 X156.144 Y121.922 E0.01937
G1 X156.144 Y128.651 E0.23397
G1 X155.587 Y128.651 E0.01937
G1 X155.587 Y121.922 E0.23397
G1 X155.03 Y121.922 E0.01937
G1 X155.03 Y128.651 E0.23397
G1 X154.473 Y128.651 E0.01937
G1 X154.473 Y121.768 E0.23931
G1 E-1.5 F3000
G1 X201.267 Y128.804 F12000
G1 E1.5 F1800
G1 F600
G1 X201.267 Y121.922 E0.23931
G1 X200.71 Y121.922 E0.01937
G1 X200.71 Y128.651 E0.23397
G1 X200.153 Y128.651 E0.01937
G1 X200.153 Y121.922 E0.23397
G1 X199.596 Y121.922 E0.01937
G1 X199.596 Y128.651 E0.23397
G1 X199.271 Y128.651 E0.01129
G1 X199.271 Y126.019 E0.09151
G1 X199.039 Y125.786 E0.01143
G1 X199.039 Y125.279 E0.01764
G1 X198.482 Y125.279 E0.01937
G1 X198.482 Y125.567 E0.01001
G1 X197.925 Y125.567 E0.01937
G1 X197.925 Y125.279 E0.01001
G1 X197.368 Y125.279 E0.01937
G1 X197.368 Y125.567 E0.01001
G1 X196.811 Y125.567 E0.01937
G1 X196.811 Y125.279 E0.01001
G1 X196.254 Y125.279 E0.01937
G1 X196.254 Y125.567 E0.01001
G1 X195.696 Y125.567 E0.01937
G1 X195.696 Y125.279 E0.01001
G1 X195.139 Y125.279 E0.01937
G1 X195.139 Y125.567 E0.01001
G1 X194.582 Y125.567 E0.01937
G1 X194.582 Y125.279 E0.01001
G1 X194.025 Y125.279 E0.01937
G1 X194.025 Y125.567 E0.01001
G1 X193.468 Y125.567 E0.01937
G1 X193.468 Y125.279 E0.01001
G1 X192.911 Y125.279 E0.01937
G1 X192.911 Y125.567 E0.01001
G1 X192.354 Y125.567 E0.01937
G1 X192.354 Y125.279 E0.01001
G1 X191.797 Y125.279 E0.01937
G1 X191.797 Y125.567 E0.01001
G1 X191.24 Y125.567 E0.01937
G1 X191.24 Y125.279 E0.01001
G1 X190.683 Y125.279 E0.01937
G1 X190.683 Y125.567 E0.01001
G1 X190.126 Y125.567 E0.01937
G1 X190.126 Y125.279 E0.01001
G1 X189.569 Y125.279 E0.01937
G1 X189.569 Y125.679 E0.01391
G1 X189.229 Y126.019 E0.01672
G1 X189.229 Y128.651 E0.09151
G1 X189.011 Y128.651 E0.00755
G1 X189.011 Y121.922 E0.23397
G1 X189.569 Y121.922 E0.01937
G1 X189.569 Y124.735 E0.09781
G1 X189.68 Y124.623 E0.0055
G1 X190.126 Y124.623 E0.01548
G1 X190.126 Y121.922 E0.09392
G1 X190.683 Y121.922 E0.01937
G1 X190.683 Y124.623 E0.09392
G1 X191.24 Y124.623 E0.01937
G1 X191.24 Y121.922 E0.09392
G1 X191.797 Y121.922 E0.01937
G1 X191.797 Y124.623 E0.09392
G1 X192.354 Y124.623 E0.01937
G1 X192.354 Y121.922 E0.09392
G1 X192.911 Y121.922 E0.01937
G1 X192.911 Y124.623 E0.09392
G1 X193.468 Y124.623 E0.01937
G1 X193.468 Y121.922 E0.09392
G1 X194.025 Y121.922 E0.01937
G1 X194.025 Y124.623 E0.09392
G1 X194.582 Y124.623 E0.01937
G1 X194.582 Y121.922 E0.09392
G1 X195.139 Y121.922 E0.01937
G1 X195.139 Y124.623 E0.09392
G1 X195.696 Y124.623 E0.01937
G1 X195.696 Y121.922 E0.09392
G1 X196.254 Y121.922 E0.01937
G1 X196.254 Y124.623 E0.09392
G1 X196.811 Y124.623 E0.01937
G1 X196.811 Y121.922 E0.09392
G1 X197.368 Y121.922 E0.01937
G1 X197.368 Y124.623 E0.09392
G1 X197.925 Y124.623 E0.01937
G1 X197.925 Y121.922 E0.09392
G1 X198.482 Y121.922 E0.01937
G1 X198.482 Y124.623 E0.09392
G1 X198.82 Y124.623 E0.01174
G1 X199.039 Y124.842 E0.01079
G1 X199.039 Y121.768 E0.10689
G1 E-1.5 F3000
G1 X188.454 Y128.804 F12000
G1 E1.5 F1800
G1 F600
G1 X188.454 Y121.768 E0.24465
G1 E-1.5 F3000
G1 X205.636 Y128.086 F12000
G1 E1.5 F1800
;TYPE:Support material
;WIDTH:0.48
G1 F600
G1 X205.636 Y127.73 E0.01524
G1 X204.779 Y126.873 E0.05182
G1 X204.779 Y127.902 E0.044
G1 X204.401 Y127.902 E0.01616
G1 X204.401 Y131.616 E0.1588
G1 X203.922 Y131.616 E0.02048
G1 X203.922 Y118.956 E0.54127
G1 X203.065 Y118.956 E0.03664
G1 X203.065 Y131.616 E0.54127
G1 X202.208 Y131.616 E0.03664
G1 X202.208 Y118.956 E0.54127
G1 X201.351 Y118.956 E0.03664
G1 X201.351 Y121.545 E0.11067
G1 X200.494 Y121.545 E0.03664
G1 X200.494 Y118.956 E0.11067
G1 X199.637 Y118.956 E0.03664
G1 X199.637 Y121.545 E0.11067
G1 X198.78 Y121.545 E0.03664
G1 X198.78 Y118.956 E0.11067
G1 X197.923 Y118.956 E0.03664
G1 X197.923 Y121.545 E0.11067
G1 X197.066 Y121.545 E0.03664
G1 X197.066 Y118.956 E0.11067
G1 X196.209 Y118.956 E0.03664
G1 X196.209 Y121.545 E0.11067
G1 X195.352 Y121.545 E0.03664
G1 X195.352 Y118.956 E0.11067
G1 X194.495 Y118.956 E0.03664
G1 X194.495 Y121.545 E0.11067
G1 X193.638 Y121.545 E0.03664
G1 X193.638 Y118.956 E0.11067
G1 X192.781 Y118.956 E0.03664
G1 X192.781 Y121.545 E0.11067
G1 X191.924 Y121.545 E0.03664
G1 X191.924 Y118.956 E0.11067
G1 X191.067 Y118.956 E0.03664
G1 X191.067 Y121.545 E0.11067
G1 X190.21 Y121.545 E0.03664
G1 X190.21 Y118.956 E0.11067
G1 X189.353 Y118.956 E0.03664
G1 X189.353 Y121.545 E0.11067
G1 X188.496 Y121.545 E0.03664
G1 X188.496 Y118.956 E0.11067
G1 X187.639 Y118.956 E0.03664
G1 X187.639 Y131.616 E0.54127
G1 X188.496 Y131.616 E0.03664
G1 X188.496 Y128.843 E0.11855
G1 E-1.5 F3000
G1 X201.351 Y131.8 F12000
G1 E1.5 F1800
G1 F600
G1 X201.351 Y129.028 E0.11855
G1 X200.494 Y129.028 E0.03664
G1 X200.494 Y131.616 E0.11067
G1 X199.637 Y131.616 E0.03664
G1 X199.637 Y128.843 E0.11855
G1 E-1.5 F3000
G1 X186.782 Y131.8 F12000
G1 E1.5 F1800
G1 F600
G1 X186.782 Y118.956 E0.54915
G1 X185.925 Y118.956 E0.03664
G1 X185.925 Y131.616 E0.54127
G1 X185.068 Y131.616 E0.03664
G1 X185.068 Y118.956 E0.54127
G1 X185.027 Y118.956 E0.00175
G1 X185.027 Y125.567 E0.28266
G1 X184.211 Y126.383 E0.04934
G1 X184.211 Y127.902 E0.06493
G1 X183.354 Y127.902 E0.03664
G1 X183.354 Y126.98 E0.03943
G1 E-1.5 F3000
G1 X179.069 Y128.086 F12000
G1 E1.5 F1800
G1 F600
G1 X179.069 Y127.663 E0.01809
G1 X178.212 Y126.806 E0.05182
G1 X178.212 Y127.902 E0.04686
G1 X177.544 Y127.902 E0.02855
G1 X177.544 Y131.616 E0.1588
G1 X177.355 Y131.616 E0.00809
G1 X177.355 Y118.956 E0.54127
G1 X176.498 Y118.956 E0.03664
G1 X176.498 Y131.616 E0.54127
G1 X175.641 Y131.616 E0.03664
G1 X175.641 Y118.956 E0.54127
G1 X174.784 Y118.956 E0.03664
G1 X174.784 Y131.616 E0.54127
G1 X173.927 Y131.616 E0.03664
G1 X173.927 Y129.028 E0.11067
G1 X173.07 Y129.028 E0.03664
G1 X173.07 Y131.8 E0.11855
G1 E-1.5 F3000
G1 X173.927 Y121.729 F12000
G1 E1.5 F1800
G1 F600
G1 X173.927 Y118.956 E0.11855
G1 X173.07 Y118.956 E0.03664
G1 X173.07 Y121.545 E0.11067
G1 X172.213 Y121.545 E0.03664
G1 X172.213 Y118.956 E0.11067
G1 X171.356 Y118.956 E0.03664
G1 X171.356 Y121.545 E0.11067
G1 X170.499 Y121.545 E0.03664
G1 X170.499 Y118.956 E0.11067
G1 X169.642 Y118.956 E0.03664
G1 X169.642 Y121.545 E0.11067
G1 X168.785 Y121.545 E0.03664
G1 X168.785 Y118.956 E0.11067
G1 X167.928 Y118.956 E0.03664
G1 X167.928 Y121.545 E0.11067
G1 X167.071 Y121.545 E0.03664
G1 X167.071 Y118.956 E0.11067
G1 X166.214 Y118.956 E0.03664
G1 X166.214 Y121.545 E0.11067
G1 X165.357 Y121.545 E0.03664
G1 X165.357 Y118.956 E0.11067
G1 X164.5 Y118.956 E0.03664
G1 X164.5 Y121.545 E0.11067
G1 X163.643 Y121.545 E0.03664
G1 X163.643 Y118.956 E0.11067
G1 X162.786 Y118.956 E0.03664
G1 X162.786 Y121.545 E0.11067
G1 X161.929 Y121.545 E0.03664
G1 X161.929 Y118.956 E0.11067
G1 X161.072 Y118.956 E0.03664
G1 X161.072 Y121.545 E0.11067
G1 X160.215 Y121.545 E0.03664
G1 X160.215 Y118.956 E0.11067
G1 X159.358 Y118.956 E0.03664
G1 X159.358 Y121.545 E0.11067
G1 X158.501 Y121.545 E0.03664
G1 X158.501 Y118.956 E0.11067
G1 X157.644 Y118.956 E0.03664
