; generated by SuperSlicer 2.3.57 on 2022-04-13 at 19:13:35 UTC


;
;

;
;
; 

; external perimeters extrusion width = 0.40mm
; perimeters extrusion width = 0.45mm
; infill extrusion width = 0.72mm
; solid infill extrusion width = 0.56mm
; top infill extrusion width = 0.40mm
; support material extrusion width = 0.42mm
; first layer extrusion width = 0.48mm

; external perimeters extrusion width = 0.40mm
; perimeters extrusion width = 0.45mm
; infill extrusion width = 0.72mm
; solid infill extrusion width = 0.56mm
; top infill extrusion width = 0.40mm
; support material extrusion width = 0.42mm
; first layer extrusion width = 0.48mm

; external perimeters extrusion width = 0.40mm
; perimeters extrusion width = 0.45mm
; infill extrusion width = 0.72mm
; solid infill extrusion width = 0.56mm
; top infill extrusion width = 0.40mm
; support material extrusion width = 0.42mm
; first layer extrusion width = 0.48mm

; object:{"name":"LidHolder1","id":"LidHolder1.stl id:0 copy 0","object_center":[164.727332,164.696125,0.000000],"boundingbox_center":[164.727332,164.696125,1.500000],"boundingbox_size":[151.165405,81.000008,3.000000]}
; plater:{"center":[164.727332,164.696125,0.000000],"boundingbox_center":[164.727332,164.696125,1.500000],"boundingbox_size":[151.165405,81.000008,3.000000]}

;TYPE:Custom
START_PRINT T_BED=70 T_EXTRUDER=230
M107
G21 ; set units to millimeters
G90 ; use absolute coordinates
M83 ; use relative distances for extrusion
; Filament gcode
M104 S230 ; set temperature
M109 S230 ; set temperature and wait for it to be reached
M190 S70 ; set bed temperature and wait for it to be reached
M107
;LAYER_CHANGE
;Z:0.24
;HEIGHT:0.24
G1 E-1 F3000
G1 Z0.24 F9000
G1 X86.775 Y121.618
G1 E1 F1800
; External perimeter
;Skirt
SET_VELOCITY_LIMIT ACCEL=300 ACCEL_TO_DECEL=3000 SQUARE_CORNER_VELOCITY=5

; Support material

;TYPE:Skirt
;WIDTH:0.48
G1 X86.147 Y122.38 E0.04221
G1 X85.746 Y123.282 E0.04221
G1 X85.602 Y124.254 E0.04201
G1 X85.602 Y195.242 E3.03515
G1 X85.652 Y196.101 E0.0368
G1 X85.817 Y197.063 E0.0417
G1 X86.232 Y198.38 E0.05905
G1 X86.628 Y199.238 E0.04039
G1 X87.15 Y200.117 E0.04372
G1 X88.078 Y201.331 E0.06532
G1 X88.76 Y202.051 E0.04243
G1 X89.931 Y203.08 E0.06664
G1 X92.203 Y204.606 E0.11701
G1 X94.718 Y205.851 E0.11997
G1 X97.544 Y206.89 E0.12877
G1 X100.602 Y207.703 E0.13529
G1 X103.801 Y208.279 E0.13898
G1 X105.953 Y208.531 E0.09264
G1 X108.213 Y208.688 E0.09684
G1 X220.164 Y208.725 E4.78651
G1 X222.39 Y208.622 E0.0953
G1 X224.606 Y208.415 E0.09512
G1 X226.778 Y208.105 E0.09383
G1 X228.902 Y207.692 E0.0925
G1 X230.926 Y207.183 E0.08925
G1 X232.874 Y206.571 E0.08728
G1 X234.704 Y205.865 E0.08388
G1 X236.407 Y205.066 E0.08042
G1 X238.02 Y204.143 E0.07947
G1 X239.486 Y203.11 E0.07664
G1 X240.769 Y201.979 E0.07314
G1 X241.876 Y200.722 E0.07163
G1 X242.789 Y199.31 E0.07189
G1 X243.403 Y197.891 E0.06609
G1 X243.697 Y196.786 E0.04888
G1 X243.849 Y195.358 E0.06139
G1 X243.848 Y124.119 E3.04586
G1 X243.749 Y123.434 E0.02959
G1 X243.523 Y122.781 E0.02959
G1 X243.176 Y122.181 E0.02959
G1 X242.723 Y121.659 E0.02959
G1 X242.178 Y121.231 E0.02959
G1 X241.563 Y120.914 E0.02959
G1 X240.899 Y120.719 E0.02959
G1 X240.21 Y120.653 E0.02959
G1 X89.237 Y120.653 E6.4549
G1 X88.387 Y120.756 E0.03661
G1 X87.585 Y121.054 E0.03661
G1 X86.824 Y121.584 E0.03964
G1 X87.068 Y121.931 F9000
G1 F1800
G1 X86.511 Y122.605 E0.03738
G1 X86.157 Y123.404 E0.03738
G1 X86.031 Y124.265 E0.03719
G1 X86.031 Y195.237 E3.03445
G1 X86.078 Y196.052 E0.0349
G1 X86.232 Y196.955 E0.03916
G1 X86.634 Y198.23 E0.05714
G1 X87.006 Y199.036 E0.03796
G1 X87.504 Y199.876 E0.04175
G1 X88.405 Y201.054 E0.06343
G1 X89.054 Y201.739 E0.04031
G1 X90.205 Y202.75 E0.06554
G1 X92.417 Y204.235 E0.11388
G1 X94.896 Y205.462 E0.11828
G1 X97.674 Y206.482 E0.12652
G1 X100.695 Y207.284 E0.13363
G1 X103.858 Y207.854 E0.13745
G1 X105.993 Y208.105 E0.09188
G1 X108.233 Y208.26 E0.09602
G1 X220.153 Y208.297 E4.78516
G1 X222.36 Y208.195 E0.09449
G1 X224.559 Y207.989 E0.09444
G1 X226.709 Y207.683 E0.09284
G1 X228.805 Y207.274 E0.09132
G1 X230.811 Y206.77 E0.08843
G1 X232.73 Y206.168 E0.08595
G1 X234.537 Y205.471 E0.08284
G1 X236.207 Y204.687 E0.07888
G1 X237.791 Y203.781 E0.07798
G1 X239.216 Y202.778 E0.07453
G1 X240.465 Y201.677 E0.07118
G1 X241.531 Y200.468 E0.06892
G1 X242.413 Y199.103 E0.06947
G1 X242.999 Y197.747 E0.06316
G1 X243.275 Y196.712 E0.04583
G1 X243.421 Y195.348 E0.05861
G1 X243.421 Y124.159 E3.04373
G1 X243.338 Y123.555 E0.02609
G1 X243.139 Y122.973 E0.02628
G1 X242.836 Y122.443 E0.02609
G1 X242.436 Y121.977 E0.02628
G1 X241.953 Y121.596 E0.02628
G1 X241.411 Y121.315 E0.02609
G1 X240.822 Y121.141 E0.02628
G1 X240.21 Y121.082 E0.02628
G1 X89.236 Y121.082 E6.45496
G1 X88.49 Y121.172 E0.03212
G1 X87.786 Y121.432 E0.03212
G1 X87.117 Y121.897 E0.03481
; INIT printing object LidHolder1.stl id:0 copy 0
G1 E-1 F3000
; printing object LidHolder1.stl id:0 copy 0
G1 X223.573 Y137.965 F9000
G1 E1 F1800
; External perimeter
;Perimeter
SET_VELOCITY_LIMIT ACCEL=2000 ACCEL_TO_DECEL=2000 SQUARE_CORNER_VELOCITY=5

; Overhang perimeter

;TYPE:Internal perimeter
G1 X229.255 Y137.965 E0.24293
G1 X231.498 Y137.965 E0.09588
G1 X231.498 Y124.965 E0.55582
G1 X239.542 Y124.965 E0.34392
G1 X239.542 Y195.176 E3.00192
G1 X239.519 Y195.607 E0.01845
G1 X239.454 Y196.019 E0.01782
G1 X239.346 Y196.432 E0.01828
G1 X239.192 Y196.847 E0.01893
G1 X238.993 Y197.264 E0.01976
G1 X238.747 Y197.682 E0.02073
G1 X238.453 Y198.099 E0.02181
G1 X238.112 Y198.515 E0.02298
G1 X237.724 Y198.926 E0.02421
G1 X237.288 Y199.333 E0.02547
G1 X236.806 Y199.732 E0.02676
G1 X236.279 Y200.123 E0.02805
G1 X235.709 Y200.504 E0.02934
G1 X235.095 Y200.873 E0.03061
G1 X234.441 Y201.229 E0.03186
G1 X233.747 Y201.572 E0.03307
G1 X233.016 Y201.899 E0.03424
G1 X232.249 Y202.209 E0.03537
G1 X231.449 Y202.502 E0.03644
G1 X230.617 Y202.778 E0.03745
G1 X229.756 Y203.034 E0.03841
G1 X228.868 Y203.27 E0.03929
G1 X227.955 Y203.486 E0.04011
G1 X227.02 Y203.681 E0.04085
G1 X226.068 Y203.853 E0.04134
G1 X224.102 Y204.133 E0.08491
G1 X222.09 Y204.321 E0.08643
G1 X220.046 Y204.416 E0.08747
G1 X109.405 Y204.416 E4.73052
G1 X108.388 Y204.38 E0.04349
G1 X106.354 Y204.239 E0.0872
G1 X104.36 Y204.004 E0.08584
G1 X103.39 Y203.854 E0.04194
G1 X102.435 Y203.681 E0.04152
G1 X101.499 Y203.486 E0.04085
G1 X100.586 Y203.27 E0.04011
G1 X99.698 Y203.034 E0.03929
G1 X98.837 Y202.778 E0.03841
G1 X98.006 Y202.502 E0.03745
G1 X97.205 Y202.209 E0.03644
G1 X96.439 Y201.899 E0.03537
G1 X95.708 Y201.572 E0.03424
G1 X95.014 Y201.229 E0.03307
G1 X94.36 Y200.873 E0.03186
G1 X93.746 Y200.504 E0.03061
G1 X93.175 Y200.123 E0.02934
G1 X92.648 Y199.732 E0.02805
G1 X92.166 Y199.333 E0.02676
G1 X91.731 Y198.926 E0.02547
G1 X91.342 Y198.515 E0.0242
G1 X91.001 Y198.099 E0.02298
G1 X90.708 Y197.682 E0.02181
G1 X90.462 Y197.264 E0.02073
G1 X90.262 Y196.847 E0.01976
G1 X90.109 Y196.432 E0.01893
G1 X90 Y196.019 E0.01828
G1 X89.936 Y195.607 E0.01782
G1 X89.913 Y195.176 E0.01845
G1 X89.913 Y124.965 E3.00192
G1 X97.957 Y124.965 E0.34392
G1 X97.957 Y137.965 E0.55582
G1 X105.881 Y137.965 E0.33881
G1 X105.881 Y124.965 E0.55582
G1 X113.925 Y124.965 E0.34392
G1 X113.925 Y183.216 E2.49057
G1 X113.954 Y183.767 E0.02357
G1 X114.043 Y184.334 E0.02455
G1 X114.19 Y184.895 E0.02479
G1 X114.394 Y185.447 E0.02515
G1 X114.653 Y185.987 E0.02563
G1 X114.964 Y186.516 E0.02622
G1 X115.326 Y187.031 E0.02691
G1 X115.737 Y187.531 E0.02769
G1 X116.196 Y188.017 E0.02856
G1 X116.7 Y188.487 E0.02948
G1 X117.248 Y188.942 E0.03046
G1 X117.839 Y189.381 E0.03147
G1 X118.472 Y189.802 E0.03251
G1 X119.144 Y190.207 E0.03355
G1 X119.855 Y190.594 E0.0346
G1 X120.603 Y190.963 E0.03564
G1 X121.385 Y191.313 E0.03665
G1 X122.201 Y191.643 E0.03764
G1 X123.049 Y191.954 E0.03859
G1 X123.926 Y192.244 E0.0395
G1 X124.831 Y192.513 E0.04036
G1 X125.761 Y192.761 E0.04116
G1 X126.715 Y192.986 E0.04191
G1 X127.69 Y193.189 E0.04259
G1 X128.684 Y193.369 E0.04321
G1 X129.7 Y193.527 E0.04393
G1 X131.759 Y193.769 E0.08867
G1 X133.862 Y193.916 E0.09012
G1 X135.976 Y193.965 E0.09042
G1 X193.478 Y193.965 E2.45852
G1 X195.593 Y193.916 E0.09042
G1 X197.695 Y193.769 E0.09012
G1 X199.755 Y193.527 E0.08867
G1 X200.77 Y193.369 E0.04393
G1 X201.765 Y193.189 E0.04321
G1 X202.74 Y192.986 E0.04259
G1 X203.694 Y192.761 E0.04191
G1 X204.624 Y192.513 E0.04116
G1 X205.529 Y192.244 E0.04036
G1 X206.406 Y191.954 E0.0395
G1 X207.253 Y191.643 E0.03859
G1 X208.069 Y191.313 E0.03764
G1 X208.852 Y190.963 E0.03665
G1 X209.599 Y190.594 E0.03564
G1 X210.31 Y190.207 E0.0346
G1 X210.983 Y189.802 E0.03355
G1 X211.615 Y189.381 E0.03251
G1 X212.206 Y188.942 E0.03147
G1 X212.755 Y188.487 E0.03046
G1 X213.259 Y188.017 E0.02948
G1 X213.717 Y187.531 E0.02856
G1 X214.128 Y187.031 E0.0277
G1 X214.491 Y186.516 E0.02691
G1 X214.802 Y185.987 E0.02622
G1 X215.06 Y185.447 E0.02563
G1 X215.264 Y184.895 E0.02515
G1 X215.412 Y184.334 E0.02479
G1 X215.501 Y183.767 E0.02455
G1 X215.529 Y183.216 E0.02357
G1 X215.529 Y124.965 E2.49057
G1 X223.573 Y124.965 E0.34392
G1 X223.573 Y137.905 E0.55326
G1 X224.002 Y137.536 F9000
; External perimeter
;ExternalPerimeter
SET_VELOCITY_LIMIT ACCEL=1000 ACCEL_TO_DECEL=1000 SQUARE_CORNER_VELOCITY=5

; Perimeter

;TYPE:External perimeter
G1 F1800
G1 X229.255 Y137.536 E0.22461
G1 X231.069 Y137.536 E0.07756
G1 X231.069 Y137.416 E0.0046
G1 X231.069 Y137.176 E0.00973
G1 X231.069 Y124.536 E0.54043
G1 X231.189 Y124.536 E0.0046
G1 X231.429 Y124.536 E0.00973
G1 X239.97 Y124.536 E0.36517
G1 X239.97 Y124.656 E0.00458
G1 X239.97 Y124.896 E0.00971
G1 X239.97 Y195.187 E3.00533
G1 X239.946 Y195.651 E0.01987
G1 X239.874 Y196.107 E0.0197
G1 X239.755 Y196.561 E0.02009
G1 X239.587 Y197.015 E0.02067
G1 X239.372 Y197.466 E0.0214
G1 X239.107 Y197.915 E0.02226
G1 X238.795 Y198.359 E0.02323
G1 X238.434 Y198.798 E0.02429
G1 X238.026 Y199.23 E0.02542
G1 X237.571 Y199.655 E0.02659
G1 X237.071 Y200.07 E0.02779
G1 X236.526 Y200.474 E0.029
G1 X235.938 Y200.866 E0.03022
G1 X235.308 Y201.245 E0.03143
G1 X234.638 Y201.61 E0.03262
G1 X233.929 Y201.959 E0.03379
G1 X233.184 Y202.293 E0.03492
G1 X232.404 Y202.609 E0.036
G1 X231.59 Y202.907 E0.03704
G1 X230.746 Y203.186 E0.03802
G1 X229.873 Y203.446 E0.03895
G1 X228.973 Y203.686 E0.03981
G1 X228.048 Y203.904 E0.04061
G1 X227.102 Y204.101 E0.04134
G1 X226.137 Y204.276 E0.04193
G1 X224.153 Y204.559 E0.0857
G1 X222.119 Y204.749 E0.0873
G1 X220.056 Y204.844 E0.08832
G1 X109.397 Y204.844 E4.73126
G1 X108.366 Y204.808 E0.04413
G1 X106.314 Y204.665 E0.08796
G1 X104.302 Y204.429 E0.08661
G1 X103.319 Y204.276 E0.04251
G1 X102.353 Y204.101 E0.04199
G1 X101.406 Y203.904 E0.04134
G1 X100.482 Y203.686 E0.04061
G1 X99.582 Y203.446 E0.03982
G1 X98.709 Y203.186 E0.03895
G1 X97.864 Y202.907 E0.03802
G1 X97.051 Y202.609 E0.03704
G1 X96.271 Y202.293 E0.036
G1 X95.525 Y201.959 E0.03491
G1 X94.817 Y201.61 E0.03379
G1 X94.146 Y201.245 E0.03262
G1 X93.517 Y200.866 E0.03143
G1 X92.929 Y200.474 E0.03022
G1 X92.384 Y200.07 E0.029
G1 X91.883 Y199.655 E0.02779
G1 X91.429 Y199.23 E0.02659
G1 X91.021 Y198.798 E0.02542
G1 X90.66 Y198.359 E0.02429
G1 X90.347 Y197.915 E0.02323
G1 X90.083 Y197.466 E0.02226
G1 X89.867 Y197.015 E0.0214
G1 X89.7 Y196.561 E0.02067
G1 X89.58 Y196.107 E0.02009
G1 X89.509 Y195.651 E0.0197
G1 X89.485 Y195.187 E0.01987
G1 X89.485 Y124.536 E3.02072
G1 X89.605 Y124.536 E0.00458
G1 X89.845 Y124.536 E0.00971
G1 X98.386 Y124.536 E0.36517
G1 X98.386 Y124.656 E0.00458
G1 X98.386 Y124.896 E0.00971
G1 X98.386 Y137.536 E0.54043
G1 X98.506 Y137.536 E0.00458
G1 X98.746 Y137.536 E0.00971
G1 X105.453 Y137.536 E0.28677
G1 X105.453 Y137.416 E0.00458
G1 X105.453 Y137.176 E0.00971
G1 X105.453 Y124.536 E0.54043
G1 X105.573 Y124.536 E0.00458
G1 X105.813 Y124.536 E0.00971
G1 X114.354 Y124.536 E0.36517
G1 X114.354 Y124.656 E0.00458
G1 X114.354 Y124.896 E0.00971
G1 X114.354 Y183.205 E2.49302
G1 X114.381 Y183.722 E0.02214
G1 X114.463 Y184.246 E0.02267
G1 X114.6 Y184.766 E0.02297
G1 X114.789 Y185.28 E0.02342
G1 X115.031 Y185.786 E0.02399
G1 X115.324 Y186.283 E0.02469
G1 X115.668 Y186.771 E0.02549
G1 X116.059 Y187.248 E0.02638
G1 X116.498 Y187.713 E0.02734
G1 X116.983 Y188.165 E0.02836
G1 X117.513 Y188.605 E0.02943
G1 X118.086 Y189.03 E0.03052
G1 X118.702 Y189.44 E0.03162
G1 X119.357 Y189.835 E0.03273
G1 X120.053 Y190.214 E0.03384
G1 X120.785 Y190.575 E0.03492
G1 X121.553 Y190.918 E0.03598
G1 X122.355 Y191.243 E0.03701
G1 X123.19 Y191.549 E0.03799
G1 X124.054 Y191.835 E0.03893
G1 X124.947 Y192.101 E0.03981
G1 X125.865 Y192.345 E0.04064
G1 X126.808 Y192.568 E0.04141
G1 X127.772 Y192.769 E0.04211
G1 X128.756 Y192.947 E0.04274
G1 X129.758 Y193.102 E0.04336
G1 X131.799 Y193.343 E0.08789
G1 X133.882 Y193.488 E0.08926
G1 X135.981 Y193.536 E0.08978
G1 X193.473 Y193.536 E2.4581
G1 X195.573 Y193.488 E0.08978
G1 X197.655 Y193.343 E0.08926
G1 X199.697 Y193.102 E0.08789
G1 X200.699 Y192.947 E0.04336
G1 X201.683 Y192.769 E0.04274
G1 X202.647 Y192.568 E0.04211
G1 X203.589 Y192.345 E0.04141
G1 X204.508 Y192.101 E0.04064
G1 X205.401 Y191.835 E0.03982
G1 X206.265 Y191.549 E0.03893
G1 X207.099 Y191.243 E0.03799
G1 X207.901 Y190.918 E0.03701
G1 X208.67 Y190.575 E0.03598
G1 X209.402 Y190.214 E0.03492
G1 X210.097 Y189.835 E0.03384
G1 X210.753 Y189.44 E0.03273
G1 X211.368 Y189.03 E0.03162
G1 X211.942 Y188.605 E0.03052
G1 X212.472 Y188.165 E0.02943
G1 X212.957 Y187.713 E0.02836
G1 X213.396 Y187.248 E0.02734
G1 X213.787 Y186.771 E0.02638
G1 X214.13 Y186.283 E0.02549
G1 X214.423 Y185.786 E0.02469
G1 X214.665 Y185.28 E0.02399
G1 X214.855 Y184.766 E0.02342
G1 X214.992 Y184.246 E0.02297
G1 X215.074 Y183.722 E0.02267
G1 X215.101 Y183.205 E0.02214
G1 X215.101 Y124.536 E2.50842
G1 X215.221 Y124.536 E0.00458
G1 X215.24 Y124.536 E0.00026
G1 X224.002 Y124.536 E0.37462
G1 X224.002 Y124.656 E0.00458
G1 X224.002 Y124.896 E0.00971
G1 X224.002 Y137.476 E0.53786
;WIPE_START
G1 X224.002 Y137.936 F9000
;WIPE_END
G1 E-1 F3000
G1 X238.611 Y125.029 F9000
G1 E1 F1800
; External perimeter
;SolidInfill
SET_VELOCITY_LIMIT ACCEL=2000 ACCEL_TO_DECEL=2000 SQUARE_CORNER_VELOCITY=5

; Bridge infill

;TYPE:Solid infill
;WIDTH:0.4754
G1 F2400
G1 X239.293 Y125.711 E0.04084
G1 X239.293 Y126.317 E0.02566
G1 X238.189 Y125.213 E0.06609
G1 X237.583 Y125.213 E0.02566
G1 X239.293 Y126.923 E0.10238
G1 X239.293 Y127.529 E0.02566
G1 X236.977 Y125.213 E0.13867
G1 X236.371 Y125.213 E0.02566
G1 X239.293 Y128.135 E0.17496
G1 X239.293 Y128.741 E0.02566
G1 X235.765 Y125.213 E0.21125
G1 X235.159 Y125.213 E0.02566
G1 X239.293 Y129.347 E0.24754
G1 X239.293 Y129.953 E0.02566
G1 X234.553 Y125.213 E0.28383
G1 X233.947 Y125.213 E0.02566
G1 X239.293 Y130.559 E0.32012
G1 X239.293 Y131.165 E0.02566
G1 X233.341 Y125.213 E0.35641
G1 X232.736 Y125.213 E0.02566
G1 X239.293 Y131.771 E0.3927
G1 X239.293 Y132.377 E0.02566
G1 X232.13 Y125.213 E0.42899
G1 X231.746 Y125.213 E0.01624
G1 X231.746 Y125.436 E0.00942
G1 X239.293 Y132.983 E0.45195
G1 X239.293 Y133.589 E0.02566
G1 X231.746 Y126.042 E0.45195
G1 X231.746 Y126.648 E0.02566
G1 X239.293 Y134.195 E0.45195
G1 X239.293 Y134.801 E0.02566
G1 X231.746 Y127.254 E0.45195
G1 X231.746 Y127.86 E0.02566
G1 X239.293 Y135.407 E0.45195
G1 X239.293 Y136.013 E0.02566
G1 X231.746 Y128.466 E0.45195
G1 X231.746 Y129.072 E0.02566
G1 X239.293 Y136.619 E0.45195
G1 X239.293 Y137.225 E0.02566
G1 X231.746 Y129.678 E0.45195
G1 X231.746 Y130.284 E0.02566
G1 X239.293 Y137.83 E0.45196
G1 X239.293 Y138.436 E0.02566
G1 X231.746 Y130.89 E0.45196
G1 X231.746 Y131.496 E0.02566
G1 X239.293 Y139.042 E0.45196
G1 X239.293 Y139.648 E0.02566
G1 X231.746 Y132.101 E0.45196
G1 X231.746 Y132.707 E0.02566
G1 X239.293 Y140.254 E0.45196
G1 X239.293 Y140.86 E0.02566
G1 X231.746 Y133.313 E0.45196
G1 X231.746 Y133.919 E0.02566
G1 X239.293 Y141.466 E0.45196
G1 X239.293 Y142.072 E0.02566
G1 X231.746 Y134.525 E0.45196
G1 X231.746 Y135.131 E0.02566
G1 X239.293 Y142.678 E0.45196
G1 X239.293 Y143.284 E0.02566
G1 X231.746 Y135.737 E0.45196
G1 X231.746 Y136.343 E0.02566
G1 X239.293 Y143.89 E0.45196
G1 X239.293 Y144.496 E0.02566
G1 X231.746 Y136.949 E0.45196
G1 X231.746 Y137.555 E0.02566
G1 X239.293 Y145.102 E0.45196
G1 X239.293 Y145.708 E0.02566
