; generated by SuperSlicer 2.3.57 on 2022-04-13 at 03:35:48 UTC


;
;

;
;
; 

; external perimeters extrusion width = 0.40mm
; perimeters extrusion width = 0.45mm
; infill extrusion width = 0.72mm
; solid infill extrusion width = 0.56mm
; top infill extrusion width = 0.40mm
; support material extrusion width = 0.42mm
; first layer extrusion width = 0.48mm

; external perimeters extrusion width = 0.40mm
; perimeters extrusion width = 0.45mm
; infill extrusion width = 0.72mm
; solid infill extrusion width = 0.56mm
; top infill extrusion width = 0.40mm
; support material extrusion width = 0.42mm
; first layer extrusion width = 0.48mm

; external perimeters extrusion width = 0.40mm
; perimeters extrusion width = 0.45mm
; infill extrusion width = 0.72mm
; solid infill extrusion width = 0.56mm
; top infill extrusion width = 0.40mm
; support material extrusion width = 0.42mm
; first layer extrusion width = 0.48mm

; object:{"name":"LidHolder","id":"LidHolder.stl id:0 copy 0","object_center":[165.000000,165.000000,0.000000],"boundingbox_center":[165.000000,165.000000,17.500000],"boundingbox_size":[130.000000,211.945213,35.000000]}
; plater:{"center":[165.000000,165.000000,0.000000],"boundingbox_center":[165.000000,165.000000,17.500000],"boundingbox_size":[130.000000,211.945213,35.000000]}

;TYPE:Custom
START_PRINT T_BED=60 T_EXTRUDER=200
M107
G21 ; set units to millimeters
G90 ; use absolute coordinates
M83 ; use relative distances for extrusion
; Filament gcode
M104 S200 ; set temperature
M109 S200 ; set temperature and wait for it to be reached
M190 S60 ; set bed temperature and wait for it to be reached
M107
;LAYER_CHANGE
;Z:0.24
;HEIGHT:0.24
G1 E-0.6 F3000
G1 Z0.24 F9000
G1 X139.084 Y59.26
G1 E0.6 F1800
; External perimeter
;Skirt
SET_VELOCITY_LIMIT ACCEL=300 ACCEL_TO_DECEL=3000 SQUARE_CORNER_VELOCITY=5

; Support material

;TYPE:Skirt
;WIDTH:0.48
G1 X110.605 Y126.099 E3.1063
G1 X96.49 Y193.643 E2.95028
G1 X96.469 Y231.219 E1.60655
G1 X96.621 Y232.009 E0.0344
G1 X96.946 Y232.75 E0.0346
G1 X120.484 Y272.759 E1.98467
G1 X120.884 Y273.3 E0.02879
G1 X121.377 Y273.759 E0.02879
G1 X121.946 Y274.118 E0.02879
G1 X122.572 Y274.367 E0.02879
G1 X123.595 Y274.515 E0.0442
G1 X206.403 Y274.515 E3.54049
G1 X207.064 Y274.454 E0.02839
G1 X207.703 Y274.274 E0.02839
G1 X208.243 Y274.015 E0.02557
G1 X208.732 Y273.671 E0.02557
G1 X209.162 Y273.248 E0.02578
G1 X209.513 Y272.764 E0.02557
G1 X233.044 Y232.767 E1.98409
G1 X233.395 Y231.955 E0.03781
G1 X233.543 Y230.937 E0.044
G1 X233.512 Y193.652 E1.59414
G1 X219.422 Y126.197 E2.94629
G1 X190.211 Y57.607 E3.18748
G1 X189.65 Y56.739 E0.0442
G1 X188.868 Y56.062 E0.0442
G1 X187.928 Y55.633 E0.0442
G1 X186.905 Y55.485 E0.0442
G1 X143.024 Y55.485 E1.87613
G1 X142.364 Y55.56 E0.02839
G1 X141.733 Y55.751 E0.02819
G1 X141.147 Y56.052 E0.02819
G1 X140.625 Y56.455 E0.02819
G1 X140.126 Y57.024 E0.0324
G1 X139.755 Y57.685 E0.0324
G1 X139.107 Y59.205 E0.07063
G1 X139.501 Y59.373 F9000
G1 F1800
G1 X111.016 Y126.221 E3.10678
G1 X96.914 Y193.699 E2.94739
G1 X96.896 Y231.179 E1.60248
G1 X97.031 Y231.882 E0.03062
G1 X97.318 Y232.538 E0.03062
G1 X120.848 Y272.533 E1.98397
G1 X121.202 Y273.013 E0.02553
G1 X121.636 Y273.417 E0.02534
G1 X122.141 Y273.736 E0.02553
G1 X122.691 Y273.956 E0.02534
G1 X123.596 Y274.087 E0.03907
G1 X206.404 Y274.087 E3.54053
G1 X206.986 Y274.033 E0.02496
G1 X207.548 Y273.875 E0.02496
G1 X208.461 Y273.339 E0.04524
G1 X209.15 Y272.537 E0.04524
G1 X232.672 Y232.554 E1.98338
G1 X232.983 Y231.836 E0.03344
G1 X233.114 Y230.936 E0.03888
G1 X233.086 Y193.706 E1.59181
G1 X219.01 Y126.315 E2.94353
G1 X189.824 Y57.792 E3.18439
G1 X189.33 Y57.023 E0.03907
G1 X188.64 Y56.425 E0.03907
G1 X187.809 Y56.044 E0.03907
G1 X186.904 Y55.913 E0.03907
G1 X143.041 Y55.914 E1.87541
G1 X142.456 Y55.978 E0.02515
G1 X141.897 Y56.147 E0.02496
G1 X141.378 Y56.414 E0.02496
G1 X140.915 Y56.77 E0.02496
G1 X140.473 Y57.276 E0.02873
G1 X140.147 Y57.858 E0.02854
G1 X139.525 Y59.318 E0.06783
; INIT printing object LidHolder.stl id:0 copy 0
G1 E-0.6 F3000
; printing object LidHolder.stl id:0 copy 0
G1 X145.732 Y95.259 F9000
G1 E0.6 F1800
; External perimeter
;Perimeter
SET_VELOCITY_LIMIT ACCEL=2000 ACCEL_TO_DECEL=2000 SQUARE_CORNER_VELOCITY=5

; Overhang perimeter

;TYPE:Internal perimeter
G1 X132.232 Y95.259 E0.5772
G1 X132.232 Y129.259 E1.45369
G1 X116.732 Y129.259 E0.66271
G1 X116.732 Y163.259 E1.45369
G1 X112.732 Y163.259 E0.17102
G1 X112.732 Y196.259 E1.41093
G1 X102.732 Y196.259 E0.42755
G1 X102.732 Y228.796 E1.39113
G1 X126.232 Y228.796 E1.00475
G1 X126.232 Y268.741 E1.70788
G1 X203.768 Y268.741 E3.31513
G1 X203.768 Y228.796 E1.70788
G1 X227.268 Y228.796 E1.00475
G1 X227.268 Y196.259 E1.39113
G1 X217.268 Y196.259 E0.42755
G1 X217.268 Y163.259 E1.41093
G1 X213.268 Y163.259 E0.17102
G1 X213.268 Y129.259 E1.45369
G1 X197.768 Y129.259 E0.66271
G1 X197.768 Y95.259 E1.45369
G1 X184.268 Y95.259 E0.5772
G1 X184.268 Y61.259 E1.45369
G1 X145.732 Y61.259 E1.64767
G1 X145.732 Y95.199 E1.45112
G1 X146.16 Y95.687 F9000
; External perimeter
;ExternalPerimeter
SET_VELOCITY_LIMIT ACCEL=1000 ACCEL_TO_DECEL=1000 SQUARE_CORNER_VELOCITY=5

; Perimeter

;TYPE:External perimeter
G1 F1800
G1 X132.66 Y95.687 E0.5772
G1 X132.66 Y95.807 E0.00458
G1 X132.66 Y96.047 E0.00971
G1 X132.66 Y129.687 E1.43829
G1 X132.54 Y129.687 E0.00458
G1 X132.3 Y129.687 E0.00971
G1 X117.16 Y129.687 E0.64732
G1 X117.16 Y129.807 E0.00458
G1 X117.16 Y130.047 E0.00971
G1 X117.16 Y163.687 E1.43829
G1 X117.04 Y163.687 E0.00458
G1 X116.8 Y163.687 E0.00971
G1 X113.16 Y163.687 E0.15563
G1 X113.16 Y163.807 E0.00458
G1 X113.16 Y164.047 E0.00971
G1 X113.16 Y196.687 E1.39554
G1 X113.04 Y196.687 E0.00458
G1 X112.8 Y196.687 E0.00971
G1 X103.16 Y196.687 E0.41216
G1 X103.16 Y196.807 E0.00458
G1 X103.16 Y197.047 E0.00971
G1 X103.16 Y228.367 E1.3391
G1 X103.28 Y228.367 E0.00458
G1 X103.52 Y228.367 E0.00971
G1 X126.66 Y228.367 E0.98936
G1 X126.66 Y228.487 E0.00458
G1 X126.66 Y228.727 E0.00971
G1 X126.66 Y268.313 E1.69248
G1 X126.78 Y268.313 E0.00458
G1 X127.02 Y268.313 E0.00971
G1 X203.34 Y268.313 E3.2631
G1 X203.34 Y268.193 E0.00458
G1 X203.34 Y267.953 E0.00971
G1 X203.34 Y228.367 E1.69248
G1 X203.46 Y228.367 E0.00458
G1 X203.7 Y228.367 E0.00971
G1 X226.84 Y228.367 E0.98936
G1 X226.84 Y228.247 E0.00458
G1 X226.84 Y228.007 E0.00971
G1 X226.84 Y196.687 E1.3391
G1 X226.72 Y196.687 E0.00458
G1 X226.48 Y196.687 E0.00971
G1 X216.84 Y196.687 E0.41216
G1 X216.84 Y196.567 E0.00458
G1 X216.84 Y196.327 E0.00971
G1 X216.84 Y163.687 E1.39554
G1 X216.72 Y163.687 E0.00458
G1 X216.48 Y163.687 E0.00971
G1 X212.84 Y163.687 E0.15563
G1 X212.84 Y163.567 E0.00458
G1 X212.84 Y163.327 E0.00971
G1 X212.84 Y129.687 E1.43829
G1 X212.72 Y129.687 E0.00458
G1 X212.48 Y129.687 E0.00971
G1 X197.34 Y129.687 E0.64732
G1 X197.34 Y129.567 E0.00458
G1 X197.34 Y129.327 E0.00971
G1 X197.34 Y95.687 E1.43829
G1 X197.22 Y95.687 E0.00458
G1 X196.98 Y95.687 E0.00971
G1 X183.84 Y95.687 E0.56181
G1 X183.84 Y95.567 E0.00458
G1 X183.84 Y95.327 E0.00971
G1 X183.84 Y61.687 E1.43829
G1 X183.72 Y61.687 E0.00458
G1 X183.48 Y61.687 E0.00971
G1 X146.16 Y61.687 E1.59563
G1 X146.16 Y61.807 E0.00458
G1 X146.16 Y62.047 E0.00971
G1 X146.16 Y95.627 E1.43573
;WIPE_START
G1 X145.814 Y95.487 F9000
;WIPE_END
G1 X143.768 Y93.796
; External perimeter
;Perimeter
SET_VELOCITY_LIMIT ACCEL=2000 ACCEL_TO_DECEL=2000 SQUARE_CORNER_VELOCITY=5

; Overhang perimeter

;TYPE:Internal perimeter
G1 F1800
G1 X143.768 Y59.796 E1.45369
G1 X186.232 Y59.796 E1.81553
G1 X186.232 Y93.796 E1.45369
G1 X199.732 Y93.796 E0.5772
G1 X199.732 Y127.796 E1.45369
G1 X215.232 Y127.796 E0.66271
G1 X215.232 Y161.796 E1.45369
G1 X219.232 Y161.796 E0.17102
G1 X219.232 Y194.796 E1.41093
G1 X229.232 Y194.796 E0.42755
G1 X229.232 Y230.259 E1.51624
G1 X205.732 Y230.259 E1.00475
G1 X205.732 Y270.204 E1.70788
G1 X124.268 Y270.204 E3.48299
G1 X124.268 Y230.259 E1.70788
G1 X100.768 Y230.259 E1.00475
G1 X100.768 Y194.796 E1.51624
G1 X110.768 Y194.796 E0.42755
G1 X110.768 Y161.796 E1.41093
G1 X114.768 Y161.796 E0.17102
G1 X114.768 Y127.796 E1.45369
G1 X130.268 Y127.796 E0.66271
G1 X130.268 Y93.796 E1.45369
G1 X143.708 Y93.796 E0.57463
G1 X143.34 Y93.367 F9000
; External perimeter
;ExternalPerimeter
SET_VELOCITY_LIMIT ACCEL=1000 ACCEL_TO_DECEL=1000 SQUARE_CORNER_VELOCITY=5

; Perimeter

;TYPE:External perimeter
G1 F1800
G1 X143.34 Y59.367 E1.45369
G1 X143.46 Y59.367 E0.00458
G1 X143.7 Y59.367 E0.00971
G1 X186.66 Y59.367 E1.83677
G1 X186.66 Y59.487 E0.00458
G1 X186.66 Y59.727 E0.00971
G1 X186.66 Y93.367 E1.43829
G1 X186.78 Y93.367 E0.00458
G1 X187.02 Y93.367 E0.00971
G1 X200.16 Y93.367 E0.56181
G1 X200.16 Y93.487 E0.00458
G1 X200.16 Y93.727 E0.00971
G1 X200.16 Y127.367 E1.43829
G1 X200.28 Y127.367 E0.00458
G1 X200.52 Y127.367 E0.00971
G1 X215.66 Y127.367 E0.64732
G1 X215.66 Y127.487 E0.00458
G1 X215.66 Y127.727 E0.00971
G1 X215.66 Y161.367 E1.43829
G1 X215.78 Y161.367 E0.00458
G1 X216.02 Y161.367 E0.00971
G1 X219.66 Y161.367 E0.15563
G1 X219.66 Y161.487 E0.00458
G1 X219.66 Y161.727 E0.00971
G1 X219.66 Y194.367 E1.39554
G1 X219.78 Y194.367 E0.00458
G1 X220.02 Y194.367 E0.00971
G1 X229.66 Y194.367 E0.41216
G1 X229.66 Y194.487 E0.00458
G1 X229.66 Y194.727 E0.00971
G1 X229.66 Y230.687 E1.53749
G1 X229.54 Y230.687 E0.00458
G1 X229.3 Y230.687 E0.00971
G1 X206.16 Y230.687 E0.98936
G1 X206.16 Y230.807 E0.00458
G1 X206.16 Y231.047 E0.00971
G1 X206.16 Y270.633 E1.69248
G1 X206.04 Y270.633 E0.00458
G1 X205.8 Y270.633 E0.00971
G1 X123.84 Y270.633 E3.50424
G1 X123.84 Y270.513 E0.00458
G1 X123.84 Y270.273 E0.00971
G1 X123.84 Y230.687 E1.69248
G1 X123.72 Y230.687 E0.00458
G1 X123.48 Y230.687 E0.00971
G1 X100.34 Y230.687 E0.98936
G1 X100.34 Y230.567 E0.00458
G1 X100.34 Y230.327 E0.00971
G1 X100.34 Y194.367 E1.53749
G1 X100.46 Y194.367 E0.00458
G1 X100.7 Y194.367 E0.00971
G1 X110.34 Y194.367 E0.41216
G1 X110.34 Y194.247 E0.00458
G1 X110.34 Y194.007 E0.00971
G1 X110.34 Y161.367 E1.39554
G1 X110.46 Y161.367 E0.00458
G1 X110.7 Y161.367 E0.00971
G1 X114.34 Y161.367 E0.15563
G1 X114.34 Y161.247 E0.00458
G1 X114.34 Y161.007 E0.00971
G1 X114.34 Y127.367 E1.43829
G1 X114.46 Y127.367 E0.00458
G1 X114.7 Y127.367 E0.00971
G1 X129.84 Y127.367 E0.64732
G1 X129.84 Y127.247 E0.00458
G1 X129.84 Y127.007 E0.00971
G1 X129.84 Y93.367 E1.43829
G1 X129.96 Y93.367 E0.00458
G1 X130.2 Y93.367 E0.00971
G1 X143.28 Y93.367 E0.55924
;WIPE_START
G1 X143.74 Y93.367 F9000
;WIPE_END
G1 E-0.6 F3000
G1 X185.301 Y59.86 F9000
G1 E0.6 F1800
; External perimeter
;SolidInfill
SET_VELOCITY_LIMIT ACCEL=2000 ACCEL_TO_DECEL=2000 SQUARE_CORNER_VELOCITY=5

; Bridge infill

;TYPE:Solid infill
;WIDTH:0.439192
G1 F2400
G1 X185.983 Y60.542 E0.03773
G1 X185.983 Y61.148 E0.02371
G1 X184.879 Y60.044 E0.06106
G1 X184.273 Y60.044 E0.02371
G1 X185.983 Y61.754 E0.09459
G1 X185.983 Y62.36 E0.02371
G1 X183.667 Y60.044 E0.12811
G1 X183.061 Y60.044 E0.02371
G1 X184.027 Y61.01 E0.05344
G1 X184.517 Y61.01 E0.01915
G1 X184.517 Y61.5 E0.01915
G1 X185.983 Y62.966 E0.08111
G1 X185.983 Y63.572 E0.02371
G1 X184.517 Y62.106 E0.08111
G1 X184.517 Y62.712 E0.02371
G1 X185.983 Y64.178 E0.08111
G1 X185.983 Y64.784 E0.02371
G1 X184.517 Y63.318 E0.08111
G1 X184.517 Y63.924 E0.02371
G1 X185.983 Y65.39 E0.08111
G1 X185.983 Y65.996 E0.02371
G1 X184.517 Y64.53 E0.08111
G1 X184.517 Y65.136 E0.02371
G1 X185.983 Y66.602 E0.08111
G1 X185.983 Y67.208 E0.02371
G1 X184.517 Y65.742 E0.08111
G1 X184.517 Y66.348 E0.02371
G1 X185.983 Y67.814 E0.08111
G1 X185.983 Y68.42 E0.02371
G1 X184.517 Y66.954 E0.08111
G1 X184.517 Y67.56 E0.02371
G1 X185.983 Y69.026 E0.08111
G1 X185.983 Y69.632 E0.02371
G1 X184.517 Y68.166 E0.08111
G1 X184.517 Y68.772 E0.02371
G1 X185.983 Y70.238 E0.08111
G1 X185.983 Y70.844 E0.02371
G1 X184.517 Y69.378 E0.08111
G1 X184.517 Y69.984 E0.02371
G1 X185.983 Y71.45 E0.08111
G1 X185.983 Y72.056 E0.02371
G1 X184.517 Y70.59 E0.08111
G1 X184.517 Y71.196 E0.02371
G1 X185.983 Y72.662 E0.08111
G1 X185.983 Y73.268 E0.02371
G1 X184.517 Y71.802 E0.08111
G1 X184.517 Y72.408 E0.02371
G1 X185.983 Y73.874 E0.08111
G1 X185.983 Y74.48 E0.02371
G1 X184.517 Y73.014 E0.08111
G1 X184.517 Y73.62 E0.02371
G1 X185.983 Y75.086 E0.08111
G1 X185.983 Y75.692 E0.02371
G1 X184.517 Y74.226 E0.08111
G1 X184.517 Y74.832 E0.02371
G1 X185.983 Y76.298 E0.08111
G1 X185.983 Y76.904 E0.02371
G1 X184.517 Y75.438 E0.08111
G1 X184.517 Y76.044 E0.02371
G1 X185.983 Y77.51 E0.08111
G1 X185.983 Y78.116 E0.02371
G1 X184.517 Y76.65 E0.08111
G1 X184.517 Y77.256 E0.02371
G1 X185.983 Y78.722 E0.08111
G1 X185.983 Y79.328 E0.02371
G1 X184.517 Y77.862 E0.08111
G1 X184.517 Y78.468 E0.02371
G1 X185.983 Y79.934 E0.08111
G1 X185.983 Y80.54 E0.02371
G1 X184.517 Y79.074 E0.08111
G1 X184.517 Y79.68 E0.02371
G1 X185.983 Y81.146 E0.08111
G1 X185.983 Y81.752 E0.02371
G1 X184.517 Y80.286 E0.08111
G1 X184.517 Y80.891 E0.02371
G1 X185.983 Y82.357 E0.08111
G1 X185.983 Y82.963 E0.02371
G1 X184.517 Y81.497 E0.08111
G1 X184.517 Y82.103 E0.02371
G1 X185.983 Y83.569 E0.08111
G1 X185.983 Y84.175 E0.02371
G1 X184.517 Y82.709 E0.08111
G1 X184.517 Y83.315 E0.02371
G1 X185.983 Y84.781 E0.08111
G1 X185.983 Y85.387 E0.02371
G1 X184.517 Y83.921 E0.08111
G1 X184.517 Y84.527 E0.02371
G1 X185.983 Y85.993 E0.08111
G1 X185.983 Y86.599 E0.02371
G1 X184.517 Y85.133 E0.08111
G1 X184.517 Y85.739 E0.02371
G1 X185.983 Y87.205 E0.08111
G1 X185.983 Y87.811 E0.02371
G1 X184.517 Y86.345 E0.08111
G1 X184.517 Y86.951 E0.02371
G1 X185.983 Y88.417 E0.08111
G1 X185.983 Y89.023 E0.02371
G1 X184.517 Y87.557 E0.08111
G1 X184.517 Y88.163 E0.02371
G1 X185.983 Y89.629 E0.08111
G1 X185.983 Y90.235 E0.02371
G1 X184.517 Y88.769 E0.08111
G1 X184.517 Y89.375 E0.02371
G1 X185.983 Y90.841 E0.08111
G1 X185.983 Y91.447 E0.02371
G1 X184.517 Y89.981 E0.08111
G1 X184.517 Y90.587 E0.02371
G1 X185.983 Y92.053 E0.08111
G1 X185.983 Y92.659 E0.02371
G1 X184.517 Y91.193 E0.08111
G1 X184.517 Y91.799 E0.02371
G1 X186.167 Y93.449 E0.0913
G1 X198.698 Y93.86 F9000
G1 F2400
G1 X199.483 Y94.646 E0.04345
G1 X199.483 Y95.252 E0.02371
G1 X198.276 Y94.044 E0.06678
G1 X197.67 Y94.044 E0.02371
G1 X199.483 Y95.857 E0.10031
G1 X199.483 Y96.463 E0.02371
G1 X197.064 Y94.044 E0.13383
G1 X196.458 Y94.044 E0.02371
G1 X197.424 Y95.01 E0.05344
G1 X198.017 Y95.01 E0.0232
G1 X198.017 Y95.603 E0.0232
G1 X199.483 Y97.069 E0.08111
G1 X199.483 Y97.675 E0.02371
G1 X198.017 Y96.209 E0.08111
G1 X198.017 Y96.815 E0.02371
G1 X199.483 Y98.281 E0.08111
G1 X199.483 Y98.887 E0.02371
G1 X198.017 Y97.421 E0.08111
G1 X198.017 Y98.027 E0.02371
G1 X199.483 Y99.493 E0.08111
G1 X199.483 Y100.099 E0.02371
G1 X198.017 Y98.633 E0.08111
G1 X198.017 Y99.239 E0.02371
G1 X199.483 Y100.705 E0.08111
G1 X199.483 Y101.311 E0.02371
G1 X198.017 Y99.845 E0.08111
G1 X198.017 Y100.451 E0.02371
G1 X199.483 Y101.917 E0.08111
G1 X199.483 Y102.523 E0.02371
G1 X198.017 Y101.057 E0.08111
G1 X198.017 Y101.663 E0.02371
G1 X199.483 Y103.129 E0.08111
G1 X199.483 Y103.735 E0.02371
G1 X198.017 Y102.269 E0.08111
G1 X198.017 Y102.875 E0.02371
G1 X199.483 Y104.341 E0.08111
G1 X199.483 Y104.947 E0.02371
G1 X198.017 Y103.481 E0.08111
G1 X198.017 Y104.087 E0.02371
G1 X199.483 Y105.553 E0.08111
G1 X199.483 Y106.159 E0.02371
G1 X198.017 Y104.693 E0.08111
G1 X198.017 Y105.299 E0.02371
G1 X199.483 Y106.765 E0.08111
G1 X199.483 Y107.371 E0.02371
G1 X198.017 Y105.905 E0.08111
G1 X198.017 Y106.511 E0.02371
G1 X199.483 Y107.977 E0.08111
G1 X199.483 Y108.583 E0.02371
G1 X198.017 Y107.117 E0.08111
G1 X198.017 Y107.723 E0.02371
G1 X199.483 Y109.189 E0.08111
G1 X199.483 Y109.795 E0.02371
G1 X198.017 Y108.329 E0.08111
G1 X198.017 Y108.935 E0.02371
G1 X199.483 Y110.401 E0.08111
G1 X199.483 Y111.007 E0.02371
G1 X198.017 Y109.541 E0.08111
G1 X198.017 Y110.147 E0.02371
G1 X199.483 Y111.613 E0.08111
G1 X199.483 Y112.219 E0.02371
G1 X198.017 Y110.753 E0.08111
G1 X198.017 Y111.359 E0.02371
G1 X199.483 Y112.825 E0.08111
G1 X199.483 Y113.431 E0.02371
G1 X198.017 Y111.965 E0.08111
G1 X198.017 Y112.571 E0.02371
G1 X199.483 Y114.037 E0.08111
G1 X199.483 Y114.643 E0.02371
G1 X198.017 Y113.177 E0.08111
G1 X198.017 Y113.783 E0.02371
G1 X199.483 Y115.249 E0.08111
