; generated by SuperSlicer 2.3.57 on 2022-04-13 at 20:10:34 UTC


;
;

;
;
; 

; external perimeters extrusion width = 0.40mm
; perimeters extrusion width = 0.45mm
; infill extrusion width = 0.72mm
; solid infill extrusion width = 0.56mm
; top infill extrusion width = 0.40mm
; support material extrusion width = 0.42mm
; first layer extrusion width = 0.48mm

; external perimeters extrusion width = 0.40mm
; perimeters extrusion width = 0.45mm
; infill extrusion width = 0.72mm
; solid infill extrusion width = 0.56mm
; top infill extrusion width = 0.40mm
; support material extrusion width = 0.42mm
; first layer extrusion width = 0.48mm

; external perimeters extrusion width = 0.40mm
; perimeters extrusion width = 0.45mm
; infill extrusion width = 0.72mm
; solid infill extrusion width = 0.56mm
; top infill extrusion width = 0.40mm
; support material extrusion width = 0.42mm
; first layer extrusion width = 0.48mm

; object:{"name":"LidHolder4","id":"LidHolder4.stl id:0 copy 0","object_center":[119.347081,121.499997,0.000000],"boundingbox_center":[119.347081,121.499997,1.500000],"boundingbox_size":[83.409729,81.000008,3.000000]}
; object:{"name":"LidHolder3","id":"LidHolder3.stl id:1 copy 0","object_center":[226.040455,123.459697,0.000000],"boundingbox_center":[226.040455,123.459697,1.500000],"boundingbox_size":[117.977020,81.000008,3.000000]}
; object:{"name":"LidHolder2","id":"LidHolder2.stl id:2 copy 0","object_center":[108.454144,208.500003,0.000000],"boundingbox_center":[108.454144,208.500003,1.500000],"boundingbox_size":[126.966217,81.000008,3.000000]}
; plater:{"center":[165.000000,165.000000,0.000000],"boundingbox_center":[165.000000,165.000000,1.500000],"boundingbox_size":[240.057930,168.000014,3.000000]}

;TYPE:Custom
START_PRINT T_BED=70 T_EXTRUDER=230
M107
G21 ; set units to millimeters
G90 ; use absolute coordinates
M83 ; use relative distances for extrusion
; Filament gcode
M104 S230 ; set temperature
M109 S230 ; set temperature and wait for it to be reached
M190 S70 ; set bed temperature and wait for it to be reached
M107
;LAYER_CHANGE
;Z:0.24
;HEIGHT:0.24
G1 E-1 F3000
G1 Z0.24 F9000
G1 X75.281 Y78.414
G1 E1 F1800
; External perimeter
;Skirt
SET_VELOCITY_LIMIT ACCEL=300 ACCEL_TO_DECEL=3000 SQUARE_CORNER_VELOCITY=5

; Support material

;TYPE:Skirt
;WIDTH:0.48
G1 X74.712 Y79.078 E0.03741
G1 X74.332 Y79.819 E0.03561
G1 X41.66 Y166.822 E3.97347
G1 X41.476 Y167.513 E0.03059
G1 X41.458 Y239.733 E3.0878
G1 X41.593 Y240.724 E0.04278
G1 X41.969 Y242.116 E0.06162
G1 X42.333 Y243.005 E0.04106
G1 X43.055 Y244.313 E0.06388
G1 X43.92 Y245.486 E0.06232
G1 X44.589 Y246.231 E0.04281
G1 X45.718 Y247.278 E0.06585
G1 X47.066 Y248.292 E0.0721
G1 X48.479 Y249.163 E0.071
G1 X50.029 Y249.949 E0.07429
G1 X51.68 Y250.634 E0.07642
G1 X53.452 Y251.226 E0.07987
G1 X55.214 Y251.691 E0.07792
G1 X57.123 Y252.071 E0.0832
G1 X59.892 Y252.418 E0.11933
G1 X61.908 Y252.53 E0.08634
G1 X154.998 Y252.53 E3.98009
G1 X157.068 Y252.413 E0.08867
G1 X158.893 Y252.209 E0.07849
G1 X160.721 Y251.9 E0.0793
G1 X162.657 Y251.451 E0.08497
G1 X165.219 Y250.637 E0.11492
G1 X166.872 Y249.952 E0.07649
G1 X168.368 Y249.196 E0.07167
G1 X170.54 Y247.794 E0.11054
G1 X283.4 Y163.125 E6.03234
G1 X285.197 Y161.578 E0.10139
G1 X286.163 Y160.494 E0.06209
G1 X286.731 Y159.723 E0.04091
G1 X287.489 Y158.433 E0.06399
G1 X288.085 Y156.988 E0.06683
G1 X288.447 Y155.502 E0.06538
G1 X288.572 Y153.967 E0.06586
G1 X288.571 Y82.978 E3.03517
G1 X288.444 Y82.103 E0.03781
G1 X288.112 Y81.288 E0.03761
G1 X287.595 Y80.577 E0.03761
G1 X286.922 Y80.01 E0.03761
G1 X286.003 Y79.579 E0.0434
G1 X285.001 Y79.418 E0.0434
G1 X160.952 Y77.457 E5.30442
G1 X77.676 Y77.458 E3.56049
G1 X76.805 Y77.58 E0.03761
G1 X75.993 Y77.905 E0.03741
G1 X75.33 Y78.379 E0.03484
G1 X75.577 Y78.725 F9000
G1 F1800
G1 X75.07 Y79.313 E0.0332
G1 X74.733 Y79.97 E0.03156
G1 X42.062 Y166.97 E3.97336
G1 X41.899 Y167.58 E0.02698
G1 X41.885 Y239.7 E3.08352
G1 X42.013 Y240.638 E0.04049
G1 X42.375 Y241.978 E0.05936
G1 X42.717 Y242.815 E0.03863
G1 X43.415 Y244.081 E0.06184
G1 X44.255 Y245.22 E0.06047
G1 X44.891 Y245.926 E0.04063
G1 X45.992 Y246.949 E0.06426
G1 X47.301 Y247.934 E0.07006
G1 X48.689 Y248.789 E0.06969
G1 X50.209 Y249.56 E0.07286
G1 X51.831 Y250.233 E0.07509
G1 X53.569 Y250.814 E0.07835
G1 X55.312 Y251.274 E0.07708
G1 X57.19 Y251.648 E0.08186
G1 X59.928 Y251.991 E0.11798
G1 X61.917 Y252.102 E0.08519
G1 X154.987 Y252.102 E3.97924
G1 X157.021 Y251.987 E0.08713
G1 X158.832 Y251.784 E0.07788
G1 X160.646 Y251.478 E0.07868
G1 X162.546 Y251.037 E0.08338
G1 X165.071 Y250.235 E0.11326
G1 X166.694 Y249.562 E0.07513
G1 X168.167 Y248.818 E0.07055
G1 X170.283 Y247.451 E0.10774
G1 X283.14 Y162.784 E6.03216
G1 X284.888 Y161.281 E0.09859
G1 X285.831 Y160.223 E0.0606
G1 X286.376 Y159.483 E0.03928
G1 X287.104 Y158.244 E0.06144
G1 X287.675 Y156.863 E0.06389
G1 X288.023 Y155.438 E0.06274
G1 X288.143 Y153.971 E0.06292
G1 X288.143 Y82.996 E3.03458
G1 X288.032 Y82.222 E0.03344
G1 X287.738 Y81.497 E0.03344
G1 X287.277 Y80.865 E0.03344
G1 X286.681 Y80.365 E0.03325
G1 X285.874 Y79.987 E0.03813
G1 X284.993 Y79.846 E0.03813
G1 X160.952 Y77.886 E5.3041
G1 X77.688 Y77.886 E3.55998
G1 X76.922 Y77.992 E0.03306
G1 X76.204 Y78.278 E0.03306
G1 X75.626 Y78.69 E0.03035
; INIT printing object LidHolder4.stl id:0 copy 0
G1 E-1 F3000
; printing object LidHolder4.stl id:0 copy 0
G1 X156.534 Y94.768 F9000
G1 E1 F1800
; External perimeter
;Perimeter
SET_VELOCITY_LIMIT ACCEL=2000 ACCEL_TO_DECEL=2000 SQUARE_CORNER_VELOCITY=5

; Overhang perimeter

;TYPE:Internal perimeter
G1 X156.534 Y81.768 E0.55582
G1 X160.283 Y81.768 E0.16031
G1 X160.283 Y151.989 E3.00231
G1 X160.27 Y152.446 E0.01957
G1 X160.232 Y152.892 E0.01912
G1 X160.167 Y153.335 E0.01916
G1 X160.078 Y153.776 E0.01923
G1 X159.962 Y154.213 E0.01932
G1 X159.822 Y154.645 E0.01942
G1 X159.656 Y155.071 E0.01955
G1 X159.466 Y155.491 E0.01969
G1 X159.252 Y155.902 E0.01985
G1 X159.014 Y156.305 E0.02002
G1 X158.752 Y156.698 E0.0202
G1 X158.467 Y157.081 E0.02039
G1 X158.16 Y157.452 E0.02059
G1 X157.832 Y157.81 E0.02079
G1 X157.482 Y158.155 E0.02099
G1 X157.113 Y158.486 E0.0212
G1 X156.728 Y158.798 E0.02119
G1 X155.888 Y159.385 E0.04382
G1 X155.457 Y159.643 E0.02145
G1 X154.517 Y160.123 E0.04514
G1 X154.047 Y160.324 E0.02187
G1 X153.031 Y160.682 E0.04605
G1 X152.529 Y160.823 E0.02229
G1 X151.468 Y161.05 E0.0464
G1 X150.391 Y161.185 E0.04638
G1 X149.289 Y161.232 E0.04716
G1 X88.839 Y161.22 E2.58458
G1 X88.31 Y161.186 E0.02266
G1 X87.227 Y161.05 E0.04668
G1 X86.172 Y160.825 E0.0461
G1 X85.15 Y160.513 E0.04568
G1 X84.171 Y160.119 E0.04514
G1 X83.241 Y159.645 E0.04462
G1 X82.374 Y159.097 E0.04388
G1 X81.97 Y158.801 E0.02139
G1 X81.581 Y158.486 E0.0214
G1 X81.212 Y158.155 E0.0212
G1 X80.862 Y157.81 E0.02099
G1 X80.534 Y157.452 E0.02079
G1 X80.227 Y157.081 E0.02059
G1 X79.942 Y156.698 E0.02039
G1 X79.68 Y156.305 E0.0202
G1 X79.442 Y155.902 E0.02002
G1 X79.228 Y155.491 E0.01985
G1 X79.038 Y155.071 E0.01969
G1 X78.872 Y154.645 E0.01955
G1 X78.732 Y154.213 E0.01942
G1 X78.617 Y153.776 E0.01931
G1 X78.527 Y153.335 E0.01923
G1 X78.462 Y152.892 E0.01916
G1 X78.424 Y152.446 E0.01912
G1 X78.411 Y151.989 E0.01957
G1 X78.411 Y81.768 E3.00231
G1 X82.16 Y81.768 E0.16031
G1 X82.16 Y94.768 E0.55582
G1 X87.222 Y94.768 E0.2164
G1 X87.222 Y81.768 E0.55582
G1 X90.971 Y81.768 E0.16031
G1 X90.971 Y140.011 E2.49019
G1 X90.986 Y140.535 E0.02241
G1 X91.032 Y141.069 E0.0229
G1 X91.109 Y141.599 E0.02293
G1 X91.217 Y142.126 E0.02298
G1 X91.354 Y142.647 E0.02304
G1 X91.521 Y143.161 E0.02311
G1 X91.718 Y143.667 E0.0232
G1 X91.943 Y144.163 E0.0233
G1 X92.196 Y144.649 E0.02341
G1 X92.476 Y145.123 E0.02354
G1 X92.782 Y145.584 E0.02367
G1 X93.115 Y146.03 E0.02381
G1 X93.472 Y146.462 E0.02395
G1 X93.853 Y146.877 E0.0241
G1 X94.257 Y147.276 E0.02425
G1 X94.682 Y147.656 E0.02441
G1 X95.129 Y148.018 E0.02456
G1 X95.594 Y148.36 E0.02472
G1 X96.079 Y148.682 E0.02487
G1 X96.581 Y148.983 E0.02501
G1 X97.098 Y149.262 E0.02515
G1 X97.631 Y149.519 E0.02529
G1 X98.184 Y149.756 E0.02572
G1 X99.299 Y150.149 E0.05053
G1 X99.892 Y150.316 E0.02634
G1 X101.067 Y150.566 E0.05138
G1 X102.272 Y150.718 E0.05191
G1 X103.472 Y150.768 E0.05138
G1 X135.222 Y150.768 E1.35745
G1 X136.422 Y150.718 E0.05139
G1 X137.627 Y150.566 E0.05191
G1 X138.809 Y150.314 E0.05169
G1 X139.958 Y149.964 E0.05135
G1 X141.056 Y149.522 E0.05061
G1 X141.596 Y149.262 E0.0256
G1 X142.114 Y148.983 E0.02515
G1 X142.615 Y148.682 E0.02501
G1 X143.1 Y148.36 E0.02486
G1 X143.566 Y148.018 E0.02472
G1 X144.012 Y147.656 E0.02456
G1 X144.438 Y147.276 E0.02441
G1 X144.841 Y146.877 E0.02425
G1 X145.222 Y146.462 E0.0241
G1 X145.579 Y146.03 E0.02395
G1 X145.912 Y145.584 E0.02381
G1 X146.218 Y145.123 E0.02367
G1 X146.499 Y144.649 E0.02354
G1 X146.752 Y144.163 E0.02341
G1 X146.977 Y143.667 E0.0233
G1 X147.173 Y143.161 E0.0232
G1 X147.34 Y142.647 E0.02311
G1 X147.477 Y142.126 E0.02304
G1 X147.585 Y141.599 E0.02298
G1 X147.662 Y141.069 E0.02293
G1 X147.708 Y140.535 E0.0229
G1 X147.723 Y140.011 E0.02241
G1 X147.723 Y81.768 E2.49019
G1 X151.473 Y81.768 E0.16031
G1 X151.473 Y94.768 E0.55582
G1 X155.325 Y94.768 E0.16471
G1 X156.474 Y94.768 E0.04913
G1 X156.105 Y94.34 F9000
; External perimeter
;ExternalPerimeter
SET_VELOCITY_LIMIT ACCEL=1000 ACCEL_TO_DECEL=1000 SQUARE_CORNER_VELOCITY=5

; Perimeter

;TYPE:External perimeter
G1 F1800
G1 X156.105 Y81.34 E0.55582
G1 X156.225 Y81.34 E0.0046
G1 X156.465 Y81.34 E0.00973
G1 X160.712 Y81.34 E0.18156
G1 X160.712 Y81.46 E0.00458
G1 X160.712 Y81.7 E0.00971
G1 X160.712 Y151.995 E3.0055
G1 X160.698 Y152.471 E0.02036
G1 X160.658 Y152.941 E0.02017
G1 X160.59 Y153.409 E0.02021
G1 X160.495 Y153.874 E0.02027
G1 X160.374 Y154.334 E0.02035
G1 X160.226 Y154.789 E0.02045
G1 X160.052 Y155.237 E0.02057
G1 X159.852 Y155.678 E0.0207
G1 X159.627 Y156.11 E0.02084
G1 X159.377 Y156.533 E0.021
G1 X159.102 Y156.945 E0.02116
G1 X158.805 Y157.346 E0.02134
G1 X158.484 Y157.734 E0.02152
G1 X158.14 Y158.108 E0.02171
G1 X157.776 Y158.468 E0.0219
G1 X157.391 Y158.812 E0.02209
G1 X156.986 Y159.14 E0.02228
G1 X156.562 Y159.451 E0.02247
G1 X156.121 Y159.745 E0.02266
G1 X155.665 Y160.018 E0.02272
G1 X154.699 Y160.511 E0.04638
G1 X154.202 Y160.723 E0.02309
G1 X153.16 Y161.091 E0.04724
G1 X152.632 Y161.239 E0.02347
G1 X151.539 Y161.472 E0.04776
G1 X150.427 Y161.613 E0.04792
G1 X149.298 Y161.66 E0.04832
G1 X88.825 Y161.648 E2.58554
G1 X88.269 Y161.613 E0.02381
G1 X87.155 Y161.472 E0.04803
G1 X86.065 Y161.24 E0.04765
G1 X85.008 Y160.918 E0.04726
G1 X83.993 Y160.51 E0.04675
G1 X83.029 Y160.018 E0.04627
G1 X82.573 Y159.745 E0.02272
G1 X82.132 Y159.451 E0.02266
G1 X81.708 Y159.14 E0.02247
G1 X81.304 Y158.812 E0.02228
G1 X80.918 Y158.468 E0.02209
G1 X80.554 Y158.108 E0.0219
G1 X80.211 Y157.734 E0.02171
G1 X79.89 Y157.346 E0.02152
G1 X79.592 Y156.945 E0.02134
G1 X79.317 Y156.533 E0.02117
G1 X79.067 Y156.11 E0.021
G1 X78.842 Y155.678 E0.02084
G1 X78.642 Y155.237 E0.0207
G1 X78.468 Y154.789 E0.02057
G1 X78.321 Y154.334 E0.02045
G1 X78.199 Y153.874 E0.02035
G1 X78.104 Y153.409 E0.02027
G1 X78.037 Y152.941 E0.02021
G1 X77.996 Y152.471 E0.02017
G1 X77.982 Y151.995 E0.02036
G1 X77.982 Y81.34 E3.02089
G1 X78.102 Y81.34 E0.00458
G1 X78.342 Y81.34 E0.00971
G1 X82.589 Y81.34 E0.18156
G1 X82.589 Y81.46 E0.00458
G1 X82.589 Y81.7 E0.00971
G1 X82.589 Y94.34 E0.54043
G1 X82.709 Y94.34 E0.00458
G1 X82.949 Y94.34 E0.00971
G1 X86.793 Y94.34 E0.16437
G1 X86.793 Y94.22 E0.00458
G1 X86.793 Y93.98 E0.00971
G1 X86.793 Y81.34 E0.54043
G1 X86.913 Y81.34 E0.00458
G1 X87.153 Y81.34 E0.00971
G1 X91.4 Y81.34 E0.18156
G1 X91.4 Y81.46 E0.00458
G1 X91.4 Y81.7 E0.00971
G1 X91.4 Y140.005 E2.49285
G1 X91.414 Y140.51 E0.02162
G1 X91.458 Y141.019 E0.02184
G1 X91.532 Y141.526 E0.02188
G1 X91.634 Y142.028 E0.02193
G1 X91.765 Y142.526 E0.022
G1 X91.925 Y143.017 E0.02208
G1 X92.113 Y143.501 E0.02218
G1 X92.328 Y143.976 E0.02229
G1 X92.57 Y144.441 E0.02242
G1 X92.839 Y144.895 E0.02256
G1 X93.133 Y145.337 E0.0227
G1 X93.452 Y145.766 E0.02285
G1 X93.795 Y146.18 E0.02301
G1 X94.161 Y146.58 E0.02318
G1 X94.55 Y146.963 E0.02334
G1 X94.96 Y147.33 E0.02351
G1 X95.39 Y147.679 E0.02368
G1 X95.84 Y148.009 E0.02385
G1 X96.308 Y148.32 E0.02401
G1 X96.793 Y148.61 E0.02417
G1 X97.293 Y148.88 E0.02432
G1 X97.809 Y149.129 E0.02447
G1 X98.34 Y149.356 E0.02471
G1 X99.428 Y149.74 E0.04933
G1 X99.995 Y149.899 E0.02516
G1 X101.139 Y150.143 E0.05001
G1 X102.308 Y150.291 E0.05037
G1 X103.481 Y150.34 E0.05023
G1 X135.213 Y150.34 E1.35669
G1 X136.387 Y150.291 E0.05023
G1 X137.555 Y150.143 E0.05037
G1 X138.702 Y149.899 E0.05013
G1 X139.816 Y149.56 E0.04977
G1 X140.883 Y149.13 E0.0492
G1 X141.401 Y148.88 E0.02458
G1 X141.902 Y148.61 E0.02432
G1 X142.386 Y148.32 E0.02417
G1 X142.854 Y148.009 E0.02401
G1 X143.304 Y147.679 E0.02385
G1 X143.734 Y147.33 E0.02368
G1 X144.144 Y146.963 E0.02351
G1 X144.533 Y146.58 E0.02335
G1 X144.899 Y146.18 E0.02318
G1 X145.242 Y145.766 E0.02301
G1 X145.561 Y145.337 E0.02285
G1 X145.855 Y144.895 E0.0227
G1 X146.124 Y144.441 E0.02256
G1 X146.366 Y143.976 E0.02242
G1 X146.581 Y143.501 E0.02229
G1 X146.769 Y143.017 E0.02218
G1 X146.929 Y142.526 E0.02208
G1 X147.06 Y142.028 E0.022
G1 X147.162 Y141.526 E0.02193
G1 X147.236 Y141.019 E0.02188
G1 X147.28 Y140.51 E0.02184
G1 X147.295 Y140.005 E0.02162
G1 X147.295 Y81.34 E2.50824
G1 X147.415 Y81.34 E0.00458
G1 X147.435 Y81.34 E0.00033
G1 X151.901 Y81.34 E0.19094
G1 X151.901 Y81.46 E0.0046
G1 X151.901 Y81.7 E0.00973
G1 X151.901 Y94.34 E0.54043
G1 X152.021 Y94.34 E0.0046
G1 X152.261 Y94.34 E0.00973
G1 X155.325 Y94.34 E0.13099
G1 X156.045 Y94.34 E0.03081
;WIPE_START
G1 X156.505 Y94.34 F9000
;WIPE_END
G1 E-1 F3000
G1 X151.408 Y82.372 F9000
G1 E1 F1800
; External perimeter
;SolidInfill
SET_VELOCITY_LIMIT ACCEL=2000 ACCEL_TO_DECEL=2000 SQUARE_CORNER_VELOCITY=5

; Bridge infill

;TYPE:Solid infill
;WIDTH:0.47321
G1 F2400
G1 X151.053 Y82.017 E0.02115
G1 X150.447 Y82.017 E0.02554
G1 X151.224 Y82.794 E0.04629
G1 X151.224 Y83.4 E0.02554
G1 X149.842 Y82.017 E0.08241
G1 X149.236 Y82.017 E0.02554
G1 X151.224 Y84.006 E0.11854
G1 X151.224 Y84.612 E0.02554
G1 X148.63 Y82.017 E0.15466
G1 X148.024 Y82.017 E0.02554
G1 X151.224 Y85.217 E0.19078
G1 X151.224 Y85.823 E0.02554
G1 X147.972 Y82.571 E0.19388
G1 X147.972 Y83.177 E0.02554
G1 X151.224 Y86.429 E0.19388
G1 X151.224 Y87.035 E0.02554
G1 X147.972 Y83.783 E0.19388
G1 X147.972 Y84.389 E0.02554
G1 X151.224 Y87.641 E0.19388
G1 X151.224 Y88.247 E0.02554
G1 X147.972 Y84.995 E0.19388
G1 X147.972 Y85.601 E0.02554
G1 X151.224 Y88.853 E0.19388
G1 X151.224 Y89.459 E0.02554
G1 X147.972 Y86.207 E0.19388
G1 X147.972 Y86.813 E0.02554
G1 X151.224 Y90.065 E0.19388
G1 X151.224 Y90.671 E0.02554
G1 X147.972 Y87.419 E0.19388
G1 X147.972 Y88.025 E0.02554
G1 X151.224 Y91.277 E0.19388
G1 X151.224 Y91.883 E0.02554
G1 X147.972 Y88.631 E0.19388
G1 X147.972 Y89.237 E0.02554
G1 X151.224 Y92.489 E0.19388
G1 X151.224 Y93.095 E0.02554
G1 X147.972 Y89.843 E0.19388
G1 X147.972 Y90.449 E0.02554
G1 X151.224 Y93.701 E0.19388
G1 X151.224 Y94.307 E0.02554
G1 X147.787 Y90.87 E0.20487
G1 E-1 F3000
G1 X159.353 Y81.833 F9000
G1 E1 F1800
G1 F2400
G1 X160.035 Y82.515 E0.04065
G1 X160.035 Y83.121 E0.02554
G1 X158.931 Y82.017 E0.06579
G1 X158.325 Y82.017 E0.02554
G1 X160.035 Y83.727 E0.10191
G1 X160.035 Y84.333 E0.02554
G1 X157.719 Y82.017 E0.13804
G1 X157.113 Y82.017 E0.02554
G1 X160.035 Y84.939 E0.17416
G1 X160.035 Y85.545 E0.02554
G1 X156.782 Y82.292 E0.19388
G1 X156.782 Y82.898 E0.02554
G1 X160.035 Y86.151 E0.19388
G1 X160.035 Y86.757 E0.02554
G1 X156.782 Y83.504 E0.19388
G1 X156.782 Y84.11 E0.02554
G1 X160.035 Y87.363 E0.19388
G1 X160.035 Y87.969 E0.02554
G1 X156.782 Y84.716 E0.19388
G1 X156.782 Y85.322 E0.02554
G1 X160.035 Y88.575 E0.19388
G1 X160.035 Y89.181 E0.02554
G1 X156.782 Y85.928 E0.19388
G1 X156.782 Y86.534 E0.02554
G1 X160.035 Y89.786 E0.19388
G1 X160.035 Y90.392 E0.02554
G1 X156.782 Y87.14 E0.19388
G1 X156.782 Y87.746 E0.02554
G1 X160.035 Y90.998 E0.19388
G1 X160.035 Y91.604 E0.02554
G1 X156.782 Y88.352 E0.19388
G1 X156.782 Y88.958 E0.02554
G1 X160.035 Y92.21 E0.19388
G1 X160.035 Y92.816 E0.02554
