; generated by SuperSlicer 2.3.56 on 2021-12-04 at 03:24:26 UTC


;
;

;
;
; 

; external perimeters extrusion width = 0.40mm
; perimeters extrusion width = 0.40mm
; infill extrusion width = 0.40mm
; solid infill extrusion width = 0.40mm
; top infill extrusion width = 0.40mm
; first layer extrusion width = 0.48mm


;TYPE:Custom
START_PRINT T_BED=60 T_EXTRUDER=200
M107
G21 ; set units to millimeters
G90 ; use absolute coordinates
M83 ; use relative distances for extrusion
; Filament gcode
M109 S200 ; set temperature and wait for it to be reached
M190 S60 ; set bed temperature and wait for it to be reached
;LAYER_CHANGE
;Z:0.24
;HEIGHT:0.24
G1 Z0.240000 F12000.000
G1 E-0.80000 F3000.000
G1 X157.581 Y124.683 F12000.000
G1 E0.80000 F1500.000
;TYPE:Skirt
;WIDTH:0.48
G1 F600.000
G1 X158.238 Y124.178 E0.03540
G1 X159.022 Y123.901 E0.03557
G1 X169.401 Y123.857 E0.44375
G1 X170.384 Y124.049 E0.04284
G1 X171.226 Y124.593 E0.04284
G1 X171.805 Y125.411 E0.04284
G1 X172.037 Y126.385 E0.04284
G1 X172.040 Y182.004 E2.37801
G1 X171.980 Y182.769 E0.03281
G1 X171.661 Y183.929 E0.05142
G1 X171.336 Y184.596 E0.03170
G1 X170.871 Y185.263 E0.03479
G1 X170.048 Y186.060 E0.04896
G1 X169.454 Y186.461 E0.03066
G1 X168.741 Y186.800 E0.03376
G1 X167.843 Y187.054 E0.03992
G1 X167.002 Y187.141 E0.03616
G1 X161.972 Y187.143 E0.21504
G1 X161.231 Y187.084 E0.03178
G1 X160.288 Y186.849 E0.04153
G1 X159.478 Y186.482 E0.03805
G1 X158.721 Y185.962 E0.03924
G1 X158.114 Y185.367 E0.03634
G1 X157.572 Y184.614 E0.03970
G1 X157.195 Y183.830 E0.03715
G1 X156.949 Y182.963 E0.03856
G1 X156.864 Y182.194 E0.03307
G1 X156.879 Y126.164 E2.39561
G1 X157.111 Y125.369 E0.03540
G1 X157.548 Y124.732 E0.03300
G1 X157.898 Y124.977 F12000.000
G1 F600.000
G1 X157.911 Y124.958 E0.00098
G1 X158.481 Y124.534 E0.03036
G1 X159.152 Y124.313 E0.03021
G1 X169.401 Y124.286 E0.43819
G1 X170.229 Y124.448 E0.03609
G1 X170.936 Y124.908 E0.03609
G1 X171.418 Y125.597 E0.03593
G1 X171.610 Y126.419 E0.03609
G1 X171.611 Y182.004 E2.37656
G1 X171.555 Y182.719 E0.03069
G1 X171.267 Y183.760 E0.04619
G1 X170.967 Y184.379 E0.02938
G1 X170.531 Y185.002 E0.03252
G1 X169.789 Y185.718 E0.04409
G1 X169.236 Y186.092 E0.02856
G1 X168.550 Y186.414 E0.03239
G1 X167.750 Y186.636 E0.03550
G1 X166.975 Y186.713 E0.03330
G1 X161.978 Y186.714 E0.21364
G1 X161.281 Y186.658 E0.02990
G1 X160.421 Y186.442 E0.03792
G1 X159.679 Y186.103 E0.03488
G1 X158.989 Y185.627 E0.03582
G1 X158.428 Y185.076 E0.03363
G1 X157.936 Y184.387 E0.03621
G1 X157.590 Y183.665 E0.03424
G1 X157.367 Y182.869 E0.03534
G1 X157.291 Y182.152 E0.03080
G1 X157.304 Y126.214 E2.39167
G1 X157.506 Y125.537 E0.03021
G1 X157.863 Y125.026 E0.02666
G1 E-0.80000 F3000.000
G1 X161.454 Y128.454 F12000.000
G1 E0.80000 F1500.000
;TYPE:Internal perimeter
G1 F600.000
G1 X167.443 Y128.454 E0.25606
G1 X167.443 Y181.916 E2.28580
G1 X167.427 Y182.093 E0.00760
G1 X167.403 Y182.184 E0.00401
G1 X167.363 Y182.269 E0.00401
G1 X167.310 Y182.346 E0.00401
G1 X167.243 Y182.413 E0.00404
G1 X167.166 Y182.467 E0.00401
G1 X167.081 Y182.506 E0.00401
G1 X166.990 Y182.531 E0.00401
G1 X166.813 Y182.546 E0.00760
G1 X162.084 Y182.546 E0.20221
G1 X161.907 Y182.531 E0.00760
G1 X161.816 Y182.506 E0.00401
G1 X161.731 Y182.467 E0.00401
G1 X161.654 Y182.413 E0.00401
G1 X161.587 Y182.346 E0.00404
G1 X161.533 Y182.269 E0.00401
G1 X161.494 Y182.184 E0.00401
G1 X161.469 Y182.093 E0.00401
G1 X161.454 Y181.916 E0.00760
G1 X161.454 Y128.514 E2.28324
G1 X161.025 Y128.025 F12000.000
G1 F600.000
G1 X167.871 Y128.025 E0.29270
G1 X167.871 Y181.935 E2.30492
G1 X167.851 Y182.168 E0.01001
G1 X167.807 Y182.331 E0.00722
G1 X167.736 Y182.484 E0.00722
G1 X167.639 Y182.622 E0.00722
G1 X167.519 Y182.742 E0.00725
G1 X167.381 Y182.839 E0.00722
G1 X167.228 Y182.910 E0.00722
G1 X167.065 Y182.954 E0.00722
G1 X166.832 Y182.975 E0.01001
G1 X162.065 Y182.975 E0.20381
G1 X161.832 Y182.954 E0.01000
G1 X161.669 Y182.910 E0.00722
G1 X161.516 Y182.839 E0.00722
G1 X161.378 Y182.742 E0.00722
G1 X161.258 Y182.622 E0.00725
G1 X161.161 Y182.484 E0.00722
G1 X161.090 Y182.331 E0.00722
G1 X161.046 Y182.168 E0.00722
G1 X161.025 Y181.935 E0.01000
G1 X161.025 Y128.085 E2.30236
G1 X160.597 Y127.597 F12000.000
G1 F600.000
G1 X168.300 Y127.597 E0.32934
G1 X168.300 Y181.954 E2.32404
G1 X168.275 Y182.243 E0.01241
G1 X168.212 Y182.478 E0.01042
G1 X168.108 Y182.699 E0.01042
G1 X167.969 Y182.899 E0.01042
G1 X167.796 Y183.072 E0.01045
G1 X167.596 Y183.212 E0.01042
G1 X167.375 Y183.315 E0.01042
G1 X167.140 Y183.378 E0.01042
G1 X166.851 Y183.403 E0.01241
G1 X162.046 Y183.403 E0.20541
G1 X161.757 Y183.378 E0.01240
G1 X161.522 Y183.315 E0.01042
G1 X161.301 Y183.212 E0.01042
G1 X161.101 Y183.072 E0.01042
G1 X160.928 Y182.899 E0.01046
G1 X160.788 Y182.699 E0.01042
G1 X160.685 Y182.478 E0.01042
G1 X160.622 Y182.243 E0.01042
G1 X160.597 Y181.954 E0.01240
G1 X160.597 Y127.657 E2.32148
G1 X160.168 Y127.168 F12000.000
G1 F600.000
G1 X168.728 Y127.168 E0.36598
G1 X168.728 Y181.972 E2.34316
G1 X168.698 Y182.317 E0.01481
G1 X168.616 Y182.625 E0.01363
G1 X168.481 Y182.914 E0.01363
G1 X168.298 Y183.175 E0.01363
G1 X168.072 Y183.401 E0.01366
G1 X167.811 Y183.584 E0.01363
G1 X167.522 Y183.719 E0.01363
G1 X167.214 Y183.801 E0.01363
G1 X166.869 Y183.832 E0.01481
G1 X162.028 Y183.832 E0.20701
G1 X161.683 Y183.801 E0.01481
G1 X161.375 Y183.719 E0.01363
G1 X161.086 Y183.584 E0.01363
G1 X160.825 Y183.401 E0.01363
G1 X160.599 Y183.175 E0.01366
G1 X160.416 Y182.914 E0.01363
G1 X160.281 Y182.625 E0.01363
G1 X160.199 Y182.317 E0.01363
G1 X160.168 Y181.972 E0.01481
G1 X160.168 Y127.228 E2.34061
G1 X159.740 Y126.740 F12000.000
;TYPE:External perimeter
G1 F600.000
G1 X169.157 Y126.740 E0.40262
G1 X169.157 Y181.991 E2.36228
G1 X169.122 Y182.392 E0.01722
G1 X169.020 Y182.772 E0.01683
G1 X168.853 Y183.129 E0.01683
G1 X168.628 Y183.452 E0.01683
G1 X168.349 Y183.731 E0.01686
G1 X168.026 Y183.957 E0.01683
G1 X167.669 Y184.123 E0.01683
G1 X167.289 Y184.225 E0.01683
G1 X166.888 Y184.260 E0.01722
G1 X162.009 Y184.260 E0.20861
G1 X161.608 Y184.225 E0.01721
G1 X161.228 Y184.123 E0.01683
G1 X160.871 Y183.957 E0.01683
G1 X160.548 Y183.731 E0.01683
G1 X160.269 Y183.452 E0.01687
G1 X160.043 Y183.129 E0.01683
G1 X159.877 Y182.772 E0.01683
G1 X159.775 Y182.392 E0.01683
G1 X159.740 Y181.991 E0.01721
G1 X159.740 Y126.800 E2.35973
G1 X160.086 Y126.940 F12000.000
G1 E-0.80000 F3000.000
G1 X167.293 Y129.470 F12000.000
G1 E0.80000 F1500.000
;TYPE:Solid infill
;WIDTH:0.48458
G1 F1800.000
G1 X166.620 Y128.797 E0.04110
G1 X166.014 Y128.797 E0.02616
G1 X167.100 Y129.883 E0.06632
G1 X167.100 Y130.489 E0.02616
G1 X165.408 Y128.797 E0.10332
G1 X164.802 Y128.797 E0.02616
G1 X167.100 Y131.095 E0.14031
G1 X167.100 Y131.701 E0.02616
G1 X164.196 Y128.797 E0.17730
G1 X163.590 Y128.797 E0.02616
G1 X167.100 Y132.307 E0.21429
G1 X167.100 Y132.913 E0.02616
G1 X162.984 Y128.797 E0.25128
G1 X162.378 Y128.797 E0.02616
G1 X167.100 Y133.519 E0.28827
G1 X167.100 Y134.125 E0.02616
G1 X161.797 Y128.822 E0.32373
G1 X161.797 Y129.428 E0.02616
G1 X167.100 Y134.731 E0.32373
G1 X167.100 Y135.337 E0.02616
G1 X161.797 Y130.034 E0.32373
G1 X161.797 Y130.640 E0.02616
G1 X167.100 Y135.943 E0.32373
G1 X167.100 Y136.549 E0.02616
G1 X161.797 Y131.246 E0.32373
G1 X161.797 Y131.852 E0.02616
G1 X167.100 Y137.155 E0.32373
G1 X167.100 Y137.761 E0.02616
G1 X161.797 Y132.458 E0.32373
G1 X161.797 Y133.064 E0.02616
G1 X167.100 Y138.367 E0.32373
G1 X167.100 Y138.973 E0.02616
G1 X161.797 Y133.670 E0.32373
G1 X161.797 Y134.276 E0.02616
G1 X167.100 Y139.579 E0.32373
G1 X167.100 Y140.185 E0.02616
G1 X161.797 Y134.882 E0.32373
G1 X161.797 Y135.488 E0.02616
G1 X167.100 Y140.791 E0.32373
G1 X167.100 Y141.397 E0.02616
G1 X161.797 Y136.094 E0.32373
G1 X161.797 Y136.700 E0.02616
G1 X167.100 Y142.003 E0.32373
G1 X167.100 Y142.609 E0.02616
G1 X161.797 Y137.306 E0.32373
G1 X161.797 Y137.912 E0.02616
G1 X167.100 Y143.215 E0.32373
G1 X167.100 Y143.821 E0.02616
G1 X161.797 Y138.518 E0.32373
G1 X161.797 Y139.124 E0.02616
G1 X167.100 Y144.427 E0.32373
G1 X167.100 Y145.033 E0.02616
G1 X161.797 Y139.730 E0.32373
G1 X161.797 Y140.336 E0.02616
G1 X167.100 Y145.639 E0.32373
G1 X167.100 Y146.245 E0.02616
G1 X161.797 Y140.941 E0.32373
G1 X161.797 Y141.547 E0.02616
G1 X167.100 Y146.851 E0.32373
G1 X167.100 Y147.457 E0.02616
G1 X161.797 Y142.153 E0.32373
G1 X161.797 Y142.759 E0.02616
G1 X167.100 Y148.063 E0.32373
G1 X167.100 Y148.669 E0.02616
G1 X161.797 Y143.365 E0.32373
G1 X161.797 Y143.971 E0.02616
G1 X167.100 Y149.275 E0.32373
G1 X167.100 Y149.881 E0.02616
G1 X161.797 Y144.577 E0.32373
G1 X161.797 Y145.183 E0.02616
G1 X167.100 Y150.487 E0.32373
G1 X167.100 Y151.093 E0.02616
G1 X161.797 Y145.789 E0.32373
G1 X161.797 Y146.395 E0.02616
G1 X167.100 Y151.699 E0.32373
G1 X167.100 Y152.305 E0.02616
G1 X161.797 Y147.001 E0.32373
G1 X161.797 Y147.607 E0.02616
G1 X167.100 Y152.911 E0.32373
G1 X167.100 Y153.517 E0.02616
G1 X161.797 Y148.213 E0.32373
G1 X161.797 Y148.819 E0.02616
G1 X167.100 Y154.123 E0.32373
G1 X167.100 Y154.729 E0.02616
G1 X161.797 Y149.425 E0.32373
G1 X161.797 Y150.031 E0.02616
G1 X167.100 Y155.335 E0.32373
G1 X167.100 Y155.941 E0.02616
G1 X161.797 Y150.637 E0.32373
G1 X161.797 Y151.243 E0.02616
G1 X167.100 Y156.547 E0.32373
G1 X167.100 Y157.153 E0.02616
G1 X161.797 Y151.849 E0.32373
G1 X161.797 Y152.455 E0.02616
G1 X167.100 Y157.759 E0.32373
G1 X167.100 Y158.365 E0.02616
G1 X161.797 Y153.061 E0.32373
G1 X161.797 Y153.667 E0.02616
G1 X167.100 Y158.971 E0.32373
G1 X167.100 Y159.576 E0.02616
G1 X161.797 Y154.273 E0.32373
G1 X161.797 Y154.879 E0.02616
G1 X167.100 Y160.182 E0.32373
G1 X167.100 Y160.788 E0.02616
G1 X161.797 Y155.485 E0.32373
G1 X161.797 Y156.091 E0.02616
G1 X167.100 Y161.394 E0.32373
G1 X167.100 Y162.000 E0.02616
G1 X161.797 Y156.697 E0.32373
G1 X161.797 Y157.303 E0.02616
G1 X167.100 Y162.606 E0.32373
G1 X167.100 Y163.212 E0.02616
G1 X161.797 Y157.909 E0.32373
G1 X161.797 Y158.515 E0.02616
G1 X167.100 Y163.818 E0.32373
G1 X167.100 Y164.424 E0.02616
G1 X161.797 Y159.121 E0.32373
G1 X161.797 Y159.727 E0.02616
G1 X167.100 Y165.030 E0.32373
G1 X167.100 Y165.636 E0.02616
G1 X161.797 Y160.333 E0.32373
G1 X161.797 Y160.939 E0.02616
G1 X167.100 Y166.242 E0.32373
G1 X167.100 Y166.848 E0.02616
G1 X161.797 Y161.545 E0.32373
G1 X161.797 Y162.151 E0.02616
G1 X167.100 Y167.454 E0.32373
G1 X167.100 Y168.060 E0.02616
G1 X161.797 Y162.757 E0.32373
G1 X161.797 Y163.363 E0.02616
G1 X167.100 Y168.666 E0.32373
G1 X167.100 Y169.272 E0.02616
G1 X161.797 Y163.969 E0.32373
G1 X161.797 Y164.575 E0.02616
G1 X167.100 Y169.878 E0.32373
G1 X167.100 Y170.484 E0.02616
G1 X161.797 Y165.181 E0.32373
G1 X161.797 Y165.787 E0.02616
G1 X167.100 Y171.090 E0.32373
G1 X167.100 Y171.696 E0.02616
G1 X161.797 Y166.393 E0.32373
G1 X161.797 Y166.999 E0.02616
G1 X167.100 Y172.302 E0.32373
G1 X167.100 Y172.908 E0.02616
G1 X161.797 Y167.605 E0.32373
G1 X161.797 Y168.211 E0.02616
G1 X167.100 Y173.514 E0.32373
G1 X167.100 Y174.120 E0.02616
G1 X161.797 Y168.817 E0.32373
G1 X161.797 Y169.423 E0.02616
G1 X167.100 Y174.726 E0.32373
G1 X167.100 Y175.332 E0.02616
G1 X161.797 Y170.029 E0.32373
G1 X161.797 Y170.635 E0.02616
G1 X167.100 Y175.938 E0.32373
G1 X167.100 Y176.544 E0.02616
G1 X161.797 Y171.241 E0.32373
G1 X161.797 Y171.847 E0.02616
G1 X167.100 Y177.150 E0.32373
G1 X167.100 Y177.756 E0.02616
G1 X161.797 Y172.453 E0.32373
G1 X161.797 Y173.059 E0.02616
G1 X167.100 Y178.362 E0.32373
G1 X167.100 Y178.968 E0.02616
G1 X161.797 Y173.665 E0.32373
G1 X161.797 Y174.271 E0.02616
G1 X167.100 Y179.574 E0.32373
G1 X167.100 Y180.180 E0.02616
G1 X161.797 Y174.877 E0.32373
G1 X161.797 Y175.483 E0.02616
G1 X167.100 Y180.786 E0.32373
G1 X167.100 Y181.392 E0.02616
G1 X161.797 Y176.089 E0.32373
G1 X161.797 Y176.695 E0.02616
G1 X167.086 Y181.984 E0.32288
G1 X167.060 Y182.163 E0.00780
G1 X166.788 Y182.203 E0.01187
G1 X166.700 Y182.203 E0.00381
G1 X161.797 Y177.300 E0.29927
G1 X161.797 Y177.906 E0.02616
G1 X166.094 Y182.203 E0.26228
G1 X165.488 Y182.203 E0.02616
G1 X161.797 Y178.512 E0.22529
G1 X161.797 Y179.118 E0.02616
G1 X164.882 Y182.203 E0.18830
G1 X164.276 Y182.203 E0.02616
G1 X161.797 Y179.724 E0.15131
G1 X161.797 Y180.330 E0.02616
G1 X163.670 Y182.203 E0.11432
G1 X163.064 Y182.203 E0.02616
G1 X161.797 Y180.936 E0.07733
G1 X161.797 Y181.542 E0.02616
G1 X162.650 Y182.396 E0.05211
;LAYER_CHANGE
;Z:0.44
;HEIGHT:0.2
G1 Z0.440000 F12000.000
G1 E-0.80000 F3000.000
G1 X161.128 Y128.128 F12000.000
G1 E0.80000 F1500.000
;TYPE:Internal perimeter
;WIDTH:0.4
G1 F5400.000
G1 X167.769 Y128.128 E0.19716
G1 X167.769 Y181.933 E1.59754
G1 X167.750 Y182.150 E0.00646
G1 X167.711 Y182.296 E0.00448
G1 X167.647 Y182.432 E0.00448
G1 X167.560 Y182.556 E0.00447
G1 X167.453 Y182.664 E0.00453
G1 X167.329 Y182.750 E0.00447
G1 X167.192 Y182.814 E0.00448
G1 X167.047 Y182.853 E0.00448
G1 X166.830 Y182.872 E0.00646
G1 X162.066 Y182.872 E0.14144
G1 X161.850 Y182.853 E0.00644
G1 X161.704 Y182.814 E0.00448
G1 X161.568 Y182.750 E0.00448
G1 X161.444 Y182.664 E0.00447
G1 X161.336 Y182.556 E0.00454
G1 X161.250 Y182.432 E0.00447
G1 X161.186 Y182.296 E0.00447
G1 X161.147 Y182.150 E0.00448
G1 X161.128 Y181.934 E0.00644
G1 X161.128 Y128.188 E1.59577
G1 X160.771 Y127.771 F12000.000
G1 F5400.000
G1 X168.126 Y127.771 E0.21836
G1 X168.126 Y181.949 E1.60860
G1 X168.103 Y182.212 E0.00785
G1 X168.047 Y182.418 E0.00633
G1 X167.957 Y182.611 E0.00633
G1 X167.835 Y182.786 E0.00633
G1 X167.683 Y182.938 E0.00639
G1 X167.508 Y183.060 E0.00633
G1 X167.315 Y183.151 E0.00633
G1 X167.109 Y183.206 E0.00633
G1 X166.846 Y183.229 E0.00785
G1 X162.051 Y183.229 E0.14237
G1 X161.788 Y183.206 E0.00784
G1 X161.582 Y183.151 E0.00633
G1 X161.389 Y183.060 E0.00633
G1 X161.214 Y182.938 E0.00633
G1 X161.062 Y182.786 E0.00639
G1 X160.940 Y182.611 E0.00633
G1 X160.849 Y182.418 E0.00633
G1 X160.794 Y182.212 E0.00633
G1 X160.771 Y181.949 E0.00784
G1 X160.771 Y127.831 E1.60683
G1 X160.414 Y127.414 F12000.000
G1 F5400.000
G1 X168.483 Y127.414 E0.23957
G1 X168.483 Y181.964 E1.61967
G1 X168.456 Y182.274 E0.00924
G1 X168.384 Y182.541 E0.00819
G1 X168.268 Y182.791 E0.00819
G1 X168.110 Y183.016 E0.00819
G1 X167.913 Y183.213 E0.00824
G1 X167.687 Y183.371 E0.00819
G1 X167.438 Y183.487 E0.00819
G1 X167.171 Y183.559 E0.00819
G1 X166.861 Y183.586 E0.00924
G1 X162.035 Y183.586 E0.14330
G1 X161.726 Y183.559 E0.00923
G1 X161.459 Y183.487 E0.00819
G1 X161.209 Y183.371 E0.00819
G1 X160.984 Y183.213 E0.00818
G1 X160.787 Y183.016 E0.00825
G1 X160.629 Y182.791 E0.00818
G1 X160.513 Y182.541 E0.00819
G1 X160.441 Y182.274 E0.00819
G1 X160.414 Y181.965 E0.00923
G1 X160.414 Y127.474 E1.61790
G1 X160.057 Y127.057 F12000.000
G1 F5400.000
G1 X168.840 Y127.057 E0.26077
G1 X168.840 Y181.980 E1.63073
G1 X168.809 Y182.337 E0.01063
G1 X168.721 Y182.663 E0.01004
G1 X168.578 Y182.970 E0.01004
G1 X168.384 Y183.247 E0.01004
G1 X168.144 Y183.487 E0.01010
G1 X167.867 Y183.681 E0.01004
G1 X167.560 Y183.824 E0.01004
G1 X167.234 Y183.912 E0.01004
G1 X166.877 Y183.943 E0.01063
G1 X162.020 Y183.943 E0.14422
G1 X161.663 Y183.912 E0.01062
G1 X161.337 Y183.824 E0.01004
G1 X161.030 Y183.681 E0.01004
G1 X160.753 Y183.487 E0.01004
G1 X160.513 Y183.247 E0.01010
G1 X160.319 Y182.970 E0.01004
G1 X160.176 Y182.663 E0.01004
G1 X160.088 Y182.337 E0.01004
G1 X160.057 Y181.980 E0.01062
G1 X160.057 Y127.117 E1.62896
G1 X159.700 Y126.740 F12000.000
;TYPE:External perimeter
G1 F4200.000
G1 X159.700 Y126.700 E0.00119
G1 X169.197 Y126.700 E0.28198
G1 X169.197 Y181.994 E1.64175
G1 X169.197 Y181.999 E0.00015
G1 X169.162 Y182.398 E0.01189
G1 X169.161 Y182.402 E0.00013
G1 X169.058 Y182.785 E0.01178
G1 X169.056 Y182.789 E0.00013
G1 X168.889 Y183.149 E0.01178
G1 X168.886 Y183.152 E0.00013
G1 X168.659 Y183.477 E0.01178
G1 X168.374 Y183.762 E0.01195
G1 X168.049 Y183.989 E0.01178
G1 X168.046 Y183.992 E0.00013
G1 X167.686 Y184.160 E0.01178
G1 X167.682 Y184.161 E0.00013
G1 X167.299 Y184.264 E0.01178
G1 X167.295 Y184.265 E0.00013
G1 X166.896 Y184.300 E0.01189
G1 X166.891 Y184.300 E0.00015
G1 X162.006 Y184.300 E0.14504
G1 X161.603 Y184.265 E0.01201
G1 X161.597 Y184.264 E0.00019
G1 X161.215 Y184.161 E0.01172
G1 X161.209 Y184.159 E0.00019
