; generated by SuperSlicer 2.3.57 on 2022-04-06 at 16:53:40 UTC


;
;

;
;
; 

; external perimeters extrusion width = 0.40mm
; perimeters extrusion width = 0.45mm
; infill extrusion width = 0.72mm
; solid infill extrusion width = 0.56mm
; top infill extrusion width = 0.40mm
; support material extrusion width = 0.42mm
; first layer extrusion width = 0.48mm

; external perimeters extrusion width = 0.40mm
; perimeters extrusion width = 0.45mm
; infill extrusion width = 0.72mm
; solid infill extrusion width = 0.56mm
; top infill extrusion width = 0.40mm
; support material extrusion width = 0.42mm
; first layer extrusion width = 0.48mm

; external perimeters extrusion width = 0.40mm
; perimeters extrusion width = 0.45mm
; infill extrusion width = 0.72mm
; solid infill extrusion width = 0.56mm
; top infill extrusion width = 0.40mm
; support material extrusion width = 0.42mm
; first layer extrusion width = 0.48mm

; object:{"name":"Post","id":"Post.stl id:0 copy 0","object_center":[165.000000,207.926267,0.000000],"boundingbox_center":[165.000000,207.926267,10.875000],"boundingbox_size":[110.969398,12.161605,21.750000]}
; object:{"name":"Post","id":"Post.stl id:1 copy 0","object_center":[165.000000,122.073733,0.000000],"boundingbox_center":[165.000000,122.073733,10.875000],"boundingbox_size":[110.969398,12.161605,21.750000]}
; object:{"name":"Base X100","id":"Base X100.5 Y98.5.stl id:2 copy 0","object_center":[165.000000,165.000000,0.000000],"boundingbox_center":[165.000000,165.000000,4.875000],"boundingbox_size":[174.277360,61.690930,9.750000]}
; plater:{"center":[165.000000,165.000000,0.000000],"boundingbox_center":[165.000000,165.000000,10.875000],"boundingbox_size":[174.277360,98.014139,21.750000]}

;TYPE:Custom
START_PRINT T_BED=60 T_EXTRUDER=200
M107
G21 ; set units to millimeters
G90 ; use absolute coordinates
M83 ; use relative distances for extrusion
; Filament gcode
M109 S200 ; set temperature and wait for it to be reached
M190 S60 ; set bed temperature and wait for it to be reached
;LAYER_CHANGE
;Z:0.24
;HEIGHT:0.24
G1 E-0.8 F3000
G1 Z0.24 F9000
G1 X76.339 Y131.203
G1 E0.8 F1800
; External perimeter
;Skirt
SET_VELOCITY_LIMIT ACCEL=300 ACCEL_TO_DECEL=3000 SQUARE_CORNER_VELOCITY=5

; Support material

;TYPE:Skirt
;WIDTH:0.48
G1 X75.493 Y131.871 E0.04607
G1 X74.915 Y132.619 E0.04041
G1 X74.489 Y133.571 E0.04459
G1 X74.319 Y134.66 E0.04713
G1 X74.319 Y195.293 E2.59237
G1 X74.483 Y196.409 E0.04823
G1 X74.914 Y197.38 E0.04544
G1 X75.492 Y198.128 E0.04041
G1 X76.344 Y198.8 E0.04642
G1 X107.829 Y217.057 E1.55607
G1 X108.678 Y217.402 E0.03921
G1 X109.587 Y217.525 E0.03921
G1 X220.739 Y217.493 E4.75236
G1 X221.45 Y217.327 E0.0312
G1 X222.133 Y217.015 E0.0321
G1 X253.661 Y198.797 E1.55688
G1 X254.507 Y198.129 E0.04608
G1 X255.081 Y197.389 E0.04001
G1 X255.507 Y196.443 E0.04438
G1 X255.68 Y195.359 E0.04693
G1 X255.681 Y134.726 E2.59237
G1 X255.594 Y133.92 E0.03467
G1 X255.41 Y133.273 E0.02879
G1 X255.124 Y132.694 E0.02758
G1 X254.652 Y132.027 E0.03496
G1 X254.194 Y131.579 E0.02738
G1 X253.609 Y131.174 E0.03043
G1 X222.116 Y112.975 E1.55512
G1 X221.222 Y112.603 E0.04142
G1 X220.271 Y112.477 E0.04101
G1 X109.16 Y112.506 E4.7506
G1 X108.472 Y112.664 E0.03019
G1 X107.827 Y112.952 E0.03019
G1 X76.39 Y131.173 E1.55353
G1 X76.605 Y131.544 F9000
G1 F1800
G1 X76.559 Y131.57 E0.00227
G1 X75.796 Y132.174 E0.0416
G1 X75.283 Y132.838 E0.03588
G1 X74.9 Y133.693 E0.04006
G1 X74.748 Y134.678 E0.04263
G1 X74.747 Y195.287 E2.59135
G1 X74.896 Y196.293 E0.04349
G1 X75.282 Y197.161 E0.04061
G1 X75.795 Y197.825 E0.03588
G1 X76.56 Y198.43 E0.04167
G1 X108.035 Y216.681 E1.55563
G1 X108.788 Y216.988 E0.03475
G1 X109.593 Y217.096 E0.03475
G1 X220.683 Y217.068 E4.74971
G1 X221.316 Y216.919 E0.02779
G1 X221.924 Y216.641 E0.02858
G1 X253.44 Y198.43 E1.55629
G1 X254.201 Y197.829 E0.04142
G1 X254.713 Y197.17 E0.03569
G1 X255.097 Y196.316 E0.04006
G1 X255.252 Y195.335 E0.04244
G1 X255.253 Y134.726 E2.59135
G1 X255.173 Y133.998 E0.03134
G1 X255.01 Y133.428 E0.02534
G1 X254.758 Y132.916 E0.0244
G1 X254.325 Y132.304 E0.03203
G1 X253.917 Y131.906 E0.0244
G1 X253.388 Y131.541 E0.02745
G1 X221.913 Y113.353 E1.55427
G1 X221.116 Y113.019 E0.03697
G1 X220.271 Y112.906 E0.03644
G1 X109.213 Y112.931 E4.74833
G1 X108.605 Y113.071 E0.02666
G1 X108.036 Y113.326 E0.02666
G1 X76.657 Y131.514 E1.5507
; INIT printing object Post.stl id:0 copy 0
G1 E-0.8 F3000
; printing object Post.stl id:0 copy 0
G1 X110.725 Y203.068 F9000
G1 E0.8 F1800
; External perimeter
;Perimeter
SET_VELOCITY_LIMIT ACCEL=2000 ACCEL_TO_DECEL=2000 SQUARE_CORNER_VELOCITY=5

; Overhang perimeter

;TYPE:Internal perimeter
G1 X219.26 Y203.069 E4.64047
G1 X219.26 Y212.783 E0.41531
G1 X110.714 Y212.785 E4.64095
G1 X110.725 Y203.128 E0.4129
G1 X110.285 Y213.213 F9000
G1 F1800
G1 X110.297 Y202.639 E0.45211
G1 X219.689 Y202.641 E4.67709
G1 X219.689 Y213.212 E0.45195
G1 X110.345 Y213.213 E4.67504
G1 X109.856 Y213.642 F9000
; External perimeter
;ExternalPerimeter
SET_VELOCITY_LIMIT ACCEL=1000 ACCEL_TO_DECEL=1000 SQUARE_CORNER_VELOCITY=5

; Perimeter

;TYPE:External perimeter
G1 F1800
G1 X109.869 Y202.211 E0.48875
G1 X109.989 Y202.211 E0.0046
G1 X110.229 Y202.211 E0.00973
G1 X220.117 Y202.212 E4.69832
G1 X220.117 Y202.332 E0.0046
G1 X220.117 Y202.572 E0.00973
G1 X220.117 Y213.64 E0.4732
G1 X219.997 Y213.64 E0.0046
G1 X219.757 Y213.64 E0.00973
G1 X109.916 Y213.642 E4.69631
;WIPE_START
G1 X110.056 Y213.296 F9000
;WIPE_END
G1 X218.33 Y203.134
; External perimeter
;SolidInfill
SET_VELOCITY_LIMIT ACCEL=2000 ACCEL_TO_DECEL=2000 SQUARE_CORNER_VELOCITY=5

; Bridge infill

;TYPE:Solid infill
;WIDTH:0.472282
G1 F2400
G1 X219.012 Y203.816 E0.04057
G1 X219.012 Y204.422 E0.02549
G1 X217.908 Y203.318 E0.06566
G1 X217.302 Y203.318 E0.02549
G1 X219.012 Y205.028 E0.10171
G1 X219.012 Y205.634 E0.02549
G1 X216.696 Y203.318 E0.13777
G1 X216.09 Y203.318 E0.02549
G1 X219.012 Y206.24 E0.17382
G1 X219.012 Y206.846 E0.02549
G1 X215.484 Y203.318 E0.20987
G1 X214.878 Y203.318 E0.02549
G1 X219.012 Y207.452 E0.24592
G1 X219.012 Y208.058 E0.02549
G1 X214.272 Y203.318 E0.28198
G1 X213.666 Y203.318 E0.02549
G1 X219.012 Y208.664 E0.31803
G1 X219.012 Y209.27 E0.02549
G1 X213.06 Y203.318 E0.35408
G1 X212.454 Y203.318 E0.02549
G1 X219.012 Y209.875 E0.39013
G1 X219.012 Y210.481 E0.02549
G1 X211.848 Y203.318 E0.42619
G1 X211.242 Y203.318 E0.02549
G1 X219.012 Y211.087 E0.46224
G1 X219.012 Y211.693 E0.02549
G1 X210.636 Y203.318 E0.49829
G1 X210.03 Y203.318 E0.02549
G1 X219.012 Y212.299 E0.53434
G1 X219.012 Y212.535 E0.00989
G1 X218.641 Y212.535 E0.0156
G1 X209.424 Y203.318 E0.54834
G1 X208.818 Y203.318 E0.02549
G1 X218.035 Y212.535 E0.54834
G1 X217.429 Y212.535 E0.02549
G1 X208.212 Y203.318 E0.54834
G1 X207.606 Y203.318 E0.02549
G1 X216.823 Y212.535 E0.54834
G1 X216.217 Y212.535 E0.02549
G1 X207 Y203.318 E0.54834
G1 X206.394 Y203.318 E0.02549
G1 X215.611 Y212.535 E0.54834
G1 X215.005 Y212.535 E0.02549
G1 X205.788 Y203.318 E0.54834
G1 X205.182 Y203.318 E0.02549
G1 X214.399 Y212.535 E0.54834
G1 X213.793 Y212.535 E0.02549
G1 X204.576 Y203.318 E0.54834
G1 X203.97 Y203.318 E0.02549
G1 X213.187 Y212.535 E0.54835
G1 X212.581 Y212.535 E0.02549
G1 X203.364 Y203.318 E0.54835
G1 X202.758 Y203.318 E0.02549
G1 X211.975 Y212.535 E0.54835
G1 X211.369 Y212.535 E0.02549
G1 X202.152 Y203.318 E0.54835
G1 X201.546 Y203.318 E0.02549
G1 X210.763 Y212.535 E0.54835
G1 X210.157 Y212.535 E0.02549
G1 X200.94 Y203.318 E0.54835
G1 X200.334 Y203.318 E0.02549
G1 X209.551 Y212.535 E0.54835
G1 X208.945 Y212.535 E0.02549
G1 X199.728 Y203.318 E0.54835
G1 X199.122 Y203.318 E0.02549
G1 X208.339 Y212.535 E0.54836
G1 X207.733 Y212.535 E0.02549
G1 X198.516 Y203.318 E0.54836
G1 X197.91 Y203.318 E0.02549
G1 X207.127 Y212.535 E0.54836
G1 X206.521 Y212.535 E0.02549
G1 X197.304 Y203.318 E0.54836
G1 X196.698 Y203.318 E0.02549
G1 X205.915 Y212.535 E0.54836
G1 X205.309 Y212.535 E0.02549
G1 X196.092 Y203.318 E0.54836
G1 X195.486 Y203.318 E0.02549
G1 X204.703 Y212.535 E0.54836
G1 X204.097 Y212.535 E0.02549
G1 X194.88 Y203.318 E0.54836
G1 X194.274 Y203.318 E0.02549
G1 X203.491 Y212.535 E0.54837
G1 X202.885 Y212.535 E0.02549
G1 X193.668 Y203.318 E0.54837
G1 X193.062 Y203.318 E0.02549
G1 X202.279 Y212.535 E0.54837
G1 X201.673 Y212.535 E0.02549
G1 X192.456 Y203.318 E0.54837
G1 X191.85 Y203.317 E0.02549
G1 X201.067 Y212.535 E0.54837
G1 X200.461 Y212.535 E0.02549
G1 X191.244 Y203.317 E0.54837
G1 X190.638 Y203.317 E0.02549
G1 X199.856 Y212.535 E0.54837
G1 X199.25 Y212.535 E0.02549
G1 X190.032 Y203.317 E0.54837
G1 X189.426 Y203.317 E0.02549
G1 X198.644 Y212.535 E0.54838
G1 X198.038 Y212.535 E0.02549
G1 X188.82 Y203.317 E0.54838
G1 X188.214 Y203.317 E0.02549
G1 X197.432 Y212.535 E0.54838
G1 X196.826 Y212.535 E0.02549
G1 X187.608 Y203.317 E0.54838
G1 X187.002 Y203.317 E0.02549
G1 X196.22 Y212.535 E0.54838
G1 X195.614 Y212.535 E0.02549
G1 X186.396 Y203.317 E0.54838
G1 X185.79 Y203.317 E0.02549
G1 X195.008 Y212.535 E0.54838
G1 X194.402 Y212.535 E0.02549
G1 X185.184 Y203.317 E0.54838
G1 X184.578 Y203.317 E0.02549
G1 X193.796 Y212.535 E0.54839
G1 X193.19 Y212.535 E0.02549
G1 X183.972 Y203.317 E0.54839
G1 X183.366 Y203.317 E0.02549
G1 X192.584 Y212.535 E0.54839
G1 X191.978 Y212.535 E0.02549
G1 X182.76 Y203.317 E0.54839
G1 X182.154 Y203.317 E0.02549
G1 X191.372 Y212.535 E0.54839
G1 X190.766 Y212.535 E0.02549
G1 X181.548 Y203.317 E0.54839
G1 X180.942 Y203.317 E0.02549
G1 X190.16 Y212.535 E0.54839
G1 X189.554 Y212.535 E0.02549
G1 X180.336 Y203.317 E0.54839
G1 X179.73 Y203.317 E0.02549
G1 X188.948 Y212.535 E0.5484
G1 X188.342 Y212.535 E0.02549
G1 X179.124 Y203.317 E0.5484
G1 X178.518 Y203.317 E0.02549
G1 X187.736 Y212.535 E0.5484
G1 X187.13 Y212.535 E0.02549
G1 X177.912 Y203.317 E0.5484
G1 X177.306 Y203.317 E0.02549
G1 X186.524 Y212.535 E0.5484
G1 X185.918 Y212.535 E0.02549
G1 X176.7 Y203.317 E0.5484
G1 X176.094 Y203.317 E0.02549
G1 X185.312 Y212.535 E0.5484
G1 X184.706 Y212.535 E0.02549
G1 X175.488 Y203.317 E0.5484
G1 X174.882 Y203.317 E0.02549
G1 X184.1 Y212.535 E0.54841
G1 X183.494 Y212.535 E0.02549
G1 X174.276 Y203.317 E0.54841
G1 X173.67 Y203.317 E0.02549
G1 X182.888 Y212.535 E0.54841
G1 X182.282 Y212.535 E0.02549
G1 X173.064 Y203.317 E0.54841
G1 X172.458 Y203.317 E0.02549
G1 X181.676 Y212.535 E0.54841
G1 X181.07 Y212.535 E0.02549
G1 X171.852 Y203.317 E0.54841
G1 X171.246 Y203.317 E0.02549
G1 X180.464 Y212.535 E0.54841
G1 X179.858 Y212.535 E0.02549
G1 X170.64 Y203.317 E0.54841
G1 X170.034 Y203.317 E0.02549
G1 X179.252 Y212.535 E0.54842
G1 X178.646 Y212.535 E0.02549
G1 X169.428 Y203.317 E0.54842
G1 X168.822 Y203.317 E0.02549
G1 X178.04 Y212.535 E0.54842
G1 X177.435 Y212.535 E0.02549
G1 X168.216 Y203.317 E0.54842
G1 X167.61 Y203.317 E0.02549
G1 X176.829 Y212.535 E0.54842
G1 X176.223 Y212.535 E0.02549
G1 X167.004 Y203.317 E0.54842
G1 X166.398 Y203.317 E0.02549
G1 X175.617 Y212.535 E0.54842
G1 X175.011 Y212.535 E0.02549
G1 X165.792 Y203.317 E0.54842
G1 X165.186 Y203.317 E0.02549
G1 X174.405 Y212.535 E0.54842
G1 X173.799 Y212.535 E0.02549
G1 X164.58 Y203.317 E0.54843
G1 X163.974 Y203.317 E0.02549
G1 X173.193 Y212.535 E0.54843
G1 X172.587 Y212.535 E0.02549
G1 X163.368 Y203.317 E0.54843
G1 X162.762 Y203.317 E0.02549
G1 X171.981 Y212.535 E0.54843
G1 X171.375 Y212.535 E0.02549
G1 X162.156 Y203.317 E0.54843
G1 X161.55 Y203.317 E0.02549
G1 X170.769 Y212.535 E0.54843
G1 X170.163 Y212.535 E0.02549
G1 X160.944 Y203.317 E0.54843
G1 X160.338 Y203.317 E0.02549
G1 X169.557 Y212.535 E0.54843
G1 X168.951 Y212.535 E0.02549
G1 X159.732 Y203.317 E0.54844
G1 X159.126 Y203.317 E0.02549
G1 X168.345 Y212.535 E0.54844
G1 X167.739 Y212.535 E0.02549
G1 X158.52 Y203.317 E0.54844
G1 X157.914 Y203.317 E0.02549
G1 X167.133 Y212.535 E0.54844
G1 X166.527 Y212.535 E0.02549
G1 X157.308 Y203.317 E0.54844
G1 X156.702 Y203.317 E0.02549
G1 X165.921 Y212.535 E0.54844
G1 X165.315 Y212.535 E0.02549
G1 X156.096 Y203.317 E0.54844
G1 X155.49 Y203.317 E0.02549
G1 X164.709 Y212.536 E0.54844
G1 X164.103 Y212.536 E0.02549
G1 X154.884 Y203.317 E0.54845
G1 X154.278 Y203.317 E0.02549
G1 X163.497 Y212.536 E0.54845
G1 X162.891 Y212.536 E0.02549
G1 X153.672 Y203.317 E0.54845
G1 X153.066 Y203.317 E0.02549
G1 X162.285 Y212.536 E0.54845
G1 X161.679 Y212.536 E0.02549
G1 X152.46 Y203.317 E0.54845
G1 X151.854 Y203.317 E0.02549
G1 X161.073 Y212.536 E0.54845
G1 X160.467 Y212.536 E0.02549
G1 X151.248 Y203.317 E0.54845
G1 X150.643 Y203.317 E0.02549
G1 X159.861 Y212.536 E0.54845
G1 X159.255 Y212.536 E0.02549
G1 X150.037 Y203.317 E0.54846
G1 X149.431 Y203.317 E0.02549
G1 X158.649 Y212.536 E0.54846
G1 X158.043 Y212.536 E0.02549
G1 X148.825 Y203.317 E0.54846
G1 X148.219 Y203.317 E0.02549
G1 X157.437 Y212.536 E0.54846
G1 X156.831 Y212.536 E0.02549
G1 X147.613 Y203.317 E0.54846
G1 X147.007 Y203.317 E0.02549
G1 X156.225 Y212.536 E0.54846
G1 X155.619 Y212.536 E0.02549
G1 X146.401 Y203.317 E0.54846
G1 X145.795 Y203.317 E0.02549
G1 X155.014 Y212.536 E0.54846
G1 X154.408 Y212.536 E0.02549
G1 X145.189 Y203.317 E0.54847
G1 X144.583 Y203.317 E0.02549
G1 X153.802 Y212.536 E0.54847
G1 X153.196 Y212.536 E0.02549
G1 X143.977 Y203.317 E0.54847
G1 X143.371 Y203.317 E0.02549
G1 X152.59 Y212.536 E0.54847
G1 X151.984 Y212.536 E0.02549
G1 X142.765 Y203.317 E0.54847
G1 X142.159 Y203.317 E0.02549
G1 X151.378 Y212.536 E0.54847
G1 X150.772 Y212.536 E0.02549
G1 X141.553 Y203.317 E0.54847
G1 X140.947 Y203.317 E0.02549
G1 X150.166 Y212.536 E0.54847
G1 X149.56 Y212.536 E0.02549
G1 X140.341 Y203.317 E0.54848
G1 X139.735 Y203.317 E0.02549
G1 X148.954 Y212.536 E0.54848
G1 X148.348 Y212.536 E0.02549
G1 X139.129 Y203.317 E0.54848
G1 X138.523 Y203.317 E0.02549
G1 X147.742 Y212.536 E0.54848
G1 X147.136 Y212.536 E0.02549
G1 X137.917 Y203.317 E0.54848
G1 X137.311 Y203.317 E0.02549
G1 X146.53 Y212.536 E0.54848
G1 X145.924 Y212.536 E0.02549
G1 X136.705 Y203.317 E0.54848
G1 X136.099 Y203.317 E0.02549
G1 X145.318 Y212.536 E0.54848
G1 X144.712 Y212.536 E0.02549
G1 X135.493 Y203.317 E0.54849
G1 X134.887 Y203.317 E0.02549
G1 X144.106 Y212.536 E0.54849
G1 X143.5 Y212.536 E0.02549
G1 X134.281 Y203.317 E0.54849
G1 X133.675 Y203.317 E0.02549
G1 X142.894 Y212.536 E0.54849
G1 X142.288 Y212.536 E0.02549
G1 X133.069 Y203.316 E0.54849
G1 X132.463 Y203.316 E0.02549
G1 X141.682 Y212.536 E0.54849
G1 X141.076 Y212.536 E0.02549
G1 X131.857 Y203.316 E0.54849
G1 X131.251 Y203.316 E0.02549
G1 X140.47 Y212.536 E0.54849
G1 X139.864 Y212.536 E0.02549
G1 X130.645 Y203.316 E0.5485
G1 X130.039 Y203.316 E0.02549
G1 X139.258 Y212.536 E0.5485
G1 X138.652 Y212.536 E0.02549
G1 X129.433 Y203.316 E0.5485
G1 X128.827 Y203.316 E0.02549
G1 X138.046 Y212.536 E0.5485
G1 X137.44 Y212.536 E0.02549
G1 X128.221 Y203.316 E0.5485
G1 X127.615 Y203.316 E0.02549
G1 X136.834 Y212.536 E0.5485
G1 X136.228 Y212.536 E0.02549
G1 X127.009 Y203.316 E0.5485
G1 X126.403 Y203.316 E0.02549
G1 X135.622 Y212.536 E0.5485
G1 X135.016 Y212.536 E0.02549
G1 X125.797 Y203.316 E0.5485
G1 X125.191 Y203.316 E0.02549
G1 X134.41 Y212.536 E0.54851
G1 X133.804 Y212.536 E0.02549
G1 X124.585 Y203.316 E0.54851
G1 X123.979 Y203.316 E0.02549
G1 X133.198 Y212.536 E0.54851
G1 X132.593 Y212.536 E0.02549
G1 X123.373 Y203.316 E0.54851
G1 X122.767 Y203.316 E0.02549
G1 X131.987 Y212.536 E0.54851
G1 X131.381 Y212.536 E0.02549
G1 X122.161 Y203.316 E0.54851
G1 X121.555 Y203.316 E0.02549
G1 X130.775 Y212.536 E0.54851
G1 X130.169 Y212.536 E0.02549
G1 X120.949 Y203.316 E0.54851
G1 X120.343 Y203.316 E0.02549
G1 X129.563 Y212.536 E0.54852
G1 X128.957 Y212.536 E0.02549
G1 X119.737 Y203.316 E0.54852
G1 X119.131 Y203.316 E0.02549
G1 X128.351 Y212.536 E0.54852
G1 X127.745 Y212.536 E0.02549
G1 X118.525 Y203.316 E0.54852
G1 X117.919 Y203.316 E0.02549
G1 X127.139 Y212.536 E0.54852
G1 X126.533 Y212.536 E0.02549
G1 X117.313 Y203.316 E0.54852
G1 X116.707 Y203.316 E0.02549
G1 X125.927 Y212.536 E0.54852
G1 X125.321 Y212.536 E0.02549
G1 X116.101 Y203.316 E0.54852
G1 X115.495 Y203.316 E0.02549
G1 X124.715 Y212.536 E0.54853
G1 X124.109 Y212.536 E0.02549
G1 X114.889 Y203.316 E0.54853
G1 X114.283 Y203.316 E0.02549
G1 X123.503 Y212.536 E0.54853
G1 X122.897 Y212.536 E0.02549
G1 X113.677 Y203.316 E0.54853
