; generated by SuperSlicer 2.4 on 2022-05-10 at 01:48:09 UTC


;
;

;
;
; 

; external perimeters extrusion width = 0.40mm
; perimeters extrusion width = 0.40mm
; infill extrusion width = 0.72mm
; solid infill extrusion width = 0.56mm
; top infill extrusion width = 0.40mm
; support material extrusion width = 0.40mm
; first layer extrusion width = 0.48mm

; object:{"name":"mount","id":"mount.stl id:0 copy 0","object_center":[152.500000,150.000000,0.000000],"boundingbox_center":[152.500000,150.000000,33.000000],"boundingbox_size":[57.000000,78.000001,66.000000]}
; plater:{"center":[152.500000,150.000000,0.000000],"boundingbox_center":[152.500000,150.000000,33.000000],"boundingbox_size":[57.000000,78.000001,66.000000]}

M73 P0 R154
;TYPE:Custom
START_PRINT T_BED=110 T_EXTRUDER=245
M107
G21 ; set units to millimeters
G90 ; use absolute coordinates
M83 ; use relative distances for extrusion
; Filament gcode
M104 S245 ; set temperature
M109 S245 ; set temperature and wait for it to be reached
M190 S110 ; set bed temperature and wait for it to be reached
M107
;LAYER_CHANGE
;Z:0.24
;HEIGHT:0.24
G1 Z0.24 F9000
G92 E0
G1 E-0.5 F3000
M204 S1000
G1 X123.857 Y109.117 F9000
G1 E0.5 F1800
;TYPE:Skirt
;WIDTH:0.52
G1 X123.299 Y110.733 E0.07988
G1 X117.755 Y166.454 E2.61768
G1 X117.755 Y191.546 E1.17293
G1 X118.484 Y193.751 E0.10858
G1 X119.792 Y194.851 E0.07988
G1 X121.454 Y195.245 E0.07988
G1 X177.054 Y195.245 E2.59912
G1 X178.216 Y195.058 E0.05499
G1 X179.67 Y194.162 E0.07988
G1 X186.162 Y187.67 E0.42914
G1 X186.851 Y186.717 E0.05499
G1 X187.245 Y185.054 E0.07988
G1 X187.227 Y166.087 E0.88667
G1 X181.701 Y110.733 E2.6005
G1 X180.99 Y108.895 E0.09212
G1 X179.683 Y107.795 E0.07988
G1 X178.02 Y107.4 E0.07988
G1 X126.98 Y107.4 E2.38595
G1 X125.081 Y107.925 E0.09212
G1 X123.857 Y109.117 E0.07988
G1 X124.307 Y109.281 F9000
G1 F1800
G1 X123.763 Y110.779 E0.07448
G1 X118.237 Y166.133 E2.6005
M73 P0 R153
G1 X118.221 Y191.546 E1.18795
G1 X118.738 Y193.3 E0.08548
G1 X119.908 Y194.385 E0.0746
G1 X121.454 Y194.779 E0.0746
G1 X177.054 Y194.779 E2.59912
G1 X177.969 Y194.647 E0.04318
G1 X179.341 Y193.832 E0.0746
G1 X185.832 Y187.341 E0.42914
G1 X186.385 Y186.601 E0.04318
G1 X186.779 Y185.054 E0.0746
G1 X186.763 Y166.133 E0.8845
G1 X181.237 Y110.779 E2.6005
G1 X180.736 Y109.346 E0.07095
G1 X179.566 Y108.261 E0.0746
G1 X178.02 Y107.867 E0.0746
G1 X126.98 Y107.867 E2.38595
G1 X125.505 Y108.223 E0.07095
G1 X124.307 Y109.281 E0.0747
; INIT printing object mount.stl id:0 copy 0
G1 E-0.5 F3000
; printing object mount.stl id:0 copy 0
; acceleration to travel
M204 S3000
G1 X124.308 Y152.161 F9000
; decel to extrusion
M204 S1000
G1 X124.308 Y166.454
; end travel
G1 E0.5 F1800
;TYPE:Support material
;WIDTH:0.48
G1 X126.226 Y166.454 E0.08201
G1 X126.226 Y167.74 E0.05495
G1 X126.668 Y168.182 E0.02672
G1 X127.821 Y168.182 E0.0493
G1 X127.821 Y183.679 E0.66261
G1 X132.578 Y183.679 E0.20342
G1 X132.578 Y168.182 E0.66261
G1 X138.945 Y168.182 E0.2722
G1 X138.945 Y191.546 E0.99894
G1 X121.454 Y191.546 E0.74781
G1 X121.454 Y166.454 E1.07279
G1 X124.308 Y166.454 E0.122
G1 E-0.5 F3000
; acceleration to travel
M204 S3000
G1 X134.74 Y185.193 F9000
; decel to extrusion
M204 S1000
G1 X138.217 Y191.439
; end travel
G1 E0.5 F1800
G1 X138.217 Y168.473 E0.98191
G1 X137.741 Y168.473 E0.02036
G1 X137.741 Y191.254 E0.97403
G1 X137.265 Y191.254 E0.02036
G1 X137.265 Y168.473 E0.97403
G1 X136.788 Y168.473 E0.02036
G1 X136.788 Y191.254 E0.97403
G1 X136.312 Y191.254 E0.02036
G1 X136.312 Y168.473 E0.97403
G1 X135.836 Y168.473 E0.02036
G1 X135.836 Y191.254 E0.97403
G1 X135.36 Y191.254 E0.02036
G1 X135.36 Y168.473 E0.97403
G1 X134.884 Y168.473 E0.02036
G1 X134.884 Y191.254 E0.97403
G1 X134.408 Y191.254 E0.02036
G1 X134.408 Y168.473 E0.97403
G1 X133.932 Y168.473 E0.02036
G1 X133.932 Y191.254 E0.97403
G1 X133.456 Y191.254 E0.02036
G1 X133.456 Y168.473 E0.97403
G1 X132.98 Y168.473 E0.02036
G1 X132.98 Y191.254 E0.97403
G1 X132.504 Y191.254 E0.02036
G1 X132.504 Y183.971 E0.31142
G1 X132.027 Y183.971 E0.02036
G1 X132.027 Y191.254 E0.31142
G1 X131.551 Y191.254 E0.02036
G1 X131.551 Y183.971 E0.31142
G1 X131.075 Y183.971 E0.02036
G1 X131.075 Y191.254 E0.31142
G1 X130.599 Y191.254 E0.02036
G1 X130.599 Y183.971 E0.31142
G1 X130.123 Y183.971 E0.02036
G1 X130.123 Y191.254 E0.31142
G1 X129.647 Y191.254 E0.02036
G1 X129.647 Y183.971 E0.31142
G1 X129.171 Y183.971 E0.02036
G1 X129.171 Y191.254 E0.31142
G1 X128.695 Y191.254 E0.02036
G1 X128.695 Y183.971 E0.31142
G1 X128.219 Y183.971 E0.02036
G1 X128.219 Y191.254 E0.31142
G1 X127.742 Y191.254 E0.02036
G1 X127.742 Y183.971 E0.31142
G1 X127.529 Y183.971 E0.00911
G1 X127.529 Y168.473 E0.66261
G1 X127.266 Y168.473 E0.01124
G1 X127.266 Y191.254 E0.97403
G1 X126.79 Y191.254 E0.02036
G1 X126.79 Y168.473 E0.97403
G1 X126.547 Y168.473 E0.01041
G1 X126.314 Y168.24 E0.01407
G1 X126.314 Y191.254 E0.98398
G1 X125.838 Y191.254 E0.02036
G1 X125.838 Y166.746 E1.04787
G1 X125.362 Y166.746 E0.02036
G1 X125.362 Y191.254 E1.04787
G1 X124.886 Y191.254 E0.02036
G1 X124.886 Y166.746 E1.04787
G1 X124.41 Y166.746 E0.02036
G1 X124.41 Y191.254 E1.04787
G1 X123.934 Y191.254 E0.02036
G1 X123.934 Y166.746 E1.04787
G1 X123.458 Y166.746 E0.02036
G1 X123.458 Y191.254 E1.04787
G1 X122.981 Y191.254 E0.02036
G1 X122.981 Y166.746 E1.04787
G1 X122.505 Y166.746 E0.02036
G1 X122.505 Y191.254 E1.04787
G1 X122.029 Y191.254 E0.02036
G1 X122.029 Y166.562 E1.05575
G1 E-0.5 F3000
; acceleration to travel
M204 S3000
G1 X151.476 Y167.777 F9000
; decel to extrusion
M204 S1000
G1 X161.291 Y168.182
; end travel
G1 E0.5 F1800
G1 X167.658 Y168.182 E0.2722
G1 X167.658 Y173.806 E0.24048
G1 X168.893 Y172.711 E0.07059
G1 X169.526 Y172.472 E0.02892
G1 X169.588 Y172.448 E0.00283
G1 X171.128 Y171.865 E0.07043
G1 X171.84 Y171.595 E0.03254
G1 X172.571 Y171.595 E0.03126
G1 X173.394 Y171.595 E0.03517
G1 X174.1 Y171.596 E0.03018
G1 X174.161 Y171.596 E0.00262
G1 X174.851 Y171.857 E0.03153
G1 X176.401 Y172.444 E0.0709
G1 X177.179 Y172.739 E0.03556
G1 X177.179 Y168.182 E0.19485
G1 X178.332 Y168.182 E0.0493
G1 X178.774 Y167.74 E0.02672
G1 X178.774 Y166.454 E0.05495
G1 X183.546 Y166.454 E0.20401
G1 X183.546 Y185.054 E0.79525
G1 X177.054 Y191.546 E0.3925
G1 X167.783 Y191.546 E0.39642
G1 X161.291 Y185.054 E0.3925
G1 X161.291 Y168.182 E0.72141
; acceleration to travel
M204 S3000
G1 X177.551 Y181.154 F9000
; decel to extrusion
M204 S1000
G1 X182.971 Y185.478
; end travel
G1 F1800
G1 X182.971 Y166.746 E0.8009
G1 X182.495 Y166.746 E0.02036
G1 X182.495 Y185.693 E0.81011
G1 X182.019 Y186.17 E0.02879
G1 X182.019 Y166.746 E0.83047
G1 X181.542 Y166.746 E0.02036
G1 X181.542 Y186.646 E0.85083
G1 X181.066 Y187.122 E0.02879
G1 X181.066 Y166.746 E0.87118
G1 X180.59 Y166.746 E0.02036
G1 X180.59 Y187.598 E0.89154
G1 X180.114 Y188.074 E0.02879
G1 X180.114 Y166.746 E0.91189
G1 X179.638 Y166.746 E0.02036
G1 X179.638 Y188.55 E0.93225
G1 X179.162 Y189.026 E0.02879
G1 X179.162 Y166.746 E0.95261
G1 X179.066 Y166.746 E0.00412
G1 X179.066 Y167.86 E0.04766
G1 X178.686 Y168.24 E0.02296
G1 X178.686 Y189.502 E0.90907
G1 X178.21 Y189.978 E0.02879
G1 X178.21 Y168.473 E0.91947
G1 X177.734 Y168.473 E0.02036
G1 X177.734 Y190.454 E0.93983
G1 X177.258 Y190.931 E0.02879
G1 X177.258 Y173.08 E0.76321
G1 X176.781 Y172.9 E0.02177
G1 X176.781 Y191.254 E0.78476
G1 X176.305 Y191.254 E0.02036
G1 X176.305 Y172.719 E0.79248
G1 X175.829 Y172.539 E0.02177
G1 X175.829 Y191.254 E0.80019
G1 X175.353 Y191.254 E0.02036
G1 X175.353 Y172.359 E0.8079
G1 X174.877 Y172.178 E0.02177
G1 X174.877 Y191.254 E0.81561
G1 X174.401 Y191.254 E0.02036
G1 X174.401 Y171.998 E0.82332
G1 X174.108 Y171.887 E0.01341
G1 X173.925 Y171.887 E0.00782
G1 X173.925 Y191.254 E0.82807
G1 X173.449 Y191.254 E0.02036
G1 X173.449 Y171.887 E0.82807
G1 X173.394 Y171.887 E0.00235
G1 X172.973 Y171.887 E0.018
G1 X172.973 Y191.254 E0.82807
G1 X172.496 Y191.254 E0.02036
G1 X172.496 Y171.887 E0.82807
G1 X172.02 Y171.887 E0.02036
G1 X172.02 Y191.254 E0.82807
G1 X171.544 Y191.254 E0.02036
G1 X171.544 Y172.019 E0.82243
G1 X171.231 Y172.137 E0.01431
G1 X171.068 Y172.199 E0.00745
G1 X171.068 Y191.254 E0.81472
G1 X170.592 Y191.254 E0.02036
G1 X170.592 Y172.379 E0.80701
G1 X170.116 Y172.56 E0.02177
G1 X170.116 Y191.254 E0.7993
M73 P0 R152
G1 X169.64 Y191.254 E0.02036
G1 X169.64 Y172.74 E0.79159
G1 X169.629 Y172.744 E0.00049
G1 X169.164 Y172.92 E0.02127
G1 X169.164 Y191.254 E0.78388
G1 X168.688 Y191.254 E0.02036
G1 X168.688 Y173.283 E0.76838
G1 X168.211 Y173.705 E0.0272
G1 X168.211 Y191.254 E0.75034
G1 X167.903 Y191.254 E0.01318
G1 X167.735 Y191.087 E0.01015
G1 X167.735 Y174.127 E0.72513
G1 X167.366 Y174.454 E0.02109
G1 X167.366 Y168.473 E0.25571
G1 X167.259 Y168.473 E0.00457
G1 X167.259 Y190.61 E0.9465
G1 X166.783 Y190.134 E0.02879
G1 X166.783 Y168.473 E0.92614
G1 X166.307 Y168.473 E0.02036
G1 X166.307 Y189.658 E0.90579
G1 X165.831 Y189.182 E0.02879
G1 X165.831 Y168.473 E0.88543
G1 X165.355 Y168.473 E0.02036
G1 X165.355 Y188.706 E0.86507
G1 X164.879 Y188.23 E0.02879
G1 X164.879 Y168.473 E0.84472
G1 X164.403 Y168.473 E0.02036
G1 X164.403 Y187.754 E0.82436
G1 X163.927 Y187.278 E0.02879
G1 X163.927 Y168.473 E0.804
G1 X163.45 Y168.473 E0.02036
G1 X163.45 Y186.802 E0.78365
G1 X162.974 Y186.325 E0.02879
G1 X162.974 Y168.473 E0.76329
G1 X162.498 Y168.473 E0.02036
G1 X162.498 Y185.849 E0.74294
G1 X162.022 Y185.373 E0.02879
G1 X162.022 Y168.289 E0.73046
G1 E-0.5 F3000
; acceleration to travel
M204 S3000
G1 X164.262 Y161.346 F9000
; decel to extrusion
M204 S1000
G1 X165.008 Y159.031
; end travel
G1 E0.5 F1800
;TYPE:Internal perimeter
G1 X165.121 Y159.082 E0.00528
G1 X166.389 Y159.257 E0.05474
G1 X167.165 Y159.114 E0.03375
G1 X167.977 Y158.762 E0.03783
G1 X168.546 Y158.342 E0.03024
G1 X168.904 Y157.956 E0.0225
G1 X169.262 Y157.397 E0.02838
G1 X169.54 Y156.722 E0.03123
G1 X169.656 Y155.882 E0.03622
G1 X169.656 Y147.716 E0.34915
G1 X169.541 Y146.901 E0.03521
G1 X169.373 Y146.425 E0.02155
G1 X169.14 Y145.978 E0.02158
G1 X168.724 Y145.444 E0.02894
G1 X168.221 Y144.995 E0.02883
G1 X167.723 Y144.693 E0.02489
G1 X166.513 Y144.36 E0.05365
G1 X165.942 Y144.36 E0.02443
G1 X165.274 Y144.483 E0.02904
G1 X164.607 Y144.739 E0.03055
G1 X163.886 Y145.246 E0.03766
G1 X163.511 Y145.646 E0.02346
G1 X163.153 Y146.208 E0.02848
G1 X162.877 Y146.879 E0.03102
G1 X162.762 Y147.719 E0.03624
G1 X162.762 Y155.884 E0.34912
G1 X162.884 Y156.745 E0.03718
G1 X163.235 Y157.555 E0.03775
G1 X163.582 Y158.047 E0.02575
G1 X164.525 Y158.814 E0.05196
G1 X165.008 Y159.031 E0.02263
G1 X165.184 Y158.641 F9000
G1 F1800
G1 X165.24 Y158.666 E0.00264
G1 X166.379 Y158.823 E0.04916
G1 X167.04 Y158.702 E0.0287
G1 X167.761 Y158.388 E0.03365
G1 X168.259 Y158.021 E0.02645
G1 X168.564 Y157.693 E0.01915
G1 X168.88 Y157.199 E0.02509
G1 X169.123 Y156.609 E0.02726
G1 X169.227 Y155.853 E0.03263
G1 X169.227 Y147.746 E0.34661
G1 X169.123 Y147.003 E0.0321
G1 X168.98 Y146.597 E0.01841
G1 X168.778 Y146.211 E0.01862
G1 X168.41 Y145.738 E0.02561
G1 X167.965 Y145.341 E0.02549
G1 X167.551 Y145.091 E0.02067
G1 X166.455 Y144.788 E0.04863
G1 X165.981 Y144.788 E0.02027
G1 X165.39 Y144.897 E0.02568
G1 X164.81 Y145.12 E0.02658
G1 X164.169 Y145.571 E0.0335
G1 X163.851 Y145.91 E0.01988
G1 X163.535 Y146.406 E0.02516
G1 X163.294 Y146.991 E0.02706
G1 X163.191 Y147.748 E0.03264
G1 X163.191 Y155.854 E0.34659
G1 X163.3 Y156.628 E0.03341
G1 X163.611 Y157.344 E0.03339
G1 X163.899 Y157.752 E0.02135
G1 X164.752 Y158.446 E0.04705
G1 X165.184 Y158.641 E0.02024
G1 X165.36 Y158.25 F9000
;TYPE:External perimeter
G1 F1800
G1 X166.37 Y158.389 E0.04358
G1 X166.914 Y158.289 E0.02365
G1 X167.546 Y158.014 E0.02947
G1 X167.703 Y157.898 E0.00836
G1 X167.972 Y157.7 E0.0143
G1 X168.037 Y157.631 E0.00403
G1 X168.224 Y157.429 E0.01176
G1 X168.499 Y157 E0.02179
G1 X168.706 Y156.496 E0.02328
G1 X168.799 Y155.823 E0.02905
G1 X168.799 Y147.776 E0.34406
G1 X168.755 Y147.461 E0.01359
G1 X168.704 Y147.105 E0.01539
G1 X168.586 Y146.768 E0.01528
G1 X168.416 Y146.443 E0.01566
G1 X168.096 Y146.032 E0.02229
G1 X167.709 Y145.687 E0.02215
G1 X167.401 Y145.501 E0.0154
G1 X167.38 Y145.488 E0.00106
G1 X166.397 Y145.217 E0.0436
G1 X166.02 Y145.217 E0.01611
G1 X165.507 Y145.311 E0.02232
G1 X165.013 Y145.501 E0.02262
G1 X164.452 Y145.896 E0.02934
G1 X164.191 Y146.174 E0.01629
G1 X163.917 Y146.604 E0.02183
G1 X163.711 Y147.104 E0.02309
G1 X163.706 Y147.144 E0.00173
G1 X163.619 Y147.777 E0.02731
G1 X163.619 Y155.824 E0.34405
G1 X163.716 Y156.51 E0.02964
G1 X163.929 Y157 E0.02282
G1 X163.986 Y157.133 E0.00621
G1 X164.215 Y157.457 E0.01694
G1 X164.979 Y158.079 E0.04214
G1 X165.36 Y158.25 E0.01785
;WIPE_START
M204 S5000
G1 X165.475 Y158.633 F9000
;WIPE_END
; acceleration to travel
M204 S3000
G1 X145.588 Y157.173
; decel to extrusion
M204 S1000
G1 X138.959 Y156.686
; end travel
;TYPE:Internal perimeter
G1 F1800
G1 X139.064 Y155.919 E0.03312
G1 X139.064 Y147.754 E0.34908
G1 X139.038 Y147.348 E0.01739
G1 X139.293 Y147.267 E0.01145
G1 X139.673 Y147.881 E0.03087
G1 X140.679 Y149.165 E0.06978
G1 X142.407 Y150.791 E0.10141
G1 X143.756 Y151.723 E0.07012
G1 X145.157 Y152.458 E0.06765
G1 X145.956 Y152.791 E0.03698
G1 X147.477 Y153.264 E0.06812
G1 X149.071 Y153.555 E0.06925
G1 X150.62 Y153.649 E0.06636
G1 X151.506 Y153.626 E0.0379
G1 X153.066 Y153.437 E0.06717
G1 X153.912 Y153.254 E0.03702
G1 X155.4 Y152.791 E0.06665
G1 X156.191 Y152.461 E0.03662
G1 X157.231 Y151.929 E0.04995
G1 X158.284 Y151.28 E0.05289
G1 X159.569 Y150.273 E0.06981
G1 X161.189 Y148.552 E0.10105
G1 X161.891 Y147.557 E0.05208
G1 X162.129 Y147.156 E0.01992
G1 X162.394 Y147.248 E0.01199
G1 X162.334 Y147.689 E0.01904
G1 X162.334 Y155.914 E0.35166
G1 X162.467 Y156.863 E0.04095
G1 X162.86 Y157.766 E0.04211
G1 X163.266 Y158.343 E0.03016
G1 X164.299 Y159.182 E0.05688
G1 X165.001 Y159.498 E0.03294
G1 X166.399 Y159.691 E0.06033
G1 X167.291 Y159.527 E0.03879
G1 X168.192 Y159.135 E0.042
G1 X168.832 Y158.663 E0.03403
G1 X169.244 Y158.22 E0.02586
G1 X169.644 Y157.596 E0.03167
G1 X169.957 Y156.834 E0.03521
G1 X170.084 Y155.912 E0.03981
G1 X170.084 Y147.686 E0.3517
G1 X169.959 Y146.798 E0.03833
G1 X169.767 Y146.254 E0.02468
G1 X169.502 Y145.745 E0.02454
G1 X169.038 Y145.15 E0.03226
G1 X168.476 Y144.649 E0.03217
G1 X167.894 Y144.296 E0.02911
G1 X166.571 Y143.931 E0.05868
G1 X165.902 Y143.931 E0.02859
G1 X165.157 Y144.069 E0.0324
G1 X164.404 Y144.357 E0.03451
G1 X163.604 Y144.92 E0.04182
G1 X163.413 Y145.124 E0.01191
G1 X163.176 Y144.981 E0.01185
G1 X163.552 Y143.889 E0.04935
G1 X163.833 Y142.701 E0.05223
G1 X163.961 Y141.852 E0.0367
G1 X164.053 Y140.323 E0.06548
G1 X164.053 Y132.233 E0.34589
G1 X163.994 Y131.055 E0.05045
G1 X163.835 Y129.853 E0.05184
G1 X163.552 Y128.658 E0.05247
G1 X163.253 Y127.792 E0.03919
G1 X163.473 Y127.645 E0.01131
G1 X163.889 Y128.015 E0.02379
G1 X164.366 Y128.306 E0.02388
G1 X164.894 Y128.534 E0.02462
G1 X165.631 Y128.705 E0.03234
G1 X166.425 Y128.739 E0.03399
G1 X167.206 Y128.595 E0.03392
G1 X167.943 Y128.313 E0.03376
G1 X168.603 Y127.869 E0.03399
G1 X169.148 Y127.334 E0.03266
G1 X169.534 Y126.786 E0.02867
G1 X169.989 Y125.502 E0.05823
G1 X170.029 Y124.919 E0.02501
G1 X170.029 Y116.752 E0.34916
G1 X169.893 Y115.758 E0.04292
G1 X169.24 Y114.496 E0.06077
M73 P1 R152
G1 X168.724 Y113.946 E0.03223
G1 X167.465 Y113.179 E0.06306
G1 X165.945 Y112.969 E0.0656
G1 X165.575 Y113.046 E0.01613
G1 X164.851 Y113.197 E0.03162
G1 X163.916 Y113.682 E0.04505
G1 X163.141 Y114.402 E0.04523
G1 X162.616 Y115.262 E0.04307
G1 X162.4 Y115.874 E0.02776
G1 X162.279 Y116.751 E0.03787
G1 X162.279 Y124.919 E0.3492
G1 X162.294 Y125.149 E0.00986
G1 X162.046 Y125.234 E0.01124
G1 X161.443 Y124.342 E0.04605
G1 X160.686 Y123.396 E0.0518
G1 X159.55 Y122.26 E0.06869
G1 X158.297 Y121.278 E0.06806
G1 X157.576 Y120.813 E0.03668
G1 X156.508 Y120.241 E0.0518
G1 X155.055 Y119.639 E0.06725
G1 X153.879 Y119.286 E0.05248
G1 X152.681 Y119.053 E0.0522
G1 X151.476 Y118.921 E0.05181
G1 X149.896 Y118.921 E0.06759
G1 X149.066 Y118.996 E0.03563
G1 X148.241 Y119.122 E0.03564
G1 X147.078 Y119.396 E0.05109
G1 X145.949 Y119.761 E0.05075
G1 X145.166 Y120.086 E0.03624
G1 X144.125 Y120.619 E0.05
G1 X143.092 Y121.256 E0.05187
