; generated by SuperSlicer 2.3.57 on 2022-02-10 at 00:49:24 UTC


;
;

;
;
; 

; external perimeters extrusion width = 0.40mm
; perimeters extrusion width = 0.45mm
; infill extrusion width = 0.72mm
; solid infill extrusion width = 0.56mm
; top infill extrusion width = 0.40mm
; support material extrusion width = 0.42mm
; first layer extrusion width = 0.48mm

; object:{"name":"Mount_Mod_Sahsi3","id":"Mount_Mod_Sahsi3.stl id:0 copy 0","object_center":[165.000000,164.448046,0.000000],"boundingbox_center":[165.000000,164.448046,26.000000],"boundingbox_size":[72.814400,87.555863,52.000000]}
; plater:{"center":[165.000000,164.448046,0.000000],"boundingbox_center":[165.000000,164.448046,26.000000],"boundingbox_size":[72.814400,87.555863,52.000000]}

;TYPE:Custom
START_PRINT T_BED=60 T_EXTRUDER=200
M107
G21 ; set units to millimeters
G90 ; use absolute coordinates
M83 ; use relative distances for extrusion
; Filament gcode
M104 S200 ; set temperature
M109 S200 ; set temperature and wait for it to be reached
M190 S60 ; set bed temperature and wait for it to be reached
;LAYER_CHANGE
;Z:0.24
;HEIGHT:0.24
G1 E-0.6 F3000
G1 Z0.24 F9000
G1 X129.148 Y129.931
G1 E0.6 F1800
; External perimeter
;Skirt
SET_VELOCITY_LIMIT ACCEL=3000 ACCEL_TO_DECEL=3000 SQUARE_CORNER_VELOCITY=8

; Support material

;TYPE:Skirt
;WIDTH:0.48
G1 X128.579 Y130.546 E0.03581
G1 X128.165 Y131.279 E0.03601
G1 X127.923 Y132.125 E0.03761
G1 X127.892 Y133.009 E0.03781
G1 X134.829 Y208.485 E3.24061
G1 X135.139 Y209.51 E0.0458
G1 X135.733 Y210.401 E0.0458
G1 X139.409 Y214.027 E0.22077
G1 X139.899 Y214.402 E0.02638
G1 X140.445 Y214.689 E0.02638
G1 X141.106 Y214.896 E0.02959
G1 X141.798 Y214.975 E0.02979
G1 X164.122 Y215.16 E0.95449
G1 X164.779 Y215.104 E0.02819
G1 X199.379 Y208.081 E1.50953
G1 X200.048 Y207.815 E0.03079
G1 X206.36 Y204.47 E0.30541
G1 X207.198 Y203.744 E0.04739
G1 X207.779 Y202.8 E0.04739
G1 X207.99 Y202.116 E0.03059
G1 X208.064 Y201.405 E0.03059
G1 X208.064 Y181.7 E0.84248
G1 X207.9 Y180.646 E0.0456
G1 X184.656 Y120.005 E2.77669
G1 X184.107 Y119.102 E0.0452
G1 X183.318 Y118.391 E0.0454
G1 X182.357 Y117.939 E0.0454
G1 X181.307 Y117.783 E0.0454
G1 X180.502 Y117.872 E0.0346
G1 X130.624 Y129.164 E2.18653
G1 X129.842 Y129.462 E0.03581
G1 X129.197 Y129.897 E0.03324
G1 X129.435 Y130.25 F9000
G1 F1800
G1 X128.928 Y130.796 E0.03185
G1 X128.561 Y131.442 E0.03174
G1 X128.346 Y132.193 E0.03344
G1 X128.319 Y132.975 E0.03344
G1 X135.252 Y208.416 E3.23913
G1 X135.527 Y209.329 E0.04075
G1 X136.058 Y210.121 E0.04075
G1 X139.691 Y213.703 E0.21814
G1 X140.607 Y214.292 E0.04655
G1 X141.197 Y214.478 E0.02647
G1 X141.808 Y214.547 E0.02628
G1 X164.126 Y214.731 E0.95424
G1 X164.694 Y214.684 E0.0244
G1 X199.25 Y207.672 E1.50753
G1 X199.854 Y207.433 E0.02779
G1 X206.112 Y204.12 E0.30276
G1 X206.863 Y203.477 E0.04225
G1 X207.381 Y202.641 E0.04206
G1 X207.569 Y202.037 E0.02704
G1 X207.636 Y201.404 E0.02723
G1 X207.636 Y181.707 E0.84214
G1 X207.492 Y180.778 E0.04019
G1 X184.267 Y120.185 E2.77445
G1 X183.784 Y119.384 E0.04
G1 X183.088 Y118.753 E0.04019
G1 X182.238 Y118.351 E0.04019
G1 X181.308 Y118.211 E0.04019
G1 X180.597 Y118.29 E0.03061
G1 X130.739 Y129.577 E2.18561
G1 X130.045 Y129.839 E0.03174
G1 X129.484 Y130.216 E0.02888
; INIT printing object Mount_Mod_Sahsi3.stl id:0 copy 0
G1 E-0.6 F3000
; printing object Mount_Mod_Sahsi3.stl id:0 copy 0
G1 X164.143 Y211.517 F9000
G1 E0.6 F1800
; External perimeter
;SupportMaterial
SET_VELOCITY_LIMIT ACCEL=3000 ACCEL_TO_DECEL=3000 SQUARE_CORNER_VELOCITY=8

; Support material interface

;TYPE:Support material
G1 X164.143 Y183.948 E1.17871
G1 X163.286 Y184.142 E0.03757
G1 X163.286 Y211.333 E1.16254
G1 X162.429 Y211.333 E0.03664
G1 X162.429 Y184.336 E1.15424
G1 X161.572 Y184.53 E0.03757
G1 X161.572 Y211.333 E1.14595
G1 X160.715 Y211.333 E0.03664
G1 X160.715 Y184.724 E1.13765
G1 X159.858 Y184.918 E0.03757
G1 X159.858 Y211.333 E1.12936
G1 X159.001 Y211.333 E0.03664
G1 X159.001 Y185.112 E1.12107
G1 X158.144 Y185.306 E0.03757
G1 X158.144 Y211.333 E1.11277
G1 X157.287 Y211.333 E0.03664
G1 X157.287 Y185.5 E1.10448
G1 X156.43 Y185.694 E0.03757
G1 X156.43 Y211.333 E1.09618
G1 X155.573 Y211.333 E0.03664
G1 X155.573 Y185.888 E1.08789
G1 X154.716 Y186.082 E0.03757
G1 X154.716 Y211.333 E1.07959
G1 X153.859 Y211.333 E0.03664
G1 X153.859 Y186.276 E1.0713
G1 X153.002 Y186.47 E0.03757
G1 X153.002 Y211.333 E1.063
G1 X152.145 Y211.333 E0.03664
G1 X152.145 Y186.664 E1.05471
G1 X151.886 Y186.723 E0.01136
G1 X151.886 Y188.482 E0.0752
G1 X151.288 Y188.482 E0.02556
G1 X151.288 Y211.333 E0.977
G1 X150.431 Y211.333 E0.03664
G1 X150.431 Y188.482 E0.977
G1 X149.574 Y188.482 E0.03664
G1 X149.574 Y211.333 E0.977
G1 X148.717 Y211.333 E0.03664
G1 X148.717 Y188.482 E0.977
G1 X147.86 Y188.482 E0.03664
G1 X147.86 Y211.333 E0.977
G1 X147.003 Y211.333 E0.03664
G1 X147.003 Y187.828 E1.00494
G1 X146.146 Y188.022 E0.03757
G1 X146.146 Y211.333 E0.99665
G1 X145.289 Y211.333 E0.03664
G1 X145.289 Y188.216 E0.98836
G1 X144.432 Y188.41 E0.03757
G1 X144.432 Y211.333 E0.98006
G1 X143.575 Y211.333 E0.03664
G1 X143.575 Y188.392 E0.98084
G1 X143.258 Y188.192 E0.01602
G1 X142.718 Y185.807 E0.10457
G1 X142.718 Y211.333 E1.09138
G1 X141.861 Y211.333 E0.03664
G1 X141.861 Y185.105 E1.12139
G1 X141.004 Y185.105 E0.03664
G1 X141.004 Y207.956 E0.977
G1 X140.147 Y207.956 E0.03664
G1 X140.147 Y185.105 E0.977
G1 X139.29 Y185.105 E0.03664
G1 X139.29 Y207.956 E0.977
G1 X138.433 Y207.956 E0.03664
G1 X138.433 Y184.921 E0.98488
G1 E-0.6 F3000
G1 X204.422 Y201.386 F9000
G1 E0.6 F1800
G1 X204.422 Y181.728 E0.84049
G1 X203.565 Y181.728 E0.03664
G1 X203.565 Y201.202 E0.83262
G1 X202.708 Y201.202 E0.03664
G1 X202.708 Y181.728 E0.83262
G1 X201.851 Y181.728 E0.03664
G1 X201.851 Y201.202 E0.83262
G1 X200.994 Y201.202 E0.03664
G1 X200.994 Y174.974 E1.12139
G1 X200.137 Y174.974 E0.03664
G1 X200.137 Y201.202 E1.12139
G1 X199.28 Y201.202 E0.03664
G1 X199.28 Y174.974 E1.12139
G1 X198.423 Y174.974 E0.03664
G1 X198.423 Y201.202 E1.12139
G1 X198.376 Y201.202 E0.00197
G1 X198.376 Y204.579 E0.14439
G1 X197.566 Y204.579 E0.03467
G1 X197.566 Y174.974 E1.26578
G1 X196.709 Y174.974 E0.03664
G1 X196.709 Y204.579 E1.26578
G1 X195.852 Y204.579 E0.03664
G1 X195.852 Y174.974 E1.26578
G1 X194.995 Y174.974 E0.03664
G1 X194.995 Y204.579 E1.26578
G1 X194.138 Y204.579 E0.03664
G1 X194.138 Y177.159 E1.17236
G1 X193.281 Y177.353 E0.03757
G1 X193.281 Y204.579 E1.16406
G1 X192.424 Y204.579 E0.03664
G1 X192.424 Y177.547 E1.15577
G1 X192.411 Y177.55 E0.00056
G1 X192.411 Y188.482 E0.46742
G1 X191.622 Y188.482 E0.03372
G1 X191.622 Y177.728 E0.45979
G1 X191.567 Y177.741 E0.00244
G1 X191.567 Y204.579 E1.14747
G1 X190.71 Y204.579 E0.03664
G1 X190.71 Y177.935 E1.13918
G1 X189.853 Y178.129 E0.03757
G1 X189.853 Y204.579 E1.13088
G1 X188.996 Y204.579 E0.03664
G1 X188.996 Y178.323 E1.12259
G1 X188.139 Y178.517 E0.03757
G1 X188.139 Y204.579 E1.1143
G1 X187.282 Y204.579 E0.03664
G1 X187.282 Y178.711 E1.106
G1 X186.425 Y178.905 E0.03757
G1 X186.425 Y204.579 E1.09771
G1 X185.657 Y204.579 E0.03284
G1 X185.657 Y201.202 E0.14439
G1 X185.568 Y201.202 E0.0038
G1 X185.568 Y179.099 E0.94502
G1 X184.711 Y179.293 E0.03757
G1 X184.711 Y201.202 E0.93673
G1 X183.854 Y201.202 E0.03664
G1 X183.854 Y179.487 E0.92844
G1 X182.997 Y179.681 E0.03757
G1 X182.997 Y201.202 E0.92014
G1 X182.28 Y201.202 E0.03066
G1 X182.28 Y187.693 E0.57755
G1 X182.14 Y187.693 E0.00598
G1 X182.14 Y179.875 E0.33429
G1 X181.283 Y180.069 E0.03757
G1 X181.283 Y187.693 E0.326
G1 X180.426 Y187.693 E0.03664
G1 X180.426 Y180.263 E0.3177
G1 X179.569 Y180.457 E0.03757
G1 X179.569 Y187.878 E0.31729
G1 E-0.6 F3000
G1 X155.594 Y175.077 F9000
G1 E0.6 F1800
; External perimeter
;Perimeter
SET_VELOCITY_LIMIT ACCEL=2000 ACCEL_TO_DECEL=2000 SQUARE_CORNER_VELOCITY=8

; Overhang perimeter

;TYPE:Internal perimeter
G1 X155.785 Y174.616 E0.02135
G1 X155.928 Y173.86 E0.0329
G1 X155.866 Y173.07 E0.03389
G1 X154.076 Y165.164 E0.34659
G1 X153.808 Y164.448 E0.03267
G1 X153.438 Y163.926 E0.02734
G1 X153.026 Y163.517 E0.02484
G1 X152.641 Y163.256 E0.01988
G1 X151.915 Y162.958 E0.03354
G1 X151.306 Y162.869 E0.02632
G1 X150.702 Y162.893 E0.02583
G1 X150.229 Y162.998 E0.02072
G1 X149.235 Y163.536 E0.04833
G1 X148.888 Y163.871 E0.0206
G1 X148.544 Y164.351 E0.02528
G1 X148.287 Y164.898 E0.02581
G1 X148.176 Y165.317 E0.01854
G1 X148.126 Y165.747 E0.01853
G1 X148.189 Y166.499 E0.03224
G1 X149.978 Y174.402 E0.34644
G1 X150.247 Y175.116 E0.03265
G1 X150.617 Y175.641 E0.02745
G1 X151.031 Y176.049 E0.02488
G1 X151.401 Y176.302 E0.01915
G1 X151.967 Y176.55 E0.02645
G1 X152.74 Y176.697 E0.03365
G1 X153.411 Y176.67 E0.0287
G1 X154.488 Y176.265 E0.04921
G1 X154.921 Y175.935 E0.02325
G1 X155.557 Y175.125 E0.04406
G1 X155.22 Y174.86 F9000
; External perimeter
;ExternalPerimeter
SET_VELOCITY_LIMIT ACCEL=1000 ACCEL_TO_DECEL=1000 SQUARE_CORNER_VELOCITY=8

; Perimeter

;TYPE:External perimeter
G1 F1800
G1 X155.372 Y174.493 E0.01698
G1 X155.496 Y173.836 E0.02857
G1 X155.441 Y173.134 E0.03012
G1 X153.665 Y165.287 E0.34402
G1 X153.426 Y164.65 E0.02905
G1 X153.11 Y164.204 E0.02338
G1 X152.753 Y163.849 E0.02153
G1 X152.437 Y163.636 E0.01629
G1 X151.801 Y163.374 E0.02939
G1 X151.284 Y163.299 E0.02237
G1 X150.758 Y163.32 E0.0225
G1 X150.381 Y163.404 E0.01652
G1 X149.491 Y163.885 E0.04327
G1 X149.214 Y164.152 E0.01642
G1 X148.915 Y164.569 E0.02195
G1 X148.692 Y165.045 E0.02249
G1 X148.598 Y165.397 E0.01557
G1 X148.556 Y165.754 E0.01538
G1 X148.613 Y166.433 E0.02913
G1 X150.389 Y174.278 E0.34391
G1 X150.628 Y174.914 E0.02904
G1 X150.945 Y175.363 E0.02347
G1 X151.304 Y175.717 E0.0216
G1 X151.609 Y175.926 E0.01579
G1 X152.095 Y176.139 E0.02266
G1 X152.772 Y176.267 E0.02947
G1 X153.325 Y176.244 E0.02365
G1 X154.279 Y175.886 E0.04357
G1 X154.618 Y175.628 E0.01822
G1 X155.183 Y174.907 E0.03916
;WIPE_START
G1 X155.221 Y174.86 F9000
;WIPE_END
G1 X159.232 Y166.383
; External perimeter
;Perimeter
SET_VELOCITY_LIMIT ACCEL=2000 ACCEL_TO_DECEL=2000 SQUARE_CORNER_VELOCITY=8

; Overhang perimeter

;TYPE:Internal perimeter
G1 F1800
G1 X159.965 Y166.73 E0.03467
G1 X161.06 Y167.105 E0.04951
G1 X162.123 Y167.377 E0.04691
G1 X162.893 Y167.511 E0.03343
G1 X164.371 Y167.628 E0.06337
G1 X165.158 Y167.62 E0.03365
G1 X166.642 Y167.469 E0.06379
G1 X167.438 Y167.31 E0.03471
G1 X168.841 Y166.901 E0.06246
G1 X170.235 Y166.307 E0.06479
G1 X171.535 Y165.555 E0.06423
G1 X172.178 Y165.099 E0.03371
G1 X173.313 Y164.132 E0.06376
G1 X174.344 Y163.01 E0.06511
G1 X175.598 Y161.151 E0.09588
G1 X176.248 Y159.777 E0.06498
G1 X176.609 Y158.729 E0.04742
G1 X176.895 Y157.619 E0.04901
G1 X177.03 Y156.836 E0.03397
G1 X177.14 Y154.594 E0.09596
G1 X176.847 Y152.382 E0.09541
G1 X175.069 Y144.526 E0.34438
G1 X174.763 Y143.437 E0.04837
G1 X174.224 Y142.062 E0.06315
G1 X173.699 Y141.038 E0.04921
G1 X173.088 Y140.095 E0.04803
G1 X172.391 Y139.188 E0.04891
G1 X171.604 Y138.353 E0.04904
G1 X170.165 Y137.137 E0.08055
G1 X168.239 Y136.003 E0.09557
G1 X167.518 Y135.687 E0.03365
G1 X166.433 Y135.316 E0.04903
G1 X165.37 Y135.044 E0.04693
G1 X164.603 Y134.912 E0.03326
G1 X163.491 Y134.811 E0.04776
G1 X162.362 Y134.801 E0.04825
G1 X161.986 Y134.828 E0.01612
G1 X161.593 Y134.855 E0.01687
G1 X160.83 Y134.957 E0.0329
G1 X159.372 Y135.287 E0.06392
G1 X158.305 Y135.655 E0.04823
G1 X157.258 Y136.115 E0.04893
G1 X156.264 Y136.677 E0.0488
G1 X155.051 Y137.534 E0.06348
G1 X154.194 Y138.279 E0.04858
G1 X153.645 Y138.838 E0.03349
G1 X152.697 Y140.002 E0.0642
G1 X151.893 Y141.277 E0.06445
G1 X151.4 Y142.291 E0.0482
G1 X150.99 Y143.342 E0.04822
G1 X150.766 Y144.089 E0.03335
G1 X150.527 Y145.208 E0.04893
G1 X150.366 Y146.675 E0.06311
G1 X150.354 Y147.818 E0.04885
G1 X150.456 Y148.945 E0.04839
G1 X150.65 Y150.054 E0.04815
G1 X152.425 Y157.898 E0.34384
G1 X152.835 Y159.307 E0.06277
G1 X153.12 Y160.037 E0.03351
G1 X153.623 Y161.066 E0.04894
G1 X154.401 Y162.322 E0.06317
G1 X155.103 Y163.235 E0.04924
G1 X155.901 Y164.078 E0.04964
G1 X156.735 Y164.829 E0.04796
G1 X158.591 Y166.08 E0.09569
G1 X159.177 Y166.357 E0.02775
G1 X159.361 Y165.97 F9000
; External perimeter
;ExternalPerimeter
SET_VELOCITY_LIMIT ACCEL=1000 ACCEL_TO_DECEL=1000 SQUARE_CORNER_VELOCITY=8

; Perimeter

;TYPE:External perimeter
G1 F1800
G1 X160.126 Y166.332 E0.03621
G1 X161.183 Y166.694 E0.04775
G1 X162.213 Y166.958 E0.04546
G1 X162.947 Y167.085 E0.03187
G1 X164.386 Y167.2 E0.0617
G1 X165.134 Y167.192 E0.03199
G1 X166.578 Y167.044 E0.06208
G1 X167.336 Y166.893 E0.03304
G1 X168.696 Y166.497 E0.06058
G1 X170.043 Y165.923 E0.06258
G1 X171.303 Y165.194 E0.06227
G1 X171.915 Y164.76 E0.03205
G1 X173.016 Y163.822 E0.06183
G1 X174.007 Y162.744 E0.06262
G1 X175.224 Y160.938 E0.09312
G1 X175.85 Y159.615 E0.06257
G1 X176.198 Y158.605 E0.04568
G1 X176.476 Y157.529 E0.04754
G1 X176.603 Y156.789 E0.0321
G1 X176.71 Y154.612 E0.09319
G1 X176.425 Y152.458 E0.09291
G1 X174.653 Y144.631 E0.34308
G1 X174.356 Y143.573 E0.04699
G1 X173.833 Y142.238 E0.06132
G1 X173.327 Y141.252 E0.04736
G1 X172.738 Y140.342 E0.04636
G1 X172.064 Y139.466 E0.04725
G1 X171.309 Y138.665 E0.04708
G1 X169.916 Y137.488 E0.07796
G1 X168.044 Y136.385 E0.09292
G1 X167.362 Y136.087 E0.0318
G1 X166.31 Y135.727 E0.04754
G1 X165.28 Y135.463 E0.04547
G1 X164.547 Y135.337 E0.03179
G1 X163.469 Y135.24 E0.04628
G1 X162.376 Y135.23 E0.04677
G1 X162.016 Y135.255 E0.01539
G1 X161.636 Y135.282 E0.01631
G1 X160.906 Y135.379 E0.0315
G1 X159.489 Y135.7 E0.06208
G1 X158.462 Y136.054 E0.04648
G1 X157.45 Y136.499 E0.04727
G1 X156.494 Y137.039 E0.04695
G1 X155.316 Y137.871 E0.06164
G1 X154.488 Y138.591 E0.04693
G1 X153.965 Y139.124 E0.03191
G1 X153.045 Y140.253 E0.06225
G1 X152.268 Y141.486 E0.06233
G1 X151.792 Y142.463 E0.04645
G1 X151.396 Y143.481 E0.04675
G1 X151.181 Y144.195 E0.03187
G1 X150.95 Y145.276 E0.04726
G1 X150.794 Y146.701 E0.06127
G1 X150.783 Y147.8 E0.04701
G1 X150.882 Y148.889 E0.04672
G1 X151.07 Y149.97 E0.04694
G1 X152.84 Y157.791 E0.34282
G1 X153.241 Y159.169 E0.0614
G1 X153.513 Y159.865 E0.03193
G1 X153.999 Y160.858 E0.04727
G1 X154.754 Y162.078 E0.06133
G1 X155.429 Y162.956 E0.04737
G1 X156.201 Y163.771 E0.04798
G1 X156.999 Y164.49 E0.04595
G1 X158.803 Y165.706 E0.09302
G1 X159.306 Y165.944 E0.0238
;WIPE_START
G1 X159.393 Y166.369 F9000
;WIPE_END
G1 E-0.6 F3000
G1 X171.698 Y127.828 F9000
G1 E0.6 F1800
; External perimeter
;Perimeter
SET_VELOCITY_LIMIT ACCEL=2000 ACCEL_TO_DECEL=2000 SQUARE_CORNER_VELOCITY=8

; Overhang perimeter

;TYPE:Internal perimeter
G1 X171.542 Y128.665 E0.03643
G1 X171.609 Y129.426 E0.03266
G1 X173.398 Y137.329 E0.34645
G1 X173.666 Y138.046 E0.03272
G1 X174.036 Y138.569 E0.0274
G1 X174.448 Y138.975 E0.02475
G1 X174.832 Y139.238 E0.01987
G1 X175.575 Y139.541 E0.03433
G1 X176.391 Y139.636 E0.03514
G1 X177.174 Y139.515 E0.03386
G1 X177.952 Y139.167 E0.03643
G1 X178.579 Y138.637 E0.03511
G1 X179.043 Y137.95 E0.03543
G1 X179.312 Y137.149 E0.03615
G1 X179.291 Y136.022 E0.04817
G1 X177.496 Y128.092 E0.34765
G1 X177.229 Y127.378 E0.0326
G1 X176.879 Y126.879 E0.02605
G1 X176.425 Y126.426 E0.02741
G1 X175.696 Y126 E0.0361
G1 X174.537 Y125.781 E0.05044
G1 X174.103 Y125.848 E0.01877
G1 X173.705 Y125.91 E0.01723
G1 X173.137 Y126.152 E0.02642
G1 X172.634 Y126.486 E0.02577
G1 X172.284 Y126.821 E0.02076
G1 X171.728 Y127.776 E0.04723
G1 X172.105 Y127.979 F9000
; External perimeter
;ExternalPerimeter
SET_VELOCITY_LIMIT ACCEL=1000 ACCEL_TO_DECEL=1000 SQUARE_CORNER_VELOCITY=8

; Perimeter

;TYPE:External perimeter
G1 F1800
G1 X171.974 Y128.686 E0.03075
G1 X172.033 Y129.36 E0.02891
G1 X173.809 Y137.206 E0.34397
G1 X174.048 Y137.844 E0.0291
G1 X174.364 Y138.29 E0.0234
G1 X174.722 Y138.643 E0.02149
G1 X175.036 Y138.858 E0.01628
G1 X175.683 Y139.123 E0.02987
G1 X176.383 Y139.204 E0.03014
G1 X177.051 Y139.1 E0.02891
G1 X177.721 Y138.8 E0.03138
G1 X178.257 Y138.348 E0.02998
G1 X178.655 Y137.759 E0.0304
G1 X178.882 Y137.083 E0.03049
G1 X178.864 Y136.074 E0.04312
G1 X177.085 Y128.215 E0.34452
G1 X176.847 Y127.579 E0.02903
G1 X176.55 Y127.156 E0.02211
G1 X176.161 Y126.769 E0.02345
G1 X175.544 Y126.407 E0.03059
G1 X174.53 Y126.216 E0.04412
G1 X174.169 Y126.272 E0.01562
