; generated by SuperSlicer 2.4 on 2022-05-25 at 02:55:56 UTC


;
;

;
;
; 

; external perimeters extrusion width = 0.40mm
; perimeters extrusion width = 0.40mm
; infill extrusion width = 0.72mm
; solid infill extrusion width = 0.56mm
; top infill extrusion width = 0.40mm
; first layer extrusion width = 0.48mm

; external perimeters extrusion width = 0.40mm
; perimeters extrusion width = 0.40mm
; infill extrusion width = 0.72mm
; solid infill extrusion width = 0.56mm
; top infill extrusion width = 0.40mm
; first layer extrusion width = 0.48mm

; external perimeters extrusion width = 0.40mm
; perimeters extrusion width = 0.40mm
; infill extrusion width = 0.72mm
; solid infill extrusion width = 0.56mm
; top infill extrusion width = 0.40mm
; first layer extrusion width = 0.48mm

; external perimeters extrusion width = 0.40mm
; perimeters extrusion width = 0.40mm
; infill extrusion width = 0.72mm
; solid infill extrusion width = 0.56mm
; top infill extrusion width = 0.40mm
; first layer extrusion width = 0.48mm

; external perimeters extrusion width = 0.40mm
; perimeters extrusion width = 0.40mm
; infill extrusion width = 0.72mm
; solid infill extrusion width = 0.56mm
; top infill extrusion width = 0.40mm
; first layer extrusion width = 0.48mm

; external perimeters extrusion width = 0.40mm
; perimeters extrusion width = 0.40mm
; infill extrusion width = 0.72mm
; solid infill extrusion width = 0.56mm
; top infill extrusion width = 0.40mm
; first layer extrusion width = 0.48mm

; object:{"name":"anclatge_caixa_2020","id":"anclatge_caixa_2020 id:0 copy 0","object_center":[165.000000,181.700001,0.000000],"boundingbox_center":[165.000000,181.700001,10.000000],"boundingbox_size":[16.000000,27.400000,20.000000]}
; object:{"name":"anclatge_caixa_2020","id":"anclatge_caixa_2020 id:1 copy 0","object_center":[187.000000,181.700001,0.000000],"boundingbox_center":[187.000000,181.700001,10.000000],"boundingbox_size":[16.000000,27.400000,20.000000]}
; object:{"name":"anclatge_caixa_2020","id":"anclatge_caixa_2020 id:2 copy 0","object_center":[165.000000,148.300001,0.000000],"boundingbox_center":[165.000000,148.300001,10.000000],"boundingbox_size":[16.000000,27.400000,20.000000]}
; object:{"name":"anclatge_caixa_2020","id":"anclatge_caixa_2020 id:3 copy 0","object_center":[187.000000,148.300001,0.000000],"boundingbox_center":[187.000000,148.300001,10.000000],"boundingbox_size":[16.000000,27.400000,20.000000]}
; object:{"name":"anclatge_caixa_2020","id":"anclatge_caixa_2020 id:4 copy 0","object_center":[143.000000,181.700001,0.000000],"boundingbox_center":[143.000000,181.700001,10.000000],"boundingbox_size":[16.000000,27.400000,20.000000]}
; object:{"name":"anclatge_caixa_2020","id":"anclatge_caixa_2020 id:5 copy 0","object_center":[143.000000,148.300000,0.000000],"boundingbox_center":[143.000000,148.300000,10.000000],"boundingbox_size":[16.000000,27.400000,20.000000]}
; plater:{"center":[165.000000,165.000001,0.000000],"boundingbox_center":[165.000000,165.000001,10.000000],"boundingbox_size":[60.000000,60.800001,20.000000]}

M73 P0 R52
;TYPE:Custom
START_PRINT T_BED=110 T_EXTRUDER=245
M107
G21 ; set units to millimeters
G90 ; use absolute coordinates
M83 ; use relative distances for extrusion
; Filament gcode
M104 S245 ; set temperature
M109 S245 ; set temperature and wait for it to be reached
M190 S110 ; set bed temperature and wait for it to be reached
M107
;LAYER_CHANGE
;Z:0.24
;HEIGHT:0.24
G1 Z0.24 F18000
G92 E0
G1 E-0.5 F3000
M204 S1000
G1 X132.895 Y138.01 F18000
G1 E0.5 F1800
;TYPE:Skirt
;WIDTH:0.52
G1 X131.795 Y139.317 E0.07988
G1 X131.401 Y140.98 E0.07988
G1 X131.407 Y190.658 E2.32228
G1 X131.569 Y192.092 E0.06745
G1 X132.07 Y193.72 E0.07964
G1 X132.842 Y195.165 E0.0766
G1 X133.743 Y196.295 E0.06752
G1 X135.105 Y197.467 E0.08401
G1 X136.593 Y198.295 E0.07958
G1 X137.963 Y198.752 E0.06752
G1 X139.648 Y198.992 E0.07958
G1 X194.9 Y199 E2.58284
G1 X197.105 Y198.27 E0.10858
G1 X198.205 Y196.963 E0.07988
G1 X198.6 Y195.3 E0.07988
G1 X198.6 Y140.98 E2.53928
G1 X197.87 Y138.775 E0.10858
G1 X196.563 Y137.675 E0.07988
G1 X194.9 Y137.28 E0.07988
G1 X135.1 Y137.28 E2.79545
G1 X132.895 Y138.01 E0.10858
G1 X133.264 Y138.352 F18000
G1 F1800
G1 X132.261 Y139.434 E0.06895
G1 X131.867 Y140.98 E0.0746
G1 X131.874 Y190.658 E2.32227
G1 X132.028 Y192.007 E0.06347
G1 X132.506 Y193.553 E0.07565
G1 X133.227 Y194.901 E0.07147
G1 X134.072 Y195.965 E0.06353
G1 X135.359 Y197.076 E0.07946
G1 X136.771 Y197.864 E0.07559
G1 X138.06 Y198.295 E0.06353
G1 X139.66 Y198.525 E0.07559
G1 X194.9 Y198.533 E2.58227
M73 P1 R52
G1 X196.654 Y198.016 E0.08548
G1 X197.739 Y196.846 E0.0746
G1 X198.133 Y195.3 E0.0746
G1 X198.133 Y140.98 E2.53928
G1 X197.616 Y139.226 E0.08548
G1 X196.446 Y138.141 E0.0746
G1 X194.9 Y137.747 E0.0746
G1 X135.1 Y137.747 E2.79545
G1 X133.346 Y138.264 E0.08548
G1 X133.264 Y138.352 E0.00565
G1 E-0.5 F3000
; printing object anclatge_caixa_2020 id:0 copy 0
; acceleration to travel
M204 S3500
G1 X155.136 Y175.361 F18000
; decel to extrusion
M204 S1000
G1 X161.385 Y185.935
; end travel
G1 E0.5 F1800
;TYPE:Internal perimeter
;WIDTH:0.48
G1 X161.259 Y185.983 E0.00578
G1 X160.605 Y186.408 E0.03335
G1 X160.138 Y186.852 E0.02753
G1 X159.679 Y187.483 E0.03335
G1 X159.353 Y188.215 E0.03427
G1 X159.191 Y188.978 E0.03336
G1 X159.174 Y189.622 E0.02753
G1 X159.296 Y190.392 E0.03336
G1 X159.576 Y191.121 E0.03336
G1 X159.912 Y191.67 E0.02753
G1 X160.434 Y192.25 E0.03336
G1 X161.083 Y192.721 E0.03427
G1 X161.795 Y193.038 E0.03336
G1 X162.422 Y193.188 E0.02753
G1 X163.201 Y193.229 E0.03335
G1 X163.971 Y193.107 E0.03335
G1 X164.578 Y192.892 E0.02753
G1 X165.254 Y192.502 E0.03336
G1 X165.85 Y191.966 E0.03427
G1 X166.321 Y191.317 E0.03427
G1 X166.647 Y190.585 E0.03427
G1 X166.809 Y189.822 E0.03336
G1 X166.825 Y189.2 E0.02661
G1 X166.744 Y188.582 E0.02662
G1 X166.503 Y187.84 E0.03335
G1 X166.102 Y187.146 E0.03427
G1 X165.566 Y186.55 E0.03427
G1 X164.917 Y186.079 E0.03427
G1 X164.185 Y185.753 E0.03427
G1 X163.422 Y185.591 E0.03335
G1 X162.778 Y185.574 E0.02753
G1 X162.008 Y185.696 E0.03336
G1 X161.385 Y185.935 E0.0285
G1 X161.539 Y186.335 F18000
G1 F1800
G1 X161.455 Y186.367 E0.00385
G1 X160.871 Y186.746 E0.02975
G1 X160.461 Y187.135 E0.02417
G1 X160.052 Y187.698 E0.02974
G1 X159.763 Y188.348 E0.03042
G1 X159.618 Y189.029 E0.02975
G1 X159.604 Y189.594 E0.02416
G1 X159.712 Y190.281 E0.02975
G1 X159.962 Y190.93 E0.02975
G1 X160.257 Y191.412 E0.02416
G1 X160.723 Y191.929 E0.02975
G1 X161.298 Y192.348 E0.03042
G1 X161.934 Y192.631 E0.02975
G1 X162.483 Y192.763 E0.02416
G1 X163.178 Y192.799 E0.02975
G1 X163.865 Y192.69 E0.02975
G1 X164.398 Y192.501 E0.02417
G1 X165.001 Y192.154 E0.02975
G1 X165.529 Y191.677 E0.03042
G1 X165.948 Y191.102 E0.03042
G1 X166.237 Y190.452 E0.03042
G1 X166.382 Y189.771 E0.02975
G1 X166.396 Y189.222 E0.02349
G1 X166.324 Y188.677 E0.02349
G1 X166.109 Y188.016 E0.02974
G1 X165.754 Y187.399 E0.03042
G1 X165.277 Y186.871 E0.03042
G1 X164.702 Y186.452 E0.03042
G1 X164.052 Y186.163 E0.03042
G1 X163.371 Y186.018 E0.02975
G1 X162.806 Y186.004 E0.02416
G1 X162.119 Y186.112 E0.02975
G1 X161.539 Y186.335 E0.02657
G1 X161.692 Y186.735 F18000
G1 F1800
G1 X161.65 Y186.751 E0.00193
G1 X161.138 Y187.084 E0.02614
G1 X160.785 Y187.419 E0.0208
G1 X160.426 Y187.914 E0.02614
G1 X160.173 Y188.481 E0.02657
G1 X160.046 Y189.079 E0.02614
G1 X160.033 Y189.566 E0.0208
G1 X160.129 Y190.169 E0.02614
G1 X160.348 Y190.74 E0.02614
G1 X160.602 Y191.155 E0.0208
G1 X161.011 Y191.609 E0.02614
G1 X161.514 Y191.974 E0.02657
G1 X162.072 Y192.223 E0.02614
G1 X162.545 Y192.337 E0.0208
G1 X163.156 Y192.369 E0.02614
G1 X163.759 Y192.273 E0.02614
G1 X164.218 Y192.111 E0.0208
G1 X164.747 Y191.805 E0.02614
G1 X165.209 Y191.389 E0.02657
G1 X165.574 Y190.886 E0.02657
G1 X165.827 Y190.319 E0.02657
G1 X165.954 Y189.721 E0.02614
G1 X165.967 Y189.245 E0.02036
G1 X165.905 Y188.772 E0.02037
G1 X165.716 Y188.191 E0.02614
G1 X165.405 Y187.653 E0.02657
G1 X164.989 Y187.191 E0.02657
G1 X164.486 Y186.826 E0.02657
G1 X163.919 Y186.573 E0.02657
G1 X163.321 Y186.446 E0.02614
G1 X162.834 Y186.433 E0.0208
G1 X162.231 Y186.529 E0.02614
G1 X161.692 Y186.735 E0.02465
G1 X161.846 Y187.135 F18000
;TYPE:External perimeter
G1 F1800
G1 X161.404 Y187.422 E0.02253
G1 X161.108 Y187.703 E0.01743
G1 X160.799 Y188.129 E0.02253
G1 X160.583 Y188.615 E0.02272
G1 X160.473 Y189.13 E0.02253
G1 X160.462 Y189.537 E0.01743
G1 X160.545 Y190.058 E0.02253
G1 X160.734 Y190.55 E0.02253
G1 X160.947 Y190.897 E0.01743
G1 X161.299 Y191.289 E0.02253
G1 X161.729 Y191.601 E0.02272
G1 X162.21 Y191.816 E0.02253
G1 X162.607 Y191.911 E0.01743
G1 X163.133 Y191.938 E0.02253
G1 X163.653 Y191.856 E0.02253
G1 X164.038 Y191.72 E0.01743
G1 X164.494 Y191.456 E0.02253
G1 X164.889 Y191.101 E0.02272
G1 X165.201 Y190.671 E0.02272
G1 X165.417 Y190.185 E0.02272
G1 X165.527 Y189.67 E0.02253
G1 X165.538 Y189.267 E0.01724
G1 X165.485 Y188.867 E0.01724
G1 X165.322 Y188.366 E0.02253
G1 X165.056 Y187.906 E0.02272
G1 X164.701 Y187.511 E0.02272
G1 X164.271 Y187.199 E0.02272
G1 X163.785 Y186.983 E0.02272
G1 X163.27 Y186.873 E0.02253
G1 X162.863 Y186.862 E0.01743
G1 X162.342 Y186.945 E0.02253
G1 X161.846 Y187.135 E0.02272
;WIPE_START
M204 S5000
G1 X161.503 Y186.929 F18000
;WIPE_END
; acceleration to travel
M204 S3500
G1 X159.265 Y178.355
; decel to extrusion
M204 S1000
G1 X158.626 Y175.905
; end travel
;TYPE:Internal perimeter
G1 F1800
G1 X171.375 Y175.905 E0.54506
G1 X171.375 Y193.775 E0.764
G1 X162.044 Y193.775 E0.39894
G1 X161.462 Y193.728 E0.02497
G1 X161.127 Y193.657 E0.01462
G1 X160.804 Y193.552 E0.01454
G1 X160.3 Y193.312 E0.02387
G1 X160.018 Y193.128 E0.01439
G1 X159.744 Y192.906 E0.01509
G1 X159.494 Y192.656 E0.01509
G1 X159.273 Y192.384 E0.01501
G1 X158.998 Y191.933 E0.0226
G1 X158.795 Y191.441 E0.02272
G1 X158.668 Y190.915 E0.02317
G1 X158.632 Y190.576 E0.01455
G1 X158.626 Y175.905 E0.62725
G1 X158.197 Y175.477 F18000
G1 F1800
G1 X171.803 Y175.477 E0.58171
G1 X171.803 Y194.203 E0.80064
G1 X162.027 Y194.203 E0.41798
G1 X161.4 Y194.153 E0.02689
G1 X161.016 Y194.072 E0.01678
G1 X160.645 Y193.951 E0.01671
G1 X160.09 Y193.686 E0.02627
G1 X159.766 Y193.475 E0.01655
G1 X159.456 Y193.225 E0.01701
G1 X159.175 Y192.944 E0.01701
G1 X158.922 Y192.631 E0.01718
G1 X158.615 Y192.127 E0.02525
G1 X158.386 Y191.574 E0.02558
G1 X158.245 Y190.988 E0.0258
G1 X158.204 Y190.599 E0.01672
G1 X158.197 Y175.477 E0.64653
G1 X157.769 Y175.048 F18000
G1 F1800
G1 X172.232 Y175.048 E0.61836
G1 X172.232 Y194.632 E0.83728
G1 X162.01 Y194.632 E0.43702
G1 X161.789 Y194.626 E0.00947
G1 X161.338 Y194.578 E0.01936
G1 X160.905 Y194.486 E0.01893
G1 X160.485 Y194.35 E0.01888
G1 X159.88 Y194.061 E0.02867
G1 X159.513 Y193.823 E0.0187
G1 X159.169 Y193.544 E0.01893
G1 X158.856 Y193.231 E0.01893
G1 X158.571 Y192.879 E0.01936
G1 X158.457 Y192.713 E0.00861
G1 X158.231 Y192.322 E0.01931
G1 X157.977 Y191.707 E0.02844
G1 X157.821 Y191.06 E0.02844
G1 X157.775 Y190.621 E0.01888
G1 X157.769 Y175.048 E0.66582
G1 X157.34 Y174.62 F18000
;TYPE:External perimeter
G1 F1800
G1 X172.66 Y174.62 E0.65501
G1 X172.66 Y195.06 E0.87392
G1 X162.004 Y195.06 E0.45558
M73 P1 R51
G1 X161.761 Y195.054 E0.01043
G1 X161.271 Y195.002 E0.02104
G1 X160.794 Y194.901 E0.02085
G1 X160.326 Y194.749 E0.02104
G1 X159.67 Y194.435 E0.03107
G1 X159.261 Y194.17 E0.02085
G1 X158.882 Y193.863 E0.02085
G1 X158.537 Y193.518 E0.02085
G1 X158.228 Y193.135 E0.02104
G1 X158.094 Y192.942 E0.01005
G1 X157.846 Y192.512 E0.02123
G1 X157.569 Y191.84 E0.03107
G1 X157.398 Y191.133 E0.03107
G1 X157.347 Y190.644 E0.02105
G1 X157.34 Y174.62 E0.6851
;WIPE_START
M204 S5000
G1 X157.687 Y174.82 F18000
;WIPE_END
; acceleration to travel
M204 S3500
G1 X158.829 Y184.637
; decel to extrusion
M204 S1000
G1 X159.155 Y187.442
; end travel
;TYPE:Gap fill
;WIDTH:0.621074
G1 F1800
G1 X159.121 Y187.567 E0.00736
;WIDTH:0.569295
G1 X159.087 Y187.692 E0.0067
G1 X159.07 Y187.77 E0.00412
;WIDTH:0.507073
G1 X159.037 Y187.926 E0.00725
;WIDTH:0.42411
G1 X159.004 Y188.082 E0.00593
;WIDTH:0.391861
G1 X158.998 Y188.118 E0.00124
G1 X158.981 Y188.282 E0.00559
;WIDTH:0.348738
G1 X158.964 Y188.446 E0.00488
;WIDTH:0.305615
G1 X158.947 Y188.61 E0.00418
;WIDTH:0.262492
G1 X158.93 Y188.774 E0.00347
;WIDTH:0.200344
G1 X158.913 Y188.937 E0.00245
G1 X158.912 Y188.953 E0.00023
G1 X158.907 Y189.293 E0.00505
G1 X158.903 Y189.633 E0.00505
G1 X158.903 Y189.646 E0.0002
G1 X158.919 Y189.851 E0.00305
;WIDTH:0.243199
G1 X158.936 Y190.056 E0.00393
;WIDTH:0.286054
G1 X158.952 Y190.261 E0.00481
;WIDTH:0.328908
G1 X158.968 Y190.465 E0.00568
;WIDTH:0.359936
G1 X158.983 Y190.558 E0.00288
G1 X159.018 Y190.703 E0.0046
;WIDTH:0.437971
G1 X159.053 Y190.848 E0.00576
G1 X159.122 Y191.068 E0.00888
;WIDTH:0.504267
G1 X159.19 Y191.288 E0.01041
G1 X159.205 Y191.327 E0.00186
G1 X159.307 Y191.525 E0.01008
;WIDTH:0.596147
G1 X159.408 Y191.724 E0.01213
G1 X159.469 Y191.825 E0.00639
G1 X159.531 Y191.925 E0.00639
G1 X159.558 Y191.965 E0.00262
G1 X159.664 Y192.108 E0.0097
;WIDTH:0.62803
G1 X159.76 Y192.22 E0.00845
G1 X159.855 Y192.331 E0.00845
G1 X159.959 Y192.441 E0.00871
;WIDTH:0.597857
G1 X160.063 Y192.551 E0.00825
G1 X160.096 Y192.582 E0.00246
G1 X160.219 Y192.68 E0.00861
G1 X160.299 Y192.741 E0.00546
G1 X160.53 Y192.901 E0.01532
G1 X160.687 Y192.994 E0.0099
;WIDTH:0.530108
G1 X160.843 Y193.086 E0.00867
G1 X160.966 Y193.146 E0.00655
G1 X161.101 Y193.198 E0.00691
;WIDTH:0.4998
G1 X161.236 Y193.25 E0.00648
G1 X161.377 Y193.296 E0.00662
;WIDTH:0.437929
G1 X161.518 Y193.342 E0.00571
;WIDTH:0.407582
G1 X161.694 Y193.385 E0.00643
;WIDTH:0.37942
G1 X161.875 Y193.414 E0.00602
;WIDTH:0.321831
G1 X162.057 Y193.442 E0.00496
G1 X162.214 Y193.461 E0.00426
;WIDTH:0.245084
G1 X162.37 Y193.479 E0.00305
G1 X162.388 Y193.481 E0.00035
G1 X162.798 Y193.491 E0.00791
;WIDTH:0.203022
G1 X163.207 Y193.502 E0.00619
G1 X163.223 Y193.502 E0.00024
G1 X163.428 Y193.486 E0.0031
;WIDTH:0.245989
G1 X163.632 Y193.47 E0.00399
;WIDTH:0.288956
G1 X163.837 Y193.453 E0.00487
;WIDTH:0.337824
G1 X164.042 Y193.437 E0.00587
G1 X164.171 Y193.416 E0.00375
;WIDTH:0.381141
G1 X164.275 Y193.398 E0.00346
;WIDTH:0.423858
G1 X164.379 Y193.381 E0.0039
;WIDTH:0.466575
G1 X164.482 Y193.363 E0.00435
;WIDTH:0.509292
G1 X164.586 Y193.345 E0.0048
;WIDTH:0.546089
G1 X164.689 Y193.327 E0.00519
G1 X164.741 Y193.319 E0.00258
;WIDTH:0.58398
G1 X164.936 Y193.282 E0.01056
; acceleration to travel
M204 S3500
G1 X169.86 Y180.579 F18000
; decel to extrusion
M204 S1000
G1 X171.31 Y176.836
; end travel
;TYPE:Solid infill
;WIDTH:0.466431
G1 F3600
G1 X170.628 Y176.154 E0.04007
G1 X170.022 Y176.154 E0.02518
G1 X171.126 Y177.258 E0.06485
G1 X171.126 Y177.864 E0.02518
G1 X169.416 Y176.154 E0.10045
G1 X168.81 Y176.154 E0.02518
G1 X171.126 Y178.47 E0.13606
G1 X171.126 Y179.076 E0.02518
G1 X168.204 Y176.154 E0.17166
G1 X167.598 Y176.154 E0.02518
G1 X171.126 Y179.682 E0.20727
G1 X171.126 Y180.288 E0.02518
G1 X166.992 Y176.154 E0.24287
G1 X166.386 Y176.154 E0.02518
G1 X171.126 Y180.894 E0.27848
G1 X171.126 Y181.5 E0.02518
G1 X165.78 Y176.154 E0.31408
G1 X165.174 Y176.154 E0.02518
G1 X171.126 Y182.106 E0.34969
G1 X171.126 Y182.712 E0.02518
G1 X164.568 Y176.154 E0.38529
G1 X163.963 Y176.154 E0.02518
G1 X171.126 Y183.317 E0.4209
G1 X171.126 Y183.923 E0.02518
G1 X163.357 Y176.154 E0.45651
G1 X162.751 Y176.154 E0.02518
G1 X171.126 Y184.529 E0.49211
G1 X171.126 Y185.135 E0.02518
G1 X162.145 Y176.154 E0.52772
G1 X161.539 Y176.154 E0.02518
G1 X171.126 Y185.741 E0.56332
G1 X171.126 Y186.347 E0.02518
G1 X160.933 Y176.154 E0.59893
G1 X160.327 Y176.154 E0.02518
G1 X171.126 Y186.953 E0.63453
G1 X171.126 Y187.559 E0.02518
G1 X159.721 Y176.154 E0.67014
G1 X159.115 Y176.154 E0.02518
G1 X171.126 Y188.165 E0.70574
G1 X171.126 Y188.771 E0.02518
G1 X158.875 Y176.52 E0.71983
G1 X158.875 Y177.126 E0.02519
G1 X171.126 Y189.377 E0.71981
G1 X171.126 Y189.983 E0.02518
G1 X158.875 Y177.733 E0.7198
G1 X158.876 Y178.339 E0.02519
G1 X171.126 Y190.589 E0.71978
G1 X171.126 Y191.195 E0.02518
G1 X158.876 Y178.945 E0.71977
G1 X158.876 Y179.551 E0.02519
G1 X171.126 Y191.801 E0.71975
G1 X171.126 Y192.407 E0.02518
