; generated by SuperSlicer 2.3.57 on 2022-02-11 at 02:47:08 UTC


;
;

;
;
; 

; external perimeters extrusion width = 0.40mm
; perimeters extrusion width = 0.45mm
; infill extrusion width = 0.72mm
; solid infill extrusion width = 0.56mm
; top infill extrusion width = 0.40mm
; support material extrusion width = 0.42mm
; first layer extrusion width = 0.48mm

; object:{"name":"Mount_Mod_Sahsi5","id":"Mount_Mod_Sahsi5.stl id:0 copy 0","object_center":[152.500000,150.000000,0.000000],"boundingbox_center":[152.500000,150.000000,30.000000],"boundingbox_size":[57.000000,78.000000,60.000000]}
; plater:{"center":[152.500000,150.000000,0.000000],"boundingbox_center":[152.500000,150.000000,30.000000],"boundingbox_size":[57.000000,78.000000,60.000000]}

;TYPE:Custom
START_PRINT T_BED=110 T_EXTRUDER=245
M107
G21 ; set units to millimeters
G90 ; use absolute coordinates
M83 ; use relative distances for extrusion
; Filament gcode
M109 S245 ; set temperature and wait for it to be reached
M190 S110 ; set bed temperature and wait for it to be reached
;LAYER_CHANGE
;Z:0.24
;HEIGHT:0.24
G1 E-0.5 F3000
G1 Z0.24 F9000
G1 X124.523 Y108.411
G1 E0.5 F1800
; External perimeter
;Skirt
SET_VELOCITY_LIMIT ACCEL=3000 ACCEL_TO_DECEL=3000 SQUARE_CORNER_VELOCITY=8

; Support material

;TYPE:Skirt
;WIDTH:0.48
G1 X123.96 Y109.063 E0.03681
G1 X123.578 Y109.798 E0.03541
G1 X123.372 Y110.595 E0.03521
G1 X116.3 Y163.653 E2.28858
G1 X116.296 Y193.869 E1.29189
G1 X116.435 Y194.704 E0.03621
G1 X116.761 Y195.481 E0.03601
G1 X117.256 Y196.162 E0.03601
G1 X117.899 Y196.713 E0.03621
G1 X118.861 Y197.173 E0.0456
G1 X119.911 Y197.335 E0.0454
G1 X141.371 Y197.335 E0.91753
G1 X182.72 Y197.143 E1.76792
G1 X183.321 Y197.055 E0.02598
G1 X183.895 Y196.871 E0.02578
G1 X184.434 Y196.591 E0.02598
G1 X184.92 Y196.226 E0.02598
G1 X188.087 Y192.35 E0.21399
G1 X188.538 Y191.415 E0.0444
G1 X188.708 Y190.39 E0.0444
G1 X188.683 Y163.472 E1.1509
G1 X181.598 Y110.418 E2.2885
G1 X181.429 Y109.815 E0.02678
G1 X181.158 Y109.25 E0.02678
G1 X180.792 Y108.736 E0.02698
G1 X180.346 Y108.296 E0.02678
G1 X179.831 Y107.939 E0.02678
G1 X179.258 Y107.674 E0.02698
G1 X178.649 Y107.512 E0.02698
G1 X178.025 Y107.457 E0.02678
G1 X126.871 Y107.459 E2.18708
G1 X126.02 Y107.586 E0.03681
G1 X125.222 Y107.909 E0.03681
G1 X124.571 Y108.376 E0.03424
G1 X124.818 Y108.722 F9000
G1 F1800
G1 X124.319 Y109.297 E0.03253
G1 X123.98 Y109.947 E0.03137
G1 X123.796 Y110.657 E0.03137
G1 X116.728 Y163.672 E2.28674
G1 X116.723 Y193.829 E1.28935
G1 X116.841 Y194.566 E0.03193
G1 X117.127 Y195.256 E0.03193
G1 X117.563 Y195.862 E0.03193
G1 X118.132 Y196.353 E0.03212
G1 X118.983 Y196.762 E0.04038
G1 X119.917 Y196.906 E0.04038
G1 X141.369 Y196.906 E0.91721
G1 X182.689 Y196.716 E1.76668
G1 X183.745 Y196.469 E0.04636
G1 X184.662 Y195.882 E0.04655
G1 X187.727 Y192.117 E0.20755
G1 X188.129 Y191.287 E0.03944
G1 X188.279 Y190.377 E0.03944
G1 X188.259 Y163.535 E1.14765
G1 X181.181 Y110.519 E2.28682
G1 X181.033 Y109.982 E0.02383
G1 X180.795 Y109.478 E0.02383
G1 X180.473 Y109.023 E0.02383
G1 X180.077 Y108.63 E0.02383
G1 X179.62 Y108.312 E0.02383
G1 X179.114 Y108.078 E0.02383
G1 X178.024 Y107.886 E0.0473
G1 X126.897 Y107.887 E2.18596
G1 X126.141 Y107.997 E0.03268
G1 X125.436 Y108.281 E0.0325
G1 X124.867 Y108.687 E0.02989
; INIT printing object Mount_Mod_Sahsi5.stl id:0 copy 0
G1 E-0.5 F3000
; printing object Mount_Mod_Sahsi5.stl id:0 copy 0
G1 X141.359 Y193.692 F9000
G1 E0.5 F1800
; External perimeter
;SupportMaterial
SET_VELOCITY_LIMIT ACCEL=3000 ACCEL_TO_DECEL=3000 SQUARE_CORNER_VELOCITY=8

; Support material interface

;TYPE:Support material
G1 X141.359 Y168.233 E1.08851
G1 X140.502 Y168.233 E0.03664
G1 X140.502 Y193.508 E1.08063
G1 X139.645 Y193.508 E0.03664
G1 X139.645 Y168.233 E1.08063
G1 X138.788 Y168.233 E0.03664
G1 X138.788 Y193.508 E1.08063
G1 X137.931 Y193.508 E0.03664
G1 X137.931 Y168.233 E1.08063
G1 X137.074 Y168.233 E0.03664
G1 X137.074 Y193.508 E1.08063
G1 X136.217 Y193.508 E0.03664
G1 X136.217 Y168.233 E1.08063
G1 X135.36 Y168.233 E0.03664
G1 X135.36 Y193.508 E1.08063
G1 X134.503 Y193.508 E0.03664
G1 X134.503 Y168.233 E1.08063
G1 X133.646 Y168.233 E0.03664
G1 X133.646 Y193.508 E1.08063
G1 X132.789 Y193.508 E0.03664
G1 X132.789 Y168.233 E1.08063
G1 X131.932 Y168.233 E0.03664
G1 X131.932 Y193.508 E1.08063
G1 X131.075 Y193.508 E0.03664
G1 X131.075 Y168.233 E1.08063
G1 X130.218 Y168.233 E0.03664
G1 X130.218 Y193.508 E1.08063
G1 X129.361 Y193.508 E0.03664
G1 X129.361 Y168.233 E1.08063
G1 X128.504 Y168.233 E0.03664
G1 X128.504 Y193.508 E1.08063
G1 X127.647 Y193.508 E0.03664
G1 X127.647 Y168.233 E1.08063
G1 X126.79 Y168.233 E0.03664
G1 X126.79 Y193.508 E1.08063
G1 X125.933 Y193.508 E0.03664
G1 X125.933 Y163.903 E1.26578
G1 X125.076 Y163.903 E0.03664
G1 X125.076 Y193.508 E1.26578
G1 X124.219 Y193.508 E0.03664
G1 X124.219 Y163.903 E1.26578
G1 X123.362 Y163.903 E0.03664
G1 X123.362 Y193.508 E1.26578
G1 X122.505 Y193.508 E0.03664
G1 X122.505 Y163.903 E1.26578
G1 X121.648 Y163.903 E0.03664
G1 X121.648 Y193.508 E1.26578
G1 X120.791 Y193.508 E0.03664
G1 X120.791 Y163.903 E1.26578
G1 X119.934 Y163.903 E0.03664
G1 X119.934 Y193.692 E1.27366
G1 E-0.5 F3000
G1 X185.066 Y190.315 F9000
G1 E0.5 F1800
G1 X185.066 Y163.903 E1.12927
G1 X184.209 Y163.903 E0.03664
G1 X184.209 Y190.131 E1.12139
G1 X183.352 Y190.131 E0.03664
G1 X183.352 Y163.903 E1.12139
G1 X182.495 Y163.903 E0.03664
G1 X182.495 Y193.508 E1.26578
G1 X181.638 Y193.508 E0.03664
G1 X181.638 Y163.903 E1.26578
G1 X180.781 Y163.903 E0.03664
G1 X180.781 Y193.508 E1.26578
G1 X179.924 Y193.508 E0.03664
G1 X179.924 Y163.903 E1.26578
G1 X179.067 Y163.903 E0.03664
G1 X179.067 Y193.508 E1.26578
G1 X178.21 Y193.508 E0.03664
G1 X178.21 Y168.233 E1.08063
G1 X177.353 Y168.233 E0.03664
G1 X177.353 Y193.508 E1.08063
G1 X176.496 Y193.508 E0.03664
G1 X176.496 Y168.233 E1.08063
G1 X175.639 Y168.233 E0.03664
G1 X175.639 Y193.508 E1.08063
G1 X174.782 Y193.508 E0.03664
G1 X174.782 Y168.233 E1.08063
G1 X173.925 Y168.233 E0.03664
G1 X173.925 Y193.508 E1.08063
G1 X173.068 Y193.508 E0.03664
G1 X173.068 Y168.233 E1.08063
G1 X172.211 Y168.233 E0.03664
G1 X172.211 Y193.508 E1.08063
G1 X171.354 Y193.508 E0.03664
G1 X171.354 Y168.233 E1.08063
G1 X170.497 Y168.233 E0.03664
G1 X170.497 Y193.508 E1.08063
G1 X169.64 Y193.508 E0.03664
G1 X169.64 Y168.233 E1.08063
G1 X168.783 Y168.233 E0.03664
G1 X168.783 Y193.508 E1.08063
G1 X167.926 Y193.508 E0.03664
G1 X167.926 Y168.233 E1.08063
G1 X167.069 Y168.233 E0.03664
G1 X167.069 Y193.508 E1.08063
G1 X166.212 Y193.508 E0.03664
G1 X166.212 Y168.233 E1.08063
G1 X165.355 Y168.233 E0.03664
G1 X165.355 Y193.508 E1.08063
G1 X164.498 Y193.508 E0.03664
G1 X164.498 Y168.233 E1.08063
G1 X163.641 Y168.233 E0.03664
G1 X163.641 Y193.508 E1.08063
G1 X163.026 Y193.508 E0.02631
G1 X163.026 Y190.131 E0.14439
G1 X162.784 Y190.131 E0.01033
G1 X162.784 Y168.233 E0.93624
G1 X161.927 Y168.233 E0.03664
G1 X161.927 Y190.131 E0.93624
G1 X161.07 Y190.131 E0.03664
G1 X161.07 Y168.233 E0.93624
G1 X160.213 Y168.233 E0.03664
G1 X160.213 Y190.315 E0.94412
G1 E-0.5 F3000
G1 X136.217 Y157.17 F9000
G1 E0.5 F1800
G1 X136.217 Y146.669 E0.44899
G1 X135.901 Y146.444 E0.01656
G1 X135.481 Y146.294 E0.01908
G1 X135.36 Y146.277 E0.00523
G1 X135.36 Y157.313 E0.47185
G1 X135.269 Y157.339 E0.00403
G1 X134.905 Y157.314 E0.0156
G1 X134.503 Y157.135 E0.01883
G1 X134.503 Y146.437 E0.45738
G1 X134.286 Y146.557 E0.01061
G1 X134.161 Y146.659 E0.00692
G1 X133.896 Y146.983 E0.01785
G1 X133.657 Y147.647 E0.03017
G1 X133.646 Y147.809 E0.00695
G1 X133.646 Y156.54 E0.37331
G1 E-0.5 F3000
G1 X151.643 Y151.447 F9000
G1 E0.5 F1800
G1 X151.643 Y147.017 E0.18938
G1 X150.786 Y147.017 E0.03664
G1 X150.786 Y151.312 E0.18364
G1 X150.658 Y151.316 E0.00548
G1 X149.929 Y151.271 E0.03122
G1 X149.929 Y147.017 E0.18189
G1 X149.072 Y147.017 E0.03664
G1 X149.072 Y151.185 E0.17822
G1 X148.215 Y151.029 E0.03724
G1 X148.215 Y143.64 E0.31593
G1 X147.358 Y143.64 E0.03664
G1 X147.358 Y150.786 E0.30551
G1 X146.752 Y150.597 E0.02714
G1 X146.501 Y150.493 E0.01162
G1 X146.501 Y143.64 E0.29298
G1 X145.644 Y143.64 E0.03664
G1 X145.644 Y150.081 E0.27539
G1 X144.965 Y149.725 E0.03281
G1 X144.787 Y149.602 E0.00922
G1 X144.787 Y140.263 E0.3993
G1 X143.93 Y140.263 E0.03664
G1 X143.93 Y149.009 E0.37396
G1 X143.877 Y148.973 E0.00276
G1 X143.073 Y148.217 E0.04718
G1 X143.073 Y140.263 E0.34006
G1 X142.216 Y140.263 E0.03664
G1 X142.216 Y147.347 E0.30287
G1 X141.588 Y146.545 E0.04358
G1 X141.359 Y146.175 E0.01856
G1 X141.359 Y140.263 E0.25278
G1 X140.502 Y140.263 E0.03664
G1 X140.502 Y144.553 E0.1834
G1 X140.361 Y144.211 E0.0158
G1 X139.818 Y142.264 E0.08642
G1 X139.645 Y140.368 E0.08142
G1 X139.645 Y140.079 E0.01235
G1 E-0.5 F3000
G1 X162.877 Y146.878 F9000
G1 E0.5 F1800
; External perimeter
;Perimeter
SET_VELOCITY_LIMIT ACCEL=2000 ACCEL_TO_DECEL=2000 SQUARE_CORNER_VELOCITY=8

; Overhang perimeter

;TYPE:Internal perimeter
G1 X162.762 Y147.719 E0.03629
G1 X162.762 Y155.885 E0.34916
G1 X162.889 Y156.756 E0.03766
G1 X163.235 Y157.555 E0.03723
G1 X163.582 Y158.047 E0.02575
G1 X164.517 Y158.807 E0.05149
G1 X165.118 Y159.082 E0.02828
G1 X166.389 Y159.257 E0.05484
G1 X167.165 Y159.114 E0.03375
G1 X167.977 Y158.762 E0.03783
G1 X168.546 Y158.342 E0.03024
G1 X168.904 Y157.956 E0.0225
G1 X169.259 Y157.402 E0.02816
G1 X169.54 Y156.722 E0.03143
G1 X169.656 Y155.882 E0.03625
G1 X169.656 Y147.72 E0.34898
G1 X169.541 Y146.901 E0.03536
G1 X169.373 Y146.423 E0.02168
G1 X169.139 Y145.977 E0.0215
G1 X168.72 Y145.44 E0.02913
G1 X168.22 Y144.995 E0.02861
G1 X167.721 Y144.692 E0.02497
G1 X166.495 Y144.36 E0.05431
G1 X165.941 Y144.36 E0.02367
G1 X165.269 Y144.484 E0.02925
G1 X164.608 Y144.738 E0.03027
G1 X163.887 Y145.245 E0.03769
G1 X163.511 Y145.646 E0.02347
G1 X163.158 Y146.201 E0.02814
G1 X162.9 Y146.822 E0.02874
G1 X163.296 Y146.986 F9000
G1 F1800
G1 X163.191 Y147.748 E0.03286
G1 X163.191 Y155.854 E0.34659
G1 X163.304 Y156.638 E0.03389
G1 X163.611 Y157.344 E0.0329
G1 X163.899 Y157.752 E0.02135
G1 X164.745 Y158.44 E0.04663
G1 X165.239 Y158.666 E0.02325
G1 X166.379 Y158.823 E0.04921
G1 X167.04 Y158.702 E0.0287
G1 X167.761 Y158.388 E0.03365
G1 X168.259 Y158.021 E0.02645
G1 X168.564 Y157.693 E0.01915
G1 X168.878 Y157.203 E0.02488
G1 X169.123 Y156.609 E0.02745
G1 X169.227 Y155.853 E0.03265
G1 X169.227 Y147.75 E0.34644
G1 X169.123 Y147.003 E0.03224
G1 X168.979 Y146.594 E0.01853
G1 X168.778 Y146.21 E0.01854
G1 X168.406 Y145.734 E0.02581
G1 X167.965 Y145.341 E0.02528
G1 X167.55 Y145.09 E0.02072
G1 X166.438 Y144.788 E0.04929
G1 X165.981 Y144.788 E0.01954
G1 X165.386 Y144.899 E0.02588
G1 X164.811 Y145.119 E0.02632
G1 X164.169 Y145.571 E0.03354
G1 X163.851 Y145.91 E0.01988
G1 X163.539 Y146.4 E0.02484
G1 X163.319 Y146.931 E0.02458
G1 X163.715 Y147.095 F9000
; External perimeter
;ExternalPerimeter
SET_VELOCITY_LIMIT ACCEL=1000 ACCEL_TO_DECEL=1000 SQUARE_CORNER_VELOCITY=8

; Perimeter

;TYPE:External perimeter
G1 F1800
G1 X163.619 Y147.777 E0.02943
G1 X163.619 Y155.823 E0.34402
G1 X163.72 Y156.52 E0.03012
G1 X163.986 Y157.133 E0.02857
G1 X164.215 Y157.457 E0.01694
G1 X164.973 Y158.073 E0.04176
G1 X165.36 Y158.25 E0.01822
G1 X166.37 Y158.389 E0.04357
G1 X166.914 Y158.289 E0.02365
G1 X167.546 Y158.014 E0.02947
G1 X167.972 Y157.7 E0.02267
G1 X168.224 Y157.429 E0.01579
G1 X168.496 Y157.004 E0.0216
G1 X168.706 Y156.496 E0.02347
G1 X168.799 Y155.823 E0.02904
G1 X168.799 Y147.78 E0.34391
G1 X168.705 Y147.105 E0.02913
G1 X168.585 Y146.766 E0.01538
G1 X168.416 Y146.443 E0.01557
G1 X168.092 Y146.029 E0.02249
G1 X167.709 Y145.687 E0.02195
G1 X167.38 Y145.488 E0.01646
G1 X166.381 Y145.217 E0.04426
G1 X166.02 Y145.217 E0.01542
G1 X165.502 Y145.313 E0.02251
G1 X165.014 Y145.5 E0.02237
G1 X164.452 Y145.896 E0.02939
G1 X164.191 Y146.174 E0.01629
G1 X163.921 Y146.599 E0.02153
G1 X163.738 Y147.04 E0.02043
;WIPE_START
G1 X163.706 Y147.096 F9000
;WIPE_END
G1 X162.143 Y146.293
; External perimeter
;Perimeter
SET_VELOCITY_LIMIT ACCEL=2000 ACCEL_TO_DECEL=2000 SQUARE_CORNER_VELOCITY=8

; Overhang perimeter

;TYPE:Internal perimeter
G1 F1800
G1 X162.644 Y145.208 E0.05111
G1 X163.14 Y143.77 E0.06501
G1 X163.412 Y142.618 E0.05062
G1 X163.534 Y141.807 E0.03508
G1 X163.625 Y140.31 E0.06413
G1 X163.625 Y132.244 E0.34485
G1 X163.567 Y131.091 E0.04936
G1 X163.413 Y129.93 E0.05006
G1 X163.139 Y128.776 E0.05074
G1 X162.628 Y127.304 E0.06662
G1 X162.148 Y126.267 E0.04887
G1 X161.747 Y125.558 E0.03482
G1 X161.096 Y124.594 E0.0497
G1 X160.366 Y123.682 E0.04996
G1 X159.265 Y122.581 E0.06657
G1 X158.047 Y121.627 E0.06615
G1 X157.358 Y121.183 E0.03506
G1 X156.323 Y120.627 E0.05023
G1 X154.911 Y120.043 E0.06532
G1 X153.777 Y119.702 E0.05064
G1 X152.615 Y119.477 E0.0506
G1 X151.453 Y119.349 E0.04999
G1 X149.915 Y119.349 E0.06575
G1 X149.116 Y119.421 E0.03428
G1 X148.323 Y119.543 E0.03431
G1 X147.192 Y119.81 E0.04971
G1 X146.096 Y120.164 E0.04923
G1 X145.346 Y120.475 E0.03473
G1 X144.338 Y120.991 E0.0484
G1 X143.332 Y121.611 E0.05052
G1 X142.664 Y122.104 E0.0355
G1 X140.991 Y123.678 E0.09822
G1 X139.819 Y125.23 E0.08315
G1 X139.213 Y126.257 E0.051
G1 X138.716 Y127.331 E0.05057
G1 X138.316 Y128.422 E0.04969
G1 X138.019 Y129.579 E0.05105
G1 X137.79 Y131.081 E0.06499
G1 X137.731 Y132.243 E0.04975
G1 X137.731 Y140.328 E0.34568
G1 X137.939 Y142.609 E0.0979
G1 X138.559 Y144.833 E0.09874
G1 X138.88 Y145.607 E0.03583
G1 X139.42 Y146.657 E0.05049
G1 X140.025 Y147.635 E0.04915
G1 X140.997 Y148.876 E0.06738
G1 X142.677 Y150.456 E0.09865
G1 X143.978 Y151.356 E0.06761
G1 X145.339 Y152.07 E0.06569
G1 X146.102 Y152.387 E0.03537
G1 X147.58 Y152.848 E0.0662
G1 X149.122 Y153.129 E0.067
G1 X150.624 Y153.22 E0.06435
G1 X151.475 Y153.198 E0.03637
G1 X152.996 Y153.014 E0.0655
G1 X153.803 Y152.839 E0.03531
G1 X155.255 Y152.387 E0.06504
G1 X156.011 Y152.072 E0.035
G1 X157.018 Y151.557 E0.04836
G1 X158.039 Y150.928 E0.05127
G1 X159.28 Y149.955 E0.0674
G1 X160.856 Y148.28 E0.09837
G1 X161.53 Y147.325 E0.04998
G1 X162.112 Y146.345 E0.04874
G1 X161.744 Y146.126 F9000
G1 F1800
G1 X161.763 Y146.093 E0.00163
G1 X162.246 Y145.048 E0.04924
G1 X162.728 Y143.651 E0.06317
G1 X162.991 Y142.537 E0.04894
G1 X163.108 Y141.762 E0.03351
G1 X163.196 Y140.297 E0.06277
G1 X163.196 Y132.255 E0.34384
G1 X163.14 Y131.13 E0.04815
G1 X162.991 Y130.008 E0.04839
G1 X162.727 Y128.896 E0.04888
G1 X162.23 Y127.465 E0.06478
G1 X161.766 Y126.462 E0.04722
G1 X161.382 Y125.783 E0.03334
G1 X160.751 Y124.849 E0.04822
G1 X160.046 Y123.969 E0.0482
G1 X158.981 Y122.903 E0.06445
G1 X157.798 Y121.977 E0.0642
G1 X157.14 Y121.552 E0.03349
G1 X156.139 Y121.015 E0.04858
G1 X154.767 Y120.447 E0.06348
G1 X153.674 Y120.119 E0.0488
G1 X152.551 Y119.901 E0.04893
G1 X151.429 Y119.778 E0.04823
G1 X149.934 Y119.778 E0.06392
G1 X149.168 Y119.847 E0.03289
G1 X148.405 Y119.964 E0.03301
G1 X147.307 Y120.223 E0.04823
G1 X146.244 Y120.567 E0.04776
G1 X145.526 Y120.865 E0.03326
G1 X144.548 Y121.365 E0.04693
G1 X143.572 Y121.967 E0.04903
G1 X142.939 Y122.434 E0.03365
G1 X141.311 Y123.965 E0.09557
G1 X140.175 Y125.469 E0.08055
G1 X139.593 Y126.457 E0.04904
G1 X139.113 Y127.495 E0.04891
G1 X138.725 Y128.549 E0.04803
G1 X138.439 Y129.664 E0.04921
G1 X138.217 Y131.125 E0.06315
G1 X138.16 Y132.254 E0.04837
G1 X138.16 Y140.309 E0.34438
G1 X138.362 Y142.531 E0.09541
G1 X138.965 Y144.693 E0.09596
G1 X139.269 Y145.427 E0.03397
G1 X139.793 Y146.446 E0.04901
G1 X140.377 Y147.389 E0.04742
G1 X141.314 Y148.586 E0.06498
G1 X142.947 Y150.122 E0.09588
G1 X144.2 Y150.988 E0.06511
G1 X145.521 Y151.681 E0.06376
G1 X146.249 Y151.984 E0.03371
G1 X147.683 Y152.431 E0.06423
G1 X149.174 Y152.702 E0.06479
G1 X150.632 Y152.791 E0.06246
G1 X151.443 Y152.77 E0.03471
G1 X152.925 Y152.591 E0.06379
G1 X153.694 Y152.425 E0.03365
G1 X155.109 Y151.984 E0.06337
G1 X155.831 Y151.683 E0.03343
G1 X156.808 Y151.183 E0.04691
G1 X157.793 Y150.575 E0.04951
G1 X158.99 Y149.638 E0.06499
G1 X160.524 Y148.008 E0.09569
G1 X161.171 Y147.092 E0.04796
G1 X161.713 Y146.177 E0.04545
G1 X161.345 Y145.959 F9000
; External perimeter
;ExternalPerimeter
SET_VELOCITY_LIMIT ACCEL=1000 ACCEL_TO_DECEL=1000 SQUARE_CORNER_VELOCITY=8

; Perimeter

