; generated by SuperSlicer 2.3.57 on 2022-02-10 at 01:31:55 UTC


;
;

;
;
; 

; external perimeters extrusion width = 0.40mm
; perimeters extrusion width = 0.45mm
; infill extrusion width = 0.72mm
; solid infill extrusion width = 0.56mm
; top infill extrusion width = 0.40mm
; first layer extrusion width = 0.48mm

; object:{"name":"Nespresso_organizer_front","id":"Nespresso_organizer_front.stl id:0 copy 0","object_center":[165.000000,146.999999,0.000000],"boundingbox_center":[165.000000,146.999999,17.499001],"boundingbox_size":[158.998016,35.000004,34.998001]}
; object:{"name":"Nespresso_organizer_rear","id":"Nespresso_organizer_rear.stl id:1 copy 0","object_center":[165.000000,183.000001,0.000000],"boundingbox_center":[165.000000,183.000001,7.000000],"boundingbox_size":[157.000015,35.000004,14.000000]}
; plater:{"center":[165.000000,165.000000,0.000000],"boundingbox_center":[165.000000,165.000000,17.499001],"boundingbox_size":[158.998016,71.000006,34.998001]}

;TYPE:Custom
START_PRINT T_BED=60 T_EXTRUDER=200
M107
G21 ; set units to millimeters
G90 ; use absolute coordinates
M83 ; use relative distances for extrusion
; Filament gcode
M109 S200 ; set temperature and wait for it to be reached
M190 S60 ; set bed temperature and wait for it to be reached
;LAYER_CHANGE
;Z:0.25
;HEIGHT:0.25
G1 E-0.6 F3000
G1 Z0.25 F9000
G1 X90.504 Y126.541
G1 E0.6 F1800
; External perimeter
;Skirt
SET_VELOCITY_LIMIT ACCEL=3000 ACCEL_TO_DECEL=3000 SQUARE_CORNER_VELOCITY=8

; Support material

;TYPE:Skirt
;WIDTH:0.48
G1 X89.758 Y127.18 E0.04352
G1 X89.21 Y127.995 E0.04352
G1 X88.899 Y128.931 E0.04373
G1 X82.995 Y168.338 E1.76575
G1 X82.969 Y169.38 E0.04623
G1 X83.124 Y170.212 E0.03751
G1 X83.485 Y171.014 E0.03896
G1 X102.538 Y202.367 E1.6258
G1 X102.982 Y202.928 E0.0317
G1 X103.527 Y203.391 E0.0317
G1 X104.152 Y203.739 E0.0317
G1 X104.833 Y203.958 E0.0317
G1 X105.6 Y204.04 E0.03419
G1 X238.525 Y204.04 E5.89042
G1 X239.608 Y203.875 E0.04853
G1 X240.497 Y203.459 E0.04352
G1 X241.24 Y202.824 E0.04331
G1 X241.789 Y202.01 E0.04352
G1 X242.1 Y201.083 E0.04331
G1 X248.002 Y161.678 E1.76564
G1 X248.038 Y160.815 E0.03831
G1 X247.979 Y160.215 E0.0267
G1 X247.804 Y159.585 E0.02899
G1 X247.522 Y159 E0.02878
G1 X228.438 Y127.597 E1.62838
G1 X227.855 Y126.914 E0.03979
G1 X227.127 Y126.397 E0.03958
G1 X226.29 Y126.071 E0.03979
G1 X225.404 Y125.96 E0.03958
G1 X92.47 Y125.96 E5.89079
G1 X91.394 Y126.125 E0.04827
G1 X90.558 Y126.516 E0.04086
G1 X90.737 Y126.898 F9000
G1 F1800
G1 X90.073 Y127.467 E0.03874
G1 X89.587 Y128.193 E0.03874
G1 X89.316 Y129.019 E0.03854
G1 X83.419 Y168.39 E1.76413
G1 X83.394 Y169.341 E0.04216
G1 X83.53 Y170.08 E0.03329
G1 X83.849 Y170.793 E0.03465
G1 X102.893 Y202.131 E1.62498
G1 X103.287 Y202.631 E0.02821
G1 X103.769 Y203.04 E0.02802
G1 X104.325 Y203.349 E0.02821
G1 X104.927 Y203.542 E0.02802
G1 X105.6 Y203.613 E0.02997
G1 X238.525 Y203.613 E5.89042
G1 X239.471 Y203.471 E0.04241
G1 X240.264 Y203.102 E0.03874
G1 X240.925 Y202.537 E0.03854
G1 X241.41 Y201.815 E0.03854
G1 X241.684 Y200.989 E0.03854
G1 X247.579 Y161.621 E1.76403
G1 X247.56 Y160.292 E0.05889
G1 X247.406 Y159.738 E0.02548
G1 X247.154 Y159.216 E0.02567
G1 X228.089 Y127.843 E1.62682
G1 X227.579 Y127.239 E0.03504
G1 X226.933 Y126.776 E0.03523
G1 X226.192 Y126.486 E0.03523
G1 X225.403 Y126.387 E0.03523
G1 X92.472 Y126.387 E5.8907
G1 X91.53 Y126.529 E0.04223
G1 X90.792 Y126.873 E0.03608
; INIT printing object Nespresso_organizer_front.stl id:0 copy 0
G1 E-0.6 F3000
; printing object Nespresso_organizer_front.stl id:0 copy 0
G1 X125.413 Y135.421 F9000
G1 E0.6 F1800
; External perimeter
;Perimeter
SET_VELOCITY_LIMIT ACCEL=2000 ACCEL_TO_DECEL=2000 SQUARE_CORNER_VELOCITY=8

; Overhang perimeter

;TYPE:Internal perimeter
G1 X136.587 Y135.421 E0.49518
G1 X136.587 Y130.693 E0.20954
G1 X179.413 Y130.693 E1.89777
G1 X179.413 Y135.421 E0.20954
G1 X190.587 Y135.421 E0.49518
G1 X190.587 Y130.693 E0.20954
G1 X204.306 Y130.693 E0.60795
G1 X204.306 Y135.688 E0.22136
G1 X224.306 Y135.688 E0.88628
G1 X224.306 Y163.307 E1.22392
G1 X217.587 Y163.307 E0.29775
G1 X217.587 Y158.579 E0.20954
G1 X206.413 Y158.579 E0.49518
G1 X206.413 Y163.307 E0.20954
G1 X163.587 Y163.307 E1.89777
G1 X163.587 Y158.579 E0.20954
G1 X152.413 Y158.579 E0.49518
G1 X152.413 Y163.307 E0.20954
G1 X109.587 Y163.307 E1.89777
G1 X109.587 Y158.579 E0.20954
G1 X98.413 Y158.579 E0.49518
G1 X98.413 Y163.307 E0.20954
G1 X93.569 Y163.307 E0.21466
G1 X93.569 Y130.693 E1.44528
G1 X125.413 Y130.693 E1.41113
G1 X125.413 Y135.361 E0.20688
G1 X125.839 Y134.995 F9000
G1 F1800
G1 X136.161 Y134.995 E0.4574
G1 X136.161 Y130.266 E0.20954
G1 X179.839 Y130.266 E1.93555
G1 X179.839 Y134.995 E0.20954
G1 X190.161 Y134.995 E0.4574
G1 X190.161 Y130.266 E0.20954
G1 X224.733 Y130.266 E1.53201
G1 X224.733 Y130.711 E0.0197
G1 X204.733 Y130.711 E0.88628
G1 X204.733 Y135.262 E0.20166
G1 X224.733 Y135.262 E0.88628
G1 X224.733 Y160.577 E1.12182
G1 X243.178 Y160.577 E0.81737
G1 X243.608 Y161.015 E0.02723
G1 X243.178 Y161.452 E0.02718
G1 X224.733 Y161.452 E0.81738
G1 X224.733 Y163.734 E0.10109
G1 X217.161 Y163.734 E0.33553
G1 X217.161 Y159.005 E0.20954
G1 X206.839 Y159.005 E0.4574
G1 X206.839 Y163.734 E0.20954
G1 X163.161 Y163.734 E1.93555
G1 X163.161 Y159.005 E0.20954
G1 X152.839 Y159.005 E0.4574
G1 X152.839 Y163.734 E0.20954
G1 X109.161 Y163.734 E1.93555
G1 X109.161 Y159.005 E0.20954
G1 X98.839 Y159.005 E0.4574
G1 X98.839 Y163.734 E0.20954
G1 X93.142 Y163.734 E0.25245
G1 X93.142 Y130.266 E1.48307
G1 X125.839 Y130.266 E1.44892
G1 X125.839 Y134.935 E0.20688
G1 X155.61 Y160.16 F9000
; External perimeter
;ExternalPerimeter
SET_VELOCITY_LIMIT ACCEL=1000 ACCEL_TO_DECEL=1000 SQUARE_CORNER_VELOCITY=8

; Perimeter

;TYPE:External perimeter
G1 F1800
G1 X155.61 Y162.84 E0.11876
G1 X155.73 Y162.84 E0.00475
G1 X155.97 Y162.84 E0.01006
G1 X160.39 Y162.84 E0.19589
G1 X160.39 Y162.72 E0.00475
G1 X160.39 Y162.48 E0.01006
G1 X160.39 Y160.16 E0.10281
G1 X160.27 Y160.16 E0.00475
G1 X160.03 Y160.16 E0.01006
G1 X155.67 Y160.16 E0.19323
;WIPE_START
G1 X155.21 Y160.16 F9000
;WIPE_END
G1 X133.39 Y133.84
G1 F1800
G1 X133.39 Y131.16 E0.11876
G1 X133.27 Y131.16 E0.00475
G1 X133.03 Y131.16 E0.01006
G1 X128.61 Y131.16 E0.19589
G1 X128.61 Y131.28 E0.00475
G1 X128.61 Y131.52 E0.01006
G1 X128.61 Y133.84 E0.10281
G1 X128.73 Y133.84 E0.00475
G1 X128.97 Y133.84 E0.01006
G1 X133.33 Y133.84 E0.19323
;WIPE_START
G1 X133.79 Y133.84 F9000
;WIPE_END
G1 X106.39 Y160.16
G1 F1800
G1 X101.61 Y160.16 E0.21184
G1 X101.61 Y160.28 E0.00475
G1 X101.61 Y160.52 E0.01006
G1 X101.61 Y162.84 E0.10281
G1 X101.73 Y162.84 E0.00475
G1 X101.97 Y162.84 E0.01006
G1 X106.39 Y162.84 E0.19589
G1 X106.39 Y162.72 E0.00475
G1 X106.39 Y162.48 E0.01006
G1 X106.39 Y160.22 E0.10015
;WIPE_START
G1 X106.39 Y159.76 F9000
;WIPE_END
G1 X182.61 Y133.84
G1 F1800
G1 X187.39 Y133.84 E0.21184
G1 X187.39 Y133.72 E0.00475
G1 X187.39 Y133.48 E0.01006
G1 X187.39 Y131.16 E0.10281
G1 X187.27 Y131.16 E0.00475
G1 X187.03 Y131.16 E0.01006
G1 X182.61 Y131.16 E0.19589
G1 X182.61 Y131.28 E0.00475
G1 X182.61 Y131.52 E0.01006
G1 X182.61 Y133.78 E0.10015
;WIPE_START
G1 X182.61 Y134.24 F9000
;WIPE_END
G1 X209.61 Y160.16
G1 F1800
G1 X209.61 Y162.84 E0.11876
G1 X209.73 Y162.84 E0.00475
G1 X209.97 Y162.84 E0.01006
G1 X214.39 Y162.84 E0.19589
G1 X214.39 Y162.72 E0.00475
G1 X214.39 Y162.48 E0.01006
G1 X214.39 Y160.16 E0.10281
G1 X214.27 Y160.16 E0.00475
G1 X214.03 Y160.16 E0.01006
G1 X209.67 Y160.16 E0.19323
;WIPE_START
G1 X209.21 Y160.16 F9000
;WIPE_END
G1 E-0.6 F3000
G1 X225.159 Y161.879 F9000
G1 E0.6 F1800
G1 X225.159 Y164.16 E0.10109
G1 X225.039 Y164.16 E0.00475
G1 X224.799 Y164.16 E0.01006
G1 X92.716 Y164.16 E5.85311
G1 X92.716 Y164.04 E0.00475
G1 X92.716 Y163.8 E0.01006
G1 X92.716 Y129.84 E1.5049
G1 X92.836 Y129.84 E0.00475
G1 X93.076 Y129.84 E0.01006
G1 X225.159 Y129.84 E5.85311
G1 X225.159 Y129.96 E0.00475
G1 X225.159 Y130.2 E0.01006
G1 X225.159 Y131.137 E0.04153
G1 X225.039 Y131.137 E0.00475
G1 X224.799 Y131.137 E0.01006
G1 X205.159 Y131.137 E0.87032
G1 X205.159 Y131.257 E0.00475
G1 X205.159 Y131.497 E0.01006
G1 X205.159 Y134.835 E0.14792
G1 X205.279 Y134.835 E0.00475
G1 X205.519 Y134.835 E0.01006
G1 X225.159 Y134.835 E0.87032
G1 X225.159 Y134.955 E0.00475
G1 X225.159 Y135.195 E0.01006
G1 X225.159 Y160.151 E1.10586
G1 X225.279 Y160.151 E0.00477
G1 X225.519 Y160.151 E0.01009
G1 X243.356 Y160.151 E0.79044
G1 X244.159 Y160.968 E0.05075
G1 X244.159 Y161.063 E0.00424
G1 X243.357 Y161.879 E0.05069
G1 X225.219 Y161.879 E0.80375
;WIPE_START
G1 X224.759 Y161.879 F9000
;WIPE_END
G1 X224.502 Y161.015
; External perimeter
;GapFill
SET_VELOCITY_LIMIT ACCEL=2000 ACCEL_TO_DECEL=2000 SQUARE_CORNER_VELOCITY=8

; Skirt

;TYPE:Gap fill
;WIDTH:0.537233
G1 F1800
G1 X224.623 Y161.015 E0.00608
G1 X224.744 Y161.015 E0.00608
G1 X233.869 Y161.015 E0.45865
G1 X242.994 Y161.015 E0.45865
;WIDTH:0.340945
G1 X243.177 Y161.024 E0.00547
;WIDTH:0.248303
G1 X243.318 Y161.031 E0.00285
G1 E-0.6 F3000
G1 X216.965 Y163.864 F9000
G1 E0.6 F1800
;WIDTH:0.253416
G1 X216.865 Y163.864 E0.00207
G1 X212.216 Y163.864 E0.09653
G1 X212.183 Y163.848 E0.00077
;WIDTH:0.373276
G1 X212.016 Y163.764 E0.00618
;WIDTH:0.553796
G1 X211.951 Y163.781 E0.00351
;WIDTH:0.333323
G1 X211.784 Y163.864 E0.00541
;WIDTH:0.253416
G1 X207.035 Y163.864 E0.09861
G1 E-0.6 F3000
G1 X211.089 Y159.069 F9000
G1 E0.6 F1800
; External perimeter
;SolidInfill
SET_VELOCITY_LIMIT ACCEL=2000 ACCEL_TO_DECEL=2000 SQUARE_CORNER_VELOCITY=8

; Bridge infill

;TYPE:Solid infill
;WIDTH:0.441554
G1 F2400
G1 X211.767 Y159.748 E0.03912
G1 X211.767 Y159.913 E0.00673
G1 X211.329 Y159.913 E0.01785
G1 X210.669 Y159.252 E0.03806
G1 X210.066 Y159.252 E0.02458
G1 X210.727 Y159.913 E0.03806
G1 X210.124 Y159.913 E0.02458
G1 X209.463 Y159.252 E0.03806
G1 X208.86 Y159.252 E0.02458
G1 X209.521 Y159.913 E0.03806
G1 X209.363 Y159.913 E0.00644
G1 X209.363 Y160.358 E0.01813
G1 X208.257 Y159.252 E0.06371
G1 X207.654 Y159.252 E0.02458
G1 X209.363 Y160.961 E0.09847
G1 X209.363 Y161.564 E0.02458
G1 X207.086 Y159.287 E0.13122
G1 X207.086 Y159.89 E0.02458
G1 X209.546 Y162.35 E0.14179
G1 E-0.6 F3000
G1 X211.306 Y162.904 F9000
G1 E0.6 F1800
G1 F2400
G1 X211.767 Y163.365 E0.0266
G1 X211.767 Y163.748 E0.01558
G1 X211.547 Y163.748 E0.009
G1 X210.886 Y163.087 E0.03806
G1 X210.283 Y163.087 E0.02458
G1 X210.944 Y163.748 E0.03806
G1 X210.341 Y163.748 E0.02458
G1 X207.086 Y160.493 E0.18761
G1 X207.086 Y161.096 E0.02458
G1 X209.738 Y163.748 E0.15285
G1 X209.135 Y163.748 E0.02458
G1 X207.086 Y161.699 E0.11809
G1 X207.086 Y162.302 E0.02458
G1 X208.532 Y163.748 E0.08333
G1 X207.929 Y163.748 E0.02458
G1 X207.086 Y162.905 E0.04857
G1 X207.086 Y163.508 E0.02458
G1 X207.509 Y163.931 E0.02438
G1 E-0.6 F3000
G1 X212 Y159.964 F9000
G1 E0.6 F1800
; External perimeter
;GapFill
SET_VELOCITY_LIMIT ACCEL=2000 ACCEL_TO_DECEL=2000 SQUARE_CORNER_VELOCITY=8

; Skirt

;TYPE:Gap fill
;WIDTH:0.485371
G1 X212 Y159.856 E0.00484
G1 X212 Y159.748 E0.00484
G1 X212 Y159.417 E0.01486
G1 X212 Y159.309 E0.00484
G1 X212 Y159.201 E0.00484
G1 X216.235 Y159.069 F9000
; External perimeter
;SolidInfill
SET_VELOCITY_LIMIT ACCEL=2000 ACCEL_TO_DECEL=2000 SQUARE_CORNER_VELOCITY=8

; Bridge infill

;TYPE:Solid infill
;WIDTH:0.434444
G1 F2400
G1 X216.914 Y159.748 E0.03849
G1 X216.914 Y160.351 E0.02418
G1 X215.815 Y159.252 E0.06229
G1 X215.213 Y159.252 E0.02418
G1 X216.914 Y160.954 E0.09649
G1 X216.914 Y161.557 E0.02418
G1 X214.61 Y159.252 E0.13069
G1 X214.007 Y159.252 E0.02418
G1 X216.914 Y162.159 E0.16489
G1 X216.914 Y162.762 E0.02418
G1 X214.637 Y160.486 E0.12911
G1 X214.637 Y159.913 E0.023
G1 X214.064 Y159.913 E0.023
G1 X213.404 Y159.252 E0.03745
G1 X212.801 Y159.252 E0.02418
G1 X213.461 Y159.913 E0.03745
G1 X212.858 Y159.913 E0.02418
G1 X212.233 Y159.287 E0.03547
G1 X212.233 Y159.89 E0.02418
G1 X212.438 Y160.096 E0.01167
G1 E-0.6 F3000
G1 X214.454 Y160.906 F9000
G1 E0.6 F1800
G1 F2400
G1 X216.914 Y163.365 E0.13951
G1 X216.914 Y163.748 E0.01533
G1 X216.693 Y163.748 E0.00885
G1 X214.637 Y161.692 E0.11658
G1 X214.637 Y162.295 E0.02418
G1 X216.09 Y163.748 E0.08238
G1 X215.487 Y163.748 E0.02418
G1 X214.637 Y162.898 E0.04818
G1 X214.637 Y163.087 E0.00759
G1 X214.224 Y163.087 E0.01659
G1 X214.884 Y163.748 E0.03745
G1 X214.281 Y163.748 E0.02418
G1 X213.621 Y163.087 E0.03745
G1 X213.018 Y163.087 E0.02418
G1 X213.678 Y163.748 E0.03745
G1 X213.075 Y163.748 E0.02418
G1 X212.415 Y163.087 E0.03745
G1 X212.233 Y163.087 E0.00731
G1 X212.233 Y163.508 E0.01688
G1 X212.656 Y163.931 E0.02399
G1 E-0.6 F3000
G1 X185 Y134.799 F9000
G1 E0.6 F1800
; External perimeter
;GapFill
SET_VELOCITY_LIMIT ACCEL=2000 ACCEL_TO_DECEL=2000 SQUARE_CORNER_VELOCITY=8

; Skirt

;TYPE:Gap fill
;WIDTH:0.48538
G1 X185 Y134.036 E0.03424
G1 E-0.6 F3000
G1 X184.089 Y130.069 F9000
G1 E0.6 F1800
; External perimeter
;SolidInfill
SET_VELOCITY_LIMIT ACCEL=2000 ACCEL_TO_DECEL=2000 SQUARE_CORNER_VELOCITY=8

; Bridge infill

;TYPE:Solid infill
;WIDTH:0.441554
G1 F2400
G1 X184.767 Y130.748 E0.03912
G1 X184.767 Y130.913 E0.00673
G1 X184.329 Y130.913 E0.01785
G1 X183.669 Y130.252 E0.03806
G1 X183.066 Y130.252 E0.02458
G1 X183.727 Y130.913 E0.03806
G1 X183.124 Y130.913 E0.02458
G1 X182.463 Y130.252 E0.03806
G1 X181.86 Y130.252 E0.02458
G1 X182.521 Y130.913 E0.03806
G1 X182.363 Y130.913 E0.00644
G1 X182.363 Y131.358 E0.01813
G1 X181.257 Y130.252 E0.06371
G1 X180.654 Y130.252 E0.02458
G1 X182.363 Y131.961 E0.09847
G1 X182.363 Y132.564 E0.02458
G1 X180.086 Y130.287 E0.13122
G1 X180.086 Y130.89 E0.02458
G1 X182.546 Y133.35 E0.14179
G1 E-0.6 F3000
G1 X184.306 Y133.904 F9000
G1 E0.6 F1800
G1 F2400
G1 X184.767 Y134.365 E0.0266
G1 X184.767 Y134.748 E0.01558
G1 X184.547 Y134.748 E0.009
G1 X183.886 Y134.087 E0.03806
G1 X183.283 Y134.087 E0.02458
G1 X183.944 Y134.748 E0.03806
G1 X183.341 Y134.748 E0.02458
G1 X180.086 Y131.493 E0.18761
G1 X180.086 Y132.096 E0.02458
G1 X182.738 Y134.748 E0.15285
G1 X182.135 Y134.748 E0.02458
G1 X180.086 Y132.699 E0.11809
G1 X180.086 Y133.302 E0.02458
G1 X181.532 Y134.748 E0.08333
G1 X180.929 Y134.748 E0.02458
G1 X180.086 Y133.905 E0.04857
G1 X180.086 Y134.508 E0.02458
G1 X180.509 Y134.931 E0.02438
G1 X178.591 Y130.757 F9000
;WIDTH:0.476768
G1 F2400
G1 X179.166 Y131.332 E0.03579
G1 X179.166 Y131.935 E0.02654
G1 X178.171 Y130.94 E0.06191
G1 X177.568 Y130.94 E0.02654
G1 X179.166 Y132.537 E0.09944
G1 X179.166 Y133.14 E0.02654
G1 X176.965 Y130.94 E0.13697
G1 X176.362 Y130.94 E0.02654
G1 X179.166 Y133.743 E0.17451
G1 X179.166 Y134.346 E0.02654
G1 X175.759 Y130.94 E0.21204
G1 X175.156 Y130.94 E0.02654
G1 X179.349 Y135.133 E0.26098
G1 X203.311 Y130.757 F9000
G1 F2400
G1 X204.059 Y131.504 E0.04654
G1 X204.059 Y132.107 E0.02654
G1 X202.892 Y130.94 E0.07266
G1 X202.289 Y130.94 E0.02654
G1 X204.059 Y132.71 E0.11019
G1 X204.059 Y133.313 E0.02654
G1 X201.686 Y130.94 E0.14772
G1 X201.083 Y130.94 E0.02654
G1 X204.059 Y133.916 E0.18525
G1 X204.059 Y134.519 E0.02654
G1 X200.48 Y130.94 E0.22278
G1 X199.877 Y130.94 E0.02654
G1 X204.242 Y135.305 E0.27173
G1 X224.242 Y136.614 F9000
G1 F2400
G1 X223.564 Y135.935 E0.04224
G1 X222.961 Y135.935 E0.02654
G1 X224.059 Y137.033 E0.06836
G1 X224.059 Y137.636 E0.02654
G1 X222.358 Y135.935 E0.10589
G1 X221.755 Y135.935 E0.02654
G1 X224.059 Y138.239 E0.14342
G1 X224.059 Y138.842 E0.02654
G1 X221.152 Y135.935 E0.18095
G1 X220.549 Y135.935 E0.02654
G1 X224.059 Y139.445 E0.21848
G1 X224.059 Y140.048 E0.02654
G1 X219.946 Y135.935 E0.25602
G1 X219.343 Y135.935 E0.02654
G1 X224.059 Y140.651 E0.29355
G1 X224.059 Y141.254 E0.02654
G1 X218.74 Y135.935 E0.33108
G1 X218.137 Y135.935 E0.02654
G1 X224.059 Y141.857 E0.36861
G1 X224.059 Y142.46 E0.02654
G1 X217.534 Y135.935 E0.40614
G1 X216.931 Y135.935 E0.02654
G1 X224.059 Y143.063 E0.44368
G1 X224.059 Y143.666 E0.02654
G1 X216.328 Y135.935 E0.48121
G1 X215.726 Y135.935 E0.02654
G1 X224.059 Y144.269 E0.51874
G1 X224.059 Y144.872 E0.02654
G1 X215.123 Y135.935 E0.55627
G1 X214.52 Y135.935 E0.02654
G1 X224.059 Y145.475 E0.5938
G1 X224.059 Y146.078 E0.02654
G1 X213.917 Y135.935 E0.63134
G1 X213.314 Y135.935 E0.02654
G1 X224.059 Y146.681 E0.66887
G1 X224.059 Y147.284 E0.02654
