; generated by SuperSlicer 2.3.57 on 2022-02-14 at 00:15:50 UTC


;
;

;
;
; 

; external perimeters extrusion width = 0.40mm
; perimeters extrusion width = 0.45mm
; infill extrusion width = 0.72mm
; solid infill extrusion width = 0.56mm
; top infill extrusion width = 0.40mm
; first layer extrusion width = 0.48mm

; object:{"name":"Nespresso_organizer_rear","id":"Nespresso_organizer_rear.stl id:0 copy 0","object_center":[165.000000,183.000001,0.000000],"boundingbox_center":[165.000000,183.000001,7.000000],"boundingbox_size":[157.000015,35.000004,14.000000]}
; object:{"name":"Nespresso_organizer_front","id":"Nespresso_organizer_front.stl id:1 copy 0","object_center":[165.000000,146.999999,0.000000],"boundingbox_center":[165.000000,146.999999,17.499001],"boundingbox_size":[158.998016,35.000004,34.998001]}
; plater:{"center":[165.000000,165.000000,0.000000],"boundingbox_center":[165.000000,165.000000,17.499001],"boundingbox_size":[158.998016,71.000006,34.998001]}

;TYPE:Custom
START_PRINT T_BED=60 T_EXTRUDER=200
M107
G21 ; set units to millimeters
G90 ; use absolute coordinates
M83 ; use relative distances for extrusion
; Filament gcode
M104 S200 ; set temperature
M109 S200 ; set temperature and wait for it to be reached
M190 S60 ; set bed temperature and wait for it to be reached
M107
;LAYER_CHANGE
;Z:0.2
;HEIGHT:0.2
G1 E-0.6 F3000
G1 Z0.2 F9000
G1 X90.524 Y126.525
G1 E0.6 F1800
; External perimeter
;Skirt
SET_VELOCITY_LIMIT ACCEL=4000 ACCEL_TO_DECEL=4000 SQUARE_CORNER_VELOCITY=8

; Support material

;TYPE:Skirt
;WIDTH:0.48
G1 X89.772 Y127.167 E0.03594
G1 X89.22 Y127.988 E0.03594
G1 X88.909 Y128.921 E0.03577
G1 X82.98 Y168.336 E1.44858
G1 X82.953 Y169.38 E0.03796
G1 X83.11 Y170.214 E0.03083
G1 X83.471 Y171.018 E0.03202
G1 X102.526 Y202.379 E1.33366
G1 X102.971 Y202.941 E0.02605
G1 X103.518 Y203.405 E0.02605
G1 X104.148 Y203.755 E0.02622
G1 X104.831 Y203.974 E0.02605
G1 X105.6 Y204.056 E0.0281
G1 X238.5 Y204.056 E4.83003
G1 X239.585 Y203.891 E0.03988
G1 X240.477 Y203.475 E0.03577
G1 X241.226 Y202.836 E0.03577
G1 X241.777 Y202.021 E0.03577
G1 X242.089 Y201.092 E0.0356
G1 X248.017 Y161.68 E1.4485
G1 X248.054 Y160.82 E0.03128
G1 X247.995 Y160.219 E0.02195
G1 X247.82 Y159.587 E0.02383
G1 X247.535 Y158.996 E0.02383
G1 X228.452 Y127.59 E1.33561
G1 X227.868 Y126.905 E0.03271
G1 X227.135 Y126.383 E0.03271
G1 X226.297 Y126.056 E0.03271
G1 X225.404 Y125.944 E0.03271
G1 X92.496 Y125.944 E4.83032
G1 X91.416 Y126.109 E0.03968
G1 X90.579 Y126.5 E0.03359
G1 X90.763 Y126.891 F9000
G1 F1800
G1 X90.098 Y127.459 E0.0318
G1 X89.61 Y128.186 E0.0318
G1 X89.336 Y129.017 E0.0318
G1 X83.413 Y168.394 E1.44721
G1 X83.389 Y169.342 E0.03447
G1 X83.525 Y170.077 E0.02716
G1 X83.845 Y170.791 E0.02844
G1 X102.887 Y202.132 E1.3328
G1 X103.279 Y202.629 E0.023
G1 X103.763 Y203.043 E0.02316
G1 X104.32 Y203.353 E0.02316
G1 X104.927 Y203.547 E0.02316
G1 X105.6 Y203.619 E0.0246
G1 X238.5 Y203.619 E4.83003
G1 X239.449 Y203.475 E0.03488
G1 X240.238 Y203.109 E0.03164
G1 X240.901 Y202.544 E0.03164
G1 X241.387 Y201.822 E0.03164
G1 X241.663 Y200.996 E0.03164
G1 X247.584 Y161.621 E1.44713
G1 X247.566 Y160.299 E0.04804
G1 X247.411 Y159.74 E0.02107
G1 X247.159 Y159.218 E0.02107
G1 X228.092 Y127.838 E1.33447
G1 X227.578 Y127.231 E0.02892
G1 X226.93 Y126.769 E0.02892
G1 X226.193 Y126.481 E0.02876
G1 X225.403 Y126.381 E0.02892
G1 X92.495 Y126.381 E4.83032
G1 X91.552 Y126.524 E0.03467
G1 X90.817 Y126.866 E0.02946
; INIT printing object Nespresso_organizer_rear.stl id:0 copy 0
G1 E-0.6 F3000
; printing object Nespresso_organizer_rear.stl id:0 copy 0
G1 X113.767 Y171.45 F9000
G1 E0.6 F1800
; External perimeter
;Perimeter
SET_VELOCITY_LIMIT ACCEL=2000 ACCEL_TO_DECEL=2000 SQUARE_CORNER_VELOCITY=8

; Overhang perimeter

;TYPE:Internal perimeter
G1 X124.235 Y171.45 E0.38044
G1 X124.235 Y166.714 E0.17212
G1 X167.767 Y166.714 E1.5821
G1 X167.767 Y171.45 E0.17212
G1 X178.235 Y171.45 E0.38044
G1 X178.235 Y166.714 E0.17212
G1 X221.767 Y166.714 E1.5821
G1 X221.767 Y171.45 E0.17212
G1 X232.235 Y171.45 E0.38044
G1 X232.235 Y166.714 E0.17212
G1 X237.386 Y166.714 E0.1872
G1 X237.386 Y199.286 E1.18376
G1 X205.235 Y199.286 E1.16847
G1 X205.235 Y194.55 E0.17212
G1 X194.767 Y194.55 E0.38044
G1 X194.767 Y199.286 E0.17212
G1 X151.235 Y199.286 E1.5821
G1 X151.235 Y194.55 E0.17212
G1 X140.767 Y194.55 E0.38044
G1 X140.767 Y199.286 E0.17212
G1 X126.714 Y199.286 E0.51073
G1 X126.714 Y194.297 E0.18131
G1 X106.714 Y194.297 E0.72687
G1 X106.714 Y166.714 E1.00246
G1 X113.767 Y166.714 E0.25633
G1 X113.767 Y171.39 E0.16994
G1 X114.204 Y171.013 F9000
G1 F1800
G1 X123.798 Y171.013 E0.34867
G1 X123.798 Y166.277 E0.17212
G1 X168.204 Y166.277 E1.61387
G1 X168.204 Y171.013 E0.17212
G1 X177.798 Y171.013 E0.34867
G1 X177.798 Y166.277 E0.17212
G1 X222.204 Y166.277 E1.61387
G1 X222.204 Y171.013 E0.17212
G1 X231.798 Y171.013 E0.34867
G1 X231.798 Y166.277 E0.17212
G1 X237.823 Y166.277 E0.21897
G1 X237.823 Y199.723 E1.21553
G1 X204.798 Y199.723 E1.20024
G1 X204.798 Y194.987 E0.17212
G1 X195.204 Y194.987 E0.34867
G1 X195.204 Y199.723 E0.17212
G1 X150.798 Y199.723 E1.61387
G1 X150.798 Y194.987 E0.17212
G1 X141.204 Y194.987 E0.34867
G1 X141.204 Y199.723 E0.17212
G1 X106.277 Y199.723 E1.26937
G1 X106.277 Y199.295 E0.01554
G1 X126.277 Y199.295 E0.72687
G1 X126.277 Y194.734 E0.16576
G1 X106.277 Y194.734 E0.72687
G1 X106.277 Y169.408 E0.92045
G1 X87.826 Y169.408 E0.67059
G1 X87.411 Y168.986 E0.02149
G1 X87.825 Y168.565 E0.02149
G1 X106.277 Y168.565 E0.67059
G1 X106.277 Y166.277 E0.08315
G1 X114.204 Y166.277 E0.2881
G1 X114.204 Y170.953 E0.16994
G1 X170.787 Y169.84 F9000
; External perimeter
;ExternalPerimeter
SET_VELOCITY_LIMIT ACCEL=1000 ACCEL_TO_DECEL=1000 SQUARE_CORNER_VELOCITY=8

; Perimeter

;TYPE:External perimeter
G1 F1800
G1 X175.215 Y169.84 E0.16093
G1 X175.215 Y169.72 E0.00389
G1 X175.215 Y169.48 E0.00825
G1 X175.215 Y167.16 E0.08432
G1 X175.095 Y167.16 E0.00389
G1 X174.855 Y167.16 E0.00825
G1 X170.787 Y167.16 E0.14784
G1 X170.787 Y167.28 E0.00389
G1 X170.787 Y167.52 E0.00825
G1 X170.787 Y169.78 E0.08214
;WIPE_START
G1 X170.787 Y170.24 F9000
;WIPE_END
G1 X148.215 Y196.16
G1 F1800
G1 X143.787 Y196.16 E0.16093
G1 X143.787 Y196.28 E0.00389
G1 X143.787 Y196.52 E0.00825
G1 X143.787 Y198.84 E0.08432
G1 X143.907 Y198.84 E0.00389
G1 X144.147 Y198.84 E0.00825
G1 X148.215 Y198.84 E0.14784
G1 X148.215 Y198.72 E0.00389
G1 X148.215 Y198.48 E0.00825
G1 X148.215 Y196.22 E0.08214
;WIPE_START
G1 X148.215 Y195.76 F9000
;WIPE_END
G1 X121.215 Y169.84
G1 F1800
G1 X121.215 Y167.16 E0.0974
G1 X121.095 Y167.16 E0.00389
G1 X120.855 Y167.16 E0.00825
G1 X116.787 Y167.16 E0.14784
G1 X116.787 Y167.28 E0.00389
G1 X116.787 Y167.52 E0.00825
G1 X116.787 Y169.84 E0.08432
G1 X116.907 Y169.84 E0.00389
G1 X117.147 Y169.84 E0.00825
G1 X121.155 Y169.84 E0.14566
;WIPE_START
G1 X121.615 Y169.84 F9000
;WIPE_END
G1 X197.787 Y196.16
G1 F1800
G1 X197.787 Y198.84 E0.0974
G1 X197.907 Y198.84 E0.00389
G1 X198.147 Y198.84 E0.00825
G1 X202.215 Y198.84 E0.14784
G1 X202.215 Y198.72 E0.00389
G1 X202.215 Y198.48 E0.00825
G1 X202.215 Y196.16 E0.08432
G1 X202.095 Y196.16 E0.00389
G1 X201.855 Y196.16 E0.00825
G1 X197.847 Y196.16 E0.14566
;WIPE_START
G1 X197.387 Y196.16 F9000
;WIPE_END
G1 X224.787 Y169.84
G1 F1800
G1 X229.215 Y169.84 E0.16093
G1 X229.215 Y169.72 E0.00389
G1 X229.215 Y169.48 E0.00825
G1 X229.215 Y167.16 E0.08432
G1 X229.095 Y167.16 E0.00389
G1 X228.855 Y167.16 E0.00825
G1 X224.787 Y167.16 E0.14784
G1 X224.787 Y167.28 E0.00389
G1 X224.787 Y167.52 E0.00825
G1 X224.787 Y169.78 E0.08214
;WIPE_START
G1 X224.787 Y170.24 F9000
;WIPE_END
G1 X105.84 Y169.845
G1 F1800
G1 X87.642 Y169.845 E0.66136
G1 X86.84 Y169.029 E0.04157
G1 X86.84 Y168.943 E0.00314
G1 X87.642 Y168.128 E0.04157
G1 X105.84 Y168.128 E0.66136
G1 X105.84 Y168.008 E0.00391
G1 X105.84 Y167.768 E0.00827
G1 X105.84 Y165.84 E0.07006
G1 X105.96 Y165.84 E0.00389
G1 X106.2 Y165.84 E0.00825
G1 X238.26 Y165.84 E4.7995
G1 X238.26 Y165.96 E0.00389
G1 X238.26 Y166.2 E0.00825
G1 X238.26 Y200.16 E1.23422
G1 X238.14 Y200.16 E0.00389
G1 X237.9 Y200.16 E0.00825
G1 X105.84 Y200.16 E4.7995
G1 X105.84 Y200.04 E0.00389
G1 X105.84 Y199.8 E0.00825
G1 X105.84 Y198.858 E0.03423
G1 X105.96 Y198.858 E0.00389
G1 X106.2 Y198.858 E0.00825
G1 X125.84 Y198.858 E0.71378
G1 X125.84 Y198.738 E0.00389
G1 X125.84 Y198.498 E0.00825
G1 X125.84 Y195.171 E0.12091
G1 X125.72 Y195.171 E0.00389
G1 X125.48 Y195.171 E0.00825
G1 X105.84 Y195.171 E0.71378
G1 X105.84 Y195.051 E0.00389
G1 X105.84 Y194.811 E0.00825
G1 X105.84 Y169.905 E0.90519
;WIPE_START
G1 X105.84 Y169.445 F9000
;WIPE_END
G1 X106.513 Y168.986
; External perimeter
;GapFill
SET_VELOCITY_LIMIT ACCEL=2000 ACCEL_TO_DECEL=2000 SQUARE_CORNER_VELOCITY=8

; Skirt

;TYPE:Gap fill
;WIDTH:0.483139
G1 F1800
G1 X106.293 Y168.986 E0.00806
G1 X88.002 Y168.986 E0.66952
;WIDTH:0.367168
G1 X87.828 Y168.993 E0.0047
;WIDTH:0.169302
G1 X87.705 Y168.998 E0.0013
G1 E-0.6 F3000
G1 X114.405 Y166.132 F9000
G1 E0.6 F1800
;WIDTH:0.224447
G1 X114.496 Y166.132 E0.00137
G1 X123.506 Y166.132 E0.13599
G1 X123.597 Y166.132 E0.00137
G1 X122.849 Y166.053 F9000
; External perimeter
;SolidInfill
SET_VELOCITY_LIMIT ACCEL=2000 ACCEL_TO_DECEL=2000 SQUARE_CORNER_VELOCITY=8

; Bridge infill

;TYPE:Solid infill
;WIDTH:0.439598
G1 F2400
G1 X123.544 Y166.748 E0.03274
G1 X123.544 Y167.366 E0.02057
G1 X122.419 Y166.24 E0.05299
G1 X121.8 Y166.24 E0.02057
G1 X123.544 Y167.984 E0.08209
G1 X123.544 Y168.602 E0.02057
G1 X121.182 Y166.24 E0.11118
G1 X120.564 Y166.24 E0.02057
G1 X123.544 Y169.221 E0.14028
G1 X123.544 Y169.839 E0.02057
G1 X121.468 Y167.763 E0.09772
G1 X121.468 Y168.381 E0.02057
G1 X123.544 Y170.457 E0.09772
G1 X123.544 Y170.76 E0.01008
G1 X123.229 Y170.76 E0.0105
G1 X121.468 Y168.999 E0.08287
G1 X121.468 Y169.617 E0.02057
G1 X122.611 Y170.76 E0.05377
G1 X121.993 Y170.76 E0.02057
G1 X121.327 Y170.093 E0.03135
G1 X120.709 Y170.093 E0.02057
G1 X121.375 Y170.76 E0.03135
G1 X120.756 Y170.76 E0.02057
G1 X120.09 Y170.093 E0.03135
G1 X119.472 Y170.093 E0.02057
G1 X120.138 Y170.76 E0.03135
G1 X119.52 Y170.76 E0.02057
G1 X118.854 Y170.093 E0.03135
G1 X118.236 Y170.093 E0.02057
G1 X118.902 Y170.76 E0.03135
G1 X118.284 Y170.76 E0.02057
G1 X117.43 Y169.906 E0.0402
G1 E-0.6 F3000
G1 X120.8 Y167.094 F9000
G1 E0.6 F1800
G1 F2400
G1 X119.946 Y166.24 E0.0402
G1 X119.328 Y166.24 E0.02057
G1 X119.994 Y166.907 E0.03135
G1 X119.376 Y166.907 E0.02057
G1 X118.71 Y166.24 E0.03135
G1 X118.092 Y166.24 E0.02057
G1 X118.758 Y166.907 E0.03135
G1 X118.14 Y166.907 E0.02057
G1 X117.474 Y166.24 E0.03135
G1 X116.855 Y166.24 E0.02057
G1 X117.522 Y166.907 E0.03135
G1 X116.903 Y166.907 E0.02057
G1 X116.237 Y166.24 E0.03135
G1 X115.619 Y166.24 E0.02057
G1 X116.534 Y167.155 E0.04304
G1 X116.534 Y167.773 E0.02057
G1 X115.001 Y166.24 E0.07213
G1 X114.458 Y166.24 E0.01809
G1 X114.458 Y166.315 E0.00248
G1 X116.534 Y168.391 E0.09772
G1 X116.534 Y169.009 E0.02057
G1 X114.458 Y166.933 E0.09772
G1 X114.458 Y167.551 E0.02057
G1 X116.534 Y169.627 E0.09772
G1 X116.534 Y170.093 E0.01552
G1 X117 Y170.093 E0.01552
G1 X117.666 Y170.76 E0.03135
G1 X117.048 Y170.76 E0.02057
G1 X114.458 Y168.169 E0.12192
G1 X114.458 Y168.788 E0.02057
G1 X116.43 Y170.76 E0.09282
G1 X115.811 Y170.76 E0.02057
G1 X114.458 Y169.406 E0.06373
G1 X114.458 Y170.024 E0.02057
G1 X115.193 Y170.76 E0.03463
G1 X114.575 Y170.76 E0.02057
G1 X114.27 Y170.454 E0.01438
G1 X141.405 Y199.868 F9000
; External perimeter
;GapFill
SET_VELOCITY_LIMIT ACCEL=2000 ACCEL_TO_DECEL=2000 SQUARE_CORNER_VELOCITY=8

; Skirt

;TYPE:Gap fill
;WIDTH:0.224445
G1 F1800
G1 X141.496 Y199.868 E0.00137
G1 X150.597 Y199.868 E0.13736
G1 X149.849 Y195.053 F9000
; External perimeter
;SolidInfill
SET_VELOCITY_LIMIT ACCEL=2000 ACCEL_TO_DECEL=2000 SQUARE_CORNER_VELOCITY=8

; Bridge infill

;TYPE:Solid infill
;WIDTH:0.439597
G1 F2400
G1 X150.544 Y195.748 E0.03274
G1 X150.544 Y196.366 E0.02057
G1 X149.419 Y195.24 E0.05299
G1 X148.8 Y195.24 E0.02057
G1 X150.544 Y196.984 E0.08209
G1 X150.544 Y197.602 E0.02057
G1 X148.182 Y195.24 E0.11118
G1 X147.564 Y195.24 E0.02057
G1 X150.544 Y198.221 E0.14028
G1 X150.544 Y198.839 E0.02057
G1 X148.468 Y196.763 E0.09772
G1 X148.468 Y197.381 E0.02057
G1 X150.544 Y199.457 E0.09772
G1 X150.544 Y199.76 E0.01008
G1 X150.229 Y199.76 E0.0105
G1 X148.468 Y197.999 E0.08287
G1 X148.468 Y198.617 E0.02057
G1 X149.611 Y199.76 E0.05377
G1 X148.993 Y199.76 E0.02057
G1 X148.327 Y199.093 E0.03135
G1 X147.709 Y199.093 E0.02057
G1 X148.375 Y199.76 E0.03135
G1 X147.756 Y199.76 E0.02057
G1 X147.09 Y199.093 E0.03135
G1 X146.472 Y199.093 E0.02057
G1 X147.138 Y199.76 E0.03135
G1 X146.52 Y199.76 E0.02057
G1 X145.854 Y199.093 E0.03135
G1 X145.236 Y199.093 E0.02057
G1 X145.902 Y199.76 E0.03135
G1 X145.284 Y199.76 E0.02057
G1 X144.43 Y198.906 E0.0402
G1 E-0.6 F3000
G1 X147.8 Y196.094 F9000
G1 E0.6 F1800
G1 F2400
G1 X146.946 Y195.24 E0.0402
G1 X146.328 Y195.24 E0.02057
G1 X146.994 Y195.907 E0.03135
G1 X146.376 Y195.907 E0.02057
G1 X145.71 Y195.24 E0.03135
G1 X145.092 Y195.24 E0.02057
G1 X145.758 Y195.907 E0.03135
G1 X145.14 Y195.907 E0.02057
G1 X144.474 Y195.24 E0.03135
G1 X143.855 Y195.24 E0.02057
G1 X144.522 Y195.907 E0.03135
G1 X143.903 Y195.907 E0.02057
G1 X143.237 Y195.24 E0.03135
G1 X142.619 Y195.24 E0.02057
G1 X143.534 Y196.155 E0.04304
G1 X143.534 Y196.773 E0.02057
G1 X142.001 Y195.24 E0.07213
G1 X141.458 Y195.24 E0.01809
G1 X141.458 Y195.315 E0.00248
G1 X143.534 Y197.391 E0.09772
G1 X143.534 Y198.009 E0.02057
G1 X141.458 Y195.933 E0.09772
G1 X141.458 Y196.551 E0.02057
G1 X143.534 Y198.627 E0.09772
G1 X143.534 Y199.093 E0.01552
G1 X144 Y199.093 E0.01552
G1 X144.666 Y199.76 E0.03135
G1 X144.048 Y199.76 E0.02057
G1 X141.458 Y197.169 E0.12192
G1 X141.458 Y197.788 E0.02057
G1 X143.43 Y199.76 E0.09282
G1 X142.811 Y199.76 E0.02057
G1 X141.458 Y198.406 E0.06373
G1 X141.458 Y199.024 E0.02057
G1 X142.193 Y199.76 E0.03463
G1 X141.575 Y199.76 E0.02057
G1 X141.27 Y199.454 E0.01438
G1 X168.405 Y166.132 F9000
; External perimeter
;GapFill
SET_VELOCITY_LIMIT ACCEL=2000 ACCEL_TO_DECEL=2000 SQUARE_CORNER_VELOCITY=8

; Skirt

;TYPE:Gap fill
;WIDTH:0.224448
G1 F1800
G1 X177.506 Y166.132 E0.13736
G1 X177.597 Y166.132 E0.00137
G1 X176.849 Y166.053 F9000
; External perimeter
;SolidInfill
SET_VELOCITY_LIMIT ACCEL=2000 ACCEL_TO_DECEL=2000 SQUARE_CORNER_VELOCITY=8

; Bridge infill

;TYPE:Solid infill
;WIDTH:0.439597
G1 F2400
G1 X177.544 Y166.748 E0.03274
G1 X177.544 Y167.366 E0.02057
G1 X176.419 Y166.24 E0.05299
G1 X175.8 Y166.24 E0.02057
G1 X177.544 Y167.984 E0.08209
G1 X177.544 Y168.602 E0.02057
G1 X175.182 Y166.24 E0.11118
G1 X174.564 Y166.24 E0.02057
G1 X177.544 Y169.221 E0.14028
G1 X177.544 Y169.839 E0.02057
G1 X175.468 Y167.763 E0.09772
G1 X175.468 Y168.381 E0.02057
G1 X177.544 Y170.457 E0.09772
G1 X177.544 Y170.76 E0.01008
G1 X177.229 Y170.76 E0.0105
G1 X175.468 Y168.999 E0.08287
G1 X175.468 Y169.617 E0.02057
G1 X176.611 Y170.76 E0.05377
G1 X175.993 Y170.76 E0.02057
G1 X175.327 Y170.093 E0.03135
G1 X174.709 Y170.093 E0.02057
G1 X175.375 Y170.76 E0.03135
G1 X174.756 Y170.76 E0.02057
G1 X174.09 Y170.093 E0.03135
G1 X173.472 Y170.093 E0.02057
G1 X174.138 Y170.76 E0.03135
G1 X173.52 Y170.76 E0.02057
G1 X172.854 Y170.093 E0.03135
G1 X172.236 Y170.093 E0.02057
G1 X172.902 Y170.76 E0.03135
G1 X172.284 Y170.76 E0.02057
G1 X171.43 Y169.906 E0.0402
G1 E-0.6 F3000
G1 X174.8 Y167.094 F9000
G1 E0.6 F1800
G1 F2400
G1 X173.946 Y166.24 E0.0402
G1 X173.328 Y166.24 E0.02057
G1 X173.994 Y166.907 E0.03135
G1 X173.376 Y166.907 E0.02057
G1 X172.71 Y166.24 E0.03135
G1 X172.092 Y166.24 E0.02057
G1 X172.758 Y166.907 E0.03135
G1 X172.14 Y166.907 E0.02057
G1 X171.474 Y166.24 E0.03135
G1 X170.855 Y166.24 E0.02057
G1 X171.522 Y166.907 E0.03135
G1 X170.903 Y166.907 E0.02057
G1 X170.237 Y166.24 E0.03135
G1 X169.619 Y166.24 E0.02057
G1 X170.534 Y167.155 E0.04304
G1 X170.534 Y167.773 E0.02057
G1 X169.001 Y166.24 E0.07213
G1 X168.458 Y166.24 E0.01809
G1 X168.458 Y166.315 E0.00248
G1 X170.534 Y168.391 E0.09772
G1 X170.534 Y169.009 E0.02057
G1 X168.458 Y166.933 E0.09772
G1 X168.458 Y167.551 E0.02057
G1 X170.534 Y169.627 E0.09772
G1 X170.534 Y170.093 E0.01552
