; generated by SuperSlicer 2.4 on 2022-08-26 at 19:54:55 UTC


;
;

;
;
; 

; external perimeters extrusion width = 0.40mm
; perimeters extrusion width = 0.50mm
; infill extrusion width = 0.72mm
; solid infill extrusion width = 0.56mm
; top infill extrusion width = 0.40mm
; support material extrusion width = 0.50mm

; external perimeters extrusion width = 0.40mm
; perimeters extrusion width = 0.50mm
; infill extrusion width = 0.72mm
; solid infill extrusion width = 0.56mm
; top infill extrusion width = 0.40mm
; support material extrusion width = 0.50mm

; external perimeters extrusion width = 0.40mm
; perimeters extrusion width = 0.50mm
; infill extrusion width = 0.72mm
; solid infill extrusion width = 0.56mm
; top infill extrusion width = 0.40mm
; support material extrusion width = 0.50mm

; object:{"name":"Supports","id":"Supports.stl id:0 copy 0","object_center":[165.000001,221.275001,0.000000],"boundingbox_center":[165.000001,221.275001,15.188000],"boundingbox_size":[10.000000,19.306000,30.375999]}
; object:{"name":"Google_Hub_Base","id":"Google_Hub_Base.stl id:1 copy 0","object_center":[164.999999,165.000001,0.000000],"boundingbox_center":[164.999999,165.000001,4.500000],"boundingbox_size":[145.630005,81.244003,8.998000]}
; object:{"name":"Supports","id":"Supports.stl id:2 copy 0","object_center":[165.000000,108.725001,0.000000],"boundingbox_center":[165.000000,108.725001,15.188000],"boundingbox_size":[10.000000,19.306000,30.375999]}
; plater:{"center":[164.999999,165.000001,0.000000],"boundingbox_center":[164.999999,165.000001,15.188000],"boundingbox_size":[145.630005,131.856000,30.375999]}

M73 P0 R125
;TYPE:Custom
START_PRINT T_BED=70 T_EXTRUDER=235
M107
G21 ; set units to millimeters
G90 ; use absolute coordinates
M83 ; use relative distances for extrusion
; Filament gcode
M104 S235 ; set temperature
M109 S235 ; set temperature and wait for it to be reached
M190 S70 ; set bed temperature and wait for it to be reached
M107
;LAYER_CHANGE
;Z:0.24
;HEIGHT:0.24
G1 Z0.24 F9000
G92 E0
G1 E-1 F3000
M204 S1000
G1 X102.543 Y128.476 F9000
G1 E1 F1800
;TYPE:Skirt
;WIDTH:0.52
G1 X100.901 Y129.786 E0.09821
G1 X98.675 Y131.917 E0.14405
G1 X97.577 Y133.113 E0.0759
G1 X95.449 Y135.785 E0.15967
G1 X93.66 Y138.507 E0.15228
G1 X92.861 Y139.925 E0.07606
G1 X91.525 Y142.707 E0.1443
G1 X90.326 Y145.905 E0.15965
G1 X89.507 Y148.879 E0.14419
G1 X89.178 Y150.474 E0.07611
G1 X88.721 Y153.858 E0.15962
G1 X88.616 Y155.487 E0.07631
G1 X88.618 Y158.562 E0.14378
G1 X88.906 Y161.809 E0.15236
G1 X89.48 Y165.005 E0.15178
G1 X90.393 Y168.298 E0.15974
G1 X91.545 Y171.341 E0.1521
G1 X92.222 Y172.819 E0.07602
G1 X93.686 Y175.534 E0.1442
G1 X95.573 Y178.385 E0.15979
G1 X97.611 Y180.924 E0.15223
G1 X122.665 Y207.388 E1.70354
G1 X123.371 Y208.04 E0.04492
G1 X157.888 Y233.793 E2.01316
G1 X160.1 Y234.528 E0.10897
G1 X169.9 Y234.528 E0.45812
G1 X172.112 Y233.793 E0.10897
G1 X207.02 Y207.702 E2.03727
G1 X231.362 Y182.042 E1.65336
G1 X233.437 Y179.675 E0.14716
G1 X234.523 Y178.251 E0.08371
G1 X236.225 Y175.679 E0.1442
G1 X237.112 Y174.119 E0.08385
G1 X238.453 Y171.337 E0.1444
G1 X239.119 Y169.68 E0.08347
G1 X240.077 Y166.744 E0.14438
G1 X240.515 Y165.01 E0.0836
G1 X241.069 Y161.972 E0.14436
G1 X241.273 Y160.185 E0.08407
G1 X241.413 Y157.113 E0.14375
G1 X241.38 Y155.477 E0.07651
G1 X241.077 Y152.072 E0.15976
G1 X240.529 Y149.044 E0.14387
G1 X240.134 Y147.461 E0.07625
G1 X239.082 Y144.211 E0.1597
G1 X238.473 Y142.703 E0.07602
G1 X237.133 Y139.921 E0.14438
G1 X235.385 Y136.992 E0.15944
G1 X234.455 Y135.653 E0.07619
G1 X232.534 Y133.242 E0.14412
G1 X230.176 Y130.773 E0.15961
G1 X228.969 Y129.673 E0.07632
G1 X226.558 Y127.75 E0.1442
G1 X223.724 Y125.879 E0.15874
G1 X171.703 Y95.965 E2.8052
G1 X169.859 Y95.472 E0.08923
G1 X160.143 Y95.472 E0.45418
G1 X158.299 Y95.965 E0.08923
G1 X106.274 Y125.879 E2.80534
G1 X103.575 Y127.652 E0.15096
G1 X102.543 Y128.476 E0.06174
G1 X102.833 Y128.839 F9000
G1 F1800
G1 X101.216 Y130.13 E0.09672
G1 X99.005 Y132.247 E0.1431
G1 X97.921 Y133.427 E0.07493
G1 X95.832 Y136.051 E0.15675
G1 X94.066 Y138.737 E0.15029
G1 X93.277 Y140.136 E0.07508
G1 X91.95 Y142.9 E0.14332
G1 X90.773 Y146.039 E0.15673
G1 X89.959 Y148.993 E0.14323
G1 X89.635 Y150.567 E0.07511
G1 X89.187 Y153.889 E0.15671
G1 X89.082 Y155.496 E0.0753
G1 X89.085 Y158.552 E0.14286
G1 X89.37 Y161.756 E0.15037
G1 X89.937 Y164.911 E0.14985
G1 X90.833 Y168.144 E0.15681
G1 X91.969 Y171.147 E0.15013
G1 X92.638 Y172.607 E0.07505
G1 X94.092 Y175.304 E0.14323
G1 X95.943 Y178.102 E0.15685
G1 X97.955 Y180.609 E0.15025
G1 X123.003 Y207.068 E1.7032
G1 X123.65 Y207.666 E0.04119
G1 X158.167 Y233.419 E2.01316
G1 X160.1 Y234.061 E0.09523
G1 X169.9 Y234.061 E0.45812
G1 X171.834 Y233.419 E0.09524
G1 X206.692 Y207.37 E2.03422
G1 X231.023 Y181.721 E1.65269
G1 X233.079 Y179.376 E0.1458
G1 X234.14 Y177.985 E0.08176
G1 X235.831 Y175.43 E0.14322
G1 X236.696 Y173.907 E0.08189
G1 X238.029 Y171.144 E0.1434
G1 X238.679 Y169.525 E0.08155
G1 X239.631 Y166.609 E0.14339
G1 X240.058 Y164.915 E0.08167
G1 X240.609 Y161.898 E0.14336
G1 X240.807 Y160.154 E0.08209
G1 X240.947 Y157.101 E0.14283
G1 X240.913 Y155.487 E0.07547
G1 X240.617 Y152.146 E0.15683
G1 X240.072 Y149.137 E0.14293
G1 X239.682 Y147.575 E0.07525
G1 X238.649 Y144.385 E0.15677
G1 X238.049 Y142.896 E0.07503
G1 X236.717 Y140.133 E0.1434
G1 X235.001 Y137.257 E0.15654
G1 X234.084 Y135.936 E0.07518
G1 X232.176 Y133.54 E0.14317
G1 X229.861 Y131.117 E0.15668
G1 X228.671 Y130.031 E0.0753
G1 X226.275 Y128.121 E0.14323
G1 X223.491 Y126.283 E0.15593
G1 X171.47 Y96.369 E2.8052
G1 X169.859 Y95.939 E0.07798
G1 X160.143 Y95.939 E0.45418
G1 X158.531 Y96.369 E0.07798
M73 P0 R124
G1 X106.507 Y126.283 E2.80534
G1 X103.841 Y128.035 E0.14913
G1 X102.833 Y128.839 E0.06027
G1 E-1 F3000
; printing object Supports.stl id:0 copy 0
; acceleration to travel
M204 S3000
G1 X150.137 Y203.756 F9000
; decel to extrusion
M204 S1000
G1 X165.905 Y228.728
; end travel
G1 E1 F1800
;TYPE:Internal perimeter
;WIDTH:0.5
G1 X165.905 Y229.333 E0.02705
G1 X164.095 Y229.333 E0.08096
G1 X164.095 Y224.38 E0.22161
G1 X161.981 Y224.317 E0.09467
G1 X161.78 Y224.253 E0.00943
G1 X161.743 Y224.227 E0.00203
G1 X161.699 Y224.182 E0.00281
G1 X161.634 Y224.076 E0.00559
G1 X161.637 Y215.865 E0.36745
G1 X161.961 Y215.833 E0.01456
G1 X161.997 Y216.021 E0.00855
G1 X162.232 Y216.585 E0.02733
G1 X162.57 Y217.091 E0.02722
G1 X162.999 Y217.52 E0.02717
G1 X163.505 Y217.858 E0.02722
G1 X164.069 Y218.093 E0.02733
G1 X164.667 Y218.21 E0.02728
G1 X165.273 Y218.21 E0.0271
G1 X165.871 Y218.093 E0.02728
G1 X166.435 Y217.858 E0.02734
G1 X166.941 Y217.52 E0.02722
G1 X167.37 Y217.091 E0.02717
G1 X167.708 Y216.585 E0.02722
G1 X167.943 Y216.021 E0.02734
G1 X168.04 Y215.526 E0.02258
G1 X168.364 Y215.558 E0.01456
G1 X168.367 Y224.062 E0.38057
G1 X168.338 Y224.128 E0.00324
G1 X168.278 Y224.207 E0.00443
G1 X168.2 Y224.268 E0.00444
G1 X168.084 Y224.313 E0.00555
G1 X168.037 Y224.323 E0.00215
G1 X165.905 Y224.362 E0.09546
G1 X165.905 Y228.728 E0.19539
G1 E-1 F3000
; acceleration to travel
M204 S3000
G1 X167.038 Y217.095 F9000
; decel to extrusion
M204 S1000
G1 X167.415 Y213.217
; end travel
G1 E1 F1800
G1 X168.363 Y213.217 E0.04242
G1 X168.364 Y214.681 E0.06547
G1 X168.04 Y214.712 E0.01457
G1 X167.943 Y214.219 E0.0225
G1 X167.708 Y213.655 E0.02734
G1 X167.415 Y213.217 E0.02356
G1 E-1 F3000
; acceleration to travel
M204 S3000
G1 X163.747 Y213.217 F9000
; decel to extrusion
M204 S1000
G1 X162.525 Y213.217
; end travel
G1 E1 F1800
G1 X162.232 Y213.655 E0.02356
G1 X161.998 Y214.219 E0.02733
G1 X161.961 Y214.403 E0.0084
G1 X161.637 Y214.371 E0.01457
G1 X161.638 Y213.217 E0.05164
G1 X162.525 Y213.217 E0.03969
G1 X163.227 Y213.127 F9000
G1 F1800
G1 X162.918 Y213.435 E0.01951
G1 X162.629 Y213.868 E0.02328
G1 X162.429 Y214.35 E0.02336
G1 X162.328 Y214.861 E0.02332
G1 X162.328 Y215.379 E0.02318
G1 X162.429 Y215.89 E0.02332
G1 X162.629 Y216.372 E0.02336
G1 X162.918 Y216.804 E0.02328
G1 X163.286 Y217.172 E0.02323
G1 X163.718 Y217.461 E0.02328
G1 X164.2 Y217.661 E0.02336
G1 X164.711 Y217.762 E0.02332
G1 X165.229 Y217.762 E0.02318
G1 X165.74 Y217.661 E0.02332
G1 X166.222 Y217.461 E0.02336
G1 X166.655 Y217.172 E0.02328
G1 X167.022 Y216.804 E0.02323
G1 X167.311 Y216.372 E0.02328
G1 X167.511 Y215.89 E0.02336
G1 X167.612 Y215.379 E0.02332
G1 X167.612 Y214.861 E0.02318
G1 X167.511 Y214.35 E0.02332
G1 X167.311 Y213.868 E0.02336
G1 X167.022 Y213.435 E0.02328
G1 X166.355 Y212.769 E0.04218
G1 X168.812 Y212.769 E0.10994
G1 X168.815 Y224.153 E0.50945
G1 X168.799 Y224.206 E0.00247
G1 X168.729 Y224.355 E0.00739
G1 X168.599 Y224.526 E0.00957
G1 X168.485 Y224.624 E0.00674
G1 X168.424 Y224.661 E0.00321
G1 X168.212 Y224.745 E0.0102
G1 X168.086 Y224.771 E0.00576
G1 X166.353 Y224.802 E0.07757
G1 X166.353 Y229.781 E0.2228
G1 X163.647 Y229.781 E0.1211
G1 X163.647 Y224.816 E0.2222
G1 X161.904 Y224.764 E0.07804
G1 X161.584 Y224.66 E0.01505
G1 X161.455 Y224.575 E0.00695
G1 X161.343 Y224.459 E0.00719
G1 X161.239 Y224.29 E0.00889
G1 X161.185 Y224.13 E0.00754
G1 X161.189 Y212.769 E0.50844
G1 X163.585 Y212.769 E0.10721
G1 X163.227 Y213.127 E0.02267
G1 X163.544 Y213.444 F9000
G1 F1800
G1 X163.267 Y213.722 E0.01755
G1 X163.026 Y214.081 E0.01933
G1 X162.86 Y214.48 E0.01938
G1 X162.777 Y214.905 E0.01936
G1 X162.777 Y215.335 E0.01926
G1 X162.86 Y215.76 E0.01936
G1 X163.026 Y216.159 E0.01938
G1 X163.267 Y216.518 E0.01933
G1 X163.572 Y216.823 E0.0193
G1 X163.931 Y217.064 E0.01933
G1 X164.33 Y217.23 E0.01938
G1 X164.755 Y217.313 E0.01936
G1 X165.185 Y217.313 E0.01926
G1 X165.61 Y217.23 E0.01936
G1 X166.009 Y217.064 E0.01938
G1 X166.368 Y216.823 E0.01933
G1 X166.673 Y216.518 E0.0193
G1 X166.914 Y216.159 E0.01933
G1 X167.08 Y215.76 E0.01938
G1 X167.163 Y215.335 E0.01936
G1 X167.163 Y214.905 E0.01926
G1 X167.08 Y214.48 E0.01936
G1 X166.914 Y214.081 E0.01938
G1 X166.673 Y213.722 E0.01933
G1 X166.368 Y213.417 E0.01929
G1 X166.009 Y213.176 E0.01933
G1 X165.61 Y213.01 E0.01938
G1 X165.185 Y212.927 E0.01936
G1 X164.755 Y212.927 E0.01926
G1 X164.33 Y213.01 E0.01936
G1 X163.931 Y213.176 E0.01938
G1 X163.572 Y213.417 E0.01933
G1 X163.544 Y213.444 E0.00175
G1 X163.826 Y213.726 F9000
;TYPE:External perimeter
;WIDTH:0.4
G1 F1800
G1 X163.576 Y213.976 E0.01227
G1 X163.379 Y214.27 E0.0123
G1 X163.243 Y214.597 E0.01231
G1 X163.175 Y214.944 E0.0123
G1 X163.175 Y215.296 E0.01226
G1 X163.243 Y215.643 E0.0123
G1 X163.379 Y215.97 E0.01231
G1 X163.576 Y216.264 E0.0123
G1 X163.826 Y216.514 E0.01227
G1 X164.12 Y216.711 E0.0123
G1 X164.447 Y216.847 E0.01231
G1 X164.794 Y216.915 E0.0123
G1 X165.146 Y216.915 E0.01226
G1 X165.493 Y216.847 E0.0123
G1 X165.82 Y216.711 E0.01231
G1 X166.114 Y216.514 E0.0123
G1 X166.364 Y216.264 E0.01228
G1 X166.561 Y215.97 E0.0123
G1 X166.697 Y215.643 E0.01231
G1 X166.765 Y215.296 E0.0123
G1 X166.765 Y214.944 E0.01226
G1 X166.697 Y214.597 E0.0123
G1 X166.561 Y214.27 E0.01231
G1 X166.364 Y213.976 E0.0123
G1 X166.114 Y213.726 E0.01227
G1 X165.82 Y213.529 E0.0123
G1 X165.493 Y213.393 E0.01231
G1 X165.146 Y213.325 E0.0123
G1 X164.794 Y213.325 E0.01226
G1 X164.447 Y213.393 E0.0123
G1 X164.12 Y213.529 E0.01231
G1 X163.826 Y213.726 E0.0123
;WIPE_START
M204 S4000
G1 X163.447 Y213.598 F9000
;WIPE_END
G1 E-1 F3000
; acceleration to travel
M204 S3000
G1 X165.963 Y224.945 F9000
; decel to extrusion
M204 S1000
G1 X166.802 Y228.728
; end travel
G1 E1 F1800
;TYPE:Internal perimeter
;WIDTH:0.5
G1 X166.802 Y229.126 E0.01783
G1 X169.302 Y229.126 E0.11188
G1 X169.302 Y230.23 E0.04936
G1 X160.698 Y230.23 E0.38499
G1 X160.698 Y229.126 E0.04936
G1 X163.198 Y229.126 E0.11188
G1 X163.198 Y225.251 E0.17343
G1 X161.827 Y225.21 E0.06141
G1 X161.388 Y225.068 E0.02066
G1 X161.34 Y225.045 E0.00237
G1 X161.167 Y224.922 E0.00952
G1 X160.986 Y224.736 E0.01157
G1 X160.83 Y224.481 E0.01339
G1 X160.737 Y224.204 E0.0131
G1 X160.741 Y212.32 E0.53179
G1 X169.26 Y212.32 E0.38124
G1 X169.264 Y224.217 E0.5324
G1 X169.22 Y224.366 E0.00693
G1 X169.114 Y224.59 E0.01108
G1 X168.927 Y224.835 E0.0138
G1 X168.75 Y224.987 E0.01044
G1 X168.626 Y225.064 E0.00656
G1 X168.34 Y225.177 E0.01375
G1 X168.135 Y225.218 E0.00937
G1 X166.802 Y225.243 E0.05968
G1 X166.802 Y228.728 E0.15597
G1 X167.2 Y228.728 F9000
;TYPE:External perimeter
;WIDTH:0.4
G1 F1800
G1 X169.7 Y228.728 E0.08693
G1 X169.7 Y230.628 E0.06607
G1 X160.3 Y230.628 E0.32687
G1 X160.3 Y228.728 E0.06607
G1 X162.8 Y228.728 E0.08693
G1 X162.8 Y225.638 E0.10746
G1 X161.759 Y225.607 E0.03623
G1 X161.236 Y225.438 E0.01909
G1 X161.135 Y225.387 E0.00395
G1 X160.906 Y225.226 E0.00972
G1 X160.67 Y224.982 E0.01181
G1 X160.466 Y224.651 E0.01352
G1 X160.338 Y224.269 E0.01402
G1 X160.343 Y211.922 E0.42934
G1 X169.659 Y211.922 E0.32394
G1 X169.658 Y212.102 E0.00626
G1 X169.662 Y224.275 E0.42327
G1 X169.594 Y224.508 E0.00846
G1 X169.457 Y224.798 E0.01115
G1 X169.219 Y225.11 E0.01364
G1 X168.986 Y225.31 E0.01067
G1 X168.805 Y225.422 E0.00741
G1 X168.454 Y225.561 E0.01314
G1 X168.178 Y225.616 E0.00977
G1 X167.2 Y225.634 E0.03402
G1 X167.2 Y228.728 E0.10759
;WIPE_START
M204 S4000
G1 X167.2 Y229.128 F9000
;WIPE_END
M204 S1000
G1 X166.559 Y229.678
;TYPE:Gap fill
;WIDTH:0.742021
G1 F1800
G1 X169.095 Y229.678 E0.17473
G1 E-1 F3000
; acceleration to travel
M204 S3000
G1 X164.854 Y229.678 F9000
; decel to extrusion
M204 S1000
G1 X163.441 Y229.678
; end travel
G1 E1 F1800
G1 X161.25 Y229.678 E0.15094
G1 X161.077 Y229.678 E0.01189
G1 X160.905 Y229.678 E0.01189
G1 E-1 F3000
; acceleration to travel
M204 S3000
G1 X166.265 Y221.258 F9000
; decel to extrusion
M204 S1000
G1 X168.307 Y218.05
; end travel
G1 E1 F1800
;TYPE:Solid infill
;WIDTH:0.539386
G1 F3600
G1 X167.554 Y217.298 E0.05199
G1 X167.195 Y217.657 E0.02485
G1 X168.088 Y218.551 E0.06174
G1 X168.088 Y219.27 E0.03515
G1 X166.779 Y217.961 E0.09046
G1 X166.566 Y218.103 E0.01252
G1 X166.309 Y218.21 E0.0136
G1 X168.088 Y219.989 E0.12295
G1 X168.089 Y220.709 E0.03515
G1 X165.774 Y218.394 E0.15997
G1 X165.3 Y218.487 E0.02361
G1 X165.148 Y218.487 E0.00741
G1 X168.089 Y221.428 E0.20323
G1 X168.089 Y222.147 E0.03515
G1 X164.377 Y218.436 E0.25652
G1 X163.988 Y218.359 E0.01938
G1 X163.374 Y218.103 E0.03253
G1 X163.23 Y218.007 E0.00843
G1 X168.089 Y222.867 E0.33582
G1 X168.089 Y223.586 E0.03515
G1 X161.913 Y217.409 E0.42688
G1 X161.913 Y218.128 E0.03513
G1 X167.834 Y224.05 E0.40925
G1 X167.128 Y224.063 E0.03452
G1 X161.912 Y218.847 E0.36046
G1 X161.912 Y219.566 E0.03513
G1 X166.422 Y224.076 E0.31167
G1 X165.716 Y224.088 E0.03452
G1 X161.912 Y220.285 E0.26288
G1 X161.912 Y221.004 E0.03513
G1 X165.628 Y224.72 E0.25682
G1 X165.628 Y225.439 E0.03514
G1 X161.911 Y221.722 E0.25684
G1 X161.911 Y222.441 E0.03513
G1 X163.557 Y224.087 E0.11376
G1 X162.816 Y224.065 E0.03624
G1 X161.911 Y223.16 E0.06255
G1 X161.911 Y223.879 E0.03513
G1 X162.3 Y224.269 E0.02692
; acceleration to travel
M204 S3000
G1 X163.69 Y224.58 F9000
; decel to extrusion
M204 S1000
G1 X164.154 Y224.684
; end travel
G1 F3600
G1 X165.628 Y226.158 E0.10187
G1 X165.628 Y226.877 E0.03514
G1 X164.372 Y225.622 E0.08675
G1 X164.372 Y226.341 E0.03514
G1 X165.628 Y227.596 E0.08675
G1 X165.628 Y228.315 E0.03514
G1 X164.372 Y227.06 E0.08675
G1 X164.372 Y227.779 E0.03514
G1 X165.628 Y229.034 E0.08675
G1 X165.628 Y229.056 E0.00104
G1 X164.93 Y229.056 E0.0341
G1 X164.154 Y228.28 E0.05364
G1 E-1 F3000
; acceleration to travel
M204 S3000
G1 X163.241 Y220.271 F9000
; decel to extrusion
M204 S1000
G1 X162.974 Y217.935
; end travel
G1 E1 F1800
;TYPE:Gap fill
;WIDTH:0.309383
G1 X162.879 Y217.857 E0.00316
G1 X162.778 Y217.772 E0.00339
;WIDTH:0.273463
G1 X162.318 Y217.312 E0.01442
G1 X162.303 Y217.296 E0.00048
G1 X162.189 Y217.157 E0.00399
;WIDTH:0.345912
G1 X162.074 Y217.018 E0.00529
G1 X162.023 Y216.968 E0.0021
G1 X161.971 Y216.796 E0.00528
;WIDTH:0.23544
G1 X161.948 Y216.717 E0.00151
G1 X161.928 Y216.604 E0.0021
;WIDTH:0.163504
G1 X161.909 Y216.492 E0.00128
G1 E-1 F3000
; acceleration to travel
M204 S3000
G1 X166.379 Y217.073 F9000
; decel to extrusion
M204 S1000
G1 X167.869 Y217.267
; end travel
G1 E1 F1800
;WIDTH:0.551513
G1 X167.915 Y217.091 E0.00908
;WIDTH:0.470665
G1 X167.931 Y217.033 E0.00254
