; Postprocessed by [ArcWelder](https://github.com/FormerLurker/ArcWelderLib)
; Copyright(C) 2021 - Brad Hochgesang
; Version: 1.2.0, Branch: HEAD, BuildDate: 2021-11-21T20:25:43Z
; resolution=0.05mm
; path_tolerance=5.0%
; max_radius=9999.00mm
; g90_influences_extruder=True
; default_xyz_precision=3
; default_e_precision=5
; extrusion_rate_variance_percent=5.0%

; generated by SuperSlicer 2.4 on 2022-05-01 at 21:03:53 UTC







; 

; external perimeters extrusion width = 0.40mm
; perimeters extrusion width = 0.40mm
; infill extrusion width = 0.72mm
; solid infill extrusion width = 0.56mm
; top infill extrusion width = 0.40mm
; first layer extrusion width = 0.48mm

; object:{"name":"nut","id":"nut.stl id:0 copy 0","object_center":[165.000000,165.000000,0.000000],"boundingbox_center":[165.000000,165.000000,5.000000],"boundingbox_size":[26.327728,26.403381,10.000000]}
; plater:{"center":[165.000000,165.000000,0.000000],"boundingbox_center":[165.000000,165.000000,5.000000],"boundingbox_size":[26.327728,26.403381,10.000000]}

M73 P0 R15
;TYPE:Custom
START_PRINT T_BED=60 T_EXTRUDER=200
M107
G21 ; set units to millimeters
G90 ; use absolute coordinates
M83 ; use relative distances for extrusion
; Filament gcode
M104 S200 ; set temperature
M109 S200 ; set temperature and wait for it to be reached
M190 S60 ; set bed temperature and wait for it to be reached
M107
;LAYER_CHANGE
;Z:0.24
;HEIGHT:0.24
G1 Z0.24 F9000
G92 E0
G1 E-0.8 F3000
M204 S1000
G1 X152.258 Y152.683 F9000
G1 E0.8 F1800
;TYPE:Skirt
;WIDTH:0.52
G1 X152.211 Y152.73 E0.00309
G1 X150.383 Y154.954 E0.13458
G2 X148.991 Y157.364 I13.979 J9.681 E0.13022
G1 X147.829 Y160.559 E0.15892
G1 X147.465 Y162.32 E0.08404
G1 X147.316 Y163.821 E0.07054
G1 X147.345 Y166.7 E0.13458
G1 X147.606 Y168.479 E0.08404
G1 X147.979 Y169.941 E0.07053
G1 X148.786 Y172.156 E0.11022
G1 X149.439 Y173.516 E0.07054
G1 X150.383 Y175.046 E0.08403
G1 X152.211 Y177.27 E0.13458
G1 X153.29 Y178.325 E0.07054
G1 X154.701 Y179.44 E0.08403
G1 X157.645 Y181.139 E0.15893
G2 X160.260 Y182.091 I7.056 J-15.313 E0.13021
G1 X163.09 Y182.62 E0.13458
G2 X166.910 Y182.620 I1.910 J-15.039 E0.17897
G1 X169.232 Y182.211 E0.11022
G1 X170.685 Y181.803 E0.07054
G1 X172.355 Y181.139 E0.08403
G1 X174.863 Y179.725 E0.13458
G2 X177.789 Y177.270 I-8.181 J-12.722 E0.17897
G1 X179.617 Y175.046 E0.13458
G2 X181.009 Y172.636 I-14.110 J-9.757 E0.13022
G1 X182.171 Y169.441 E0.15892
G1 X182.535 Y167.68 E0.08404
G1 X182.684 Y166.179 E0.07054
G1 X182.655 Y163.3 E0.13458
G1 X182.394 Y161.521 E0.08403
G1 X182.021 Y160.059 E0.07054
G1 X181.214 Y157.844 E0.11022
G1 X180.561 Y156.484 E0.07054
G1 X179.617 Y154.954 E0.08403
G1 X177.789 Y152.73 E0.13458
G1 X176.71 Y151.676 E0.07053
G1 X175.299 Y150.56 E0.08404
G1 X172.355 Y148.861 E0.15892
G2 X169.740 Y147.909 I-7.056 J15.313 E0.13021
G1 X166.91 Y147.38 E0.13458
G2 X163.090 Y147.380 I-1.910 J15.039 E0.17897
G1 X160.768 Y147.789 E0.11022
G1 X159.315 Y148.197 E0.07054
G1 X157.645 Y148.861 E0.08403
G1 X155.137 Y150.275 E0.13458
G2 X152.258 Y152.683 I8.025 J12.519 E0.17588
G1 X152.585 Y153.013 F9000
G1 F1800
G1 X152.568 Y153.03 E0.00113
G1 X150.772 Y155.212 E0.13213
G1 X149.409 Y157.572 E0.12742
G1 X148.282 Y160.668 E0.15401
G1 X147.924 Y162.401 E0.08269
G1 X147.782 Y163.821 E0.06674
G1 X147.809 Y166.647 E0.13212
G1 X148.065 Y168.398 E0.08269
G1 X148.417 Y169.781 E0.06673
G1 X149.224 Y171.997 E0.11022
G1 X149.843 Y173.283 E0.06674
G1 X150.772 Y174.788 E0.08269
G1 X152.568 Y176.97 E0.13212
G1 X153.59 Y177.967 E0.06674
G1 X154.978 Y179.064 E0.08268
G1 X157.831 Y180.712 E0.15402
G1 X160.392 Y181.644 E0.12742
G1 X163.171 Y182.161 E0.13213
G2 X166.829 Y182.161 I1.829 J-14.626 E0.17138
G1 X169.151 Y181.751 E0.11022
G1 X170.525 Y181.365 E0.06674
G1 X172.169 Y180.712 E0.08268
G1 X174.63 Y179.322 E0.13213
G2 X177.432 Y176.970 I-8.003 J-12.380 E0.17138
G1 X179.228 Y174.788 E0.13213
G1 X180.591 Y172.428 E0.12742
G1 X181.718 Y169.332 E0.15402
G1 X182.076 Y167.599 E0.08269
G1 X182.218 Y166.179 E0.06674
G1 X182.191 Y163.353 E0.13213
G1 X181.935 Y161.602 E0.08269
G1 X181.583 Y160.219 E0.06674
G1 X180.776 Y158.003 E0.11022
G1 X180.157 Y156.717 E0.06674
G1 X179.228 Y155.212 E0.08269
G1 X177.432 Y153.03 E0.13213
G1 X176.41 Y152.033 E0.06673
G1 X175.022 Y150.936 E0.08269
G1 X172.169 Y149.288 E0.15402
G1 X169.608 Y148.356 E0.12742
G1 X166.829 Y147.839 E0.13212
G2 X163.171 Y147.839 I-1.829 J14.626 E0.17138
G1 X160.849 Y148.249 E0.11022
G1 X159.475 Y148.635 E0.06674
G1 X157.831 Y149.288 E0.08268
G1 X155.37 Y150.678 E0.13213
G2 X152.585 Y153.013 I7.948 J12.308 E0.17025
G1 X152.925 Y153.329 F9000
G1 F1800
G1 X151.16 Y155.469 E0.12967
G1 X149.826 Y157.78 E0.12473
G1 X148.735 Y160.777 E0.14911
G1 X148.384 Y162.482 E0.08134
G1 X148.249 Y163.821 E0.06294
G1 X148.272 Y166.595 E0.12967
M73 P1 R15
G1 X148.524 Y168.317 E0.08134
G1 X148.856 Y169.622 E0.06294
G1 X149.662 Y171.837 E0.11022
G1 X150.247 Y173.05 E0.06294
G1 X151.16 Y174.531 E0.08134
G1 X152.925 Y176.671 E0.12967
G1 X153.89 Y177.61 E0.06294
G1 X155.255 Y178.689 E0.08134
G1 X158.017 Y180.284 E0.14912
G1 X160.524 Y181.197 E0.12472
G1 X163.252 Y181.702 E0.12967
G1 X164.366 Y181.794 E0.05225
G1 X166.748 Y181.702 E0.11142
G1 X169.07 Y181.292 E0.11022
G1 X170.366 Y180.927 E0.06294
G1 X171.983 Y180.284 E0.08134
G1 X174.397 Y178.918 E0.12967
G1 X176.281 Y177.458 E0.11142
G1 X177.075 Y176.671 E0.05225
G1 X178.84 Y174.531 E0.12967
G1 X180.174 Y172.22 E0.12473
G1 X181.265 Y169.223 E0.14912
G1 X181.616 Y167.518 E0.08134
G1 X181.751 Y166.179 E0.06294
G1 X181.728 Y163.405 E0.12967
G1 X181.476 Y161.683 E0.08134
G1 X181.144 Y160.378 E0.06294
G1 X180.338 Y158.163 E0.11022
G1 X179.753 Y156.95 E0.06294
G1 X178.84 Y155.469 E0.08134
G1 X177.075 Y153.329 E0.12967
G1 X176.11 Y152.39 E0.06294
G1 X174.745 Y151.311 E0.08134
G1 X171.983 Y149.716 E0.14912
G1 X169.475 Y148.803 E0.12473
G1 X166.748 Y148.298 E0.12967
G1 X165.634 Y148.206 E0.05226
G1 X163.252 Y148.298 E0.11142
G1 X160.93 Y148.708 E0.11022
G1 X159.634 Y149.073 E0.06294
G1 X158.017 Y149.716 E0.08134
G1 X155.603 Y151.082 E0.12967
G1 X153.719 Y152.542 E0.11142
G1 X152.925 Y153.329 E0.05225
G1 X153.283 Y153.629 F9000
G1 F1800
G1 X151.549 Y155.727 E0.12722
G1 X150.244 Y157.988 E0.12203
G1 X149.189 Y160.887 E0.14421
G1 X148.843 Y162.563 E0.07999
G1 X148.715 Y163.821 E0.05914
G1 X148.735 Y166.542 E0.12722
G1 X148.984 Y168.236 E0.08
G1 X149.294 Y169.462 E0.05914
G1 X150.1 Y171.678 E0.11022
G1 X150.651 Y172.817 E0.05914
G1 X151.549 Y174.273 E0.07999
G1 X153.283 Y176.371 E0.12722
G1 X154.19 Y177.253 E0.05914
G1 X155.532 Y178.314 E0.07999
G1 X158.204 Y179.857 E0.14422
G1 X160.657 Y180.75 E0.12203
G1 X163.333 Y181.242 E0.12722
G1 X164.395 Y181.329 E0.0498
G1 X166.667 Y181.242 E0.10628
G1 X168.989 Y180.833 E0.11022
G2 X171.796 Y179.857 I-3.385 J-14.260 E0.13913
G1 X174.163 Y178.514 E0.12722
G1 X175.959 Y177.12 E0.10628
G1 X176.717 Y176.371 E0.0498
G1 X178.451 Y174.273 E0.12722
G1 X179.756 Y172.012 E0.12203
G1 X180.811 Y169.113 E0.14421
G1 X181.157 Y167.437 E0.07999
G1 X181.285 Y166.179 E0.05914
G1 X181.265 Y163.457 E0.12722
G1 X181.016 Y161.764 E0.07999
G1 X180.706 Y160.538 E0.05914
G1 X179.9 Y158.322 E0.11022
G1 X179.349 Y157.183 E0.05914
G1 X178.451 Y155.727 E0.07999
G1 X176.717 Y153.629 E0.12722
G1 X175.81 Y152.747 E0.05914
G1 X174.468 Y151.686 E0.07999
G1 X171.796 Y150.143 E0.14421
G1 X169.343 Y149.25 E0.12203
G1 X166.667 Y148.758 E0.12722
G1 X165.605 Y148.671 E0.0498
G1 X163.333 Y148.758 E0.10628
G1 X161.011 Y149.167 E0.11022
G2 X158.204 Y150.143 I3.385 J14.260 E0.13913
G1 X155.836 Y151.486 E0.12722
G1 X154.041 Y152.88 E0.10628
G1 X153.283 Y153.629 E0.0498
; INIT printing object nut.stl id:0 copy 0
G1 E-0.8 F3000
; printing object nut.stl id:0 copy 0
; acceleration to travel
M204 S4000
G1 X159.982 Y160.246 F9000
; decel to extrusion
M204 S1000
G1 X161.656 Y161.9
; end travel
G1 E0.8 F1800
;TYPE:Internal perimeter
;WIDTH:0.48
G1 X161.578 Y161.969 E0.00445
G1 X160.952 Y162.876 E0.04712
G1 X160.562 Y163.906 E0.04712
G1 X160.429 Y165 E0.04712
G1 X160.562 Y166.094 E0.04712
G1 X160.952 Y167.124 E0.04712
G1 X161.578 Y168.031 E0.04712
G1 X162.403 Y168.762 E0.04712
G1 X163.379 Y169.274 E0.04712
G1 X164.449 Y169.538 E0.04712
G1 X165.551 Y169.538 E0.04712
G1 X166.621 Y169.274 E0.04712
G1 X167.597 Y168.762 E0.04712
G1 X168.422 Y168.031 E0.04712
G1 X169.048 Y167.124 E0.04712
G1 X169.438 Y166.094 E0.04712
G1 X169.571 Y165 E0.04712
G1 X169.438 Y163.906 E0.04712
G1 X169.048 Y162.876 E0.04712
G1 X168.422 Y161.969 E0.04712
G1 X167.597 Y161.238 E0.04712
G1 X166.621 Y160.726 E0.04712
G1 X165.551 Y160.462 E0.04712
G1 X164.449 Y160.462 E0.04712
G1 X163.379 Y160.726 E0.04712
G1 X162.403 Y161.238 E0.04712
G1 X161.656 Y161.9 E0.04267
G1 X161.94 Y162.22 F9000
G1 F1800
G1 X161.901 Y162.255 E0.00222
G1 X161.335 Y163.076 E0.04267
G1 X160.981 Y164.009 E0.04267
G1 X160.86 Y165 E0.04267
G1 X160.981 Y165.991 E0.04267
G1 X161.335 Y166.924 E0.04267
G1 X161.901 Y167.745 E0.04267
G1 X162.648 Y168.407 E0.04267
G1 X163.532 Y168.871 E0.04267
G1 X164.501 Y169.109 E0.04267
G1 X165.499 Y169.109 E0.04267
G1 X166.468 Y168.871 E0.04267
G1 X167.352 Y168.407 E0.04267
G1 X168.099 Y167.745 E0.04267
G1 X168.665 Y166.924 E0.04267
G1 X169.019 Y165.991 E0.04267
G1 X169.14 Y165 E0.04267
G1 X169.019 Y164.009 E0.04267
G1 X168.665 Y163.076 E0.04267
G1 X168.099 Y162.255 E0.04267
G1 X167.352 Y161.593 E0.04267
G1 X166.468 Y161.129 E0.04267
G1 X165.499 Y160.891 E0.04267
G1 X164.501 Y160.891 E0.04267
G1 X163.532 Y161.129 E0.04267
G1 X162.648 Y161.593 E0.04267
G1 X161.94 Y162.22 E0.04044
G1 X162.225 Y162.541 F9000
;TYPE:External perimeter
G1 F1800
G1 X161.717 Y163.277 E0.03822
G1 X161.4 Y164.113 E0.03822
G1 X161.292 Y165 E0.03822
G1 X161.4 Y165.887 E0.03822
G1 X161.717 Y166.723 E0.03822
G2 X162.225 Y167.459 I433.574 J-298.717 E0.03822
G1 X162.894 Y168.052 E0.03822
G3 X163.685 Y168.467 I-219.771 J419.850 E0.03822
G2 X167.775 Y167.459 I1.290 J-3.566 E0.19110
G2 X168.283 Y166.723 I-433.066 J-299.453 E0.03822
G2 X168.600 Y165.887 I-127.059 J-48.657 E0.03821
G1 X168.708 Y165 E0.03822
G1 X168.6 Y164.113 E0.03822
G1 X168.283 Y163.277 E0.03822
G1 X167.775 Y162.541 E0.03822
G1 X167.106 Y161.948 E0.03822
G1 X166.315 Y161.533 E0.03822
G1 X165.447 Y161.319 E0.03822
G1 X164.553 Y161.319 E0.03822
G1 X163.685 Y161.533 E0.03822
G1 X162.894 Y161.948 E0.03822
G1 X162.225 Y162.541 E0.03822
;WIPE_START
M204 S5000
G1 X161.83 Y162.477 F9000
;WIPE_END
; acceleration to travel
M204 S4000
G1 X156.024 Y165.631
; decel to extrusion
M204 S1000
G1 X154.573 Y166.419
; end travel
;TYPE:Internal perimeter
G1 F1800
G1 X154.573 Y163.161 E0.13927
M73 P2 R15
G1 X155.831 Y159.706 E0.15722
G1 X158.194 Y156.889 E0.15721
G1 X161.379 Y155.051 E0.15722
G1 X165 Y154.412 E0.15722
G1 X168.621 Y155.051 E0.15722
G1 X171.806 Y156.889 E0.15722
G1 X174.169 Y159.706 E0.15721
G1 X175.427 Y163.161 E0.15722
G1 X175.427 Y166.839 E0.15721
G1 X174.169 Y170.294 E0.15722
G1 X171.806 Y173.111 E0.15721
G1 X168.621 Y174.949 E0.15722
G1 X165 Y175.588 E0.15722
G1 X161.379 Y174.949 E0.15722
G1 X158.194 Y173.111 E0.15721
G1 X155.831 Y170.294 E0.15722
G1 X154.573 Y166.839 E0.15722
G1 X154.573 Y166.419 E0.01794
G1 X154.145 Y166.419 F9000
G1 F1800
G1 X154.145 Y163.086 E0.1425
G1 X155.454 Y159.489 E0.16368
G1 X157.915 Y156.556 E0.16368
G1 X161.23 Y154.642 E0.16368
G1 X165 Y153.977 E0.16368
G1 X168.77 Y154.642 E0.16368
G3 X172.085 Y156.556 I-4046.100 J7011.571 E0.16367
G1 X174.546 Y159.489 E0.16368
G1 X175.855 Y163.086 E0.16368
G1 X175.855 Y166.914 E0.16367
G1 X174.546 Y170.511 E0.16368
G1 X172.085 Y173.444 E0.16368
G1 X168.77 Y175.358 E0.16368
G1 X165 Y176.023 E0.16368
G1 X161.23 Y175.358 E0.16368
G3 X157.915 Y173.444 I3266.700 J-5661.670 E0.16367
G1 X155.454 Y170.511 E0.16368
G1 X154.145 Y166.914 E0.16368
G1 X154.145 Y166.419 E0.02117
; acceleration to travel
M204 S4000
G1 X165.855 Y156.634 F9000
; decel to extrusion
M204 S1000
G1 X168.782 Y154.187
; end travel
G1 F1800
G1 X168.955 Y153.208 E0.0425
G1 X169.55 Y153.425 E0.02706
G1 X169.053 Y154.286 E0.0425
G1 X168.782 Y154.187 E0.0123
; acceleration to travel
M204 S4000
G1 X171.559 Y155.744 F9000
; decel to extrusion
M204 S1000
G1 X172.253 Y156.133
; end travel
G1 F1800
G1 X172.75 Y155.272 E0.0425
G1 X173.234 Y155.679 E0.02706
G1 X172.473 Y156.318 E0.0425
G1 X172.253 Y156.133 E0.0123
; acceleration to travel
M204 S4000
G1 X174.329 Y158.545 F9000
; decel to extrusion
M204 S1000
G1 X174.848 Y159.148
; end travel
G1 F1800
G1 X175.609 Y158.509 E0.0425
G1 X175.926 Y159.057 E0.02706
G1 X174.992 Y159.397 E0.0425
G1 X174.848 Y159.148 E0.0123
; acceleration to travel
M204 S4000
G1 X175.974 Y162.125 F9000
; decel to extrusion
M204 S1000
G1 X176.255 Y162.869
; end travel
G1 F1800
G1 X177.189 Y162.529 E0.0425
G1 X177.299 Y163.153 E0.02706
G1 X176.305 Y163.153 E0.0425
G1 X176.255 Y162.869 E0.0123
; acceleration to travel
M204 S4000
G1 X176.295 Y166.052 F9000
; decel to extrusion
M204 S1000
G1 X176.305 Y166.847
; end travel
G1 F1800
G1 X177.299 Y166.847 E0.0425
G1 X177.189 Y167.471 E0.02706
G1 X176.255 Y167.131 E0.0425
G1 X176.305 Y166.847 E0.0123
; acceleration to travel
M204 S4000
G1 X175.254 Y169.852 F9000
; decel to extrusion
M204 S1000
G1 X174.992 Y170.603
; end travel
G1 F1800
G1 X175.926 Y170.943 E0.0425
G1 X175.609 Y171.491 E0.02706
G1 X174.848 Y170.852 E0.0425
G1 X174.992 Y170.603 E0.0123
; acceleration to travel
M204 S4000
G1 X172.977 Y173.066 F9000
; decel to extrusion
M204 S1000
G1 X172.473 Y173.682
; end travel
G1 F1800
G1 X173.234 Y174.321 E0.0425
G1 X172.75 Y174.728 E0.02706
G1 X172.253 Y173.867 E0.0425
G1 X172.473 Y173.682 E0.0123
; acceleration to travel
M204 S4000
G1 X169.737 Y175.308 F9000
; decel to extrusion
M204 S1000
G1 X169.053 Y175.714
; end travel
G1 F1800
G1 X169.55 Y176.575 E0.0425
G1 X168.955 Y176.792 E0.02706
G1 X168.782 Y175.813 E0.0425
G1 X169.053 Y175.714 E0.0123
; acceleration to travel
M204 S4000
G1 X165.926 Y176.306 F9000
; decel to extrusion
M204 S1000
G1 X165.144 Y176.454
; end travel
G1 F1800
G1 X165.316 Y177.433 E0.0425
G1 X164.684 Y177.433 E0.02706
G1 X164.856 Y176.454 E0.0425
G1 X165.144 Y176.454 E0.0123
; acceleration to travel
M204 S4000
G1 X161.787 Y175.862 F9000
; decel to extrusion
M204 S1000
G1 X160.947 Y175.714
; end travel
G1 F1800
G1 X161.218 Y175.813 E0.0123
G1 X161.045 Y176.792 E0.0425
G1 X160.45 Y176.575 E0.02706
G1 X160.947 Y175.714 E0.0425
; acceleration to travel
M204 S4000
G1 X158.211 Y174.089 F9000
; decel to extrusion
M204 S1000
G1 X157.527 Y173.682
; end travel
G1 F1800
G1 X157.747 Y173.867 E0.0123
G1 X157.25 Y174.728 E0.0425
G1 X156.766 Y174.321 E0.02706
G1 X157.527 Y173.682 E0.0425
; acceleration to travel
M204 S4000
G1 X155.512 Y171.219 F9000
; decel to extrusion
M204 S1000
G1 X155.008 Y170.603
; end travel
G1 F1800
G1 X155.152 Y170.852 E0.0123
G1 X154.391 Y171.491 E0.0425
G1 X154.074 Y170.943 E0.02706
G1 X155.008 Y170.603 E0.0425
; acceleration to travel
M204 S4000
G1 X153.957 Y167.598 F9000
; decel to extrusion
M204 S1000
G1 X153.695 Y166.847
; end travel
G1 F1800
G1 X153.745 Y167.131 E0.0123
G1 X152.811 Y167.471 E0.0425
G1 X152.701 Y166.847 E0.02706
G1 X153.695 Y166.847 E0.0425
; acceleration to travel
M204 S4000
G1 X153.695 Y163.892 F9000
; decel to extrusion
M204 S1000
G1 X153.695 Y163.153
; end travel
G1 F1800
G1 X152.701 Y163.153 E0.0425
G1 X152.811 Y162.529 E0.02706
G1 X153.745 Y162.869 E0.0425
G1 X153.695 Y163.153 E0.0123
; acceleration to travel
M204 S4000
G1 X154.746 Y160.148 F9000
; decel to extrusion
M204 S1000
G1 X155.008 Y159.397
; end travel
G1 F1800
G1 X154.074 Y159.057 E0.0425
G1 X154.391 Y158.509 E0.02706
G1 X155.152 Y159.148 E0.0425
G1 X155.008 Y159.397 E0.0123
; acceleration to travel
M204 S4000
G1 X157.023 Y156.934 F9000
; decel to extrusion
M204 S1000
G1 X157.527 Y156.318
; end travel
G1 F1800
G1 X156.766 Y155.679 E0.0425
G1 X157.25 Y155.272 E0.02706
G1 X157.747 Y156.133 E0.0425
G1 X157.527 Y156.318 E0.0123
; acceleration to travel
M204 S4000
G1 X160.263 Y154.692 F9000
; decel to extrusion
M204 S1000
G1 X160.947 Y154.286
; end travel
G1 F1800
G1 X160.45 Y153.425 E0.0425
G1 X161.045 Y153.208 E0.02706
G1 X161.218 Y154.187 E0.0425
