; generated by SuperSlicer 2.4 on 2022-04-29 at 05:44:37 UTC


;
;

;
;
; 

; external perimeters extrusion width = 0.40mm
; perimeters extrusion width = 0.40mm
; infill extrusion width = 0.72mm
; solid infill extrusion width = 0.56mm
; top infill extrusion width = 0.40mm
; first layer extrusion width = 0.48mm

; object:{"name":"RR_Uberhangtest","id":"RR_Uberhangtest.stl id:0 copy 0","object_center":[165.000000,165.000000,0.000000],"boundingbox_center":[165.000000,165.000000,19.720055],"boundingbox_size":[47.984776,15.000001,39.440109]}
; plater:{"center":[165.000000,165.000000,0.000000],"boundingbox_center":[165.000000,165.000000,19.720055],"boundingbox_size":[47.984776,15.000001,39.440109]}

M73 P0 R35
;TYPE:Custom
START_PRINT T_BED=60 T_EXTRUDER=200
M107
G21 ; set units to millimeters
G90 ; use absolute coordinates
M83 ; use relative distances for extrusion
; Filament gcode
M104 S200 ; set temperature
M109 S200 ; set temperature and wait for it to be reached
M190 S60 ; set bed temperature and wait for it to be reached
M107
;LAYER_CHANGE
;Z:0.24
;HEIGHT:0.24
G1 Z0.24 F9000
G92 E0
G1 E-0.8 F3000
M204 S1000
G1 X138.206 Y154.496 F9000
G1 E0.8 F1800
;TYPE:Skirt
;WIDTH:0.52
G1 X137.155 Y155.865 E0.0807
G1 X136.555 Y157.609 E0.0862
G1 X136.477 Y158.456 E0.03976
G1 X136.475 Y171.494 E0.60951
G1 X136.685 Y173 E0.07108
G1 X137.153 Y174.131 E0.05721
G1 X138.119 Y175.425 E0.07549
G1 X139.375 Y176.354 E0.07301
G1 X141.005 Y176.93 E0.08082
G1 X142.013 Y177.032 E0.04734
G1 X180.74 Y177.054 E1.81038
G1 X182.563 Y176.933 E0.08539
G1 X183.927 Y176.737 E0.06442
G1 X186.087 Y175.632 E0.11343
G1 X187.206 Y174.078 E0.0895
G1 X187.602 Y172.205 E0.0895
G1 X187.602 Y157.795 E0.67363
G1 X186.969 Y155.457 E0.11325
G1 X185.681 Y154.039 E0.0895
G1 X183.931 Y153.263 E0.0895
G1 X181.084 Y152.958 E0.13384
G1 X142.01 Y152.968 E1.82657
G1 X140.504 Y153.179 E0.07111
G1 X139.477 Y153.588 E0.05165
G1 X138.206 Y154.496 E0.07302
G1 X138.535 Y154.825 F9000
G1 F1800
G1 X137.57 Y156.077 E0.07389
G1 X137.013 Y157.694 E0.07994
G1 X136.943 Y158.456 E0.03575
G1 X136.942 Y171.494 E0.60951
G1 X137.133 Y172.868 E0.06484
G1 X137.557 Y173.898 E0.05209
G1 X138.441 Y175.087 E0.06923
G1 X139.587 Y175.938 E0.06675
G1 X141.078 Y176.469 E0.074
G1 X142.013 Y176.566 E0.04394
G1 X180.74 Y176.588 E1.81038
G1 X182.512 Y176.469 E0.08299
G1 X183.831 Y176.281 E0.06227
G1 X185.63 Y175.411 E0.09343
G1 X186.741 Y173.976 E0.08483
G1 X187.136 Y172.205 E0.08483
G1 X187.136 Y157.795 E0.67363
G1 X186.658 Y155.858 E0.09326
G1 X185.485 Y154.474 E0.08483
G1 X183.834 Y153.72 E0.08483
G1 X181.051 Y153.423 E0.13085
M73 P0 R34
G1 X142.011 Y153.434 E1.825
G1 X140.636 Y153.626 E0.06487
G1 X139.7 Y153.998 E0.04709
G1 X138.535 Y154.825 E0.06677
G1 X138.865 Y155.155 F9000
G1 F1800
G1 X137.986 Y156.289 E0.06708
G1 X137.472 Y157.779 E0.07368
G1 X137.41 Y158.456 E0.03175
G1 X137.408 Y171.494 E0.60951
G1 X137.58 Y172.736 E0.05859
G1 X137.961 Y173.666 E0.04697
G1 X138.762 Y174.749 E0.06297
G1 X139.799 Y175.523 E0.06049
G1 X141.151 Y176.009 E0.06718
G1 X142.013 Y176.1 E0.04053
G1 X180.741 Y176.122 E1.81038
G1 X182.461 Y176.005 E0.0806
G1 X183.734 Y175.825 E0.06012
G1 X185.175 Y175.175 E0.07388
G1 X186.275 Y173.868 E0.07988
G1 X186.669 Y172.205 E0.07988
G1 X186.669 Y157.795 E0.67363
G1 X186.333 Y156.254 E0.07374
G1 X185.282 Y154.907 E0.07988
G1 X183.737 Y154.176 E0.07988
G1 X181.017 Y153.888 E0.12787
G1 X142.011 Y153.9 E1.82342
G1 X140.769 Y154.073 E0.05863
G1 X139.923 Y154.408 E0.04254
G1 X138.865 Y155.155 E0.06052
G1 X139.195 Y155.485 F9000
G1 F1800
G1 X138.401 Y156.501 E0.06028
G1 X137.93 Y157.865 E0.06743
G1 X137.876 Y158.456 E0.02775
G1 X137.874 Y171.494 E0.60951
G1 X138.027 Y172.604 E0.05235
G1 X138.365 Y173.433 E0.04184
G1 X139.083 Y174.411 E0.05671
G1 X140.01 Y175.107 E0.05422
G1 X141.224 Y175.548 E0.06037
G1 X142.014 Y175.633 E0.03712
G1 X180.741 Y175.655 E1.81038
G1 X183.414 Y175.416 E0.12545
G1 X184.724 Y174.921 E0.06545
G1 X185.809 Y173.751 E0.0746
G1 X186.203 Y172.205 E0.0746
G1 X186.203 Y157.795 E0.67363
G1 X185.991 Y156.643 E0.05477
G1 X185.072 Y155.338 E0.0746
G1 X183.641 Y154.632 E0.0746
G1 X180.984 Y154.353 E0.12488
G1 X142.011 Y154.367 E1.82185
G1 X140.901 Y154.52 E0.05238
G1 X140.145 Y154.818 E0.03798
G1 X139.195 Y155.485 E0.05428
; INIT printing object RR_Uberhangtest.stl id:0 copy 0
G1 E-0.8 F3000
; printing object RR_Uberhangtest.stl id:0 copy 0
; acceleration to travel
M204 S4000
G1 X165.249 Y168.015 F9000
; decel to extrusion
M204 S1000
G1 X171.763 Y171.147
; end travel
G1 E0.8 F1800
;TYPE:Internal perimeter
;WIDTH:0.48
G1 X171.748 Y171.302 E0.00665
G1 X142.205 Y171.303 E1.26315
M73 P1 R34
G1 X142.206 Y158.697 E0.53898
G1 X171.755 Y158.697 E1.26336
G1 X171.784 Y159.007 E0.01332
G1 X151.239 Y162.969 E0.89459
G1 X150.857 Y163.106 E0.01736
G1 X150.485 Y163.337 E0.01872
G1 X150.169 Y163.64 E0.01871
G1 X149.922 Y164.001 E0.01871
G1 X149.756 Y164.406 E0.01871
G1 X149.679 Y164.821 E0.01806
G1 X149.679 Y165.183 E0.01547
G1 X149.76 Y165.614 E0.01873
G1 X149.982 Y166.113 E0.02338
G1 X150.385 Y166.588 E0.02665
G1 X150.856 Y166.897 E0.02407
G1 X151.301 Y167.044 E0.02001
G1 X171.778 Y170.992 E0.89163
G1 X171.763 Y171.147 E0.00667
; acceleration to travel
M204 S4000
G1 X175.352 Y171.49 F9000
; decel to extrusion
M204 S1000
G1 X176.249 Y171.576
; end travel
G1 F1800
G1 X176.234 Y171.73 E0.00665
G1 X142.068 Y171.732 E1.46078
G1 X141.939 Y171.711 E0.00559
G1 X141.85 Y171.666 E0.00426
G1 X141.798 Y171.575 E0.00447
G1 X141.776 Y171.446 E0.0056
G1 X141.778 Y158.518 E0.55275
G1 X141.792 Y158.44 E0.00337
G1 X141.828 Y158.369 E0.00341
G1 X141.901 Y158.296 E0.00442
G1 X142.062 Y158.268 E0.00697
G1 X176.24 Y158.269 E1.4613
G1 X176.27 Y158.579 E0.01332
G1 X151.353 Y163.383 E1.08494
G1 X151.045 Y163.494 E0.01401
G1 X150.749 Y163.678 E0.01488
G1 X150.498 Y163.918 E0.01488
G1 X150.301 Y164.206 E0.01488
G1 X150.169 Y164.527 E0.01488
G1 X150.108 Y164.86 E0.01446
G1 X150.108 Y165.143 E0.0121
G1 X150.172 Y165.486 E0.01489
G1 X150.348 Y165.883 E0.01859
G1 X150.672 Y166.264 E0.02138
G1 X151.044 Y166.508 E0.01903
G1 X151.409 Y166.629 E0.01643
G1 X176.264 Y171.42 E1.08224
G1 X176.249 Y171.576 E0.00667
; acceleration to travel
M204 S4000
G1 X181.422 Y172.07 F9000
; decel to extrusion
M204 S1000
G1 X182.715 Y172.193
; end travel
;TYPE:Thin wall
;WIDTH:0.079948
G1 F1800
G1 X182.746 Y172.199 E0.0001
;WIDTH:0.008883
G1 X182.715 Y172.193 E0.00001
;WIDTH:0.0265
G1 X182.608 Y172.174 E0.00023
;WIDTH:0.037773
G1 X182.563 Y172.165 E0.00015
G1 X182.178 Y172.13 E0.00126
G1 X182.129 Y172.124 E0.00016
G1 X182.053 Y172.116 E0.00025
G1 X181.976 Y172.108 E0.00025
G1 X181.819 Y172.101 E0.00051
G1 X181.788 Y172.099 E0.0001
;WIDTH:0.017509
G1 X181.679 Y172.094 E0.00013
G1 X181.645 Y172.091 F9000
;TYPE:External perimeter
;WIDTH:0.48
G1 F1800
G1 X181.643 Y172.117 E0.00114
G1 X180.737 Y172.182 E0.03882
G1 X179.3 Y172.146 E0.06146
G1 X178.971 Y172.149 E0.01407
G1 X178.169 Y172.159 E0.0343
G1 X178.121 Y172.159 E0.00205
G1 X142.034 Y172.16 E1.54291
G1 X141.874 Y172.135 E0.00693
G1 X141.805 Y172.124 E0.003
G1 X141.618 Y172.028 E0.00896
G1 X141.5 Y171.916 E0.00697
G1 X141.388 Y171.723 E0.00955
G1 X141.364 Y171.641 E0.00366
G1 X141.348 Y171.482 E0.00681
G1 X141.349 Y158.478 E0.55599
G1 X141.382 Y158.301 E0.00771
G1 X141.477 Y158.114 E0.00897
G1 X141.625 Y157.966 E0.00894
G1 X141.78 Y157.882 E0.00753
G1 X141.866 Y157.857 E0.00385
G1 X142.025 Y157.84 E0.00684
G1 X143.048 Y157.84 E0.0437
G1 X177.801 Y157.84 E1.4859
G1 X178.513 Y157.847 E0.03043
G1 X179.311 Y157.854 E0.03414
G1 X180.514 Y157.824 E0.05146
G1 X180.747 Y157.819 E0.00993
G1 X181.172 Y157.849 E0.01825
G1 X181.643 Y157.883 E0.02017
G1 X181.646 Y157.915 E0.00137
G1 X181.679 Y157.912 F9000
;TYPE:Thin wall
;WIDTH:0.143134
G1 F1800
G1 X181.783 Y157.899 E0.00101
;WIDTH:0.314546
G1 X181.818 Y157.894 E0.00094
G1 X181.995 Y157.872 E0.00478
G1 X182.057 Y157.87 E0.00164
;WIDTH:0.36
G1 X182.118 Y157.869 E0.00192
G1 X182.208 Y157.868 E0.00283
G1 X182.582 Y157.834 E0.01175
G1 X182.601 Y157.832 E0.00058
;WIDTH:0.2385
G1 X182.709 Y157.819 E0.00209
;WIDTH:0.079947
G1 X182.74 Y157.815 E0.0001
;WIDTH:0.008883
G1 X182.709 Y157.819 E0.00001
;WIDTH:0.0265
G1 X182.601 Y157.832 E0.00023
;WIDTH:0.04
G1 X182.582 Y157.834 E0.00006
G1 X182.208 Y157.868 E0.00131
G1 X182.118 Y157.869 E0.00031
G1 X182.057 Y157.87 E0.00021
;WIDTH:0.03495
G1 X181.995 Y157.872 E0.00018
G1 X181.818 Y157.894 E0.00053
G1 X181.783 Y157.899 E0.0001
;WIDTH:0.015904
G1 X181.679 Y157.912 E0.00011
G1 X181.646 Y157.915 F9000
;TYPE:External perimeter
;WIDTH:0.48
G1 F1800
G1 X181.65 Y157.955 E0.00174
G1 X181.05 Y158.114 E0.02653
G1 X180.806 Y158.179 E0.0108
G1 X179.383 Y158.415 E0.06168
G1 X151.467 Y163.797 E1.21552
G1 X151.233 Y163.882 E0.01067
G1 X151.013 Y164.018 E0.01105
G1 X150.826 Y164.197 E0.01105
G1 X150.68 Y164.41 E0.01105
G1 X150.582 Y164.649 E0.01105
G1 X150.536 Y164.899 E0.01086
G1 X150.536 Y165.103 E0.00874
G1 X150.584 Y165.358 E0.01105
G1 X150.715 Y165.652 E0.0138
G1 X150.959 Y165.939 E0.0161
G1 X151.232 Y166.119 E0.014
G1 X151.517 Y166.213 E0.01284
G1 X179.394 Y171.587 E1.21384
G1 X180.816 Y171.824 E0.06163
G1 X181.65 Y172.045 E0.03687
G1 X181.645 Y172.091 E0.00196
G1 X181.679 Y172.094 F9000
;TYPE:Thin wall
;WIDTH:0.157582
G1 F1800
G1 X181.788 Y172.099 E0.00121
;WIDTH:0.339953
G1 X181.819 Y172.101 E0.00091
G1 X181.976 Y172.108 E0.00461
G1 X182.053 Y172.116 E0.00225
G1 X182.129 Y172.124 E0.00225
G1 X182.178 Y172.13 E0.00143
G1 X182.563 Y172.165 E0.01133
G1 X182.608 Y172.174 E0.00135
;WIDTH:0.238499
G1 X182.715 Y172.193 E0.00209
; acceleration to travel
M204 S4000
G1 X180.499 Y171.976 F9000
; decel to extrusion
M204 S1000
G1 X179.945 Y171.922
; end travel
;TYPE:Gap fill
;WIDTH:0.143663
G1 F1800
G1 X179.899 Y171.918 E0.00042
G1 X179.622 Y171.891 E0.00256
;WIDTH:0.228669
G1 X179.346 Y171.865 E0.00491
G1 X179.304 Y171.86 E0.00074
G1 X179.112 Y171.843 E0.00341
;WIDTH:0.274613
G1 X178.923 Y171.826 E0.00422
;WIDTH:0.320551
G1 X178.734 Y171.809 E0.00509
;WIDTH:0.366489
G1 X178.545 Y171.792 E0.00596
;WIDTH:0.412427
G1 X178.356 Y171.775 E0.00683
;WIDTH:0.458365
G1 X178.167 Y171.758 E0.0077
G1 X177.969 Y171.739 E0.00808
;WIDTH:0.502539
G1 X177.77 Y171.721 E0.00896
;WIDTH:0.546712
G1 X177.572 Y171.702 E0.00984
;WIDTH:0.590886
G1 X177.374 Y171.683 E0.01072
;WIDTH:0.635059
G1 X177.176 Y171.664 E0.01159
;WIDTH:0.679233
G1 X176.978 Y171.645 E0.01247
;WIDTH:0.723406
G1 X176.779 Y171.626 E0.01335
G1 X176.612 Y171.61 E0.01126
;WIDTH:0.790644
G1 X176.445 Y171.594 E0.01239
G1 X175.374 Y171.492 F9000
;WIDTH:0.143664
G1 F1800
G1 X175.328 Y171.487 E0.00042
G1 X175.111 Y171.467 E0.002
;WIDTH:0.18826
G1 X174.895 Y171.446 E0.00297
;WIDTH:0.232856
G1 X174.678 Y171.425 E0.00394
;WIDTH:0.277452
G1 X174.461 Y171.405 E0.00491
;WIDTH:0.322047
G1 X174.244 Y171.384 E0.00588
;WIDTH:0.366643
G1 X174.028 Y171.363 E0.00685
;WIDTH:0.411239
G1 X173.811 Y171.342 E0.00782
;WIDTH:0.455834
G1 X173.594 Y171.322 E0.00878
;WIDTH:0.50043
G1 X173.377 Y171.301 E0.00975
;WIDTH:0.545026
G1 X173.161 Y171.28 E0.01072
;WIDTH:0.589621
G1 X172.944 Y171.26 E0.01169
;WIDTH:0.634217
G1 X172.727 Y171.239 E0.01266
;WIDTH:0.678813
G1 X172.51 Y171.218 E0.01363
;WIDTH:0.723408
G1 X172.294 Y171.198 E0.0146
G1 X172.126 Y171.182 E0.01126
;WIDTH:0.790648
G1 X171.959 Y171.166 E0.01239
G1 X170.888 Y171.063 F9000
;WIDTH:0.143664
G1 F1800
G1 X170.842 Y171.059 E0.00042
G1 X170.626 Y171.038 E0.002
;WIDTH:0.18826
G1 X170.409 Y171.018 E0.00297
;WIDTH:0.232856
G1 X170.192 Y170.997 E0.00394
;WIDTH:0.277451
G1 X169.975 Y170.976 E0.00491
;WIDTH:0.322047
G1 X169.758 Y170.955 E0.00588
;WIDTH:0.366642
G1 X169.542 Y170.935 E0.00685
;WIDTH:0.411238
G1 X169.325 Y170.914 E0.00782
;WIDTH:0.455833
G1 X169.108 Y170.893 E0.00878
;WIDTH:0.500429
G1 X168.891 Y170.873 E0.00975
;WIDTH:0.545024
G1 X168.675 Y170.852 E0.01072
;WIDTH:0.58962
G1 X168.458 Y170.831 E0.01169
;WIDTH:0.634215
G1 X168.241 Y170.811 E0.01266
;WIDTH:0.678811
G1 X168.024 Y170.79 E0.01363
;WIDTH:0.723406
G1 X167.808 Y170.769 E0.0146
G1 X167.64 Y170.753 E0.01126
;WIDTH:0.790647
G1 X167.473 Y170.737 E0.01239
G1 X167.012 Y170.139 F9000
;TYPE:Solid infill
;WIDTH:0.462992
G1 F3600
G1 X167.297 Y170.423 E0.0166
G1 X167.244 Y170.976 E0.02292
G1 X166.494 Y170.226 E0.04374
G1 X165.743 Y170.082 E0.03153
G1 X166.715 Y171.054 E0.05669
G1 X166.109 Y171.054 E0.02499
G1 X164.992 Y169.937 E0.06514
G1 X164.242 Y169.792 E0.03153
G1 X165.503 Y171.054 E0.07358
G1 X164.897 Y171.054 E0.02499
G1 X163.491 Y169.647 E0.08202
G1 X162.74 Y169.503 E0.03153
G1 X164.291 Y171.054 E0.09046
G1 X163.685 Y171.054 E0.02499
G1 X161.99 Y169.358 E0.0989
G1 X161.239 Y169.213 E0.03153
G1 X163.079 Y171.054 E0.10734
G1 X162.474 Y171.054 E0.02499
G1 X160.488 Y169.069 E0.11578
G1 X159.738 Y168.924 E0.03153
G1 X161.868 Y171.054 E0.12422
G1 X161.262 Y171.054 E0.02499
G1 X158.987 Y168.779 E0.13266
G1 X158.236 Y168.635 E0.03153
G1 X160.656 Y171.054 E0.14111
G1 X160.05 Y171.054 E0.02499
G1 X157.486 Y168.49 E0.14955
G1 X156.735 Y168.345 E0.03153
G1 X159.444 Y171.054 E0.15799
G1 X158.838 Y171.054 E0.02499
G1 X155.984 Y168.2 E0.16643
G1 X155.233 Y168.056 E0.03153
G1 X158.232 Y171.054 E0.17487
G1 X157.626 Y171.054 E0.02499
G1 X154.483 Y167.911 E0.18331
G1 X153.732 Y167.766 E0.03153
G1 X157.02 Y171.054 E0.19175
G1 X156.414 Y171.054 E0.02499
G1 X152.981 Y167.622 E0.20019
G1 X152.231 Y167.477 E0.03153
G1 X155.808 Y171.054 E0.20863
G1 X155.202 Y171.054 E0.02499
G1 X151.2 Y167.052 E0.23341
G1 E-0.8 F3000
; acceleration to travel
M204 S4000
G1 X163.474 Y160.419 F9000
; decel to extrusion
M204 S1000
G1 X166.543 Y158.761
; end travel
G1 E0.8 F1800
G1 F3600
G1 X167.298 Y159.516 E0.04405
G1 X167.307 Y159.617 E0.00418
G1 X166.876 Y159.701 E0.01812
G1 X166.121 Y158.946 E0.04404
G1 X165.515 Y158.946 E0.02499
G1 X166.368 Y159.799 E0.04975
G1 X165.86 Y159.896 E0.02134
G1 X164.909 Y158.946 E0.05546
G1 X164.303 Y158.946 E0.02499
G1 X165.352 Y159.994 E0.06118
G1 X164.844 Y160.092 E0.02134
G1 X163.697 Y158.946 E0.06689
G1 X163.091 Y158.946 E0.02499
G1 X164.336 Y160.19 E0.0726
G1 X163.828 Y160.288 E0.02134
G1 X162.485 Y158.946 E0.07831
G1 X161.879 Y158.946 E0.02499
G1 X163.32 Y160.386 E0.08403
G1 X162.812 Y160.484 E0.02134
G1 X161.273 Y158.946 E0.08974
G1 X160.667 Y158.946 E0.02499
G1 X162.304 Y160.582 E0.09545
G1 X161.796 Y160.68 E0.02134
G1 X160.061 Y158.946 E0.10117
G1 X159.455 Y158.946 E0.02499
G1 X161.288 Y160.778 E0.10688
G1 X160.779 Y160.876 E0.02134
G1 X158.849 Y158.946 E0.11259
G1 X158.243 Y158.946 E0.02499
G1 X160.271 Y160.974 E0.11831
G1 X159.763 Y161.072 E0.02134
G1 X157.637 Y158.946 E0.12402
G1 X157.031 Y158.946 E0.02499
G1 X159.255 Y161.17 E0.12973
G1 X158.747 Y161.268 E0.02134
G1 X156.425 Y158.946 E0.13545
G1 X155.819 Y158.945 E0.02499
G1 X158.239 Y161.366 E0.14116
G1 X157.731 Y161.464 E0.02134
G1 X155.213 Y158.945 E0.14687
G1 X154.607 Y158.945 E0.02499
G1 X157.223 Y161.562 E0.15258
G1 X156.715 Y161.66 E0.02134
G1 X154.001 Y158.945 E0.1583
G1 X153.395 Y158.945 E0.02499
G1 X156.207 Y161.758 E0.16401
G1 X155.699 Y161.856 E0.02134
G1 X152.789 Y158.945 E0.16972
G1 X152.183 Y158.945 E0.02499
G1 X155.191 Y161.954 E0.17544
G1 X154.683 Y162.051 E0.02134
G1 X151.577 Y158.945 E0.18115
G1 X150.971 Y158.945 E0.02499
G1 X154.175 Y162.149 E0.18686
G1 X153.667 Y162.247 E0.02134
G1 X150.365 Y158.945 E0.19258
G1 X149.759 Y158.945 E0.02499
G1 X153.159 Y162.345 E0.19829
G1 X152.651 Y162.443 E0.02134
G1 X149.153 Y158.945 E0.204
G1 X148.547 Y158.945 E0.02499
G1 X152.143 Y162.541 E0.20972
G1 X151.635 Y162.639 E0.02134
G1 X147.941 Y158.945 E0.21543
G1 X147.335 Y158.945 E0.02499
G1 X151.132 Y162.742 E0.22145
G1 X150.76 Y162.976 E0.01813
G1 X146.729 Y158.945 E0.23507
M73 P2 R34
G1 X146.123 Y158.945 E0.02499
G1 X150.387 Y163.209 E0.24869
G1 X150.015 Y163.443 E0.01813
G1 X145.517 Y158.945 E0.26231
G1 X144.911 Y158.945 E0.02499
G1 X149.814 Y163.848 E0.28591
G1 X149.636 Y164.276 E0.01912
G1 X144.305 Y158.945 E0.3109
G1 X143.699 Y158.945 E0.02499
G1 X149.458 Y164.704 E0.33588
G1 X149.419 Y164.8 E0.00427
G1 X149.563 Y165.415 E0.02605
G1 X143.093 Y158.945 E0.37732
G1 X142.487 Y158.945 E0.02499
G1 X154.596 Y171.054 E0.70621
