; generated by SuperSlicer 2.4 on 2022-05-17 at 16:20:54 UTC


;
;

;
;
; 

; external perimeters extrusion width = 0.40mm
; perimeters extrusion width = 0.40mm
; infill extrusion width = 0.72mm
; solid infill extrusion width = 0.56mm
; top infill extrusion width = 0.40mm
; support material extrusion width = 0.40mm
; first layer extrusion width = 0.40mm

; object:{"name":"Paddington Park","id":"Paddington Park.stl id:0 copy 0","object_center":[165.000000,165.000000,0.000000],"boundingbox_center":[165.000000,165.000000,8.819999],"boundingbox_size":[109.952072,60.043610,17.639997]}
; plater:{"center":[165.000000,165.000000,0.000000],"boundingbox_center":[165.000000,165.000000,8.819999],"boundingbox_size":[109.952072,60.043610,17.639997]}

M73 P0 R94
M73 C83
;TYPE:Custom
START_PRINT T_BED=60 T_EXTRUDER=200
M107
G21 ; set units to millimeters
G90 ; use absolute coordinates
M83 ; use relative distances for extrusion
; Filament gcode
M104 S200 ; set temperature
M109 S200 ; set temperature and wait for it to be reached
M190 S60 ; set bed temperature and wait for it to be reached
M107
;LAYER_CHANGE
;Z:0.4
;HEIGHT:0.4
G1 Z0.4 F9000
G92 E0
M73 C1
G1 E-0.8 F3000
M204 S1000
G1 X108.187 Y132.62 F9000
G1 E0.8 F1800
;TYPE:Skirt
;WIDTH:0.52
G1 X107.248 Y133.598 E0.09789
G1 X106.672 Y134.663 E0.0874
G1 X106.433 Y135.461 E0.06017
G1 X106.331 Y136.332 E0.06335
G1 X106.378 Y179.83 E3.14054
G1 X106.52 Y181.022 E0.08671
G1 X106.901 Y182.103 E0.08275
G1 X107.353 Y182.867 E0.06412
G1 X107.927 Y183.545 E0.06413
G1 X108.608 Y184.116 E0.06413
G1 X109.811 Y184.75 E0.09822
G1 X148.41 Y198.42 E2.95651
G1 X149.068 Y198.587 E0.04897
G1 X149.886 Y198.671 E0.0594
G1 X180.235 Y198.661 E2.19125
G1 X181.381 Y198.48 E0.08371
G1 X220.625 Y184.563 E3.00638
G1 X221.392 Y184.116 E0.06413
G1 X222.073 Y183.545 E0.06412
G1 X222.792 Y182.653 E0.08276
G1 X223.206 Y181.867 E0.06412
G1 X223.415 Y181.273 E0.04546
G1 X223.609 Y180.14 E0.08297
G1 X223.611 Y136.289 E3.16608
G1 X223.501 Y135.471 E0.05959
G1 X223.172 Y134.462 E0.07666
G1 X222.784 Y133.739 E0.05921
G1 X221.901 Y132.711 E0.09785
G1 X221.215 Y132.171 E0.06306
G1 X220.271 Y131.69 E0.07648
G1 X219.483 Y131.454 E0.0594
G1 X218.373 Y131.332 E0.08058
G1 X111.627 Y131.332 E7.70723
M73 P0 R93
G1 X110.522 Y131.452 E0.08025
G1 X109.526 Y131.772 E0.07553
G1 X108.835 Y132.134 E0.05631
G1 X108.187 Y132.62 E0.05845
G1 X108.514 Y132.968 F9000
G1 F1800
G1 X107.627 Y133.887 E0.0922
G1 X107.113 Y134.845 E0.07849
G1 X106.897 Y135.572 E0.05476
G1 X106.808 Y136.332 E0.05521
G1 X106.855 Y179.829 E3.14054
G1 X106.981 Y180.902 E0.07801
G1 X107.229 Y181.67 E0.05828
G1 X107.748 Y182.601 E0.07692
G1 X108.272 Y183.215 E0.0583
G1 X108.892 Y183.732 E0.0583
G1 X109.97 Y184.3 E0.08801
G1 X148.569 Y197.971 E2.95651
G1 X149.886 Y198.194 E0.0964
G1 X180.235 Y198.184 E2.19125
G1 X181.233 Y198.026 E0.07296
G1 X220.41 Y184.138 E3.00107
G1 X221.108 Y183.732 E0.05829
G1 X221.728 Y183.215 E0.05828
G1 X222.397 Y182.386 E0.07693
G1 X222.953 Y181.153 E0.09767
G1 X223.134 Y180.1 E0.07713
G1 X223.145 Y136.581 E3.14212
G1 X223.037 Y135.583 E0.07249
G1 X222.824 Y134.866 E0.05399
G1 X222.377 Y133.989 E0.07108
G1 X221.906 Y133.391 E0.05497
G1 X220.965 Y132.577 E0.08976
G1 X220.31 Y132.223 E0.0538
G1 X219.371 Y131.918 E0.07126
G1 X218.373 Y131.809 E0.07248
G1 X111.627 Y131.809 E7.70723
G1 X110.632 Y131.917 E0.07219
G1 X109.706 Y132.214 E0.07028
G1 X109.078 Y132.545 E0.05122
G1 X108.514 Y132.968 E0.05095
G1 E-0.8 F3000
; printing object Paddington Park.stl id:0 copy 0
; acceleration to travel
M204 S3000
G1 X110.82 Y135.491 F9000
; decel to extrusion
M204 S1000
G1 X111.589 Y136.331
; end travel
G1 E0.8 F1800
;TYPE:Internal perimeter
;WIDTH:0.4
;HEIGHT:0.2
G1 X112.04 Y136.319 E0.0134
G1 X218.324 Y136.319 E3.15569
G1 X218.388 Y136.324 E0.00191
G1 X218.481 Y136.354 E0.00291
G1 X218.591 Y136.457 E0.00448
G1 X218.617 Y136.509 E0.00171
G1 X218.635 Y136.641 E0.00398
G1 X218.635 Y179.772 E1.28059
G1 X218.628 Y179.856 E0.00252
G1 X218.595 Y179.95 E0.00297
G1 X218.542 Y180.016 E0.00251
G1 X218.457 Y180.069 E0.00297
G1 X218.385 Y180.091 E0.00221
G1 X210.894 Y181.598 E0.22689
G1 X203.314 Y182.883 E0.22827
G1 X195.698 Y183.936 E0.22827
G1 X188.053 Y184.757 E0.2283
G1 X180.521 Y185.343 E0.2243
G1 X179.583 Y186.349 E0.04085
G1 X179.573 Y193.674 E0.2175
G1 X150.427 Y193.684 E0.86539
G1 X150.417 Y186.349 E0.21778
G1 X149.479 Y185.343 E0.04085
G1 X141.947 Y184.757 E0.2243
G1 X134.302 Y183.936 E0.2283
G1 X126.686 Y182.883 E0.22827
G1 X119.106 Y181.598 E0.22827
G1 X111.615 Y180.091 E0.22689
G1 X111.543 Y180.069 E0.00221
G1 X111.458 Y180.016 E0.00297
G1 X111.392 Y179.934 E0.00313
G1 X111.365 Y179.759 E0.00527
G1 X111.364 Y137.556 E1.25306
G1 X111.339 Y136.676 E0.02615
G1 X111.589 Y136.331 E0.01263
G1 X111.369 Y136.026 F9000
G1 F1800
G1 X111.524 Y135.976 E0.00483
G1 X112.035 Y135.962 E0.01518
G1 X218.338 Y135.962 E3.15625
M73 P1 R93
G1 X218.458 Y135.971 E0.00358
G1 X218.667 Y136.039 E0.00652
G1 X218.703 Y136.062 E0.00128
G1 X218.882 Y136.24 E0.00748
G1 X218.962 Y136.401 E0.00536
G1 X218.982 Y136.482 E0.00248
G1 X218.993 Y136.617 E0.00401
G1 X218.993 Y179.787 E1.28177
G1 X218.98 Y179.932 E0.00432
G1 X218.954 Y180.032 E0.00308
G1 X218.911 Y180.127 E0.00308
G1 X218.853 Y180.213 E0.00308
G1 X218.781 Y180.288 E0.00308
G1 X218.698 Y180.35 E0.00308
G1 X218.605 Y180.397 E0.00308
G1 X218.473 Y180.437 E0.0041
G1 X210.959 Y181.949 E0.22759
G1 X203.368 Y183.236 E0.2286
G1 X195.742 Y184.291 E0.2286
G1 X188.086 Y185.113 E0.22862
G1 X180.688 Y185.688 E0.22033
G1 X179.94 Y186.49 E0.03255
G1 X179.93 Y194.031 E0.22392
G1 X150.07 Y194.041 E0.88657
G1 X150.06 Y186.49 E0.2242
G1 X149.312 Y185.688 E0.03255
G1 X141.914 Y185.113 E0.22033
G1 X134.258 Y184.291 E0.22862
G1 X126.632 Y183.236 E0.2286
G1 X119.041 Y181.949 E0.2286
G1 X111.527 Y180.437 E0.22759
G1 X111.395 Y180.397 E0.0041
G1 X111.302 Y180.35 E0.00308
G1 X111.219 Y180.288 E0.00308
G1 X111.147 Y180.213 E0.00308
G1 X111.089 Y180.127 E0.00308
G1 X111.046 Y180.032 E0.00308
G1 X111.02 Y179.932 E0.00308
G1 X111.007 Y179.787 E0.00432
G1 X111.007 Y137.561 E1.25373
G1 X110.979 Y136.564 E0.02961
G1 X111.295 Y136.143 E0.01564
G1 X111.369 Y136.026 E0.00411
G1 X111.127 Y135.743 F9000
G1 F1800
G1 X111.176 Y135.714 E0.00171
G1 X111.321 Y135.654 E0.00466
G1 X111.463 Y135.621 E0.00431
G1 X112.03 Y135.605 E0.01686
G1 X218.352 Y135.605 E3.15682
G1 X218.528 Y135.619 E0.00526
G1 X218.676 Y135.654 E0.00453
G1 X218.817 Y135.712 E0.00453
G1 X218.926 Y135.779 E0.00379
G1 X219.175 Y136.028 E0.01045
G1 X219.242 Y136.137 E0.00379
G1 X219.3 Y136.278 E0.00453
G1 X219.336 Y136.426 E0.00453
G1 X219.35 Y136.603 E0.00526
G1 X219.35 Y179.802 E1.28264
G1 X219.333 Y179.992 E0.00567
G1 X219.292 Y180.152 E0.00489
G1 X219.224 Y180.302 E0.00489
G1 X219.132 Y180.438 E0.00489
G1 X219.018 Y180.557 E0.00489
G1 X218.886 Y180.655 E0.00489
G1 X218.739 Y180.729 E0.00489
G1 X218.561 Y180.784 E0.00553
G1 X211.024 Y182.3 E0.22828
G1 X203.422 Y183.589 E0.22892
G1 X195.785 Y184.645 E0.22892
G1 X188.119 Y185.468 E0.22893
G1 X180.854 Y186.033 E0.21635
G1 X180.297 Y186.631 E0.02426
G1 X180.287 Y194.248 E0.22616
G1 X180.27 Y194.298 E0.00157
G1 X180.239 Y194.341 E0.00157
G1 X180.196 Y194.372 E0.00156
G1 X180.146 Y194.388 E0.00157
G1 X149.929 Y194.398 E0.89719
G1 X149.835 Y194.383 E0.00283
G1 X149.737 Y194.321 E0.00343
G1 X149.713 Y194.248 E0.00229
G1 X149.703 Y186.631 E0.22616
G1 X149.146 Y186.033 E0.02426
G1 X141.881 Y185.468 E0.21635
G1 X134.215 Y184.645 E0.22893
G1 X126.578 Y183.589 E0.22892
G1 X118.976 Y182.3 E0.22892
G1 X111.439 Y180.784 E0.22828
G1 X111.261 Y180.729 E0.00553
G1 X111.114 Y180.655 E0.00489
G1 X110.982 Y180.557 E0.00489
G1 X110.868 Y180.438 E0.00489
G1 X110.776 Y180.302 E0.00489
G1 X110.708 Y180.152 E0.00489
G1 X110.667 Y179.992 E0.00489
G1 X110.65 Y179.802 E0.00567
G1 X110.65 Y137.566 E1.25403
G1 X110.628 Y136.544 E0.03035
G1 X110.618 Y136.45 E0.00283
G1 X111.001 Y135.939 E0.01894
G1 X111.127 Y135.743 E0.00692
G1 X110.872 Y135.479 F9000
;TYPE:External perimeter
G1 F1800
G1 X111.017 Y135.393 E0.00502
G1 X111.212 Y135.313 E0.00626
G1 X111.416 Y135.265 E0.00622
G1 X112.025 Y135.248 E0.0181
G1 X218.366 Y135.248 E3.15739
G1 X218.584 Y135.265 E0.00651
G1 X218.787 Y135.313 E0.0062
G1 X218.98 Y135.393 E0.0062
G1 X219.149 Y135.497 E0.00588
G1 X219.457 Y135.806 E0.01296
G1 X219.561 Y135.974 E0.00588
G1 X219.641 Y136.167 E0.0062
G1 X219.689 Y136.37 E0.0062
G1 X219.707 Y136.589 E0.00651
G1 X219.707 Y179.817 E1.28351
G1 X219.687 Y180.053 E0.00703
G1 X219.63 Y180.271 E0.00669
G1 X219.537 Y180.476 E0.00669
G1 X219.411 Y180.663 E0.00669
G1 X219.255 Y180.826 E0.00669
G1 X219.074 Y180.96 E0.00669
G1 X218.873 Y181.062 E0.00669
G1 X218.649 Y181.131 E0.00697
G1 X211.089 Y182.651 E0.22897
G1 X203.477 Y183.942 E0.22924
G1 X195.829 Y185 E0.22924
G1 X188.152 Y185.824 E0.22925
G1 X181.02 Y186.378 E0.21238
G1 X180.653 Y186.771 E0.01596
G1 X180.644 Y194.305 E0.22367
G1 X180.592 Y194.462 E0.00493
G1 X180.495 Y194.597 E0.00493
G1 X180.36 Y194.694 E0.00492
G1 X180.203 Y194.745 E0.00493
G1 X149.901 Y194.755 E0.8997
G1 X149.705 Y194.724 E0.00587
G1 X149.505 Y194.597 E0.00705
G1 X149.408 Y194.462 E0.00492
G1 X149.356 Y194.305 E0.00493
G1 X149.347 Y186.771 E0.22367
G1 X148.98 Y186.378 E0.01596
G1 X141.848 Y185.824 E0.21238
G1 X134.171 Y185 E0.22925
G1 X126.523 Y183.942 E0.22924
G1 X118.911 Y182.651 E0.22924
G1 X111.351 Y181.131 E0.22897
G1 X111.127 Y181.062 E0.00697
G1 X110.926 Y180.96 E0.00669
G1 X110.745 Y180.826 E0.00669
G1 X110.589 Y180.663 E0.00669
G1 X110.463 Y180.476 E0.00669
G1 X110.37 Y180.271 E0.00669
G1 X110.313 Y180.053 E0.00669
G1 X110.293 Y179.817 E0.00703
G1 X110.293 Y137.57 E1.25436
G1 X110.271 Y136.566 E0.02982
G1 X110.249 Y136.342 E0.00668
G1 X110.301 Y136.124 E0.00666
G1 X110.386 Y136.164 E0.00279
G1 X110.707 Y135.736 E0.0159
G1 X110.872 Y135.479 E0.00905
;WIPE_START
M204 S4000
G1 X111.246 Y135.619 F9000
;WIPE_END
; acceleration to travel
M204 S3000
G1 X188.971 Y136.532
; decel to extrusion
M204 S1000
G1 X218.581 Y136.88
; end travel
;TYPE:Solid infill
;WIDTH:0.398957
G1 F3600
G1 X218.227 Y136.526 E0.01481
G1 X217.722 Y136.526 E0.01495
G1 X218.426 Y137.23 E0.02947
G1 X218.424 Y137.733 E0.01489
G1 X217.217 Y136.526 E0.05053
G1 X216.712 Y136.526 E0.01495
G1 X218.422 Y138.235 E0.07159
G1 X218.42 Y138.738 E0.01489
G1 X216.208 Y136.526 E0.09265
G1 X215.703 Y136.526 E0.01495
G1 X218.418 Y139.241 E0.11371
G1 X218.416 Y139.744 E0.01489
G1 X215.198 Y136.526 E0.13477
G1 X214.693 Y136.526 E0.01495
G1 X218.414 Y140.247 E0.15583
G1 X218.411 Y140.75 E0.01489
G1 X214.188 Y136.526 E0.17689
G1 X213.683 Y136.526 E0.01495
G1 X218.409 Y141.253 E0.19795
G1 X218.407 Y141.756 E0.01489
G1 X213.178 Y136.526 E0.21901
G1 X212.673 Y136.527 E0.01495
G1 X218.405 Y142.259 E0.24007
M73 P1 R92
G1 X218.403 Y142.762 E0.01489
G1 X212.168 Y136.527 E0.26113
G1 X211.663 Y136.527 E0.01495
G1 X218.401 Y143.265 E0.28219
G1 X218.399 Y143.767 E0.01489
G1 X211.158 Y136.527 E0.30325
G1 X210.653 Y136.527 E0.01495
G1 X218.397 Y144.27 E0.32431
G1 X218.395 Y144.773 E0.01489
G1 X210.148 Y136.527 E0.34536
G1 X209.643 Y136.527 E0.01495
G1 X218.393 Y145.276 E0.36642
G1 X218.391 Y145.779 E0.01489
G1 X209.139 Y136.527 E0.38748
G1 X208.634 Y136.527 E0.01495
G1 X218.389 Y146.282 E0.40854
G1 X218.387 Y146.785 E0.01489
G1 X208.129 Y136.527 E0.4296
G1 X207.624 Y136.527 E0.01495
G1 X218.385 Y147.288 E0.45066
G1 X218.382 Y147.791 E0.01489
G1 X207.119 Y136.527 E0.47172
G1 X206.614 Y136.527 E0.01495
G1 X218.38 Y148.294 E0.49278
G1 X218.378 Y148.797 E0.01489
G1 X206.109 Y136.527 E0.51384
G1 X205.604 Y136.527 E0.01495
G1 X218.376 Y149.3 E0.5349
G1 X218.374 Y149.802 E0.01489
G1 X205.099 Y136.527 E0.55596
G1 X204.594 Y136.528 E0.01495
G1 X218.372 Y150.305 E0.57702
G1 X218.37 Y150.808 E0.01489
G1 X204.089 Y136.528 E0.59808
G1 X203.584 Y136.528 E0.01495
G1 X218.368 Y151.311 E0.61914
G1 X218.366 Y151.814 E0.01489
G1 X203.079 Y136.528 E0.6402
G1 X202.575 Y136.528 E0.01495
G1 X218.364 Y152.317 E0.66126
G1 X218.362 Y152.82 E0.01489
G1 X202.07 Y136.528 E0.68232
G1 X201.565 Y136.528 E0.01495
G1 X218.36 Y153.323 E0.70338
G1 X218.358 Y153.826 E0.01489
G1 X201.06 Y136.528 E0.72444
G1 X200.555 Y136.528 E0.01495
G1 X218.356 Y154.329 E0.7455
G1 X218.353 Y154.832 E0.01489
G1 X200.05 Y136.528 E0.76656
G1 X199.545 Y136.528 E0.01495
G1 X218.351 Y155.335 E0.78762
G1 X218.349 Y155.837 E0.01489
G1 X199.04 Y136.528 E0.80868
G1 X198.535 Y136.528 E0.01495
G1 X218.347 Y156.34 E0.82974
G1 X218.345 Y156.843 E0.01489
G1 X198.03 Y136.528 E0.8508
G1 X197.525 Y136.528 E0.01495
G1 X218.343 Y157.346 E0.87186
G1 X218.341 Y157.849 E0.01489
G1 X197.02 Y136.528 E0.89292
G1 X196.515 Y136.528 E0.01495
G1 X218.339 Y158.352 E0.91398
G1 X218.337 Y158.855 E0.01489
G1 X196.01 Y136.529 E0.93504
G1 X195.506 Y136.529 E0.01495
G1 X218.335 Y159.358 E0.9561
G1 X218.333 Y159.861 E0.01489
G1 X195.001 Y136.529 E0.97716
G1 X194.496 Y136.529 E0.01495
G1 X218.331 Y160.364 E0.99822
G1 X218.329 Y160.867 E0.01489
G1 X193.991 Y136.529 E1.01928
G1 X193.486 Y136.529 E0.01495
G1 X218.327 Y161.37 E1.04034
G1 X218.324 Y161.872 E0.01489
G1 X192.981 Y136.529 E1.0614
G1 X192.476 Y136.529 E0.01495
G1 X218.322 Y162.375 E1.08246
G1 X218.32 Y162.878 E0.01489
G1 X191.971 Y136.529 E1.10352
G1 X191.466 Y136.529 E0.01495
G1 X218.318 Y163.381 E1.12458
G1 X218.316 Y163.884 E0.01489
G1 X190.961 Y136.529 E1.14564
G1 X190.456 Y136.529 E0.01495
G1 X218.314 Y164.387 E1.1667
G1 X218.312 Y164.89 E0.01489
G1 X189.951 Y136.529 E1.18775
G1 X189.446 Y136.529 E0.01495
G1 X218.31 Y165.393 E1.20881
G1 X218.308 Y165.896 E0.01489
G1 X188.942 Y136.529 E1.22987
G1 X188.437 Y136.529 E0.01495
G1 X218.306 Y166.399 E1.25093
G1 X218.304 Y166.902 E0.01489
G1 X187.932 Y136.53 E1.27199
M73 P2 R92
G1 X187.427 Y136.53 E0.01495
G1 X218.302 Y167.405 E1.29305
G1 X218.3 Y167.907 E0.01489
G1 X186.922 Y136.53 E1.31411
G1 X186.417 Y136.53 E0.01495
G1 X218.298 Y168.41 E1.33517
G1 X218.295 Y168.913 E0.01489
G1 X185.912 Y136.53 E1.35623
G1 X185.407 Y136.53 E0.01495
G1 X218.293 Y169.416 E1.37729
G1 X218.291 Y169.919 E0.01489
G1 X184.902 Y136.53 E1.39835
G1 X184.397 Y136.53 E0.01495
G1 X218.289 Y170.422 E1.41941
G1 X218.287 Y170.925 E0.01489
G1 X183.892 Y136.53 E1.44047
G1 X183.387 Y136.53 E0.01495
G1 X218.285 Y171.428 E1.46153
G1 X218.283 Y171.931 E0.01489
G1 X182.882 Y136.53 E1.48259
G1 X182.377 Y136.53 E0.01495
G1 X218.281 Y172.434 E1.50365
G1 X218.279 Y172.937 E0.01489
G1 X181.873 Y136.53 E1.52471
G1 X181.368 Y136.53 E0.01495
G1 X218.277 Y173.44 E1.54577
G1 X218.275 Y173.942 E0.01489
G1 X180.863 Y136.53 E1.56683
G1 X180.358 Y136.53 E0.01495
G1 X218.273 Y174.445 E1.58789
G1 X218.271 Y174.948 E0.01489
G1 X179.853 Y136.53 E1.60895
G1 X179.348 Y136.531 E0.01495
G1 X218.269 Y175.451 E1.63001
G1 X218.266 Y175.954 E0.01489
G1 X178.843 Y136.531 E1.65107
G1 X178.338 Y136.531 E0.01495
G1 X218.264 Y176.457 E1.67213
G1 X218.262 Y176.96 E0.01489
G1 X177.833 Y136.531 E1.69319
G1 X177.328 Y136.531 E0.01495
G1 X218.26 Y177.463 E1.71425
G1 X218.258 Y177.966 E0.01489
G1 X176.823 Y136.531 E1.73531
G1 X176.318 Y136.531 E0.01495
G1 X218.256 Y178.469 E1.75637
G1 X218.254 Y178.972 E0.01489
G1 X175.813 Y136.531 E1.77743
G1 X175.309 Y136.531 E0.01495
G1 X218.252 Y179.474 E1.79849
G1 X218.25 Y179.897 E0.0125
G1 X218.182 Y179.909 E0.00206
G1 X174.804 Y136.531 E1.8167
G1 X174.299 Y136.531 E0.01495
G1 X217.756 Y179.989 E1.82001
G1 X217.33 Y180.068 E0.01283
G1 X173.794 Y136.531 E1.82332
G1 X173.289 Y136.531 E0.01495
G1 X216.904 Y180.147 E1.82663
G1 X216.479 Y180.226 E0.01283
G1 X172.784 Y136.531 E1.82995
G1 X172.279 Y136.531 E0.01495
G1 X216.053 Y180.305 E1.83326
G1 X215.627 Y180.384 E0.01283
G1 X171.774 Y136.531 E1.83657
G1 X171.269 Y136.531 E0.01495
G1 X215.201 Y180.463 E1.83988
G1 X214.775 Y180.542 E0.01283
G1 X170.764 Y136.532 E1.84319
G1 X170.259 Y136.532 E0.01495
G1 X214.349 Y180.622 E1.8465
G1 X213.923 Y180.701 E0.01283
G1 X169.754 Y136.532 E1.84982
G1 X169.249 Y136.532 E0.01495
G1 X213.498 Y180.78 E1.85313
M73 P2 R91
G1 X213.072 Y180.859 E0.01283
G1 X168.744 Y136.532 E1.85644
G1 X168.24 Y136.532 E0.01495
G1 X212.646 Y180.938 E1.85975
G1 X212.22 Y181.017 E0.01283
