; generated by SuperSlicer 2.3.56 on 2021-12-16 at 00:48:10 UTC


;
;

;
;
; 

; external perimeters extrusion width = 0.40mm
; perimeters extrusion width = 0.40mm
; infill extrusion width = 0.40mm
; solid infill extrusion width = 0.40mm
; top infill extrusion width = 0.40mm
; support material extrusion width = 0.40mm
; first layer extrusion width = 0.48mm


;TYPE:Custom
START_PRINT T_BED=60 T_EXTRUDER=200
M107
G21 ; set units to millimeters
G90 ; use absolute coordinates
M83 ; use relative distances for extrusion
; Filament gcode
M109 S200 ; set temperature and wait for it to be reached
M190 S60 ; set bed temperature and wait for it to be reached
;LAYER_CHANGE
;Z:0.24
;HEIGHT:0.24
G1 Z0.240000 F12000.000
G1 E-0.80000 F3000.000
G1 X114.109 Y119.865 F12000.000
G1 E0.80000 F1500.000
;TYPE:Skirt
;WIDTH:0.48
G1 F600.000
G1 X115.883 Y118.498 E0.09575
G1 X156.641 Y94.956 E2.01246
G1 X158.748 Y94.073 E0.09764
G1 X160.013 Y93.689 E0.05656
G1 X162.203 Y93.258 E0.09541
G1 X164.506 Y93.108 E0.09867
G1 X166.805 Y93.259 E0.09850
G1 X169.064 Y93.708 E0.09850
G1 X171.250 Y94.450 E0.09867
G1 X173.302 Y95.461 E0.09781
G1 X212.987 Y118.411 E1.96004
G1 X214.056 Y119.177 E0.05622
G1 X215.725 Y120.646 E0.09507
G1 X216.575 Y121.559 E0.05332
G1 X217.927 Y123.328 E0.09523
G1 X219.078 Y125.324 E0.09850
G1 X219.961 Y127.456 E0.09867
G1 X220.558 Y129.685 E0.09867
G1 X220.861 Y132.001 E0.09987
G1 X220.897 Y177.875 E1.96134
G1 X220.747 Y180.171 E0.09841
G1 X220.315 Y182.365 E0.09558
G1 X219.586 Y184.546 E0.09832
G1 X219.040 Y185.751 E0.05656
G1 X217.920 Y187.681 E0.09541
G1 X216.517 Y189.509 E0.09850
G1 X214.891 Y191.135 E0.09833
G1 X213.117 Y192.502 E0.09575
G1 X172.359 Y216.044 E2.01246
G1 X170.252 Y216.927 E0.09764
G1 X168.987 Y217.311 E0.05656
G1 X166.797 Y217.742 E0.09541
G1 X164.498 Y217.892 E0.09850
G1 X162.195 Y217.741 E0.09867
G1 X159.936 Y217.292 E0.09850
G1 X157.750 Y216.550 E0.09867
G1 X155.698 Y215.539 E0.09781
G1 X116.013 Y192.589 E1.96004
G1 X114.944 Y191.823 E0.05622
G1 X113.275 Y190.354 E0.09507
G1 X112.425 Y189.441 E0.05332
G1 X111.073 Y187.672 E0.09523
G1 X109.922 Y185.676 E0.09850
G1 X109.039 Y183.544 E0.09867
G1 X108.442 Y181.315 E0.09867
G1 X108.139 Y178.999 E0.09987
G1 X108.103 Y133.125 E1.96134
G1 X108.253 Y130.829 E0.09841
G1 X108.685 Y128.635 E0.09558
G1 X109.414 Y126.454 E0.09832
G1 X109.960 Y125.249 E0.05656
G1 X111.080 Y123.319 E0.09541
G1 X112.483 Y121.491 E0.09850
G1 X114.066 Y119.907 E0.09576
G1 X114.369 Y120.210 F12000.000
G1 F600.000
G1 X114.394 Y120.185 E0.00152
G1 X116.135 Y118.845 E0.09392
G1 X156.838 Y95.336 E2.00971
G1 X158.898 Y94.474 E0.09549
G1 X160.110 Y94.107 E0.05413
G1 X162.258 Y93.683 E0.09361
G1 X164.505 Y93.536 E0.09627
G1 X166.748 Y93.684 E0.09612
G1 X168.956 Y94.123 E0.09627
G1 X171.085 Y94.846 E0.09612
G1 X173.092 Y95.834 E0.09565
G1 X212.760 Y118.775 E1.95922
G1 X213.786 Y119.510 E0.05397
G1 X215.425 Y120.951 E0.09329
G1 X216.866 Y122.589 E0.09329
G1 X217.572 Y123.569 E0.05162
G1 X218.694 Y125.513 E0.09596
G1 X219.555 Y127.593 E0.09627
G1 X220.138 Y129.768 E0.09627
G1 X220.433 Y132.026 E0.09737
G1 X220.468 Y177.875 E1.96027
G1 X220.321 Y180.119 E0.09616
G1 X219.899 Y182.263 E0.09345
G1 X219.530 Y183.476 E0.05419
G1 X218.662 Y185.548 E0.09605
G1 X217.565 Y187.442 E0.09361
G1 X216.196 Y189.226 E0.09612
G1 X214.606 Y190.815 E0.09612
G1 X212.865 Y192.155 E0.09392
G1 X172.162 Y215.664 E2.00971
G1 X170.102 Y216.526 E0.09549
G1 X168.890 Y216.893 E0.05413
G1 X166.742 Y217.317 E0.09361
G1 X164.499 Y217.464 E0.09612
G1 X162.252 Y217.316 E0.09627
G1 X160.047 Y216.878 E0.09612
G1 X157.915 Y216.154 E0.09627
G1 X155.911 Y215.168 E0.09549
G1 X116.240 Y192.225 E1.95938
G1 X115.214 Y191.490 E0.05397
G1 X113.575 Y190.049 E0.09329
G1 X112.134 Y188.411 E0.09329
G1 X111.428 Y187.431 E0.05162
G1 X110.306 Y185.487 E0.09596
G1 X109.444 Y183.404 E0.09643
G1 X108.862 Y181.232 E0.09612
G1 X108.567 Y178.974 E0.09737
G1 X108.532 Y133.125 E1.96027
G1 X108.679 Y130.881 E0.09616
G1 X109.101 Y128.737 E0.09345
G1 X109.470 Y127.524 E0.05419
G1 X110.338 Y125.452 E0.09605
G1 X111.435 Y123.558 E0.09360
G1 X112.804 Y121.774 E0.09612
G1 X114.326 Y120.252 E0.09203
G1 E-0.80000 F3000.000
G1 X116.579 Y122.673 F12000.000
G1 E0.80000 F1500.000
;TYPE:Internal perimeter
G1 F600.000
G1 X117.283 Y122.096 E0.03890
G1 X118.022 Y121.566 E0.03890
G1 X118.810 Y121.076 E0.03966
G1 X157.533 Y98.719 E1.91174
G1 X158.351 Y98.282 E0.03966
G1 X159.180 Y97.906 E0.03890
G1 X160.031 Y97.586 E0.03890
G1 X160.902 Y97.322 E0.03890
G1 X161.788 Y97.115 E0.03890
G1 X162.685 Y96.967 E0.03890
G1 X163.591 Y96.878 E0.03890
G1 X164.500 Y96.848 E0.03890
G1 X165.409 Y96.878 E0.03890
G1 X166.315 Y96.967 E0.03890
G1 X167.212 Y97.115 E0.03890
G1 X168.098 Y97.322 E0.03890
G1 X168.969 Y97.586 E0.03890
G1 X169.820 Y97.906 E0.03890
G1 X170.649 Y98.282 E0.03890
G1 X171.467 Y98.719 E0.03966
G1 X210.190 Y121.076 E1.91175
G1 X210.978 Y121.566 E0.03966
G1 X211.717 Y122.096 E0.03890
G1 X212.421 Y122.673 E0.03890
G1 X213.085 Y123.295 E0.03890
G1 X213.706 Y123.959 E0.03890
G1 X214.284 Y124.662 E0.03890
G1 X214.814 Y125.402 E0.03890
G1 X215.294 Y126.174 E0.03890
G1 X215.723 Y126.976 E0.03890
G1 X216.098 Y127.805 E0.03890
G1 X216.419 Y128.657 E0.03890
G1 X216.683 Y129.527 E0.03890
G1 X216.889 Y130.413 E0.03890
G1 X217.038 Y131.311 E0.03890
G1 X217.127 Y132.216 E0.03890
G1 X217.157 Y133.143 E0.03966
G1 X217.157 Y177.857 E1.91174
G1 X217.127 Y178.784 E0.03966
G1 X217.038 Y179.689 E0.03890
G1 X216.889 Y180.587 E0.03890
G1 X216.683 Y181.473 E0.03890
G1 X216.419 Y182.343 E0.03890
G1 X216.098 Y183.195 E0.03890
G1 X215.723 Y184.024 E0.03890
G1 X215.294 Y184.826 E0.03890
G1 X214.814 Y185.598 E0.03890
G1 X214.284 Y186.338 E0.03890
G1 X213.706 Y187.041 E0.03890
G1 X213.085 Y187.705 E0.03890
G1 X212.421 Y188.327 E0.03890
G1 X211.717 Y188.904 E0.03890
G1 X210.978 Y189.434 E0.03890
G1 X210.190 Y189.924 E0.03966
G1 X171.467 Y212.281 E1.91175
G1 X170.649 Y212.718 E0.03966
G1 X169.820 Y213.094 E0.03890
G1 X168.969 Y213.414 E0.03890
G1 X168.098 Y213.678 E0.03890
G1 X167.212 Y213.885 E0.03890
G1 X166.315 Y214.033 E0.03890
G1 X165.409 Y214.122 E0.03890
G1 X164.500 Y214.152 E0.03890
G1 X163.591 Y214.122 E0.03890
G1 X162.685 Y214.033 E0.03890
G1 X161.788 Y213.885 E0.03890
G1 X160.902 Y213.678 E0.03890
G1 X160.031 Y213.414 E0.03890
G1 X159.180 Y213.094 E0.03890
G1 X158.351 Y212.718 E0.03890
G1 X157.533 Y212.281 E0.03966
G1 X118.810 Y189.924 E1.91174
G1 X118.022 Y189.434 E0.03966
G1 X117.283 Y188.904 E0.03890
G1 X116.579 Y188.327 E0.03890
G1 X115.915 Y187.705 E0.03890
G1 X115.294 Y187.041 E0.03890
G1 X114.716 Y186.338 E0.03890
G1 X114.186 Y185.598 E0.03890
G1 X113.706 Y184.826 E0.03890
G1 X113.277 Y184.024 E0.03890
G1 X112.902 Y183.195 E0.03890
G1 X112.581 Y182.343 E0.03890
G1 X112.317 Y181.473 E0.03890
G1 X112.111 Y180.587 E0.03890
G1 X111.962 Y179.689 E0.03890
G1 X111.873 Y178.784 E0.03890
G1 X111.843 Y177.857 E0.03966
G1 X111.843 Y133.143 E1.91174
G1 X111.873 Y132.216 E0.03966
G1 X111.962 Y131.311 E0.03890
G1 X112.111 Y130.413 E0.03890
G1 X112.317 Y129.527 E0.03890
G1 X112.581 Y128.657 E0.03890
G1 X112.902 Y127.805 E0.03890
G1 X113.277 Y126.976 E0.03890
G1 X113.706 Y126.174 E0.03890
G1 X114.186 Y125.402 E0.03890
G1 X114.716 Y124.662 E0.03890
G1 X115.294 Y123.959 E0.03890
G1 X115.915 Y123.295 E0.03890
G1 X116.536 Y122.714 E0.03633
G1 X116.243 Y122.401 F12000.000
G1 F600.000
G1 X116.297 Y122.351 E0.00317
G1 X117.022 Y121.756 E0.04010
G1 X117.784 Y121.209 E0.04010
G1 X118.590 Y120.708 E0.04056
G1 X157.325 Y98.345 E1.91234
G1 X158.161 Y97.897 E0.04056
G1 X159.016 Y97.510 E0.04010
G1 X159.893 Y97.180 E0.04010
G1 X160.791 Y96.908 E0.04010
G1 X161.704 Y96.695 E0.04010
G1 X162.629 Y96.542 E0.04010
G1 X163.563 Y96.450 E0.04010
G1 X164.500 Y96.419 E0.04010
G1 X165.437 Y96.450 E0.04010
G1 X166.371 Y96.542 E0.04010
G1 X167.296 Y96.695 E0.04010
G1 X168.209 Y96.908 E0.04010
G1 X169.107 Y97.180 E0.04010
G1 X169.984 Y97.510 E0.04010
G1 X170.839 Y97.897 E0.04010
G1 X171.675 Y98.345 E0.04056
G1 X210.410 Y120.708 E1.91234
G1 X211.216 Y121.209 E0.04056
G1 X211.978 Y121.756 E0.04010
G1 X212.703 Y122.351 E0.04010
G1 X213.388 Y122.992 E0.04010
G1 X214.029 Y123.676 E0.04010
G1 X214.624 Y124.401 E0.04010
G1 X215.170 Y125.163 E0.04010
G1 X215.665 Y125.960 E0.04010
G1 X216.107 Y126.787 E0.04010
G1 X216.494 Y127.641 E0.04010
G1 X216.825 Y128.519 E0.04010
G1 X217.097 Y129.416 E0.04010
G1 X217.310 Y130.329 E0.04010
G1 X217.463 Y131.255 E0.04010
G1 X217.555 Y132.188 E0.04010
G1 X217.586 Y133.136 E0.04056
G1 X217.586 Y177.864 E1.91234
G1 X217.555 Y178.812 E0.04056
G1 X217.463 Y179.745 E0.04010
G1 X217.310 Y180.671 E0.04010
G1 X217.097 Y181.584 E0.04010
G1 X216.825 Y182.481 E0.04010
G1 X216.494 Y183.359 E0.04010
G1 X216.107 Y184.213 E0.04010
G1 X215.665 Y185.040 E0.04010
G1 X215.170 Y185.837 E0.04010
G1 X214.624 Y186.599 E0.04010
G1 X214.029 Y187.324 E0.04010
G1 X213.388 Y188.008 E0.04010
G1 X212.703 Y188.649 E0.04010
G1 X211.978 Y189.244 E0.04010
G1 X211.216 Y189.791 E0.04010
G1 X210.410 Y190.292 E0.04056
G1 X171.675 Y212.655 E1.91234
G1 X170.839 Y213.103 E0.04056
G1 X169.984 Y213.490 E0.04010
G1 X169.107 Y213.820 E0.04010
G1 X168.209 Y214.092 E0.04010
G1 X167.296 Y214.305 E0.04010
G1 X166.371 Y214.458 E0.04010
G1 X165.437 Y214.550 E0.04010
G1 X164.500 Y214.581 E0.04010
G1 X163.563 Y214.550 E0.04010
G1 X162.629 Y214.458 E0.04010
G1 X161.704 Y214.305 E0.04010
G1 X160.791 Y214.092 E0.04010
G1 X159.893 Y213.820 E0.04010
G1 X159.016 Y213.490 E0.04010
G1 X158.161 Y213.103 E0.04010
G1 X157.325 Y212.655 E0.04056
G1 X118.590 Y190.292 E1.91234
G1 X117.784 Y189.791 E0.04056
G1 X117.022 Y189.244 E0.04010
G1 X116.297 Y188.649 E0.04010
G1 X115.612 Y188.008 E0.04010
G1 X114.971 Y187.324 E0.04010
G1 X114.376 Y186.599 E0.04010
G1 X113.830 Y185.837 E0.04010
G1 X113.335 Y185.040 E0.04010
G1 X112.893 Y184.213 E0.04010
G1 X112.506 Y183.359 E0.04010
G1 X112.175 Y182.481 E0.04010
G1 X111.903 Y181.584 E0.04010
G1 X111.690 Y180.671 E0.04010
G1 X111.537 Y179.745 E0.04010
G1 X111.445 Y178.812 E0.04010
G1 X111.414 Y177.864 E0.04056
G1 X111.414 Y133.136 E1.91234
G1 X111.445 Y132.188 E0.04056
G1 X111.537 Y131.255 E0.04010
G1 X111.690 Y130.329 E0.04010
G1 X111.903 Y129.416 E0.04010
G1 X112.175 Y128.519 E0.04010
G1 X112.506 Y127.641 E0.04010
G1 X112.893 Y126.787 E0.04010
G1 X113.335 Y125.960 E0.04010
G1 X113.830 Y125.163 E0.04010
G1 X114.376 Y124.401 E0.04010
G1 X114.971 Y123.676 E0.04010
G1 X115.612 Y122.992 E0.04010
G1 X116.199 Y122.442 E0.03437
G1 X115.906 Y122.129 F12000.000
;TYPE:External perimeter
G1 F600.000
G1 X116.014 Y122.028 E0.00633
G1 X116.761 Y121.416 E0.04130
G1 X117.546 Y120.853 E0.04130
G1 X118.369 Y120.341 E0.04146
G1 X157.117 Y97.970 E1.91294
G1 X157.972 Y97.513 E0.04146
G1 X158.852 Y97.114 E0.04130
G1 X159.756 Y96.774 E0.04130
G1 X160.680 Y96.494 E0.04130
G1 X161.620 Y96.274 E0.04130
G1 X162.573 Y96.117 E0.04130
G1 X163.535 Y96.022 E0.04130
G1 X164.500 Y95.991 E0.04130
G1 X165.465 Y96.022 E0.04130
G1 X166.427 Y96.117 E0.04130
G1 X167.380 Y96.274 E0.04130
G1 X168.320 Y96.494 E0.04130
G1 X169.244 Y96.774 E0.04130
G1 X170.148 Y97.114 E0.04130
G1 X171.028 Y97.513 E0.04130
G1 X171.883 Y97.970 E0.04146
G1 X210.631 Y120.341 E1.91294
G1 X211.454 Y120.853 E0.04146
G1 X212.239 Y121.416 E0.04130
G1 X212.986 Y122.028 E0.04130
G1 X213.691 Y122.689 E0.04130
G1 X214.351 Y123.393 E0.04130
G1 X214.964 Y124.140 E0.04130
G1 X215.526 Y124.925 E0.04130
G1 X216.037 Y125.745 E0.04130
G1 X216.492 Y126.597 E0.04130
G1 X216.890 Y127.477 E0.04130
G1 X217.231 Y128.381 E0.04130
G1 X217.511 Y129.305 E0.04130
G1 X217.730 Y130.246 E0.04130
G1 X217.888 Y131.199 E0.04130
G1 X217.982 Y132.160 E0.04130
G1 X218.014 Y133.129 E0.04146
G1 X218.014 Y177.871 E1.91294
G1 X217.982 Y178.840 E0.04146
G1 X217.888 Y179.801 E0.04130
G1 X217.730 Y180.754 E0.04130
G1 X217.511 Y181.695 E0.04130
G1 X217.231 Y182.619 E0.04130
G1 X216.890 Y183.523 E0.04130
G1 X216.492 Y184.403 E0.04130
G1 X216.037 Y185.255 E0.04130
G1 X215.526 Y186.075 E0.04130
G1 X214.964 Y186.860 E0.04130
G1 X214.351 Y187.607 E0.04130
G1 X213.691 Y188.311 E0.04130
G1 X212.986 Y188.972 E0.04130
G1 X212.239 Y189.584 E0.04130
G1 X211.454 Y190.147 E0.04130
G1 X210.631 Y190.659 E0.04146
G1 X171.883 Y213.030 E1.91294
G1 X171.028 Y213.487 E0.04146
G1 X170.148 Y213.886 E0.04130
G1 X169.244 Y214.226 E0.04130
G1 X168.320 Y214.506 E0.04130
G1 X167.380 Y214.726 E0.04130
G1 X166.427 Y214.883 E0.04130
G1 X165.465 Y214.978 E0.04130
G1 X164.500 Y215.009 E0.04130
G1 X163.535 Y214.978 E0.04130
G1 X162.573 Y214.883 E0.04130
G1 X161.620 Y214.726 E0.04130
G1 X160.680 Y214.506 E0.04130
G1 X159.756 Y214.226 E0.04130
G1 X158.852 Y213.886 E0.04130
G1 X157.972 Y213.487 E0.04130
G1 X157.117 Y213.030 E0.04146
G1 X118.369 Y190.659 E1.91294
G1 X117.546 Y190.147 E0.04146
G1 X116.761 Y189.584 E0.04130
G1 X116.014 Y188.972 E0.04130
G1 X115.309 Y188.311 E0.04130
G1 X114.649 Y187.607 E0.04130
G1 X114.036 Y186.860 E0.04130
G1 X113.474 Y186.075 E0.04130
G1 X112.963 Y185.255 E0.04130
G1 X112.508 Y184.403 E0.04130
G1 X112.110 Y183.523 E0.04130
G1 X111.769 Y182.619 E0.04130
G1 X111.489 Y181.695 E0.04130
G1 X111.270 Y180.754 E0.04130
G1 X111.112 Y179.801 E0.04130
G1 X111.018 Y178.840 E0.04130
G1 X110.986 Y177.871 E0.04146
G1 X110.986 Y133.129 E1.91294
G1 X111.018 Y132.160 E0.04146
G1 X111.112 Y131.199 E0.04130
G1 X111.270 Y130.246 E0.04130
G1 X111.489 Y129.305 E0.04130
G1 X111.769 Y128.381 E0.04130
G1 X112.110 Y127.477 E0.04130
G1 X112.508 Y126.597 E0.04130
G1 X112.963 Y125.745 E0.04130
G1 X113.474 Y124.925 E0.04130
G1 X114.036 Y124.140 E0.04130
G1 X114.649 Y123.393 E0.04130
G1 X115.309 Y122.689 E0.04130
G1 X115.862 Y122.170 E0.03240
G1 X116.048 Y122.172 F12000.000
G1 E-0.80000 F3000.000
G1 X209.617 Y120.918 F12000.000
G1 E0.80000 F1500.000
;TYPE:Solid infill
;WIDTH:0.480579
G1 F1800.000
G1 X215.412 Y126.713 E0.35080
G1 X215.962 Y127.869 F12000.000
G1 F1800.000
G1 X208.184 Y120.091 E0.47091
G1 E-0.80000 F3000.000
G1 X206.750 Y119.263 F12000.000
G1 E0.80000 F1500.000
G1 F1800.000
G1 X215.998 Y128.511 E0.55985
G1 X216.094 Y128.767 E0.01171
G1 X216.288 Y129.407 E0.02866
G1 X205.316 Y118.435 E0.66424
G1 E-0.80000 F3000.000
G1 X203.882 Y117.607 F12000.000
G1 E0.80000 F1500.000
G1 F1800.000
G1 X216.492 Y130.217 E0.76335
G1 X216.553 Y130.480 E0.01157
G1 X216.633 Y130.964 E0.02100
G1 X202.448 Y116.780 E0.85870
G1 E-0.80000 F3000.000
G1 X201.015 Y115.952 F12000.000
G1 E0.80000 F1500.000
G1 F1800.000
G1 X216.728 Y131.665 E0.95126
G1 X216.785 Y132.238 E0.02466
G1 X216.788 Y132.331 E0.00394
G1 X199.581 Y115.124 E1.04166
G1 E-0.80000 F3000.000
G1 X198.147 Y114.296 F12000.000
G1 E0.80000 F1500.000
G1 F1800.000
G1 X216.808 Y132.957 E1.12970
G1 X216.814 Y133.149 E0.00822
G1 X216.814 Y133.569 E0.01800
G1 X196.713 Y113.468 E1.21688
G1 E-0.80000 F3000.000
G1 X195.280 Y112.641 F12000.000
G1 E0.80000 F1500.000
G1 F1800.000
G1 X216.814 Y134.175 E1.30368
G1 X216.814 Y134.781 E0.02594
G1 X193.846 Y111.813 E1.39047
G1 E-0.80000 F3000.000
G1 X192.412 Y110.985 F12000.000
G1 E0.80000 F1500.000
G1 F1800.000
G1 X216.814 Y135.387 E1.47727
G1 X216.814 Y135.993 E0.02594
G1 X190.978 Y110.157 E1.56407
G1 E-0.80000 F3000.000
G1 X189.545 Y109.329 F12000.000
G1 E0.80000 F1500.000
G1 F1800.000
G1 X216.814 Y136.599 E1.65087
G1 X216.814 Y137.205 E0.02594
G1 X188.111 Y108.502 E1.73767
G1 E-0.80000 F3000.000
G1 X186.677 Y107.674 F12000.000
G1 E0.80000 F1500.000
G1 F1800.000
G1 X216.814 Y137.811 E1.82446
G1 X216.814 Y138.417 E0.02594
G1 X185.243 Y106.846 E1.91126
G1 E-0.80000 F3000.000
G1 X183.809 Y106.018 F12000.000
G1 E0.80000 F1500.000
G1 F1800.000
G1 X216.814 Y139.023 E1.99806
G1 X216.814 Y139.629 E0.02594
G1 X182.376 Y105.190 E2.08486
G1 E-0.80000 F3000.000
G1 X180.942 Y104.363 F12000.000
G1 E0.80000 F1500.000
G1 F1800.000
G1 X216.814 Y140.235 E2.17166
G1 X216.814 Y140.841 E0.02594
G1 X179.508 Y103.535 E2.25845
G1 E-0.80000 F3000.000
G1 X178.074 Y102.707 F12000.000
G1 E0.80000 F1500.000
G1 F1800.000
G1 X216.814 Y141.447 E2.34525
G1 X216.814 Y142.053 E0.02594
G1 X176.641 Y101.879 E2.43205
G1 E-0.80000 F3000.000
G1 X175.207 Y101.052 F12000.000
G1 E0.80000 F1500.000
G1 F1800.000
