; generated by SuperSlicer 2.4 on 2022-08-18 at 17:37:04 UTC


;
;

;
;
; 

; external perimeters extrusion width = 0.48mm
; perimeters extrusion width = 0.48mm
; infill extrusion width = 0.72mm
; solid infill extrusion width = 0.56mm
; top infill extrusion width = 0.40mm
; support material extrusion width = 0.42mm
; first layer extrusion width = 0.48mm

; external perimeters extrusion width = 0.40mm
; perimeters extrusion width = 0.40mm
; infill extrusion width = 0.72mm
; solid infill extrusion width = 0.56mm
; top infill extrusion width = 0.40mm
; support material extrusion width = 0.42mm
; first layer extrusion width = 0.48mm

; object:{"name":"Untitled","id":"Untitled.stl id:0 copy 0","object_center":[165.000008,165.000000,0.000000],"boundingbox_center":[165.000008,165.000000,8.819000],"boundingbox_size":[109.952003,60.042000,17.638000]}
; plater:{"center":[165.000008,165.000000,0.000000],"boundingbox_center":[165.000008,165.000000,8.819000],"boundingbox_size":[109.952003,60.042000,17.638000]}

M73 P0 R90
M73 C80
;TYPE:Custom
START_PRINT T_BED=60 T_EXTRUDER=200
M107
G21 ; set units to millimeters
G90 ; use absolute coordinates
M83 ; use relative distances for extrusion
; Filament gcode
M109 S200 ; set temperature and wait for it to be reached
M190 S60 ; set bed temperature and wait for it to be reached
M107
;LAYER_CHANGE
;Z:0.2
;HEIGHT:0.2
G1 Z0.2 F9000
G92 E0
M73 P0 R89
M73 C1
G1 E-0.8 F3000
M204 S1000
G1 X108.007 Y133.046 F9000
G1 E0.8 F1800
;TYPE:Skirt
;WIDTH:0.52
G1 X107.092 Y134.285 E0.0599
G1 X106.7 Y135.308 E0.0426
G1 X106.499 Y136.597 E0.0507
G1 X106.499 Y179.821 E1.68039
G1 X106.656 Y180.995 E0.04605
G1 X107.095 Y182.148 E0.04795
G1 X107.8 Y183.153 E0.04774
G1 X108.141 Y183.508 E0.01913
G1 X108.969 Y184.168 E0.04114
G1 X109.936 Y184.648 E0.04199
G1 X148.657 Y198.377 E1.59713
G1 X149.898 Y198.591 E0.04897
G1 X180.1 Y198.591 E1.1741
G1 X181.341 Y198.377 E0.04896
G1 X220.48 Y184.476 E1.61469
G1 X221.248 Y184.021 E0.03469
G1 X221.866 Y183.501 E0.03143
G1 X222.731 Y182.444 E0.0531
G1 X223.283 Y181.221 E0.05213
G1 X223.499 Y179.821 E0.05508
G1 X223.499 Y136.592 E1.68057
G1 X223.234 Y135.109 E0.05858
G1 X222.69 Y133.94 E0.0501
G1 X221.801 Y132.868 E0.05417
G1 X221.419 Y132.539 E0.01959
G1 X220.245 Y131.855 E0.05283
G1 X219.215 Y131.552 E0.04174
G1 X218.368 Y131.454 E0.03313
G1 X205.41 Y131.454 E0.50379
G1 X111.637 Y131.454 E3.64549
G1 X110.154 Y131.719 E0.05858
G1 X108.985 Y132.263 E0.0501
G1 X108.007 Y133.046 E0.0487
G1 X108.356 Y133.371 F9000
G1 F1800
G1 X107.523 Y134.489 E0.05421
G1 X107.164 Y135.417 E0.03867
G1 X106.976 Y136.597 E0.04646
G1 X106.976 Y179.821 E1.68039
G1 X107.117 Y180.875 E0.04134
G1 X107.508 Y181.909 E0.04295
G1 X108.145 Y182.823 E0.04331
G1 X108.485 Y183.178 E0.01913
G1 X109.236 Y183.773 E0.03723
G1 X110.116 Y184.206 E0.03811
G1 X148.816 Y197.928 E1.59631
G1 X149.898 Y198.114 E0.04268
G1 X180.1 Y198.114 E1.1741
G1 X181.181 Y197.928 E0.04268
G1 X220.283 Y184.041 E1.61312
G1 X220.982 Y183.625 E0.03162
G1 X221.521 Y183.171 E0.02739
G1 X222.318 Y182.204 E0.04872
G1 X222.822 Y181.101 E0.04714
G1 X223.022 Y179.821 E0.05037
G1 X223.022 Y136.592 E1.68057
G1 X222.773 Y135.232 E0.05377
G1 X222.299 Y134.213 E0.04367
G1 X221.49 Y133.229 E0.04955
G1 X221.108 Y132.9 E0.01959
G1 X220.084 Y132.304 E0.04605
G1 X219.106 Y132.017 E0.03963
G1 X218.368 Y131.932 E0.02888
G1 X205.41 Y131.931 E0.50379
G1 X111.637 Y131.931 E3.64549
G1 X110.277 Y132.18 E0.05377
G1 X109.258 Y132.654 E0.04367
G1 X108.356 Y133.371 E0.04479
G1 E-0.8 F3000
; printing object Untitled.stl id:0 copy 0
; acceleration to travel
M204 S3000
G1 X138.991 Y172.359 F9000
; decel to extrusion
M204 S1000
G1 X149.202 Y185.355
; end travel
G1 E0.8 F1800
;TYPE:Internal perimeter
;WIDTH:0.48
G1 X141.944 Y184.792 E0.2593
G1 X134.298 Y183.97 E0.27389
G1 X126.68 Y182.917 E0.27389
G1 X119.099 Y181.631 E0.27387
G1 X111.655 Y180.133 E0.27046
G1 X111.578 Y180.102 E0.00296
G1 X111.544 Y180.079 E0.00142
G1 X111.367 Y179.895 E0.00912
G1 X111.328 Y179.707 E0.00682
G1 X111.328 Y136.764 E1.5295
G1 X111.384 Y136.507 E0.00936
G1 X111.46 Y136.425 E0.00397
G1 X111.588 Y136.335 E0.00559
G1 X111.783 Y136.283 E0.00718
G1 X112.123 Y136.283 E0.0121
G1 X218.23 Y136.284 E3.77915
G1 X218.435 Y136.342 E0.00759
G1 X218.541 Y136.434 E0.00503
G1 X218.618 Y136.543 E0.00474
G1 X218.67 Y136.738 E0.00718
G1 X218.67 Y179.707 E1.5304
G1 X218.631 Y179.895 E0.00684
G1 X218.456 Y180.079 E0.00903
G1 X218.421 Y180.102 E0.0015
G1 X218.346 Y180.132 E0.00286
G1 X210.899 Y181.631 E0.27056
G1 X203.318 Y182.917 E0.27388
G1 X195.702 Y183.97 E0.27382
G1 X188.056 Y184.792 E0.27389
G1 X180.44 Y185.383 E0.27207
G1 X179.654 Y186.293 E0.04282
G1 X179.658 Y193.761 E0.266
G1 X150.34 Y193.761 E1.0442
M73 P1 R89
G1 X150.344 Y186.297 E0.26586
G1 X149.564 Y185.383 E0.04278
G1 X149.202 Y185.355 E0.01292
G1 X149.168 Y185.791 F9000
G1 F1800
G1 X141.903 Y185.227 E0.25953
G1 X134.245 Y184.403 E0.27435
G1 X126.614 Y183.349 E0.27436
G1 X119.019 Y182.061 E0.27435
G1 X111.528 Y180.553 E0.27216
G1 X111.371 Y180.489 E0.00605
G1 X111.261 Y180.415 E0.00471
G1 X111.027 Y180.171 E0.01206
G1 X110.951 Y180.04 E0.00537
G1 X110.891 Y179.752 E0.0105
G1 X110.891 Y136.717 E1.53275
G1 X110.912 Y136.661 E0.00212
G1 X110.967 Y136.364 E0.01076
G1 X111.017 Y136.259 E0.00414
G1 X111.172 Y136.093 E0.00808
G1 X111.401 Y135.933 E0.00998
G1 X111.726 Y135.846 E0.01196
G1 X112.123 Y135.846 E0.01414
G1 X218.29 Y135.847 E3.7813
G1 X218.506 Y135.898 E0.00791
G1 X218.647 Y135.948 E0.0053
G1 X218.868 Y136.139 E0.01043
G1 X219.02 Y136.356 E0.00943
G1 X219.107 Y136.681 E0.01196
G1 X219.107 Y179.752 E1.53404
G1 X219.047 Y180.04 E0.0105
G1 X218.971 Y180.172 E0.00541
G1 X218.739 Y180.415 E0.01196
G1 X218.627 Y180.49 E0.00481
G1 X218.473 Y180.553 E0.00593
G1 X210.979 Y182.061 E0.27226
G1 X203.384 Y183.349 E0.27435
G1 X195.755 Y184.403 E0.27429
G1 X188.097 Y185.227 E0.27435
G1 X180.653 Y185.805 E0.2659
G1 X180.092 Y186.455 E0.03061
G1 X180.095 Y194.04 E0.27013
G1 X180.019 Y194.198 E0.00626
G1 X149.99 Y194.198 E1.06953
M73 P1 R88
G1 X149.903 Y194.032 E0.00668
G1 X149.906 Y186.458 E0.26978
G1 X149.349 Y185.805 E0.03057
G1 X149.168 Y185.791 E0.00646
G1 X149.134 Y186.226 F9000
;TYPE:External perimeter
G1 F1800
G1 X141.863 Y185.662 E0.25976
G1 X134.191 Y184.837 E0.27482
G1 X126.547 Y183.781 E0.27484
G1 X118.94 Y182.49 E0.27483
G1 X111.402 Y180.974 E0.27385
G1 X111.164 Y180.877 E0.00915
G1 X110.978 Y180.751 E0.008
G1 X110.675 Y180.436 E0.01559
G1 X110.537 Y180.198 E0.00976
G1 X110.454 Y179.797 E0.01461
G1 X110.454 Y136.639 E1.53711
G1 X110.489 Y136.545 E0.00359
G1 X110.548 Y136.228 E0.01147
G1 X110.651 Y136.011 E0.00857
G1 X110.884 Y135.761 E0.01214
G1 X111.214 Y135.531 E0.01437
G1 X111.669 Y135.409 E0.01674
G1 X112.123 Y135.409 E0.01618
G1 X218.341 Y135.41 E3.7831
G1 X218.63 Y135.478 E0.01059
G1 X218.87 Y135.564 E0.00908
G1 X219.195 Y135.844 E0.01528
G1 X219.422 Y136.169 E0.01413
G1 X219.544 Y136.624 E0.01674
G1 X219.544 Y179.797 E1.53767
G1 X219.461 Y180.198 E0.01461
G1 X219.323 Y180.436 E0.00978
G1 X219.022 Y180.751 E0.01552
G1 X218.833 Y180.878 E0.00811
G1 X218.599 Y180.973 E0.00899
G1 X211.058 Y182.49 E0.27396
G1 X203.451 Y183.781 E0.27483
G1 X195.809 Y184.837 E0.27477
G1 X188.137 Y185.662 E0.27482
G1 X180.867 Y186.226 E0.25972
G1 X180.529 Y186.618 E0.01841
G1 X180.532 Y194.139 E0.26787
G1 X180.39 Y194.436 E0.01175
G1 X180.209 Y194.568 E0.00798
G1 X180.051 Y194.635 E0.00612
G1 X149.947 Y194.635 E1.07217
G1 X149.782 Y194.565 E0.00641
G1 X149.641 Y194.472 E0.00601
G1 X149.466 Y194.14 E0.01336
G1 X149.469 Y186.619 E0.26789
G1 X149.134 Y186.226 E0.01837
;WIPE_START
M204 S4000
G1 X149.061 Y185.833 F9000
;WIPE_END
G1 E-0.8 F3000
; acceleration to travel
M204 S3000
G1 X199.033 Y150 F9000
; decel to extrusion
M204 S1000
G1 X218.07 Y136.35
; end travel
G1 E0.8 F1800
;TYPE:Solid infill
;WIDTH:0.477826
G1 F3600
G1 X218.389 Y136.668 E0.01596
G1 X218.416 Y136.771 E0.00378
G1 X218.416 Y137.313 E0.01921
G1 X217.64 Y136.538 E0.03887
G1 X217.022 Y136.538 E0.02192
G1 X218.415 Y137.931 E0.06984
G1 X218.414 Y138.548 E0.0219
G1 X216.404 Y136.538 E0.1008
G1 X215.786 Y136.538 E0.02192
G1 X218.414 Y139.166 E0.13177
G1 X218.413 Y139.783 E0.0219
G1 X215.168 Y136.538 E0.16273
G1 X214.55 Y136.538 E0.02192
G1 X218.413 Y140.401 E0.1937
G1 X218.412 Y141.018 E0.0219
G1 X213.932 Y136.538 E0.22467
G1 X213.313 Y136.538 E0.02192
G1 X218.412 Y141.636 E0.25563
G1 X218.411 Y142.254 E0.0219
G1 X212.695 Y136.538 E0.2866
G1 X212.077 Y136.538 E0.02192
G1 X218.411 Y142.871 E0.31756
G1 X218.41 Y143.489 E0.0219
G1 X211.459 Y136.538 E0.34853
G1 X210.841 Y136.538 E0.02192
G1 X218.409 Y144.106 E0.37949
G1 X218.409 Y144.724 E0.0219
G1 X210.223 Y136.538 E0.41046
G1 X209.605 Y136.538 E0.02192
G1 X218.408 Y145.341 E0.44143
G1 X218.408 Y145.959 E0.0219
G1 X208.986 Y136.538 E0.47239
G1 X208.368 Y136.538 E0.02192
G1 X218.407 Y146.576 E0.50336
G1 X218.407 Y147.194 E0.0219
G1 X207.75 Y136.538 E0.53432
G1 X207.132 Y136.538 E0.02192
G1 X218.406 Y147.812 E0.56529
G1 X218.405 Y148.429 E0.0219
G1 X206.514 Y136.538 E0.59625
G1 X205.896 Y136.538 E0.02192
G1 X218.405 Y149.047 E0.62722
G1 X218.404 Y149.664 E0.0219
G1 X205.278 Y136.538 E0.65819
G1 X204.66 Y136.538 E0.02192
G1 X218.404 Y150.282 E0.68915
G1 X218.403 Y150.899 E0.0219
G1 X204.041 Y136.538 E0.72012
G1 X203.423 Y136.538 E0.02192
G1 X218.403 Y151.517 E0.75108
G1 X218.402 Y152.135 E0.0219
G1 X202.805 Y136.538 E0.78205
G1 X202.187 Y136.538 E0.02192
G1 X218.402 Y152.752 E0.81301
G1 X218.401 Y153.37 E0.0219
G1 X201.569 Y136.538 E0.84398
G1 X200.951 Y136.538 E0.02192
G1 X218.4 Y153.987 E0.87495
G1 X218.4 Y154.605 E0.0219
G1 X200.333 Y136.538 E0.90591
G1 X199.715 Y136.538 E0.02192
G1 X218.399 Y155.222 E0.93688
G1 X218.399 Y155.84 E0.0219
G1 X199.096 Y136.538 E0.96784
G1 X198.478 Y136.538 E0.02192
G1 X218.398 Y156.458 E0.99881
G1 X218.398 Y157.075 E0.0219
G1 X197.86 Y136.538 E1.02977
G1 X197.242 Y136.538 E0.02192
G1 X218.397 Y157.693 E1.06074
G1 X218.397 Y158.31 E0.0219
G1 X196.624 Y136.538 E1.0917
G1 X196.006 Y136.538 E0.02192
G1 X218.396 Y158.928 E1.12267
G1 X218.395 Y159.545 E0.0219
G1 X195.388 Y136.538 E1.15364
G1 X194.77 Y136.538 E0.02192
G1 X218.395 Y160.163 E1.1846
G1 X218.394 Y160.78 E0.0219
G1 X194.151 Y136.538 E1.21557
G1 X193.533 Y136.538 E0.02192
G1 X218.394 Y161.398 E1.24653
G1 X218.393 Y162.016 E0.0219
G1 X192.915 Y136.538 E1.2775
G1 X192.297 Y136.538 E0.02192
G1 X218.393 Y162.633 E1.30846
G1 X218.392 Y163.251 E0.0219
G1 X191.679 Y136.538 E1.33943
G1 X191.061 Y136.538 E0.02192
G1 X218.392 Y163.868 E1.3704
G1 X218.391 Y164.486 E0.0219
G1 X190.443 Y136.538 E1.40136
G1 X189.825 Y136.538 E0.02192
G1 X218.39 Y165.103 E1.43233
G1 X218.39 Y165.721 E0.0219
G1 X189.206 Y136.538 E1.46329
G1 X188.588 Y136.538 E0.02192
G1 X218.389 Y166.339 E1.49426
G1 X218.389 Y166.956 E0.0219
G1 X187.97 Y136.538 E1.52522
G1 X187.352 Y136.538 E0.02192
G1 X218.388 Y167.574 E1.55619
G1 X218.388 Y168.191 E0.0219
G1 X186.734 Y136.538 E1.58716
G1 X186.116 Y136.538 E0.02192
G1 X218.387 Y168.809 E1.61812
G1 X218.387 Y169.426 E0.0219
G1 X185.498 Y136.537 E1.64909
G1 X184.88 Y136.537 E0.02192
G1 X218.386 Y170.044 E1.68005
G1 X218.385 Y170.662 E0.0219
G1 X184.261 Y136.537 E1.71102
G1 X183.643 Y136.537 E0.02192
G1 X218.385 Y171.279 E1.74198
G1 X218.384 Y171.897 E0.0219
G1 X183.025 Y136.537 E1.77295
G1 X182.407 Y136.537 E0.02192
G1 X218.384 Y172.514 E1.80392
G1 X218.383 Y173.132 E0.0219
G1 X181.789 Y136.537 E1.83488
G1 X181.171 Y136.537 E0.02192
G1 X218.383 Y173.749 E1.86585
M73 P2 R88
G1 X218.382 Y174.367 E0.0219
G1 X180.553 Y136.537 E1.89681
G1 X179.935 Y136.537 E0.02192
G1 X218.382 Y174.984 E1.92778
G1 X218.381 Y175.602 E0.0219
G1 X179.316 Y136.537 E1.95874
G1 X178.698 Y136.537 E0.02192
G1 X218.38 Y176.22 E1.98971
G1 X218.38 Y176.837 E0.0219
G1 X178.08 Y136.537 E2.02068
G1 X177.462 Y136.537 E0.02192
G1 X218.379 Y177.455 E2.05164
G1 X218.379 Y178.072 E0.0219
G1 X176.844 Y136.537 E2.08261
G1 X176.226 Y136.537 E0.02192
G1 X218.378 Y178.69 E2.11357
G1 X218.378 Y179.307 E0.0219
G1 X175.608 Y136.537 E2.14454
G1 X174.989 Y136.537 E0.02192
G1 X218.296 Y179.844 E2.17144
G1 X218.233 Y179.896 E0.0029
G1 X217.815 Y179.981 E0.01514
G1 X174.371 Y136.537 E2.17829
G1 X173.753 Y136.537 E0.02192
G1 X217.3 Y180.084 E2.18349
G1 X216.785 Y180.188 E0.01861
G1 X173.135 Y136.537 E2.18868
G1 X172.517 Y136.537 E0.02192
G1 X216.271 Y180.291 E2.19387
G1 X215.756 Y180.395 E0.01861
G1 X171.899 Y136.537 E2.19906
G1 X171.281 Y136.537 E0.02192
G1 X215.242 Y180.498 E2.20425
M73 P2 R87
G1 X214.727 Y180.602 E0.01861
G1 X170.663 Y136.537 E2.20945
G1 X170.044 Y136.537 E0.02192
G1 X214.213 Y180.705 E2.21464
G1 X213.698 Y180.809 E0.01861
G1 X169.426 Y136.537 E2.21983
G1 X168.808 Y136.537 E0.02192
G1 X213.183 Y180.913 E2.22502
G1 X212.669 Y181.016 E0.01861
G1 X168.19 Y136.537 E2.23022
G1 X167.572 Y136.537 E0.02192
G1 X212.154 Y181.12 E2.23541
G1 X211.64 Y181.223 E0.01861
G1 X166.954 Y136.537 E2.2406
G1 X166.336 Y136.537 E0.02192
G1 X211.125 Y181.327 E2.24579
G1 X210.853 Y181.382 E0.00985
G1 X210.604 Y181.424 E0.00895
G1 X165.718 Y136.537 E2.25066
G1 X165.099 Y136.537 E0.02192
G1 X210.075 Y181.513 E2.25515
G1 X209.547 Y181.603 E0.01901
G1 X164.481 Y136.537 E2.25964
G1 X163.863 Y136.537 E0.02192
G1 X209.018 Y181.693 E2.26414
G1 X208.49 Y181.782 E0.01901
G1 X163.245 Y136.537 E2.26863
G1 X162.627 Y136.537 E0.02192
G1 X207.961 Y181.872 E2.27313
G1 X207.433 Y181.962 E0.01901
G1 X162.009 Y136.537 E2.27762
G1 X161.391 Y136.537 E0.02192
G1 X206.904 Y182.051 E2.28211
G1 X206.376 Y182.141 E0.01901
G1 X160.773 Y136.537 E2.28661
G1 X160.154 Y136.537 E0.02192
G1 X205.847 Y182.23 E2.2911
G1 X205.319 Y182.32 E0.01901
G1 X159.536 Y136.537 E2.2956
G1 X158.918 Y136.537 E0.02192
G1 X204.79 Y182.41 E2.30009
G1 X204.262 Y182.499 E0.01901
G1 X158.3 Y136.537 E2.30458
G1 X157.682 Y136.537 E0.02192
G1 X203.733 Y182.589 E2.30908
G1 X203.279 Y182.666 E0.01634
G1 X203.203 Y182.676 E0.00272
G1 X157.064 Y136.537 E2.31347
G1 X156.446 Y136.537 E0.02192
G1 X202.66 Y182.752 E2.31724
G1 X202.117 Y182.827 E0.01944
G1 X155.828 Y136.537 E2.321
G1 X155.209 Y136.537 E0.02192
G1 X201.574 Y182.902 E2.32477
G1 X201.031 Y182.977 E0.01944
G1 X154.591 Y136.537 E2.32853
G1 X153.973 Y136.537 E0.02192
G1 X200.488 Y183.052 E2.3323
G1 X199.945 Y183.127 E0.01944
G1 X153.355 Y136.537 E2.33606
G1 X152.737 Y136.537 E0.02192
G1 X199.402 Y183.202 E2.33983
G1 X198.859 Y183.277 E0.01944
G1 X152.119 Y136.537 E2.34359
G1 X151.501 Y136.537 E0.02192
G1 X198.316 Y183.352 E2.34736
G1 X197.773 Y183.427 E0.01944
G1 X150.883 Y136.537 E2.35112
M73 P3 R87
G1 X150.264 Y136.537 E0.02192
G1 X197.23 Y183.502 E2.35489
G1 X196.687 Y183.578 E0.01944
G1 X149.646 Y136.537 E2.35865
G1 X149.028 Y136.537 E0.02192
G1 X196.144 Y183.653 E2.36242
G1 X195.671 Y183.718 E0.01691
G1 X195.599 Y183.726 E0.00259
G1 X148.41 Y136.537 E2.36609
G1 X147.792 Y136.537 E0.02192
G1 X195.04 Y183.786 E2.36909
G1 X194.482 Y183.846 E0.0199
G1 X147.174 Y136.537 E2.3721
G1 X146.556 Y136.537 E0.02192
G1 X193.924 Y183.906 E2.37511
G1 X193.366 Y183.966 E0.0199
G1 X145.937 Y136.537 E2.37812
G1 X145.319 Y136.537 E0.02192
G1 X192.808 Y184.026 E2.38113
G1 X192.25 Y184.086 E0.0199
G1 X144.701 Y136.537 E2.38414
G1 X144.083 Y136.537 E0.02192
G1 X191.692 Y184.146 E2.38715
G1 X191.134 Y184.206 E0.0199
G1 X143.465 Y136.537 E2.39016
G1 X142.847 Y136.537 E0.02192
G1 X190.575 Y184.266 E2.39317
G1 X190.017 Y184.326 E0.0199
G1 X142.229 Y136.537 E2.39617
G1 X141.611 Y136.537 E0.02192
G1 X189.459 Y184.386 E2.39918
G1 X188.901 Y184.446 E0.0199
G1 X140.992 Y136.537 E2.40219
G1 X140.374 Y136.537 E0.02192
G1 X188.343 Y184.506 E2.4052
G1 X188.033 Y184.539 E0.01106
G1 X187.778 Y184.559 E0.00907
G1 X139.756 Y136.537 E2.40787
G1 X139.138 Y136.537 E0.02192
G1 X187.204 Y184.603 E2.4101
M73 P3 R86
G1 X186.631 Y184.648 E0.0204
G1 X138.52 Y136.537 E2.41233
G1 X137.902 Y136.537 E0.02192
G1 X186.057 Y184.692 E2.41456
G1 X185.484 Y184.737 E0.0204
G1 X137.284 Y136.537 E2.4168
G1 X136.666 Y136.537 E0.02192
G1 X184.91 Y184.782 E2.41903
G1 X184.336 Y184.826 E0.0204
G1 X136.047 Y136.537 E2.42126
G1 X135.429 Y136.537 E0.02192
G1 X183.763 Y184.871 E2.42349
