; generated by SuperSlicer 2.3.57 on 2022-02-07 at 01:30:03 UTC


;
;

;
;
; 

; external perimeters extrusion width = 0.40mm
; perimeters extrusion width = 0.40mm
; infill extrusion width = 0.40mm
; solid infill extrusion width = 0.40mm
; top infill extrusion width = 0.40mm
; first layer extrusion width = 0.48mm

; object:{"name":"Part2-White42","id":"Part2-White42.STL id:0 copy 0","object_center":[165.000000,165.000000,0.000000],"boundingbox_center":[165.000000,165.000000,0.630000],"boundingbox_size":[88.252138,81.070235,1.260000]}
; plater:{"center":[165.000000,165.000000,0.000000],"boundingbox_center":[165.000000,165.000000,0.630000],"boundingbox_size":[88.252138,81.070235,1.260000]}

;TYPE:Custom
START_PRINT T_BED=60 T_EXTRUDER=200
M107
G21 ; set units to millimeters
G90 ; use absolute coordinates
M83 ; use relative distances for extrusion
; Filament gcode
M104 S200 ; set temperature
M109 S200 ; set temperature and wait for it to be reached
M190 S60 ; set bed temperature and wait for it to be reached
;LAYER_CHANGE
;Z:0.24
;HEIGHT:0.24
G1 E-0.6 F3000
G1 Z0.24 F7200
G1 X133.527 Y121.872
G1 E0.6 F1800
;TYPE:Skirt
;WIDTH:0.48
G1 X130.379 Y125.382 E0.20156
G1 X127.825 Y128.742 E0.18044
G1 X125.624 Y132.18 E0.17454
G1 X122.98 Y136.987 E0.23457
G1 X121.375 Y140.282 E0.1567
G1 X120.085 Y143.522 E0.14908
G1 X118.964 Y147.183 E0.1637
G1 X118.079 Y151.265 E0.17861
G1 X117.549 Y155.275 E0.17291
G1 X117.331 Y159.426 E0.17771
G1 X117.462 Y163.748 E0.18487
G1 X117.82 Y166.804 E0.13157
G1 X118.434 Y169.689 E0.12612
G1 X119.517 Y173.008 E0.14926
G1 X120.798 Y175.864 E0.13383
G1 X122.437 Y178.853 E0.14577
G1 X124.376 Y181.903 E0.15452
G1 X125.172 Y182.941 E0.0559
G1 X126.896 Y184.898 E0.11154
G1 X147.736 Y205.763 E1.26082
G1 X149.551 Y207.117 E0.09683
G1 X151.441 Y208.095 E0.091
G1 X153.469 Y208.772 E0.09139
G1 X155.553 Y209.074 E0.09005
G1 X174.402 Y209.076 E0.80589
G1 X176.79 Y208.701 E0.10335
G1 X178.384 Y208.174 E0.07179
G1 X180.288 Y207.212 E0.09121
G1 X182.309 Y205.719 E0.10746
G1 X203.091 Y184.912 E1.25734
G1 X204.852 Y182.912 E0.11396
G1 X205.939 Y181.452 E0.07783
G1 X207.614 Y178.768 E0.13525
G1 X209.216 Y175.835 E0.14288
G1 X210.499 Y172.969 E0.13425
G1 X211.525 Y169.854 E0.14022
G1 X212.181 Y166.803 E0.13344
G1 X212.552 Y163.582 E0.13864
G1 X212.668 Y159.421 E0.17795
G1 X212.453 Y155.293 E0.17675
G1 X211.922 Y151.27 E0.17348
G1 X211.055 Y147.248 E0.17593
G1 X209.964 Y143.653 E0.16062
G1 X208.581 Y140.186 E0.15958
G1 X206.974 Y136.898 E0.15648
G1 X204.484 Y132.361 E0.22126
G1 X202.248 Y128.85 E0.17798
G1 X199.536 Y125.275 E0.19185
G1 X196.549 Y121.944 E0.1913
G1 X196.004 Y121.51 E0.02979
G1 X195.386 Y121.188 E0.02979
G1 X194.718 Y120.99 E0.02979
G1 X194.024 Y120.922 E0.02979
G1 X135.976 Y120.922 E2.48188
G1 X135.176 Y121.012 E0.0344
G1 X134.298 Y121.334 E0.04001
G1 X133.576 Y121.838 E0.03764
G1 X133.855 Y122.193 F7200
G1 F1800
G1 X133.641 Y122.361 E0.01162
G1 X130.797 Y125.544 E0.18254
G1 X128.249 Y128.887 E0.1797
G1 X125.928 Y132.505 E0.18376
G1 X123.369 Y137.167 E0.2274
G1 X121.767 Y140.457 E0.15644
G1 X120.483 Y143.679 E0.14832
G1 X119.374 Y147.307 E0.16216
G1 X118.501 Y151.339 E0.17642
G1 X117.975 Y155.316 E0.17149
G1 X117.76 Y159.431 E0.17619
G1 X117.888 Y163.699 E0.18258
G1 X118.242 Y166.734 E0.1306
G1 X118.852 Y169.593 E0.12501
G1 X119.915 Y172.849 E0.14644
G1 X121.182 Y175.673 E0.13235
G1 X122.801 Y178.627 E0.14402
G1 X124.719 Y181.646 E0.15294
G1 X125.5 Y182.665 E0.05486
G1 X127.212 Y184.609 E0.1108
G1 X148.028 Y205.449 E1.25932
G1 X149.782 Y206.756 E0.09355
G1 X151.622 Y207.706 E0.08857
G1 X153.567 Y208.355 E0.08767
G1 X155.576 Y208.647 E0.08676
G1 X174.391 Y208.648 E0.80446
G1 X176.664 Y208.291 E0.09836
G1 X178.216 Y207.78 E0.06984
G1 X180.08 Y206.838 E0.08932
G1 X182.011 Y205.411 E0.10266
G1 X202.776 Y184.622 E1.25629
G1 X204.522 Y182.639 E0.11299
G1 X205.585 Y181.211 E0.0761
G1 X207.243 Y178.553 E0.13393
G1 X208.828 Y175.653 E0.1413
G1 X210.1 Y172.812 E0.13309
G1 X211.111 Y169.744 E0.1381
G1 X211.758 Y166.735 E0.13161
G1 X212.125 Y163.553 E0.13695
G1 X212.24 Y159.426 E0.17652
G1 X212.026 Y155.331 E0.1753
G1 X211.5 Y151.343 E0.17201
G1 X210.645 Y147.376 E0.17351
G1 X209.561 Y143.799 E0.15981
G1 X208.234 Y140.457 E0.15372
G1 X206.592 Y137.092 E0.16008
G1 X204.011 Y132.406 E0.22874
G1 X201.747 Y128.882 E0.1791
G1 X199.205 Y125.547 E0.17928
G1 X196.405 Y122.411 E0.17974
G1 X195.905 Y121.962 E0.02873
G1 X195.327 Y121.629 E0.02854
G1 X194.688 Y121.421 E0.02873
G1 X194.024 Y121.351 E0.02854
G1 X135.978 Y121.351 E2.48178
G1 X135.28 Y121.428 E0.03005
G1 X134.39 Y121.771 E0.04075
G1 X133.902 Y122.156 E0.02657
; INIT printing object Part2-White42.STL id:0 copy 0
G1 E-0.6 F3000
; printing object Part2-White42.STL id:0 copy 0
G1 X163.761 Y186.9 F7200
G1 E0.6 F1800
;TYPE:Internal perimeter
G1 X163.256 Y187.066 E0.02271
G1 X162.741 Y186.327 E0.03852
G1 X163.752 Y186.597 E0.04475
G1 X163.759 Y186.84 E0.01042
G1 X166.239 Y186.9 F7200
G1 F1800
G1 X166.248 Y186.597 E0.01298
G1 X167.259 Y186.327 E0.04475
G1 X166.744 Y187.066 E0.03852
G1 X166.296 Y186.919 E0.02015
G1 X165.264 Y187.031 F7200
G1 F1800
G1 X165 Y187.52 E0.02377
G1 X164.736 Y187.031 E0.02377
G1 X163.436 Y187.458 E0.05853
G1 X163.458 Y187.618 E0.00691
G1 X163.122 Y187.718 E0.01502
G1 X162.988 Y187.431 E0.01354
G1 X162.485 Y186.71 E0.03761
G1 X161.927 Y186.149 E0.0338
G1 X161.222 Y185.654 E0.03682
G1 X161.408 Y185.332 E0.01592
G1 X162.409 Y185.796 E0.04716
G1 X163.685 Y186.135 E0.05645
G1 X165 Y186.25 E0.05645
G1 X166.315 Y186.135 E0.05645
G1 X167.591 Y185.796 E0.05645
G1 X168.592 Y185.332 E0.04716
G1 X168.778 Y185.654 E0.01592
G1 X168.073 Y186.149 E0.03682
G1 X167.515 Y186.71 E0.0338
G1 X167.012 Y187.431 E0.03761
G1 X166.878 Y187.718 E0.01354
G1 X166.541 Y187.618 E0.01502
G1 X166.564 Y187.458 E0.00691
G1 X165.321 Y187.049 E0.05596
G1 E-0.6 F3000
G1 X152.134 Y164.975 F7200
G1 E0.6 F1800
G1 X150.382 Y165.065 E0.07501
G1 X130.756 Y166.081 E0.84026
G1 X132.145 Y160.867 E0.2307
G1 X132.787 Y159.137 E0.07889
G1 X133.885 Y157.114 E0.09841
G1 X135.63 Y154.469 E0.13548
G1 X137.573 Y152.098 E0.13106
G1 X139.671 Y150.015 E0.12639
G1 X142.002 Y148.099 E0.12902
G1 X144.823 Y146.167 E0.14618
G1 X147.854 Y144.402 E0.14995
G1 X151.461 Y142.616 E0.17212
G1 X154.35 Y141.464 E0.13298
G1 X157.056 Y140.65 E0.12082
G1 X159.617 Y140.14 E0.11163
G1 X162.079 Y139.909 E0.10571
G1 X163.679 Y139.939 E0.06843
G1 X163.679 Y170.709 E1.31559
G1 X163.467 Y170.732 E0.00911
G1 X162.126 Y171.115 E0.05963
G1 X160.871 Y171.724 E0.05963
G1 X159.741 Y172.541 E0.05963
G1 X158.768 Y173.54 E0.05963
G1 X157.982 Y174.693 E0.05963
G1 X157.407 Y175.964 E0.05963
G1 X157.061 Y177.314 E0.05963
G1 X156.953 Y178.705 E0.05963
G1 X157.086 Y180.093 E0.05963
G1 X157.457 Y181.438 E0.05963
G1 X158.055 Y182.698 E0.05963
G1 X158.861 Y183.836 E0.05963
G1 X159.816 Y184.782 E0.05746
G1 X158.833 Y184.868 E0.04217
G1 X158.152 Y185.051 E0.03014
G1 X157.483 Y185.365 E0.03162
G1 X156.834 Y185.821 E0.03391
G1 X156.222 Y186.434 E0.03702
G1 X155.676 Y187.217 E0.04081
G1 X155.234 Y188.17 E0.04491
G1 X154.942 Y189.267 E0.04855
G1 X154.839 Y190.449 E0.05073
G1 X154.942 Y191.631 E0.05073
G1 X155.234 Y192.728 E0.04854
G1 X155.677 Y193.681 E0.04491
G1 X156.223 Y194.464 E0.04081
G1 X156.834 Y195.077 E0.03701
G1 X157.483 Y195.533 E0.03391
G1 X158.153 Y195.846 E0.03162
G1 X158.834 Y196.029 E0.03014
G1 X159.519 Y196.089 E0.02942
G1 X160.205 Y196.029 E0.02943
G1 X160.886 Y195.846 E0.03015
G1 X161.556 Y195.533 E0.03163
G1 X162.205 Y195.077 E0.03391
G1 X162.816 Y194.463 E0.03702
G1 X163.383 Y193.649 E0.04242
G1 X163.677 Y193.757 E0.01339
G1 X163.504 Y195.662 E0.08179
G1 X163.176 Y197.589 E0.08359
G1 X163.044 Y198.1 E0.02258
G1 X162.302 Y200.155 E0.0934
G1 X161.513 Y201.689 E0.07376
G1 X160.798 Y202.674 E0.05202
G1 X160.168 Y203.303 E0.03805
G1 X159.659 Y203.67 E0.02686
G1 X159.134 Y203.933 E0.0251
G1 X158.447 Y204.153 E0.0308
G1 X157.468 Y204.314 E0.04244
G1 X155.782 Y204.337 E0.0721
G1 X154.56 Y204.156 E0.05278
G1 X153.46 Y203.804 E0.04941
G1 X152.066 Y203.096 E0.06683
G1 X150.956 Y202.282 E0.05885
G1 X149.93 Y201.243 E0.06242
G1 X148.806 Y199.687 E0.08208
G1 X148.018 Y198.194 E0.0722
G1 X147.435 Y196.547 E0.07469
G1 X146.95 Y194.566 E0.0872
G1 X146.723 Y192.802 E0.07604
G1 X146.743 Y191.043 E0.0752
G1 X146.915 Y189.763 E0.05521
G1 X147.287 Y188.536 E0.05482
G1 X147.885 Y187.297 E0.05883
G1 X148.723 Y186.092 E0.06275
G1 X149.809 Y184.97 E0.06677
G1 X151.074 Y184.029 E0.06742
G1 X152.51 Y183.29 E0.06905
G1 X153.931 Y182.829 E0.06385
G1 X155.22 Y182.534 E0.05654
G1 X154.525 Y179.374 E0.13829
G1 X153.091 Y179.704 E0.06294
G1 X151.262 Y180.299 E0.08224
G1 X149.385 Y181.262 E0.09018
G1 X147.704 Y182.503 E0.08932
G1 X146.248 Y183.997 E0.0892
G1 X145.108 Y185.626 E0.08501
G1 X144.285 Y187.312 E0.0802
G1 X143.757 Y189.033 E0.077
G1 X143.702 Y189.428 E0.01704
G1 X142.255 Y189.018 E0.06433
G1 X139.712 Y188.05 E0.11631
G1 X137.046 Y186.738 E0.12706
G1 X134.54 Y185.184 E0.12606
G1 X132.243 Y183.418 E0.12391
G1 X130.377 Y181.681 E0.10897
G1 X129.846 Y181.077 E0.03439
G1 X152.974 Y172.649 E1.05249
G1 X151.98 Y169.841 E0.12735
G1 X127.753 Y178.42 E1.09888
G1 X126.48 Y176.38 E0.10279
G1 X125.041 Y173.748 E0.12825
G1 X123.923 Y171.258 E0.1167
G1 X123.368 Y169.574 E0.07581
G1 X152.134 Y168.087 E1.23158
G1 X152.134 Y165.035 E0.13048
G1 E-0.6 F3000
G1 X177.866 Y164.975 F7200
G1 E0.6 F1800
G1 X177.866 Y168.087 E0.13304
G1 X206.632 Y169.574 E1.23158
G1 X206.077 Y171.258 E0.07581
G1 X204.959 Y173.748 E0.1167
G1 X203.52 Y176.38 E0.12825
G1 X202.247 Y178.42 E0.10279
G1 X178.02 Y169.841 E1.09888
G1 X177.026 Y172.649 E0.12735
G1 X200.154 Y181.077 E1.05249
G1 X199.624 Y181.679 E0.03426
G1 X197.761 Y183.415 E0.10891
G1 X195.456 Y185.188 E0.12433
G1 X192.973 Y186.721 E0.12476
G1 X190.326 Y188.04 E0.12642
G1 X188.022 Y188.95 E0.10592
G1 X186.304 Y189.429 E0.07627
G1 X186.248 Y189.019 E0.01766
G1 X185.725 Y187.302 E0.07676
G1 X184.905 Y185.613 E0.08029
G1 X183.773 Y183.992 E0.08454
G1 X182.341 Y182.522 E0.08774
G1 X180.678 Y181.293 E0.0884
G1 X178.813 Y180.329 E0.08976
G1 X176.963 Y179.718 E0.08331
G1 X175.476 Y179.37 E0.0653
G1 X174.78 Y182.534 E0.1385
G1 X176.069 Y182.829 E0.05654
G1 X177.49 Y183.29 E0.06385
G1 X178.926 Y184.029 E0.06905
G1 X180.191 Y184.97 E0.06742
G1 X181.277 Y186.092 E0.06677
G1 X182.115 Y187.297 E0.06275
G1 X182.713 Y188.536 E0.05883
G1 X183.085 Y189.763 E0.05482
G1 X183.257 Y191.043 E0.05521
G1 X183.277 Y192.802 E0.0752
G1 X183.05 Y194.566 E0.07604
G1 X182.565 Y196.547 E0.0872
G1 X181.982 Y198.194 E0.07469
G1 X181.194 Y199.687 E0.0722
G1 X180.07 Y201.243 E0.08208
G1 X179.044 Y202.282 E0.06242
G1 X177.934 Y203.096 E0.05885
G1 X176.54 Y203.804 E0.06683
G1 X175.44 Y204.156 E0.04941
G1 X174.218 Y204.337 E0.05278
G1 X172.532 Y204.314 E0.0721
G1 X171.553 Y204.153 E0.04244
G1 X170.866 Y203.933 E0.0308
G1 X170.341 Y203.67 E0.0251
G1 X169.832 Y203.303 E0.02686
G1 X169.202 Y202.674 E0.03805
G1 X168.487 Y201.689 E0.05202
G1 X167.698 Y200.155 E0.07376
G1 X166.956 Y198.1 E0.0934
G1 X166.824 Y197.589 E0.02258
G1 X166.496 Y195.662 E0.08359
G1 X166.323 Y193.757 E0.08179
G1 X166.617 Y193.649 E0.01339
G1 X167.184 Y194.463 E0.04242
G1 X167.795 Y195.077 E0.03702
G1 X168.444 Y195.533 E0.03391
G1 X169.114 Y195.846 E0.03163
G1 X169.795 Y196.029 E0.03014
G1 X170.481 Y196.089 E0.02942
G1 X171.166 Y196.029 E0.02943
G1 X171.847 Y195.846 E0.03014
G1 X172.517 Y195.533 E0.03162
G1 X173.166 Y195.077 E0.03391
G1 X173.777 Y194.464 E0.03701
G1 X174.323 Y193.681 E0.04081
G1 X174.766 Y192.728 E0.04491
G1 X175.058 Y191.631 E0.04854
G1 X175.161 Y190.449 E0.05073
G1 X175.058 Y189.267 E0.05073
G1 X174.766 Y188.17 E0.04855
G1 X174.324 Y187.217 E0.04491
G1 X173.778 Y186.434 E0.04081
G1 X173.166 Y185.821 E0.03702
G1 X172.517 Y185.365 E0.03391
G1 X171.848 Y185.051 E0.03162
G1 X171.167 Y184.868 E0.03014
G1 X170.184 Y184.782 E0.04217
G1 X171.139 Y183.836 E0.05746
G1 X171.945 Y182.698 E0.05963
G1 X172.543 Y181.438 E0.05963
G1 X172.914 Y180.093 E0.05963
G1 X173.047 Y178.705 E0.05963
G1 X172.939 Y177.314 E0.05963
G1 X172.592 Y175.964 E0.05963
G1 X172.018 Y174.693 E0.05963
G1 X171.232 Y173.54 E0.05963
G1 X170.259 Y172.541 E0.05963
G1 X169.129 Y171.724 E0.05963
G1 X167.874 Y171.115 E0.05963
G1 X166.533 Y170.732 E0.05963
G1 X166.321 Y170.709 E0.00911
G1 X166.321 Y139.981 E1.31381
G1 X167.905 Y140 E0.06773
G1 X170.974 Y140.351 E0.13207
G1 X174.131 Y141.047 E0.13823
G1 X177.052 Y141.984 E0.13115
G1 X180.048 Y143.232 E0.13875
G1 X183.262 Y144.89 E0.15462
G1 X186.508 Y146.931 E0.16397
G1 X189.145 Y148.919 E0.14118
G1 X191.373 Y150.903 E0.12757
G1 X193.321 Y152.971 E0.12145
G1 X194.947 Y155.084 E0.11398
G1 X196.67 Y157.86 E0.13971
G1 X197.583 Y159.704 E0.08799
G1 X198.195 Y161.525 E0.08214
G1 X199.183 Y166.077 E0.19916
G1 X177.925 Y164.978 E0.91007
G1 E-0.6 F3000
G1 X127.611 Y165.335 F7200
G1 E0.6 F1800
G1 X129.852 Y165.769 E0.09761
G1 X129.827 Y166.129 E0.01541
G1 X122.598 Y166.503 E0.30951
G1 X122.498 Y166.038 E0.02033
G1 X122.178 Y163.269 E0.11916
G1 X122.072 Y159.478 E0.16215
G1 X122.268 Y155.725 E0.16069
G1 X122.749 Y152.079 E0.15725
G1 X123.519 Y148.496 E0.15667
G1 X124.51 Y145.219 E0.14637
G1 X125.71 Y142.202 E0.13882
G1 X127.228 Y139.09 E0.14807
G1 X129.641 Y134.697 E0.21429
G1 X131.711 Y131.457 E0.16436
G1 X134.121 Y128.29 E0.17015
G1 X136.471 Y125.662 E0.15075
G1 X193.529 Y125.662 E2.43952
G1 X193.78 Y125.943 E0.01614
G1 X195.879 Y128.29 E0.13461
G1 X198.289 Y131.457 E0.17015
G1 X200.359 Y134.697 E0.16436
G1 X202.772 Y139.09 E0.21429
G1 X204.29 Y142.202 E0.14807
G1 X205.49 Y145.219 E0.13882
G1 X206.481 Y148.496 E0.14637
G1 X207.251 Y152.079 E0.15667
G1 X207.732 Y155.725 E0.15725
G1 X207.928 Y159.478 E0.16069
G1 X207.822 Y163.269 E0.16215
G1 X207.502 Y166.038 E0.11916
G1 X207.402 Y166.503 E0.02033
G1 X200.173 Y166.129 E0.30951
G1 X200.148 Y165.769 E0.01541
G1 X202.389 Y165.335 E0.09761
G1 X200.983 Y160.037 E0.23436
G1 X200.291 Y158.082 E0.08864
G1 X199.304 Y156.157 E0.09252
G1 X197.388 Y153.122 E0.15342
G1 X195.523 Y150.714 E0.13023
G1 X193.323 Y148.381 E0.13712
G1 X190.875 Y146.234 E0.13922
G1 X188.133 Y144.228 E0.14525
G1 X184.891 Y142.227 E0.16289
G1 X181.365 Y140.362 E0.17052
G1 X178.156 Y138.945 E0.15001
G1 X175.139 Y137.897 E0.13657
G1 X172.255 Y137.179 E0.12702
G1 X169.466 Y136.77 E0.12052
G1 X166.752 Y136.655 E0.11616
G1 X166.259 Y136.679 E0.02108
G1 X165 Y136.739 E0.05391
G1 X163.248 Y136.655 E0.07499
G1 X160.534 Y136.77 E0.11616
G1 X157.745 Y137.179 E0.12052
G1 X154.861 Y137.897 E0.12702
G1 X151.844 Y138.945 E0.13657
G1 X148.635 Y140.362 E0.15001
G1 X145.109 Y142.227 E0.17054
G1 X141.813 Y144.265 E0.16565
G1 X139.125 Y146.234 E0.14249
G1 X136.677 Y148.381 E0.1392
G1 X134.477 Y150.714 E0.13712
G1 X132.612 Y153.123 E0.13023
G1 X130.696 Y156.157 E0.15342
G1 X129.709 Y158.082 E0.09252
G1 X129.017 Y160.037 E0.08864
G1 X127.627 Y165.277 E0.2318
G1 X128.143 Y165.001 F7200
G1 F1800
G1 X130.479 Y165.454 E0.10175
G1 X131.737 Y160.737 E0.20873
G1 X132.395 Y158.959 E0.08107
G1 X133.517 Y156.893 E0.10051
G1 X135.284 Y154.214 E0.13722
G1 X137.256 Y151.809 E0.13295
G1 X139.383 Y149.697 E0.1282
G1 X141.745 Y147.756 E0.13068
G1 X144.594 Y145.804 E0.14765
G1 X147.65 Y144.024 E0.15124
G1 X151.287 Y142.224 E0.17347
G1 X154.209 Y141.059 E0.13451
G1 X156.953 Y140.234 E0.1225
G1 X159.555 Y139.716 E0.11345
G1 X162.062 Y139.48 E0.10768
G1 X164.107 Y139.519 E0.08745
G1 X164.107 Y171.095 E1.35007
G1 X163.549 Y171.154 E0.02401
G1 X162.28 Y171.517 E0.05645
G1 X161.092 Y172.093 E0.05645
G1 X160.022 Y172.866 E0.05645
G1 X159.101 Y173.812 E0.05645
G1 X158.357 Y174.903 E0.05645
G1 X157.813 Y176.106 E0.05645
G1 X157.485 Y177.385 E0.05645
G1 X157.383 Y178.701 E0.05645
G1 X157.509 Y180.015 E0.05645
G1 X157.86 Y181.288 E0.05645
G1 X158.426 Y182.481 E0.05645
G1 X159.189 Y183.558 E0.05645
G1 X160.127 Y184.487 E0.05645
G1 X161.32 Y185.316 E0.06213
G1 X161.134 Y185.64 E0.01599
G1 X160.738 Y185.455 E0.0187
G1 X160.129 Y185.292 E0.02693
G1 X159.519 Y185.238 E0.0262
G1 X158.908 Y185.292 E0.0262
G1 X158.3 Y185.455 E0.02693
G1 X157.698 Y185.737 E0.02841
G1 X157.111 Y186.15 E0.0307
G1 X156.553 Y186.71 E0.03381
