; generated by SuperSlicer 2.3.57 on 2022-02-07 at 22:14:38 UTC


;
;

;
;
; 

; external perimeters extrusion width = 0.40mm
; perimeters extrusion width = 0.40mm
; infill extrusion width = 0.72mm
; solid infill extrusion width = 0.40mm
; top infill extrusion width = 0.40mm
; support material extrusion width = 0.40mm
; first layer extrusion width = 0.52mm


;TYPE:Custom
START_PRINT T_BED=60 T_EXTRUDER=200
M107
G21 ; set units to millimeters
G90 ; use absolute coordinates
M83 ; use relative distances for extrusion
; Filament gcode
M104 S200 ; set temperature
M109 S200 ; set temperature and wait for it to be reached
M190 S60 ; set bed temperature and wait for it to be reached
;LAYER_CHANGE
;Z:0.24
;HEIGHT:0.24
G1 E-0.6 F3000
G1 Z0.24 F9000
G1 X155.174 Y157.529
G1 E0.6 F1800
;TYPE:Skirt
;WIDTH:0.52
G1 F600
G1 X154.216 Y158.612 E0.06755
G1 X153.579 Y159.567 E0.0537
G1 X152.96 Y160.812 E0.06501
G1 X152.576 Y161.903 E0.05403
G1 X152.249 Y163.401 E0.07169
G1 X152.136 Y164.876 E0.06918
G1 X152.219 Y166.31 E0.06712
G1 X152.427 Y167.471 E0.05516
G1 X152.861 Y168.855 E0.06779
G1 X153.329 Y169.865 E0.05205
G1 X154.055 Y171.017 E0.06363
G1 X155.272 Y172.356 E0.08461
G1 X156.501 Y173.268 E0.07152
G1 X158.081 Y174.014 E0.08167
G1 X159.838 Y174.402 E0.08412
G1 X169.603 Y174.841 E0.45694
G1 X170.583 Y174.713 E0.0462
G1 X171.693 Y174.411 E0.05378
G1 X172.925 Y173.868 E0.06294
G1 X173.878 Y173.268 E0.05262
G1 X175.267 Y172.015 E0.08744
G1 X176.376 Y170.509 E0.08748
G1 X176.816 Y169.688 E0.04352
G1 X177.29 Y168.523 E0.05879
G1 X177.738 Y166.684 E0.08847
G1 X177.852 Y164.51 E0.10179
G1 X177.604 Y162.66 E0.08723
G1 X177.351 Y161.74 E0.04459
G1 X176.891 Y160.574 E0.05859
G1 X175.956 Y158.996 E0.08575
G1 X175.081 Y157.978 E0.06273
G1 X173.842 Y156.949 E0.07533
G1 X172.7 Y156.303 E0.0613
G1 X171.23 Y155.784 E0.0729
G1 X169.887 Y155.574 E0.06356
G1 X160.844 Y155.141 E0.42318
G1 X159.609 Y155.251 E0.05798
G1 X158.431 Y155.543 E0.05675
G1 X157.358 Y155.985 E0.05421
G1 X156.104 Y156.745 E0.06854
G1 X155.22 Y157.491 E0.05409
G1 X155.523 Y157.848 F9000
G1 F600
G1 X155.49 Y157.875 E0.00199
G1 X154.576 Y158.912 E0.06461
G1 X153.977 Y159.816 E0.05071
G1 X153.374 Y161.036 E0.06359
G1 X152.922 Y162.414 E0.06779
G1 X152.71 Y163.488 E0.05117
G1 X152.604 Y164.895 E0.06596
G1 X152.689 Y166.299 E0.06578
G1 X152.888 Y167.381 E0.05143
G1 X153.312 Y168.721 E0.06567
G1 X153.758 Y169.671 E0.04909
G1 X154.487 Y170.814 E0.06339
G1 X155.69 Y172.102 E0.08237
G1 X157.035 Y173.036 E0.07655
G1 X158.355 Y173.61 E0.06727
G1 X159.933 Y173.941 E0.07537
G1 X169.566 Y174.373 E0.45079
G1 X170.593 Y174.231 E0.04846
G1 X171.841 Y173.857 E0.0609
G1 X172.831 Y173.386 E0.05126
G1 X173.674 Y172.837 E0.047
G1 X174.945 Y171.672 E0.08062
G1 X175.992 Y170.237 E0.08304
G1 X176.394 Y169.483 E0.03995
G1 X176.854 Y168.349 E0.05719
G1 X177.282 Y166.566 E0.08573
G1 X177.383 Y164.507 E0.09638
G1 X177.14 Y162.733 E0.08368
G1 X176.901 Y161.872 E0.04179
G1 X176.448 Y160.733 E0.05728
G1 X175.526 Y159.202 E0.08354
G1 X174.495 Y158.066 E0.07171
G1 X173.543 Y157.313 E0.05675
G1 X172.48 Y156.718 E0.05695
G1 X171.064 Y156.225 E0.07007
G1 X169.849 Y156.041 E0.05745
G1 X160.841 Y155.61 E0.4216
G1 X159.68 Y155.714 E0.05449
G1 X158.567 Y155.992 E0.05363
G1 X157.564 Y156.407 E0.05073
G1 X156.36 Y157.138 E0.06587
G1 X155.569 Y157.809 E0.04849
G1 E-0.6 F3000
G1 X160 Y162.874 F9000
G1 E0.6 F1800
;TYPE:Internal perimeter
G1 F600
G1 X159.793 Y163.08 E0.01363
G1 X159.619 Y163.32 E0.01384
G1 X159.48 Y163.581 E0.01384
G1 X159.37 Y163.859 E0.01395
G1 X159.29 Y164.149 E0.01411
G1 X159.237 Y164.449 E0.01424
G1 X159.212 Y164.755 E0.01431
G1 X159.215 Y165.06 E0.0143
G1 X159.245 Y165.363 E0.01421
G1 X159.305 Y165.658 E0.01407
G1 X159.395 Y165.942 E0.01391
G1 X159.517 Y166.211 E0.01383
G1 X159.676 Y166.46 E0.0138
G1 X159.865 Y166.669 E0.01318
G1 X160.064 Y166.824 E0.01178
G1 X160.268 Y166.932 E0.0108
G1 X160.476 Y167 E0.01024
G1 X160.672 Y167.026 E0.00922
G1 X160.809 Y167.027 E0.00641
G1 X161.006 Y167.002 E0.00931
G1 X161.22 Y166.936 E0.01047
G1 X161.434 Y166.826 E0.01122
G1 X161.645 Y166.664 E0.01243
G1 X161.845 Y166.448 E0.01378
G1 X162.01 Y166.202 E0.01384
G1 X162.142 Y165.937 E0.01386
G1 X162.244 Y165.656 E0.01399
G1 X162.318 Y165.362 E0.01414
G1 X162.364 Y165.06 E0.01427
G1 X162.382 Y164.755 E0.01432
G1 X162.373 Y164.449 E0.01429
G1 X162.335 Y164.148 E0.01418
G1 X162.269 Y163.856 E0.01403
G1 X162.171 Y163.575 E0.01388
G1 X162.04 Y163.31 E0.01383
G1 X161.872 Y163.068 E0.01379
G1 X161.68 Y162.872 E0.0128
G1 X161.48 Y162.73 E0.0115
G1 X161.275 Y162.632 E0.01063
G1 X161.065 Y162.574 E0.01015
G1 X160.853 Y162.554 E0.00996
G1 X160.64 Y162.572 E0.01002
G1 X160.426 Y162.628 E0.01034
G1 X160.212 Y162.727 E0.01099
G1 X160.049 Y162.84 E0.0093
G1 E-0.6 F3000
G1 X159.693 Y165.13 F9000
G1 E0.6 F1800
;TYPE:External perimeter
G1 F600
G1 X159.709 Y165.293 E0.00767
G1 X159.759 Y165.541 E0.01182
G1 X159.833 Y165.773 E0.01141
G1 X159.93 Y165.987 E0.01094
G1 X160.05 Y166.175 E0.01045
G1 X160.186 Y166.325 E0.00946
G1 X160.319 Y166.43 E0.00793
G1 X160.451 Y166.499 E0.00695
G1 X160.581 Y166.541 E0.00639
G1 X160.705 Y166.558 E0.00586
G1 X160.781 Y166.558 E0.00354
G1 X160.907 Y166.542 E0.00595
G1 X161.042 Y166.501 E0.00662
G1 X161.182 Y166.428 E0.00737
G1 X161.329 Y166.316 E0.00861
G1 X161.477 Y166.156 E0.01019
G1 X161.604 Y165.966 E0.01071
G1 X161.711 Y165.752 E0.01118
G1 X161.796 Y165.518 E0.01162
G1 X161.858 Y165.27 E0.01199
G1 X161.897 Y165.011 E0.01223
G1 X161.913 Y164.748 E0.01232
G1 X161.905 Y164.486 E0.01227
G1 X161.873 Y164.23 E0.01206
G1 X161.818 Y163.985 E0.01173
G1 X161.738 Y163.757 E0.0113
G1 X161.636 Y163.549 E0.01083
G1 X161.51 Y163.368 E0.01032
G1 X161.374 Y163.23 E0.00903
G1 X161.241 Y163.135 E0.00765
G1 X161.11 Y163.072 E0.00678
G1 X160.98 Y163.037 E0.0063
G1 X160.85 Y163.024 E0.00611
G1 X160.719 Y163.035 E0.00617
G1 X160.585 Y163.071 E0.00649
G1 X160.446 Y163.135 E0.00714
G1 X160.301 Y163.235 E0.00825
G1 X160.15 Y163.386 E0.00994
G1 X160.017 Y163.569 E0.01059
G1 X159.906 Y163.778 E0.01106
G1 X159.815 Y164.007 E0.01152
G1 X159.748 Y164.253 E0.01191
G1 X159.703 Y164.509 E0.01218
G1 X159.681 Y164.772 E0.01232
G1 X159.683 Y165.035 E0.0123
G1 X159.687 Y165.07 E0.00165
;WIPE_START
G1 X159.56 Y165.226 F9000
;WIPE_END
G1 E-0.6 F3000
G1 X160.43 Y161.659 F9000
G1 E0.6 F1800
;TYPE:Internal perimeter
G1 F600
G1 X160.473 Y161.643 E0.00215
G1 X160.672 Y161.595 E0.00957
G1 X160.869 Y161.573 E0.00925
G1 X161.063 Y161.577 E0.0091
G1 X161.256 Y161.607 E0.00911
G1 X161.447 Y161.663 E0.00929
G1 X161.635 Y161.745 E0.00962
G1 X161.821 Y161.855 E0.01008
G1 X162.002 Y161.993 E0.01064
G1 X162.175 Y162.16 E0.01126
G1 X162.34 Y162.355 E0.01191
G1 X162.492 Y162.576 E0.01256
G1 X162.629 Y162.822 E0.01318
G1 X162.749 Y163.091 E0.01377
G1 X162.849 Y163.38 E0.01429
G1 X162.928 Y163.685 E0.01474
G1 X162.985 Y164.004 E0.01511
G1 X163.017 Y164.331 E0.01539
G1 X163.025 Y164.665 E0.01558
G1 X163.009 Y164.999 E0.01567
G1 X162.968 Y165.332 E0.01566
G1 X162.903 Y165.658 E0.01555
G1 X162.815 Y165.975 E0.01535
G1 X162.705 Y166.277 E0.01505
G1 X162.575 Y166.563 E0.01466
G1 X162.427 Y166.828 E0.01419
G1 X162.264 Y167.07 E0.01366
G1 X162.087 Y167.287 E0.01307
G1 X161.901 Y167.476 E0.01243
G1 X161.706 Y167.637 E0.01178
G1 X161.508 Y167.769 E0.01114
G1 X161.307 Y167.871 E0.01053
G1 X161.107 Y167.945 E0.00999
G1 X160.908 Y167.991 E0.00955
G1 X160.708 Y168.012 E0.00938
G1 X160.545 Y168.008 E0.00765
G1 X160.349 Y167.98 E0.00924
G1 X160.158 Y167.926 E0.00927
G1 X159.969 Y167.845 E0.0096
G1 X159.784 Y167.737 E0.01005
G1 X159.602 Y167.6 E0.0106
G1 X159.428 Y167.436 E0.01122
G1 X159.263 Y167.243 E0.01187
G1 X159.11 Y167.023 E0.01252
G1 X158.972 Y166.778 E0.01314
G1 X158.851 Y166.511 E0.01373
G1 X158.749 Y166.223 E0.01426
G1 X158.669 Y165.919 E0.01472
G1 X158.611 Y165.601 E0.01509
G1 X158.577 Y165.274 E0.01538
G1 X158.567 Y164.941 E0.01557
G1 X158.582 Y164.606 E0.01567
G1 X158.622 Y164.273 E0.01567
G1 X158.685 Y163.946 E0.01556
G1 X158.772 Y163.629 E0.01536
G1 X158.88 Y163.326 E0.01507
G1 X159.009 Y163.039 E0.01469
G1 X159.155 Y162.772 E0.01423
G1 X159.318 Y162.529 E0.01369
G1 X159.494 Y162.31 E0.01311
G1 X159.68 Y162.119 E0.01247
G1 X159.874 Y161.957 E0.01182
G1 X160.072 Y161.823 E0.01118
G1 X160.273 Y161.719 E0.01056
G1 X160.374 Y161.681 E0.00506
G1 X160.208 Y161.242 F9000
;TYPE:External perimeter
G1 F600
G1 X160.335 Y161.195 E0.00632
G1 X160.591 Y161.132 E0.01233
G1 X160.848 Y161.104 E0.01209
G1 X161.104 Y161.11 E0.01198
G1 X161.358 Y161.149 E0.01198
G1 X161.607 Y161.222 E0.01212
G1 X161.849 Y161.327 E0.01237
G1 X162.083 Y161.466 E0.01272
G1 X162.307 Y161.637 E0.01315
G1 X162.517 Y161.839 E0.01364
G1 X162.713 Y162.07 E0.01415
G1 X162.891 Y162.329 E0.01468
G1 X163.049 Y162.613 E0.01519
G1 X163.185 Y162.919 E0.01567
G1 X163.298 Y163.244 E0.01611
G1 X163.386 Y163.586 E0.01649
G1 X163.449 Y163.94 E0.0168
G1 X163.485 Y164.303 E0.01704
G1 X163.494 Y164.67 E0.01721
G1 X163.476 Y165.04 E0.01728
G1 X163.431 Y165.406 E0.01727
G1 X163.359 Y165.767 E0.01718
G1 X163.261 Y166.117 E0.017
G1 X163.139 Y166.454 E0.01675
G1 X162.994 Y166.774 E0.01642
G1 X162.827 Y167.074 E0.01603
G1 X162.64 Y167.35 E0.01558
G1 X162.436 Y167.6 E0.01509
G1 X162.217 Y167.822 E0.01458
G1 X161.986 Y168.014 E0.01405
G1 X161.744 Y168.174 E0.01354
G1 X161.496 Y168.301 E0.01307
G1 X161.242 Y168.395 E0.01265
G1 X160.985 Y168.454 E0.01231
G1 X160.727 Y168.481 E0.01213
G1 X160.506 Y168.476 E0.01035
G1 X160.251 Y168.439 E0.01203
G1 X160.002 Y168.368 E0.01211
G1 X159.759 Y168.264 E0.01235
G1 X159.524 Y168.128 E0.0127
G1 X159.3 Y167.959 E0.01312
G1 X159.088 Y167.759 E0.01361
G1 X158.892 Y167.53 E0.01412
G1 X158.713 Y167.273 E0.01464
G1 X158.553 Y166.99 E0.01516
G1 X158.416 Y166.685 E0.01564
G1 X158.301 Y166.361 E0.01608
G1 X158.211 Y166.021 E0.01647
G1 X158.147 Y165.667 E0.01679
G1 X158.109 Y165.305 E0.01703
G1 X158.098 Y164.937 E0.0172
G1 X158.115 Y164.568 E0.01728
G1 X158.158 Y164.201 E0.01728
G1 X158.228 Y163.84 E0.01719
G1 X158.324 Y163.489 E0.01702
G1 X158.445 Y163.151 E0.01677
G1 X158.589 Y162.83 E0.01644
G1 X158.754 Y162.529 E0.01605
G1 X158.94 Y162.251 E0.01561
G1 X159.143 Y161.999 E0.01512
G1 X159.361 Y161.775 E0.01461
G1 X159.592 Y161.582 E0.01409
G1 X159.832 Y161.42 E0.01357
G1 X160.081 Y161.29 E0.01309
G1 X160.152 Y161.264 E0.00355
;WIPE_START
G1 X160.313 Y161.328 F9000
;WIPE_END
G1 X160.551 Y162.114
;TYPE:Gap fill
;WIDTH:0.551506
G1 F600
G1 X160.461 Y162.141 E0.00465
;WIDTH:0.524322
G1 X160.295 Y162.206 E0.00842
;WIDTH:0.48601
G1 X160.13 Y162.297 E0.00818
;WIDTH:0.449861
G1 X159.996 Y162.383 E0.00632
G1 X159.954 Y162.415 E0.00208
G1 X159.867 Y162.489 E0.00456
;WIDTH:0.381647
G1 X159.748 Y162.595 E0.00524
G1 X159.68 Y162.67 E0.00333
;WIDTH:0.35068
G1 X159.612 Y162.745 E0.00302
G1 X159.519 Y162.86 E0.00443
;WIDTH:0.32069
G1 X159.454 Y162.954 E0.00306
G1 X159.396 Y163.044 E0.00288
;WIDTH:0.29176
G1 X159.309 Y163.189 E0.00405
G1 X159.248 Y163.313 E0.00333
G1 X159.181 Y163.45 E0.00364
G1 X159.13 Y163.588 E0.00353
;WIDTH:0.262056
G1 X159.066 Y163.763 E0.00391
G1 X159.031 Y163.891 E0.00279
G1 X158.982 Y164.075 E0.004
G1 X158.958 Y164.203 E0.00275
G1 X158.936 Y164.322 E0.00254
G1 X158.923 Y164.414 E0.00194
G1 X158.912 Y164.523 E0.00231
G1 X158.901 Y164.632 E0.00231
G1 X158.894 Y164.747 E0.00243
G1 X158.891 Y164.943 E0.00412
G1 X158.893 Y165.083 E0.00293
G1 X158.904 Y165.252 E0.00356
G1 X158.922 Y165.417 E0.00349
G1 X158.942 Y165.554 E0.0029
;WIDTH:0.292026
G1 X158.98 Y165.748 E0.00476
G1 X159.004 Y165.844 E0.00236
G1 X159.035 Y165.952 E0.00269
;WIDTH:0.319349
G1 X159.087 Y166.119 E0.00468
G1 X159.138 Y166.246 E0.00368
;WIDTH:0.351634
G1 X159.2 Y166.395 E0.00483
G1 X159.257 Y166.5 E0.00357
;WIDTH:0.387322
G1 X159.314 Y166.605 E0.00399
G1 X159.376 Y166.706 E0.00399
G1 X159.45 Y166.809 E0.00426
;WIDTH:0.435984
G1 X159.57 Y166.96 E0.0074
G1 X159.594 Y166.987 E0.00137
G1 X159.67 Y167.06 E0.00404
;WIDTH:0.499601
G1 X159.806 Y167.185 E0.00828
G1 X159.897 Y167.252 E0.00502
;WIDTH:0.547689
G1 X160.065 Y167.357 E0.0098
G1 X160.186 Y167.413 E0.00664
;WIDTH:0.59317
G1 X160.344 Y167.47 E0.0091
G1 X160.452 Y167.495 E0.00598
G1 X160.619 Y167.517 E0.00906
G1 X160.689 Y167.519 E0.00379
G1 X160.855 Y167.508 E0.00902
G1 X160.97 Y167.487 E0.00627
;WIDTH:0.556622
G1 X161.125 Y167.447 E0.00808
;WIDTH:0.526587
G1 X161.283 Y167.383 E0.00808
;WIDTH:0.488251
G1 X161.452 Y167.295 E0.00834
G1 X161.54 Y167.237 E0.00458
;WIDTH:0.425256
G1 X161.66 Y167.153 E0.00544
G1 X161.801 Y167.03 E0.00699
;WIDTH:0.373505
G1 X161.903 Y166.929 E0.00462
G1 X161.97 Y166.852 E0.00327
G1 X162.041 Y166.762 E0.00368
;WIDTH:0.317143
G1 X162.131 Y166.646 E0.0039
G1 X162.203 Y166.528 E0.00365
G1 X162.301 Y166.363 E0.00511
;WIDTH:0.284655
G1 X162.351 Y166.258 E0.0027
G1 X162.401 Y166.153 E0.0027
G1 X162.441 Y166.058 E0.0024
G1 X162.507 Y165.876 E0.00451
G1 X162.549 Y165.744 E0.00324
;WIDTH:0.257586
G1 X162.592 Y165.584 E0.00339
;WIDTH:0.255555
G1 X162.628 Y165.42 E0.00343
G1 X162.653 Y165.281 E0.00286
G1 X162.679 Y165.089 E0.00395
G1 X162.69 Y164.972 E0.0024
G1 X162.695 Y164.868 E0.00212
G1 X162.701 Y164.755 E0.00231
G1 X162.702 Y164.661 E0.00192
G1 X162.699 Y164.545 E0.00236
G1 X162.69 Y164.352 E0.00394
G1 X162.676 Y164.224 E0.00261
;WIDTH:0.282216
G1 X162.654 Y164.049 E0.00406
G1 X162.626 Y163.909 E0.00329
G1 X162.594 Y163.755 E0.00361
G1 X162.553 Y163.619 E0.00328
;WIDTH:0.325326
G1 X162.493 Y163.431 E0.00539
G1 X162.451 Y163.329 E0.00303
;WIDTH:0.354025
G1 X162.408 Y163.226 E0.00335
G1 X162.353 Y163.112 E0.00383
G1 X162.286 Y162.994 E0.0041
;WIDTH:0.39602
G1 X162.184 Y162.829 E0.00667
G1 X162.153 Y162.786 E0.00181
G1 X162.08 Y162.697 E0.00395
;WIDTH:0.457916
G1 X161.967 Y162.565 E0.00707
G1 X161.856 Y162.46 E0.00619
;WIDTH:0.510248
G1 X161.707 Y162.337 E0.00884
;WIDTH:0.542905
G1 X161.557 Y162.246 E0.00861
;WIDTH:0.569103
G1 X161.416 Y162.173 E0.0082
G1 X161.279 Y162.125 E0.0075
;WIDTH:0.602969
G1 X161.13 Y162.086 E0.00847
G1 X161.02 Y162.072 E0.00611
G1 X160.832 Y162.067 E0.01033
G1 X160.756 Y162.075 E0.00422
G1 X160.609 Y162.1 E0.00822
G1 E-0.6 F3000
G1 X167.778 Y164.274 F9000
G1 E0.6 F1800
;TYPE:Internal perimeter
;WIDTH:0.52
G1 F600
G1 X167.698 Y164.565 E0.01411
G1 X167.645 Y164.865 E0.01424
G1 X167.62 Y165.17 E0.01431
G1 X167.622 Y165.476 E0.0143
G1 X167.653 Y165.778 E0.01421
G1 X167.712 Y166.073 E0.01407
G1 X167.802 Y166.357 E0.01391
G1 X167.925 Y166.626 E0.01383
G1 X168.084 Y166.875 E0.0138
G1 X168.273 Y167.085 E0.01318
G1 X168.471 Y167.24 E0.01178
G1 X168.675 Y167.348 E0.0108
G1 X168.884 Y167.415 E0.01024
G1 X169.079 Y167.442 E0.00922
G1 X169.216 Y167.442 E0.00641
G1 X169.414 Y167.417 E0.00931
G1 X169.628 Y167.351 E0.01047
G1 X169.841 Y167.241 E0.01122
G1 X170.053 Y167.08 E0.01243
G1 X170.253 Y166.863 E0.01378
G1 X170.418 Y166.618 E0.01384
G1 X170.55 Y166.352 E0.01386
G1 X170.652 Y166.071 E0.01399
G1 X170.726 Y165.777 E0.01414
G1 X170.771 Y165.476 E0.01427
G1 X170.79 Y165.17 E0.01432
G1 X170.78 Y164.865 E0.01429
G1 X170.743 Y164.564 E0.01418
G1 X170.676 Y164.271 E0.01403
G1 X170.579 Y163.99 E0.01388
G1 X170.448 Y163.725 E0.01383
G1 X170.279 Y163.483 E0.01379
G1 X170.088 Y163.288 E0.0128
G1 X169.887 Y163.145 E0.0115
G1 X169.682 Y163.047 E0.01063
G1 X169.473 Y162.989 E0.01015
G1 X169.261 Y162.969 E0.00996
G1 X169.047 Y162.987 E0.01002
G1 X168.833 Y163.043 E0.01034
G1 X168.62 Y163.142 E0.01099
G1 X168.407 Y163.29 E0.0121
G1 X168.201 Y163.495 E0.01363
G1 X168.027 Y163.735 E0.01384
G1 X167.887 Y163.996 E0.01384
G1 X167.8 Y164.218 E0.01115
G1 E-0.6 F3000
G1 X170.162 Y166.047 F9000
G1 E0.6 F1800
;TYPE:External perimeter
G1 F600
G1 X170.203 Y165.934 E0.00562
G1 X170.266 Y165.685 E0.01199
G1 X170.305 Y165.426 E0.01223
G1 X170.321 Y165.163 E0.01232
G1 X170.313 Y164.901 E0.01227
G1 X170.281 Y164.645 E0.01206
G1 X170.225 Y164.4 E0.01173
G1 X170.146 Y164.172 E0.0113
G1 X170.043 Y163.964 E0.01083
G1 X169.917 Y163.783 E0.01032
G1 X169.782 Y163.645 E0.00903
G1 X169.649 Y163.55 E0.00765
G1 X169.518 Y163.488 E0.00678
G1 X169.388 Y163.452 E0.0063
G1 X169.258 Y163.44 E0.00611
G1 X169.126 Y163.45 E0.00617
G1 X168.992 Y163.486 E0.00649
