; generated by SuperSlicer 2.3.57 on 2022-02-05 at 17:47:03 UTC


;
;

;
;
; 

; external perimeters extrusion width = 0.40mm
; perimeters extrusion width = 0.45mm
; infill extrusion width = 0.72mm
; solid infill extrusion width = 0.56mm
; top infill extrusion width = 0.40mm
; first layer extrusion width = 0.48mm

; external perimeters extrusion width = 0.40mm
; perimeters extrusion width = 0.45mm
; infill extrusion width = 0.72mm
; solid infill extrusion width = 0.56mm
; top infill extrusion width = 0.40mm
; first layer extrusion width = 0.48mm

; external perimeters extrusion width = 0.40mm
; perimeters extrusion width = 0.45mm
; infill extrusion width = 0.72mm
; solid infill extrusion width = 0.56mm
; top infill extrusion width = 0.40mm
; first layer extrusion width = 0.48mm

; external perimeters extrusion width = 0.40mm
; perimeters extrusion width = 0.45mm
; infill extrusion width = 0.72mm
; solid infill extrusion width = 0.56mm
; top infill extrusion width = 0.40mm
; first layer extrusion width = 0.48mm

; external perimeters extrusion width = 0.40mm
; perimeters extrusion width = 0.45mm
; infill extrusion width = 0.72mm
; solid infill extrusion width = 0.56mm
; top infill extrusion width = 0.40mm
; first layer extrusion width = 0.48mm

; object:{"name":"Part1-Blue","id":"Part1-Blue.STL id:0 copy 0","object_center":[165.000000,165.000000,0.000000],"boundingbox_center":[165.000000,165.000000,7.500000],"boundingbox_size":[129.422516,125.000000,15.000000]}
; plater:{"center":[165.000000,165.000000,0.000000],"boundingbox_center":[165.000000,165.000000,7.500000],"boundingbox_size":[129.422516,125.000000,15.000000]}

;TYPE:Custom
START_PRINT T_BED=60 T_EXTRUDER=200
M107
G21 ; set units to millimeters
G90 ; use absolute coordinates
M83 ; use relative distances for extrusion
; Filament gcode
M104 S200 ; set temperature
M109 S200 ; set temperature and wait for it to be reached
M190 S60 ; set bed temperature and wait for it to be reached
;LAYER_CHANGE
;Z:0.24
;HEIGHT:0.24
G1 E-0.6 F3000
G1 Z0.24 F9000
; INIT printing object Part1-Blue.STL id:0 copy 0
; printing object Part1-Blue.STL id:0 copy 0
G1 X155.093 Y109.567
G1 E0.6 F1800
;TYPE:Internal perimeter
;WIDTH:0.48
G1 X156.64 Y107.488 E0.11081
G1 X158.007 Y106.183 E0.08079
G1 X159.573 Y105.126 E0.08079
G1 X161.295 Y104.347 E0.08079
G1 X163.122 Y103.867 E0.08079
G1 X165 Y103.702 E0.0806
G1 X165.312 Y103.729 E0.01337
G1 X166.878 Y103.867 E0.06722
G1 X168.705 Y104.347 E0.08079
G1 X170.427 Y105.126 E0.08079
G1 X171.993 Y106.183 E0.08079
G1 X173.36 Y107.488 E0.08079
G1 X174.907 Y109.567 E0.11081
G1 X200.347 Y109.567 E1.08771
G1 X201.796 Y109.69 E0.06214
G1 X203.153 Y110.043 E0.05996
G1 X204.431 Y110.62 E0.05996
G1 X205.593 Y111.404 E0.05996
G1 X206.607 Y112.374 E0.05996
G1 X207.442 Y113.5 E0.05996
G1 X208.075 Y114.751 E0.05996
G1 X208.488 Y116.092 E0.05996
G1 X208.669 Y117.482 E0.05996
G1 X208.612 Y118.884 E0.05996
G1 X208.184 Y120.892 E0.0878
G1 X212.967 Y127.177 E0.33767
G1 X216.943 Y133.303 E0.31228
G1 X220.451 Y139.709 E0.31228
G1 X223.472 Y146.359 E0.31228
G1 X225.984 Y153.207 E0.31185
G1 X227.415 Y158.579 E0.2377
G1 X228.261 Y164.064 E0.23728
G1 X228.513 Y169.608 E0.23728
G1 X228.168 Y175.147 E0.23728
G1 X227.231 Y180.617 E0.23728
G1 X225.712 Y185.955 E0.23728
G1 X223.628 Y191.099 E0.23728
G1 X221.005 Y195.989 E0.23728
G1 X217.87 Y200.574 E0.23747
G1 X213.947 Y205.231 E0.26033
G1 X209.606 Y209.507 E0.26052
G1 X204.888 Y213.362 E0.26052
G1 X199.832 Y216.764 E0.26052
G1 X194.483 Y219.682 E0.26052
G1 X188.887 Y222.092 E0.26052
G1 X183.091 Y223.973 E0.26052
G1 X177.146 Y225.308 E0.26052
G1 X171.103 Y226.087 E0.26052
G1 X165 Y226.302 E0.26109
G1 X158.897 Y226.087 E0.26109
G1 X152.854 Y225.308 E0.26052
G1 X146.909 Y223.973 E0.26052
G1 X141.113 Y222.092 E0.26052
G1 X135.517 Y219.682 E0.26052
G1 X130.168 Y216.764 E0.26052
G1 X125.112 Y213.362 E0.26052
G1 X120.394 Y209.507 E0.26052
G1 X116.053 Y205.231 E0.26052
G1 X112.13 Y200.574 E0.26033
G1 X108.995 Y195.989 E0.23747
G1 X106.372 Y191.099 E0.23728
G1 X104.288 Y185.955 E0.23728
G1 X102.769 Y180.617 E0.23728
G1 X101.832 Y175.147 E0.23728
G1 X101.487 Y169.608 E0.23728
G1 X101.739 Y164.064 E0.23728
G1 X102.585 Y158.579 E0.23728
G1 X104.016 Y153.207 E0.2377
G1 X106.528 Y146.359 E0.31185
G1 X109.549 Y139.709 E0.31228
G1 X113.057 Y133.303 E0.31228
G1 X117.033 Y127.177 E0.31228
G1 X121.816 Y120.892 E0.33767
G1 X121.388 Y118.884 E0.0878
G1 X121.331 Y117.482 E0.05996
G1 X121.512 Y116.092 E0.05996
G1 X121.925 Y114.751 E0.05996
G1 X122.558 Y113.5 E0.05996
G1 X123.393 Y112.374 E0.05996
G1 X124.407 Y111.404 E0.05996
G1 X125.569 Y110.62 E0.05996
G1 X126.847 Y110.043 E0.05996
G1 X128.204 Y109.69 E0.05996
G1 X129.653 Y109.567 E0.06214
G1 X155.033 Y109.567 E1.08514
G1 X154.878 Y109.138 F9000
G1 F1800
G1 X156.318 Y107.203 E0.10316
G1 X157.737 Y105.848 E0.08388
G1 X159.364 Y104.751 E0.08388
G1 X161.151 Y103.941 E0.08388
G1 X163.049 Y103.444 E0.08388
G1 X165 Y103.271 E0.08376
G1 X165.349 Y103.302 E0.01499
G1 X166.951 Y103.444 E0.06877
G1 X168.849 Y103.941 E0.08388
G1 X170.636 Y104.751 E0.08388
G1 X172.263 Y105.848 E0.08388
G1 X173.682 Y107.203 E0.08388
G1 X175.122 Y109.138 E0.10316
G1 X200.366 Y109.138 E1.07928
G1 X201.868 Y109.266 E0.06447
G1 X203.296 Y109.637 E0.06307
G1 X204.64 Y110.244 E0.06307
G1 X205.863 Y111.069 E0.06307
G1 X206.929 Y112.089 E0.06307
G1 X207.808 Y113.274 E0.06307
G1 X208.474 Y114.591 E0.06307
G1 X208.908 Y116 E0.06307
G1 X209.098 Y117.463 E0.06307
G1 X209.039 Y118.937 E0.06307
G1 X208.644 Y120.789 E0.08095
G1 X213.317 Y126.93 E0.32995
G1 X217.311 Y133.083 E0.31364
G1 X220.835 Y139.518 E0.31364
G1 X223.868 Y146.197 E0.31364
G1 X226.393 Y153.078 E0.31337
G1 X227.835 Y158.491 E0.23952
G1 X228.688 Y164.022 E0.23925
G1 X228.942 Y169.612 E0.23925
G1 X228.594 Y175.197 E0.23925
G1 X227.649 Y180.712 E0.23925
G1 X226.117 Y186.094 E0.23925
G1 X224.017 Y191.281 E0.23925
G1 X221.372 Y196.212 E0.23925
G1 X218.211 Y200.834 E0.23937
G1 X214.262 Y205.522 E0.2621
G1 X209.893 Y209.826 E0.26222
G1 X205.144 Y213.707 E0.26222
G1 X200.055 Y217.131 E0.26222
G1 X194.671 Y220.068 E0.26222
G1 X189.038 Y222.493 E0.26222
G1 X183.205 Y224.386 E0.26222
G1 X177.221 Y225.731 E0.26222
G1 X171.138 Y226.514 E0.26222
G1 X165 Y226.731 E0.26259
G1 X158.862 Y226.514 E0.26259
G1 X152.779 Y225.731 E0.26222
G1 X146.795 Y224.386 E0.26222
G1 X140.962 Y222.493 E0.26222
G1 X135.329 Y220.068 E0.26222
G1 X129.945 Y217.131 E0.26222
G1 X124.856 Y213.707 E0.26222
G1 X120.107 Y209.826 E0.26222
G1 X115.738 Y205.522 E0.26222
G1 X111.789 Y200.834 E0.2621
G1 X108.628 Y196.212 E0.23937
G1 X105.983 Y191.281 E0.23925
G1 X103.883 Y186.094 E0.23925
G1 X102.351 Y180.712 E0.23925
G1 X101.406 Y175.197 E0.23925
G1 X101.058 Y169.612 E0.23925
G1 X101.312 Y164.022 E0.23925
G1 X102.165 Y158.491 E0.23925
G1 X103.607 Y153.078 E0.23952
G1 X106.132 Y146.197 E0.31337
G1 X109.165 Y139.518 E0.31364
G1 X112.689 Y133.083 E0.31364
G1 X116.683 Y126.93 E0.31364
G1 X121.356 Y120.789 E0.32995
G1 X120.961 Y118.937 E0.08095
G1 X120.902 Y117.463 E0.06307
G1 X121.092 Y116 E0.06307
G1 X121.526 Y114.591 E0.06307
G1 X122.192 Y113.274 E0.06307
G1 X123.071 Y112.089 E0.06307
G1 X124.137 Y111.069 E0.06307
G1 X125.36 Y110.244 E0.06307
G1 X126.704 Y109.637 E0.06307
G1 X128.132 Y109.266 E0.06307
G1 X129.634 Y109.138 E0.06447
G1 X154.818 Y109.138 E1.07672
G1 X154.662 Y108.71 F9000
;TYPE:External perimeter
G1 F1800
G1 X155.996 Y106.918 E0.09551
G1 X157.468 Y105.513 E0.08698
G1 X159.154 Y104.375 E0.08698
G1 X161.007 Y103.536 E0.08698
G1 X162.975 Y103.02 E0.08698
G1 X165 Y102.841 E0.08692
G1 X165.387 Y102.875 E0.0166
G1 X167.025 Y103.02 E0.07032
G1 X168.993 Y103.536 E0.08698
G1 X170.846 Y104.375 E0.08698
G1 X172.532 Y105.513 E0.08698
G1 X174.004 Y106.918 E0.08698
G1 X175.338 Y108.71 E0.09551
G1 X200.384 Y108.71 E1.07086
G1 X201.941 Y108.842 E0.06681
G1 X203.439 Y109.232 E0.06619
G1 X204.85 Y109.869 E0.06619
G1 X206.133 Y110.735 E0.06619
G1 X207.252 Y111.805 E0.06619
G1 X208.174 Y113.048 E0.06619
G1 X208.873 Y114.43 E0.06619
G1 X209.329 Y115.909 E0.06619
G1 X209.528 Y117.444 E0.06619
G1 X209.465 Y118.991 E0.06619
G1 X209.104 Y120.686 E0.0741
G1 X213.668 Y126.684 E0.32223
G1 X217.679 Y132.864 E0.31501
G1 X221.218 Y139.326 E0.31501
G1 X224.265 Y146.034 E0.31501
G1 X226.802 Y152.949 E0.31489
G1 X228.255 Y158.403 E0.24134
G1 X229.115 Y163.979 E0.24123
G1 X229.371 Y169.615 E0.24122
G1 X229.02 Y175.246 E0.24123
G1 X228.067 Y180.807 E0.24123
G1 X226.523 Y186.234 E0.24122
G1 X224.405 Y191.463 E0.24123
G1 X221.739 Y196.435 E0.24122
G1 X218.553 Y201.093 E0.24128
G1 X214.577 Y205.813 E0.26387
G1 X210.179 Y210.145 E0.26392
G1 X205.399 Y214.051 E0.26392
G1 X200.278 Y217.497 E0.26392
G1 X194.859 Y220.454 E0.26392
G1 X189.189 Y222.895 E0.26392
G1 X183.318 Y224.8 E0.26392
G1 X177.295 Y226.153 E0.26392
G1 X171.173 Y226.942 E0.26392
G1 X165 Y227.16 E0.26409
G1 X158.827 Y226.942 E0.26409
G1 X152.705 Y226.153 E0.26392
G1 X146.682 Y224.8 E0.26392
G1 X140.811 Y222.895 E0.26392
G1 X135.141 Y220.454 E0.26392
G1 X129.722 Y217.497 E0.26392
G1 X124.601 Y214.051 E0.26392
G1 X119.821 Y210.145 E0.26392
G1 X115.423 Y205.813 E0.26392
G1 X111.447 Y201.093 E0.26387
G1 X108.261 Y196.435 E0.24128
G1 X105.595 Y191.463 E0.24122
G1 X103.477 Y186.234 E0.24123
G1 X101.933 Y180.807 E0.24122
G1 X100.98 Y175.246 E0.24123
G1 X100.629 Y169.615 E0.24123
G1 X100.885 Y163.979 E0.24122
G1 X101.745 Y158.403 E0.24123
G1 X103.198 Y152.949 E0.24134
G1 X105.735 Y146.034 E0.31489
G1 X108.782 Y139.326 E0.31501
G1 X112.321 Y132.864 E0.31501
G1 X116.332 Y126.684 E0.31501
G1 X120.896 Y120.686 E0.32223
G1 X120.535 Y118.991 E0.0741
G1 X120.472 Y117.444 E0.06619
G1 X120.671 Y115.909 E0.06619
G1 X121.127 Y114.43 E0.06619
G1 X121.826 Y113.048 E0.06619
G1 X122.748 Y111.805 E0.06619
G1 X123.867 Y110.735 E0.06619
G1 X125.15 Y109.869 E0.06619
G1 X126.561 Y109.232 E0.06619
G1 X128.059 Y108.842 E0.06619
G1 X129.616 Y108.71 E0.06681
G1 X154.602 Y108.71 E1.06829
;WIPE_START
G1 X155.026 Y108.875 F9000
;WIPE_END
G1 X204.849 Y110.979
;TYPE:Solid infill
;WIDTH:0.478871
G1 F3600
G1 X206.453 Y112.584 E0.0968
G1 X207.23 Y113.631 E0.05561
G1 X207.573 Y114.31 E0.03243
G1 X203.93 Y110.666 E0.21978
G1 X203.07 Y110.278 E0.04025
G1 X202.888 Y110.231 E0.00799
G1 X207.996 Y115.339 E0.3081
G1 X208.244 Y116.145 E0.03598
G1 X208.252 Y116.2 E0.00238
G1 X202.07 Y110.018 E0.37292
G1 X201.753 Y109.936 E0.01393
G1 X201.347 Y109.901 E0.01741
G1 X208.342 Y116.896 E0.42197
G1 X208.42 Y117.493 E0.02568
G1 X208.416 Y117.577 E0.00355
G1 X200.685 Y109.845 E0.4664
G1 X200.337 Y109.815 E0.01488
G1 X200.049 Y109.815 E0.01228
G1 X208.393 Y118.159 E0.50332
G1 X208.369 Y118.742 E0.02486
G1 X199.443 Y109.815 E0.53845
G1 X198.837 Y109.815 E0.02585
G1 X208.278 Y119.257 E0.56954
G1 X208.172 Y119.756 E0.02179
G1 X198.231 Y109.815 E0.59967
G1 X197.625 Y109.815 E0.02585
G1 X208.066 Y120.256 E0.6298
G1 X207.959 Y120.755 E0.02179
G1 X197.019 Y109.815 E0.65994
G1 X196.413 Y109.815 E0.02585
G1 X209.088 Y122.491 E0.7646
G1 X211.017 Y125.025 E0.13586
G1 X195.807 Y109.815 E0.91751
G1 X195.201 Y109.815 E0.02585
G1 X212.869 Y127.484 E1.0658
G1 X213.99 Y129.211 E0.08782
G1 X194.595 Y109.815 E1.16998
G1 X193.989 Y109.815 E0.02585
G1 X215.111 Y130.938 E1.27415
G1 X216.232 Y132.665 E0.08782
G1 X193.383 Y109.815 E1.37833
G1 X192.777 Y109.815 E0.02585
G1 X217.138 Y134.176 E1.46951
G1 X217.871 Y135.516 E0.06515
G1 X192.171 Y109.815 E1.55032
G1 X191.565 Y109.815 E0.02585
G1 X218.605 Y136.855 E1.63113
G1 X219.339 Y138.195 E0.06515
G1 X190.959 Y109.815 E1.71194
G1 X190.353 Y109.815 E0.02585
G1 X220.072 Y139.534 E1.79274
G1 X220.229 Y139.821 E0.01392
G1 X220.625 Y140.694 E0.0409
G1 X189.747 Y109.815 E1.86267
G1 X189.141 Y109.815 E0.02585
G1 X221.13 Y141.804 E1.92964
G1 X221.634 Y142.914 E0.05201
G1 X188.535 Y109.815 E1.99661
G1 X187.929 Y109.815 E0.02585
G1 X222.138 Y144.024 E2.06358
G1 X222.642 Y145.134 E0.05201
G1 X187.323 Y109.815 E2.13055
G1 X186.717 Y109.815 E0.02585
G1 X223.147 Y146.245 E2.19752
G1 X223.242 Y146.454 E0.0098
G1 X223.527 Y147.231 E0.03529
G1 X186.111 Y109.815 E2.257
G1 X185.505 Y109.815 E0.02585
G1 X223.878 Y148.188 E2.31473
G1 X224.229 Y149.145 E0.04348
G1 X184.899 Y109.815 E2.37247
G1 X184.293 Y109.815 E0.02585
G1 X224.58 Y150.102 E2.4302
G1 X224.931 Y151.059 E0.04348
G1 X183.687 Y109.815 E2.48793
G1 X183.081 Y109.815 E0.02585
G1 X225.282 Y152.016 E2.54567
G1 X225.633 Y152.973 E0.04348
G1 X182.475 Y109.815 E2.6034
G1 X181.869 Y109.815 E0.02585
G1 X225.896 Y153.841 E2.65579
G1 X226.116 Y154.668 E0.03647
G1 X181.263 Y109.815 E2.70563
G1 X180.658 Y109.815 E0.02585
G1 X226.336 Y155.494 E2.75546
G1 X226.556 Y156.32 E0.03647
G1 X180.052 Y109.815 E2.8053
G1 X179.446 Y109.815 E0.02585
G1 X226.776 Y157.146 E2.85514
G1 X226.997 Y157.972 E0.03647
G1 X178.84 Y109.815 E2.90498
G1 X178.234 Y109.815 E0.02585
G1 X227.194 Y158.776 E2.95347
G1 X227.305 Y159.493 E0.03092
G1 X177.628 Y109.815 E2.99668
G1 X177.022 Y109.815 E0.02585
G1 X227.415 Y160.209 E3.0399
G1 X227.526 Y160.925 E0.03092
G1 X176.416 Y109.815 E3.08311
G1 X175.81 Y109.815 E0.02585
G1 X227.636 Y161.642 E3.12633
G1 X227.746 Y162.358 E0.03092
G1 X175.204 Y109.815 E3.16954
G1 X174.782 Y109.815 E0.01797
G1 X173.555 Y108.167 E0.08765
G1 X171.618 Y106.23 E0.11685
G1 X170.305 Y105.344 E0.06758
G1 X169.978 Y105.196 E0.01532
G1 X227.857 Y163.075 E3.49144
G1 X227.967 Y163.791 E0.03092
G1 X168.871 Y104.694 E3.56489
G1 X168.622 Y104.582 E0.01164
G1 X167.985 Y104.415 E0.0281
G1 X228.03 Y164.46 E3.6221
G1 X228.059 Y165.095 E0.02711
G1 X167.163 Y104.199 E3.6734
G1 X166.835 Y104.113 E0.01448
G1 X166.436 Y104.078 E0.01708
G1 X228.088 Y165.729 E3.71901
G1 X228.116 Y166.364 E0.02711
G1 X165.772 Y104.019 E3.76084
G1 X165.29 Y103.977 E0.02063
G1 X165.107 Y103.961 E0.00783
G1 X228.145 Y166.999 E3.80267
G1 X228.174 Y167.634 E0.02711
G1 X164.533 Y103.992 E3.83905
G1 X163.976 Y104.041 E0.02385
G1 X228.203 Y168.269 E3.87438
G1 X228.232 Y168.903 E0.02711
G1 X163.419 Y104.091 E3.90971
G1 X163.165 Y104.113 E0.01088
G1 X162.904 Y104.181 E0.01151
G1 X228.261 Y169.538 E3.94252
G1 X228.264 Y169.606 E0.0029
G1 X228.232 Y170.116 E0.02178
G1 X162.424 Y104.307 E3.96975
G1 X161.944 Y104.433 E0.02117
G1 X228.197 Y170.686 E3.99657
G1 X228.161 Y171.257 E0.02438
G1 X161.464 Y104.559 E4.02338
G1 X161.378 Y104.582 E0.00378
G1 X161.035 Y104.737 E0.01604
G1 X228.125 Y171.827 E4.04708
G1 X228.09 Y172.397 E0.02438
G1 X160.618 Y104.926 E4.07011
G1 X160.201 Y105.115 E0.01953
G1 X228.054 Y172.968 E4.09313
G1 X228.019 Y173.538 E0.02438
G1 X159.784 Y105.303 E4.11615
G1 X159.695 Y105.344 E0.00417
G1 X159.41 Y105.536 E0.01464
G1 X227.983 Y174.109 E4.13654
G1 X227.948 Y174.679 E0.02438
G1 X159.049 Y105.78 E4.15623
G1 X158.687 Y106.024 E0.01862
G1 X227.9 Y175.238 E4.17517
G1 X227.812 Y175.755 E0.02239
G1 X158.325 Y106.268 E4.19165
G1 X158.163 Y106.377 E0.00831
G1 X157.992 Y106.541 E0.01012
G1 X227.723 Y176.272 E4.20639
G1 X227.634 Y176.79 E0.02239
G1 X157.682 Y106.837 E4.21975
G1 X157.372 Y107.133 E0.01828
G1 X227.546 Y177.307 E4.2331
G1 X227.457 Y177.824 E0.02239
G1 X157.062 Y107.429 E4.24645
G1 X156.827 Y107.653 E0.01384
G1 X156.764 Y107.738 E0.00449
G1 X227.368 Y178.342 E4.25905
G1 X227.28 Y178.859 E0.02239
G1 X156.506 Y108.085 E4.2693
G1 X156.247 Y108.432 E0.01847
G1 X227.191 Y179.376 E4.27956
G1 X227.102 Y179.894 E0.02239
G1 X155.989 Y108.78 E4.28981
G1 X155.73 Y109.127 E0.01847
G1 X227.014 Y180.411 E4.30006
G1 X226.988 Y180.562 E0.00654
G1 X226.893 Y180.896 E0.01481
G1 X155.471 Y109.475 E4.30837
G1 X155.218 Y109.815 E0.01813
G1 X155.206 Y109.815 E0.00048
G1 X226.759 Y181.368 E4.31626
G1 X226.624 Y181.84 E0.02092
G1 X154.6 Y109.815 E4.34472
G1 X153.994 Y109.815 E0.02585
G1 X226.49 Y182.311 E4.37317
G1 X226.356 Y182.783 E0.02092
G1 X153.388 Y109.815 E4.40163
G1 X152.782 Y109.815 E0.02585
G1 X226.222 Y183.255 E4.43009
G1 X226.087 Y183.726 E0.02092
G1 X152.176 Y109.815 E4.45854
G1 X151.57 Y109.815 E0.02585
G1 X225.953 Y184.198 E4.487
G1 X225.819 Y184.67 E0.02092
G1 X150.964 Y109.815 E4.51546
G1 X150.358 Y109.815 E0.02585
G1 X225.685 Y185.142 E4.54392
G1 X225.55 Y185.613 E0.02092
G1 X149.752 Y109.815 E4.57237
