; generated by SuperSlicer 2.3.57 on 2022-02-06 at 02:20:55 UTC


;
;

;
;
; 

; external perimeters extrusion width = 0.40mm
; perimeters extrusion width = 0.45mm
; infill extrusion width = 0.72mm
; solid infill extrusion width = 0.56mm
; top infill extrusion width = 0.40mm
; first layer extrusion width = 0.48mm

; external perimeters extrusion width = 0.40mm
; perimeters extrusion width = 0.45mm
; infill extrusion width = 0.72mm
; solid infill extrusion width = 0.56mm
; top infill extrusion width = 0.40mm
; first layer extrusion width = 0.48mm

; external perimeters extrusion width = 0.40mm
; perimeters extrusion width = 0.45mm
; infill extrusion width = 0.72mm
; solid infill extrusion width = 0.56mm
; top infill extrusion width = 0.40mm
; first layer extrusion width = 0.48mm

; external perimeters extrusion width = 0.40mm
; perimeters extrusion width = 0.45mm
; infill extrusion width = 0.72mm
; solid infill extrusion width = 0.56mm
; top infill extrusion width = 0.40mm
; first layer extrusion width = 0.48mm

; external perimeters extrusion width = 0.40mm
; perimeters extrusion width = 0.45mm
; infill extrusion width = 0.72mm
; solid infill extrusion width = 0.56mm
; top infill extrusion width = 0.40mm
; first layer extrusion width = 0.48mm

; object:{"name":"Part2-White","id":"Part2-White.STL id:0 copy 0","object_center":[152.500000,150.000000,0.000000],"boundingbox_center":[152.500000,150.000000,0.615000],"boundingbox_size":[86.150897,79.139991,1.230000]}
; plater:{"center":[152.500000,150.000000,0.000000],"boundingbox_center":[152.500000,150.000000,0.615000],"boundingbox_size":[86.150897,79.139991,1.230000]}

;TYPE:Custom
START_PRINT T_BED=60 T_EXTRUDER=200
M107
G21 ; set units to millimeters
G90 ; use absolute coordinates
M83 ; use relative distances for extrusion
; Filament gcode
M104 S200 ; set temperature
M109 S200 ; set temperature and wait for it to be reached
M190 S60 ; set bed temperature and wait for it to be reached
;LAYER_CHANGE
;Z:0.24
;HEIGHT:0.24
G1 E-0.6 F3000
G1 Z0.24 F9000
G1 X121.011 Y108.628
G1 E0.6 F1800
;TYPE:Skirt
;WIDTH:0.48
G1 X118.639 Y111.27 E0.15181
G1 X116.141 Y114.557 E0.1765
G1 X113.991 Y117.916 E0.17054
G1 X111.405 Y122.617 E0.2294
G1 X109.837 Y125.837 E0.1531
G1 X108.576 Y129.002 E0.14568
G1 X107.479 Y132.583 E0.16012
G1 X106.613 Y136.578 E0.17478
G1 X106.094 Y140.498 E0.16907
G1 X105.882 Y144.562 E0.17399
G1 X106.011 Y148.791 E0.18091
G1 X106.36 Y151.775 E0.12842
G1 X106.96 Y154.596 E0.12332
G1 X108.021 Y157.849 E0.14629
G1 X109.275 Y160.643 E0.13094
G1 X110.879 Y163.568 E0.14263
G1 X112.775 Y166.55 E0.15108
G1 X113.558 Y167.571 E0.055
G1 X115.241 Y169.481 E0.10887
G1 X135.589 Y189.853 E1.23107
G1 X137.37 Y191.183 E0.09503
G1 X139.227 Y192.144 E0.08941
G1 X141.224 Y192.812 E0.09001
G1 X143.274 Y193.109 E0.08859
G1 X161.68 Y193.111 E0.78695
G1 X164.03 Y192.742 E0.1017
G1 X165.598 Y192.224 E0.07061
G1 X167.461 Y191.283 E0.08922
G1 X169.456 Y189.81 E0.10606
G1 X189.746 Y169.495 E1.22759
G1 X191.466 Y167.542 E0.11127
G1 X192.535 Y166.107 E0.07648
G1 X194.172 Y163.483 E0.13227
G1 X195.739 Y160.614 E0.13975
G1 X196.994 Y157.81 E0.13136
G1 X197.999 Y154.761 E0.13725
G1 X198.64 Y151.778 E0.13044
G1 X199.004 Y148.621 E0.13589
G1 X199.118 Y144.553 E0.17399
G1 X198.907 Y140.516 E0.17283
G1 X198.387 Y136.578 E0.16984
G1 X197.539 Y132.648 E0.1719
G1 X196.473 Y129.133 E0.15703
G1 X195.119 Y125.741 E0.15618
G1 X193.548 Y122.524 E0.15309
G1 X191.117 Y118.098 E0.21589
G1 X188.929 Y114.661 E0.17418
G1 X186.279 Y111.167 E0.1875
G1 X183.35 Y107.902 E0.18752
G1 X182.808 Y107.472 E0.02959
G1 X182.189 Y107.151 E0.02979
G1 X181.521 Y106.954 E0.02979
G1 X180.832 Y106.887 E0.02959
G1 X124.168 Y106.887 E2.4227
G1 X123.368 Y106.977 E0.0344
G1 X122.494 Y107.297 E0.03981
G1 X121.726 Y107.831 E0.04001
G1 X121.051 Y108.583 E0.04321
G1 X121.358 Y108.858 F9000
G1 F1800
G1 X119.054 Y111.437 E0.14786
G1 X116.565 Y114.702 E0.17555
G1 X114.294 Y118.241 E0.17976
G1 X111.792 Y122.801 E0.22242
G1 X110.228 Y126.011 E0.15265
G1 X108.974 Y129.16 E0.14491
G1 X107.89 Y132.707 E0.15857
G1 X107.035 Y136.652 E0.17259
G1 X106.521 Y140.539 E0.16765
G1 X106.311 Y144.563 E0.17227
G1 X106.436 Y148.739 E0.17862
G1 X106.782 Y151.704 E0.12766
G1 X107.378 Y154.5 E0.12221
G1 X108.419 Y157.69 E0.14347
G1 X109.659 Y160.452 E0.12946
G1 X111.243 Y163.342 E0.14088
G1 X113.118 Y166.293 E0.14949
G1 X113.886 Y167.295 E0.05396
G1 X115.557 Y169.192 E0.10813
G1 X135.881 Y189.539 E1.22957
G1 X137.601 Y190.822 E0.09176
G1 X139.412 Y191.758 E0.08716
G1 X141.322 Y192.395 E0.08611
G1 X143.297 Y192.681 E0.0853
G1 X161.67 Y192.683 E0.78553
G1 X163.909 Y192.331 E0.09691
G1 X165.43 Y191.83 E0.06847
G1 X167.257 Y190.907 E0.08753
G1 X169.158 Y189.502 E0.10107
G1 X189.431 Y169.205 E1.22654
G1 X191.136 Y167.269 E0.1103
G1 X192.18 Y165.866 E0.07476
G1 X193.802 Y163.268 E0.13095
G1 X195.351 Y160.432 E0.13816
G1 X196.595 Y157.653 E0.1302
G1 X197.585 Y154.651 E0.13513
G1 X198.217 Y151.705 E0.12881
G1 X198.577 Y148.592 E0.134
G1 X198.689 Y144.558 E0.17256
G1 X198.481 Y140.555 E0.17138
G1 X197.966 Y136.655 E0.16817
G1 X197.13 Y132.776 E0.16968
G1 X196.069 Y129.275 E0.15641
G1 X194.733 Y125.927 E0.1541
G1 X193.168 Y122.722 E0.1525
G1 X190.743 Y118.306 E0.21543
G1 X188.582 Y114.913 E0.17198
G1 X185.948 Y111.439 E0.18639
G1 X183.078 Y108.236 E0.18389
G1 X182.593 Y107.844 E0.02666
G1 X182.045 Y107.555 E0.02647
G1 X181.452 Y107.377 E0.02647
G1 X180.832 Y107.316 E0.02666
G1 X124.166 Y107.316 E2.42279
G1 X123.467 Y107.394 E0.03005
G1 X122.582 Y107.737 E0.04057
G1 X121.836 Y108.323 E0.04057
G1 X121.398 Y108.813 E0.02812
; INIT printing object Part2-White.STL id:0 copy 0
G1 E-0.6 F3000
; printing object Part2-White.STL id:0 copy 0
G1 X151.18 Y171.085 F9000
G1 E0.6 F1800
;TYPE:Internal perimeter
G1 X151.188 Y171.388 E0.01298
G1 X150.812 Y171.512 E0.01692
G1 X150.363 Y170.867 E0.03361
G1 X151.122 Y171.069 E0.03357
G1 X153.819 Y171.085 F9000
G1 F1800
G1 X154.637 Y170.867 E0.03622
G1 X154.187 Y171.513 E0.03367
G1 X153.81 Y171.389 E0.01698
G1 X153.817 Y171.145 E0.01041
G1 X152.254 Y171.489 F9000
G1 F1800
G1 X150.954 Y171.917 E0.05853
G1 X150.654 Y172.035 E0.01375
G1 X150.059 Y171.181 E0.0445
G1 X149.512 Y170.632 E0.03314
G1 X149.031 Y170.294 E0.02515
G1 X149.217 Y169.971 E0.01592
G1 X149.964 Y170.318 E0.03524
G1 X151.213 Y170.65 E0.05524
G1 X152.5 Y170.762 E0.05524
G1 X153.787 Y170.65 E0.05524
G1 X155.036 Y170.318 E0.05524
G1 X155.783 Y169.971 E0.03524
G1 X155.969 Y170.294 E0.01592
G1 X155.488 Y170.632 E0.02515
G1 X154.941 Y171.181 E0.03314
G1 X154.347 Y172.033 E0.04442
G1 X154.049 Y171.918 E0.01363
G1 X152.746 Y171.489 E0.05866
G1 X152.5 Y171.945 E0.02217
G1 X152.282 Y171.542 E0.01961
G1 E-0.6 F3000
G1 X139.969 Y149.945 F9000
G1 E0.6 F1800
G1 X138.22 Y150.036 E0.07489
G1 X119.109 Y151.024 E0.81821
G1 X120.455 Y145.974 E0.22348
G1 X121.08 Y144.288 E0.07687
G1 X122.15 Y142.316 E0.09593
G1 X123.852 Y139.736 E0.13214
G1 X125.747 Y137.424 E0.12782
G1 X127.793 Y135.393 E0.12327
G1 X130.067 Y133.525 E0.12584
G1 X132.819 Y131.639 E0.1426
G1 X135.775 Y129.917 E0.1463
G1 X139.295 Y128.175 E0.16793
G1 X142.113 Y127.051 E0.12971
G1 X144.752 Y126.257 E0.11783
G1 X147.249 Y125.761 E0.10885
G1 X149.649 Y125.535 E0.10306
G1 X151.182 Y125.564 E0.06554
G1 X151.182 Y155.548 E1.28198
G1 X150.998 Y155.567 E0.0079
G1 X149.684 Y155.943 E0.05843
G1 X148.455 Y156.539 E0.05843
G1 X147.347 Y157.339 E0.05843
G1 X146.394 Y158.319 E0.05843
G1 X145.624 Y159.448 E0.05843
G1 X145.061 Y160.693 E0.05843
G1 X144.722 Y162.017 E0.05842
G1 X144.616 Y163.379 E0.05843
G1 X144.746 Y164.739 E0.05842
G1 X145.11 Y166.056 E0.05843
G1 X145.696 Y167.291 E0.05842
G1 X146.486 Y168.406 E0.05843
G1 X147.375 Y169.288 E0.05357
G1 X146.475 Y169.367 E0.03864
G1 X145.806 Y169.547 E0.02964
G1 X145.147 Y169.855 E0.03109
G1 X144.51 Y170.303 E0.03332
G1 X143.91 Y170.905 E0.03635
G1 X143.374 Y171.674 E0.04005
G1 X142.94 Y172.608 E0.04405
G1 X142.653 Y173.684 E0.0476
G1 X142.552 Y174.843 E0.04974
G1 X142.653 Y176.002 E0.04974
G1 X142.94 Y177.078 E0.0476
G1 X143.374 Y178.012 E0.04405
G1 X143.91 Y178.781 E0.04005
G1 X144.51 Y179.383 E0.03635
G1 X145.147 Y179.831 E0.03332
G1 X145.806 Y180.139 E0.03109
G1 X146.475 Y180.319 E0.02964
G1 X147.149 Y180.378 E0.02893
G1 X147.824 Y180.319 E0.02895
G1 X148.493 Y180.139 E0.02964
G1 X149.152 Y179.83 E0.03109
G1 X149.79 Y179.382 E0.03332
G1 X150.39 Y178.78 E0.03635
G1 X150.875 Y178.084 E0.0363
G1 X151.169 Y178.191 E0.01339
G1 X151.012 Y179.928 E0.07458
G1 X150.691 Y181.807 E0.0815
G1 X150.563 Y182.304 E0.02193
G1 X149.84 Y184.307 E0.09104
G1 X149.071 Y185.801 E0.07183
G1 X148.377 Y186.759 E0.05059
G1 X147.765 Y187.369 E0.03695
G1 X147.271 Y187.725 E0.02603
G1 X146.762 Y187.98 E0.02431
G1 X146.097 Y188.193 E0.02988
G1 X145.145 Y188.349 E0.04125
G1 X143.503 Y188.372 E0.0702
G1 X142.315 Y188.196 E0.05133
G1 X141.245 Y187.854 E0.04804
G1 X139.889 Y187.164 E0.06504
G1 X138.809 Y186.372 E0.05726
G1 X137.811 Y185.362 E0.06074
G1 X136.716 Y183.846 E0.07995
G1 X135.948 Y182.392 E0.07031
G1 X135.38 Y180.788 E0.07276
G1 X134.908 Y178.857 E0.08499
G1 X134.687 Y177.138 E0.07408
G1 X134.706 Y175.425 E0.07325
G1 X134.874 Y174.18 E0.05372
G1 X135.235 Y172.986 E0.05332
G1 X135.817 Y171.781 E0.05724
G1 X136.632 Y170.608 E0.06106
G1 X137.689 Y169.516 E0.06498
G1 X138.921 Y168.6 E0.06561
G1 X140.319 Y167.881 E0.0672
G1 X141.702 Y167.432 E0.06217
G1 X142.986 Y167.138 E0.05635
G1 X142.296 Y163.998 E0.13744
G1 X140.867 Y164.327 E0.06272
G1 X139.078 Y164.909 E0.08044
G1 X137.241 Y165.85 E0.08823
G1 X135.597 Y167.065 E0.0874
G1 X134.173 Y168.527 E0.08728
G1 X133.057 Y170.12 E0.08318
G1 X132.252 Y171.77 E0.07848
G1 X131.735 Y173.455 E0.07536
G1 X131.685 Y173.81 E0.01534
G1 X130.305 Y173.419 E0.06134
G1 X127.826 Y172.475 E0.11343
G1 X125.226 Y171.195 E0.12392
G1 X122.781 Y169.68 E0.12294
G1 X120.541 Y167.957 E0.12084
G1 X118.722 Y166.264 E0.10626
G1 X118.232 Y165.707 E0.03172
G1 X140.797 Y157.484 E1.02686
G1 X139.808 Y154.69 E0.12674
G1 X116.152 Y163.066 E1.07296
G1 X114.922 Y161.094 E0.09933
G1 X113.518 Y158.527 E0.12512
G1 X112.428 Y156.098 E0.11381
G1 X111.898 Y154.492 E0.07234
G1 X139.969 Y153.04 E1.20182
G1 X139.969 Y150.005 E0.12975
G1 E-0.6 F3000
G1 X165.031 Y149.945 F9000
G1 E0.6 F1800
G1 X165.031 Y153.04 E0.13232
G1 X193.102 Y154.492 E1.20182
G1 X192.572 Y156.098 E0.07234
G1 X191.482 Y158.527 E0.11381
G1 X190.078 Y161.094 E0.12512
G1 X188.848 Y163.066 E0.09933
G1 X165.192 Y154.69 E1.07296
G1 X164.203 Y157.484 E0.12674
G1 X186.768 Y165.707 E1.02685
G1 X186.28 Y166.262 E0.0316
G1 X184.462 Y167.955 E0.1062
G1 X182.214 Y169.684 E0.12125
G1 X179.793 Y171.179 E0.12168
G1 X177.212 Y172.465 E0.12331
G1 X174.965 Y173.353 E0.10328
G1 X173.32 Y173.811 E0.073
G1 X173.27 Y173.441 E0.01594
G1 X172.759 Y171.76 E0.07513
G1 X171.956 Y170.107 E0.07857
G1 X170.848 Y168.521 E0.08272
G1 X169.447 Y167.083 E0.08585
G1 X167.82 Y165.881 E0.08649
G1 X165.995 Y164.938 E0.08782
G1 X164.186 Y164.34 E0.08147
G1 X162.705 Y163.993 E0.06504
G1 X162.014 Y167.138 E0.13764
G1 X163.298 Y167.432 E0.05635
G1 X164.681 Y167.881 E0.06217
G1 X166.079 Y168.6 E0.0672
G1 X167.311 Y169.516 E0.06561
G1 X168.368 Y170.608 E0.06498
G1 X169.183 Y171.781 E0.06106
G1 X169.765 Y172.986 E0.05724
G1 X170.126 Y174.18 E0.05332
G1 X170.294 Y175.425 E0.05372
G1 X170.313 Y177.138 E0.07325
G1 X170.092 Y178.857 E0.07408
G1 X169.62 Y180.788 E0.08499
G1 X169.052 Y182.392 E0.07276
G1 X168.284 Y183.846 E0.07031
G1 X167.189 Y185.362 E0.07995
G1 X166.191 Y186.372 E0.06074
G1 X165.111 Y187.164 E0.05726
G1 X163.755 Y187.854 E0.06504
G1 X162.685 Y188.196 E0.04804
G1 X161.497 Y188.372 E0.05133
G1 X159.855 Y188.349 E0.0702
G1 X158.903 Y188.193 E0.04125
G1 X158.238 Y187.98 E0.02988
G1 X157.729 Y187.725 E0.02431
G1 X157.235 Y187.369 E0.02603
G1 X156.623 Y186.759 E0.03695
G1 X155.929 Y185.801 E0.05059
G1 X155.16 Y184.307 E0.07183
G1 X154.437 Y182.304 E0.09104
G1 X154.309 Y181.807 E0.02193
G1 X153.988 Y179.928 E0.0815
G1 X153.831 Y178.191 E0.07458
G1 X154.125 Y178.084 E0.01339
G1 X154.61 Y178.78 E0.0363
G1 X155.21 Y179.382 E0.03635
G1 X155.848 Y179.83 E0.03332
G1 X156.507 Y180.139 E0.03109
G1 X157.176 Y180.319 E0.02964
G1 X157.85 Y180.378 E0.02893
G1 X158.525 Y180.319 E0.02895
G1 X159.194 Y180.139 E0.02964
G1 X159.853 Y179.831 E0.03109
G1 X160.49 Y179.383 E0.03332
G1 X161.09 Y178.781 E0.03635
G1 X161.626 Y178.012 E0.04005
G1 X162.06 Y177.078 E0.04405
G1 X162.347 Y176.002 E0.0476
G1 X162.448 Y174.843 E0.04974
G1 X162.347 Y173.684 E0.04974
G1 X162.06 Y172.608 E0.0476
G1 X161.626 Y171.674 E0.04405
G1 X161.09 Y170.905 E0.04005
G1 X160.49 Y170.303 E0.03635
G1 X159.853 Y169.855 E0.03332
G1 X159.194 Y169.547 E0.03109
G1 X158.525 Y169.367 E0.02964
G1 X157.625 Y169.288 E0.03864
G1 X158.514 Y168.406 E0.05357
G1 X159.304 Y167.291 E0.05843
G1 X159.89 Y166.056 E0.05842
G1 X160.254 Y164.739 E0.05843
G1 X160.384 Y163.379 E0.05842
G1 X160.278 Y162.017 E0.05843
G1 X159.939 Y160.693 E0.05843
G1 X159.376 Y159.448 E0.05843
G1 X158.606 Y158.319 E0.05843
G1 X157.653 Y157.339 E0.05843
G1 X156.545 Y156.539 E0.05842
G1 X155.316 Y155.943 E0.05843
G1 X154.002 Y155.567 E0.05843
G1 X153.818 Y155.548 E0.0079
G1 X153.818 Y125.605 E1.2802
G1 X155.334 Y125.623 E0.06482
G1 X158.327 Y125.966 E0.1288
G1 X161.407 Y126.645 E0.13482
G1 X164.255 Y127.559 E0.12792
G1 X167.177 Y128.776 E0.13534
G1 X170.313 Y130.394 E0.15084
G1 X173.48 Y132.385 E0.15996
G1 X176.052 Y134.324 E0.13772
G1 X178.225 Y136.259 E0.12443
G1 X180.125 Y138.276 E0.11844
G1 X181.71 Y140.336 E0.11115
G1 X183.391 Y143.044 E0.13626
G1 X184.281 Y144.841 E0.08575
G1 X184.877 Y146.616 E0.08003
G1 X185.833 Y151.021 E0.19276
G1 X165.091 Y149.948 E0.88803
G1 E-0.6 F3000
G1 X115.966 Y150.349 F9000
G1 E0.6 F1800
G1 X117.92 Y150.728 E0.0851
G1 X117.895 Y151.087 E0.01541
G1 X111.13 Y151.437 E0.28961
G1 X111.038 Y151.008 E0.01875
G1 X110.726 Y148.308 E0.11621
G1 X110.622 Y144.61 E0.15819
G1 X110.813 Y140.949 E0.15676
G1 X111.283 Y137.391 E0.15341
G1 X112.034 Y133.896 E0.15284
G1 X113.001 Y130.7 E0.14278
G1 X114.171 Y127.757 E0.13542
G1 X115.653 Y124.72 E0.14447
G1 X118.008 Y120.433 E0.20912
G1 X120.027 Y117.272 E0.16036
G1 X122.378 Y114.183 E0.166
G1 X124.663 Y111.627 E0.14657
G1 X180.337 Y111.627 E2.38035
G1 X182.622 Y114.183 E0.14657
G1 X184.973 Y117.272 E0.166
G1 X186.992 Y120.433 E0.16036
G1 X189.347 Y124.72 E0.20912
G1 X190.829 Y127.757 E0.14447
G1 X191.999 Y130.7 E0.13542
G1 X192.966 Y133.896 E0.14278
G1 X193.717 Y137.391 E0.15284
G1 X194.187 Y140.949 E0.15341
G1 X194.378 Y144.61 E0.15676
G1 X194.274 Y148.308 E0.15819
G1 X193.962 Y151.008 E0.11621
G1 X193.87 Y151.437 E0.01875
G1 X187.105 Y151.087 E0.28961
G1 X187.08 Y150.728 E0.01541
G1 X189.034 Y150.349 E0.0851
G1 X187.653 Y145.147 E0.23013
G1 X186.977 Y143.236 E0.08666
G1 X186.012 Y141.353 E0.09046
G1 X184.14 Y138.389 E0.14988
G1 X182.318 Y136.036 E0.12725
G1 X180.168 Y133.756 E0.13398
G1 X177.777 Y131.658 E0.13601
G1 X175.098 Y129.699 E0.1419
G1 X171.932 Y127.744 E0.15909
G1 X168.488 Y125.923 E0.16655
G1 X165.353 Y124.539 E0.14653
G1 X162.405 Y123.515 E0.13343
G1 X159.588 Y122.814 E0.12411
G1 X156.863 Y122.414 E0.11777
G1 X154.21 Y122.302 E0.11352
G1 X153.728 Y122.325 E0.02063
G1 X152.5 Y122.383 E0.05257
G1 X150.79 Y122.302 E0.0732
G1 X148.137 Y122.414 E0.11352
G1 X145.412 Y122.814 E0.11777
G1 X142.595 Y123.515 E0.12411
G1 X139.647 Y124.539 E0.13343
G1 X136.512 Y125.923 E0.14653
G1 X133.068 Y127.744 E0.16656
G1 X129.849 Y129.735 E0.1618
G1 X127.223 Y131.659 E0.13919
G1 X124.832 Y133.756 E0.13599
G1 X122.682 Y136.036 E0.13398
G1 X120.86 Y138.389 E0.12725
G1 X118.988 Y141.353 E0.14988
G1 X118.023 Y143.236 E0.09046
G1 X117.347 Y145.147 E0.08666
G1 X115.982 Y150.291 E0.22757
G1 X116.498 Y150.016 F9000
G1 F1800
G1 X118.815 Y150.465 E0.10089
G1 X120.046 Y145.844 E0.20445
G1 X120.688 Y144.11 E0.07904
G1 X121.783 Y142.096 E0.09802
G1 X123.507 Y139.482 E0.13387
G1 X125.43 Y137.136 E0.1297
G1 X127.505 Y135.075 E0.12507
G1 X129.81 Y133.182 E0.1275
G1 X132.589 Y131.277 E0.14407
G1 X135.572 Y129.54 E0.14759
G1 X139.121 Y127.783 E0.16929
G1 X141.972 Y126.646 E0.13124
G1 X144.649 Y125.841 E0.11951
