; generated by SuperSlicer 2.3.57 on 2022-02-09 at 17:59:12 UTC


;
;

;
;
; 

; external perimeters extrusion width = 0.40mm
; perimeters extrusion width = 0.45mm
; infill extrusion width = 0.72mm
; solid infill extrusion width = 0.56mm
; top infill extrusion width = 0.40mm
; support material extrusion width = 0.42mm
; first layer extrusion width = 0.48mm

; object:{"name":"Part_holder","id":"Part_holder.stl id:0 copy 0","object_center":[165.000000,152.500000,0.000000],"boundingbox_center":[165.000000,152.500000,18.000000],"boundingbox_size":[146.399994,24.000000,36.000000]}
; object:{"name":"Part_holder","id":"Part_holder.stl id:1 copy 0","object_center":[165.000000,177.500000,0.000000],"boundingbox_center":[165.000000,177.500000,18.000000],"boundingbox_size":[146.399994,24.000000,36.000000]}
; plater:{"center":[165.000000,165.000000,0.000000],"boundingbox_center":[165.000000,165.000000,18.000000],"boundingbox_size":[146.399994,49.000000,36.000000]}

;TYPE:Custom
START_PRINT T_BED=60 T_EXTRUDER=200
M107
G21 ; set units to millimeters
G90 ; use absolute coordinates
M83 ; use relative distances for extrusion
; Filament gcode
M104 S200 ; set temperature
M109 S200 ; set temperature and wait for it to be reached
M190 S60 ; set bed temperature and wait for it to be reached
;LAYER_CHANGE
;Z:0.24
;HEIGHT:0.24
G1 E-0.6 F3000
G1 Z0.24 F9000
G1 X86.219 Y132.762
G1 E0.6 F1800
; External perimeter
;Skirt
SET_VELOCITY_LIMIT ACCEL=3000 ACCEL_TO_DECEL=3000 SQUARE_CORNER_VELOCITY=8

; Support material

;TYPE:Skirt
;WIDTH:0.48
G1 X85.419 Y133.315 E0.04161
G1 X84.79 Y134.064 E0.04181
G1 X84.384 Y134.954 E0.04181
G1 X84.229 Y135.915 E0.04161
G1 X84.228 Y194.201 E2.49208
G1 X84.331 Y195.037 E0.03601
G1 X84.624 Y195.827 E0.03601
G1 X85.19 Y196.641 E0.04241
G1 X85.95 Y197.271 E0.04221
G1 X86.856 Y197.674 E0.04241
G1 X87.833 Y197.818 E0.04221
G1 X242.136 Y197.818 E6.59731
G1 X243.005 Y197.711 E0.03741
G1 X243.823 Y197.401 E0.03741
G1 X244.609 Y196.844 E0.04121
G1 X245.222 Y196.1 E0.04121
G1 X245.619 Y195.221 E0.04121
G1 X245.771 Y194.265 E0.04141
G1 X245.772 Y135.985 E2.4918
G1 X245.663 Y135.126 E0.03701
G1 X245.355 Y134.317 E0.03701
G1 X244.818 Y133.551 E0.04001
G1 X244.107 Y132.95 E0.03981
G1 X243.262 Y132.547 E0.04001
G1 X242.348 Y132.373 E0.03981
G1 X209.568 Y132.182 E1.40152
G1 X120.421 Y132.182 E3.81155
G1 X87.807 Y132.367 E1.39443
G1 X86.991 Y132.474 E0.03521
G1 X86.276 Y132.741 E0.03264
G1 X86.423 Y133.139 F9000
G1 F1800
G1 X85.707 Y133.632 E0.03717
G1 X85.151 Y134.295 E0.037
G1 X84.793 Y135.083 E0.037
G1 X84.657 Y135.938 E0.037
G1 X84.657 Y194.193 E2.4907
G1 X84.746 Y194.93 E0.03174
G1 X85.003 Y195.626 E0.03174
G1 X85.5 Y196.346 E0.03738
G1 X86.176 Y196.907 E0.03757
G1 X86.979 Y197.263 E0.03757
G1 X87.844 Y197.389 E0.03738
G1 X242.138 Y197.39 E6.59689
G1 X242.905 Y197.295 E0.03306
G1 X243.631 Y197.017 E0.03325
G1 X244.325 Y196.522 E0.03644
G1 X244.863 Y195.866 E0.03625
G1 X245.211 Y195.088 E0.03644
G1 X245.343 Y194.246 E0.03644
G1 X245.343 Y135.988 E2.49087
G1 X245.246 Y135.225 E0.03287
G1 X244.971 Y134.507 E0.03287
G1 X244.494 Y133.832 E0.03532
G1 X243.862 Y133.302 E0.03532
G1 X243.115 Y132.949 E0.03532
G1 X242.302 Y132.799 E0.03532
G1 X209.568 Y132.61 E1.3996
G1 X120.423 Y132.61 E3.81145
G1 X87.823 Y132.795 E1.39386
G1 X87.099 Y132.889 E0.03118
G1 X86.48 Y133.119 E0.02826
; INIT printing object Part_holder.stl id:0 copy 0
G1 E-0.6 F3000
; printing object Part_holder.stl id:0 copy 0
G1 X120.436 Y169.175 F9000
G1 E0.6 F1800
; External perimeter
;SupportMaterial
SET_VELOCITY_LIMIT ACCEL=3000 ACCEL_TO_DECEL=3000 SQUARE_CORNER_VELOCITY=8

; Support material interface

;TYPE:Support material
G1 X120.436 Y165.206 E0.16972
G1 X119.579 Y165.206 E0.03664
G1 X119.579 Y168.991 E0.16185
G1 X118.722 Y168.991 E0.03664
G1 X118.722 Y165.206 E0.16185
G1 X117.865 Y165.206 E0.03664
G1 X117.865 Y168.991 E0.16185
G1 X117.009 Y168.991 E0.03664
G1 X117.009 Y165.206 E0.16185
G1 X116.217 Y165.206 E0.03386
G1 X116.152 Y165.141 E0.00393
G1 X116.152 Y168.991 E0.16463
G1 X115.295 Y168.991 E0.03664
G1 X115.295 Y156.271 E0.54384
G1 X114.438 Y156.271 E0.03664
G1 X114.438 Y168.991 E0.54384
G1 X113.581 Y168.991 E0.03664
G1 X113.581 Y156.271 E0.54384
G1 X112.724 Y156.271 E0.03664
G1 X112.724 Y168.991 E0.54384
G1 X111.867 Y168.991 E0.03664
G1 X111.867 Y156.271 E0.54384
G1 X111.01 Y156.271 E0.03664
G1 X111.01 Y168.991 E0.54384
G1 X110.153 Y168.991 E0.03664
G1 X110.153 Y156.271 E0.54384
G1 X109.296 Y156.271 E0.03664
G1 X109.296 Y168.991 E0.54384
G1 X108.439 Y168.991 E0.03664
G1 X108.439 Y156.271 E0.54384
G1 X107.582 Y156.271 E0.03664
G1 X107.582 Y168.991 E0.54384
G1 X106.725 Y168.991 E0.03664
G1 X106.725 Y156.271 E0.54384
G1 X105.868 Y156.271 E0.03664
G1 X105.868 Y168.991 E0.54384
G1 X105.011 Y168.991 E0.03664
G1 X105.011 Y156.271 E0.54384
G1 X104.154 Y156.271 E0.03664
G1 X104.154 Y168.991 E0.54384
G1 X103.297 Y168.991 E0.03664
G1 X103.297 Y156.271 E0.54384
G1 X102.44 Y156.271 E0.03664
G1 X102.44 Y168.991 E0.54384
G1 X101.583 Y168.991 E0.03664
G1 X101.583 Y156.271 E0.54384
G1 X100.726 Y156.271 E0.03664
G1 X100.726 Y168.991 E0.54384
G1 X99.869 Y168.991 E0.03664
G1 X99.869 Y136.009 E1.41017
G1 X100.726 Y136.009 E0.03664
G1 X100.726 Y148.729 E0.54384
G1 X101.583 Y148.729 E0.03664
G1 X101.583 Y136.009 E0.54384
G1 X102.44 Y136.009 E0.03664
G1 X102.44 Y148.729 E0.54384
G1 X103.297 Y148.729 E0.03664
G1 X103.297 Y136.009 E0.54384
G1 X104.154 Y136.009 E0.03664
G1 X104.154 Y148.729 E0.54384
G1 X105.011 Y148.729 E0.03664
G1 X105.011 Y136.009 E0.54384
G1 X105.868 Y136.009 E0.03664
G1 X105.868 Y148.729 E0.54384
G1 X106.725 Y148.729 E0.03664
G1 X106.725 Y136.009 E0.54384
G1 X107.582 Y136.009 E0.03664
G1 X107.582 Y148.729 E0.54384
G1 X108.439 Y148.729 E0.03664
G1 X108.439 Y136.009 E0.54384
G1 X109.296 Y136.009 E0.03664
G1 X109.296 Y148.729 E0.54384
G1 X110.153 Y148.729 E0.03664
G1 X110.153 Y136.009 E0.54384
G1 X111.01 Y136.009 E0.03664
G1 X111.01 Y148.729 E0.54384
G1 X111.867 Y148.729 E0.03664
G1 X111.867 Y136.009 E0.54384
G1 X112.724 Y136.009 E0.03664
G1 X112.724 Y148.729 E0.54384
G1 X113.581 Y148.729 E0.03664
G1 X113.581 Y136.009 E0.54384
G1 X114.438 Y136.009 E0.03664
G1 X114.438 Y148.729 E0.54384
G1 X115.295 Y148.729 E0.03664
G1 X115.295 Y136.009 E0.54384
G1 X116.152 Y136.009 E0.03664
G1 X116.152 Y139.859 E0.16463
G1 X116.217 Y139.794 E0.00393
G1 X117.009 Y139.794 E0.03386
G1 X117.009 Y136.009 E0.16185
G1 X117.865 Y136.009 E0.03664
G1 X117.865 Y139.794 E0.16185
G1 X118.722 Y139.794 E0.03664
G1 X118.722 Y136.009 E0.16185
G1 X119.579 Y136.009 E0.03664
G1 X119.579 Y139.794 E0.16185
G1 X120.436 Y139.794 E0.03664
G1 X120.436 Y135.825 E0.16973
G1 E-0.6 F3000
G1 X99.012 Y169.175 F9000
G1 E0.6 F1800
G1 X99.012 Y136.009 E1.41805
G1 X98.155 Y136.009 E0.03664
G1 X98.155 Y168.991 E1.41017
G1 X97.298 Y168.991 E0.03664
G1 X97.298 Y136.009 E1.41017
G1 X96.441 Y136.009 E0.03664
G1 X96.441 Y168.991 E1.41017
G1 X95.584 Y168.991 E0.03664
G1 X95.584 Y136.009 E1.41017
G1 X94.727 Y136.009 E0.03664
G1 X94.727 Y168.991 E1.41017
G1 X93.87 Y168.991 E0.03664
G1 X93.87 Y136.009 E1.41017
G1 X93.013 Y136.009 E0.03664
G1 X93.013 Y168.991 E1.41017
G1 X92.156 Y168.991 E0.03664
G1 X92.156 Y136.009 E1.41017
G1 X91.299 Y136.009 E0.03664
G1 X91.299 Y168.991 E1.41017
G1 X90.442 Y168.991 E0.03664
G1 X90.442 Y136.009 E1.41017
G1 X89.585 Y136.009 E0.03664
G1 X89.585 Y168.991 E1.41017
G1 X88.728 Y168.991 E0.03664
G1 X88.728 Y136.009 E1.41017
G1 X87.871 Y136.009 E0.03664
G1 X87.871 Y169.175 E1.41805
G1 E-0.6 F3000
G1 X242.129 Y169.175 F9000
G1 E0.6 F1800
G1 X242.129 Y136.009 E1.41805
G1 X241.272 Y136.009 E0.03664
G1 X241.272 Y168.991 E1.41017
G1 X240.415 Y168.991 E0.03664
G1 X240.415 Y136.009 E1.41017
G1 X239.558 Y136.009 E0.03664
G1 X239.558 Y168.991 E1.41017
G1 X238.701 Y168.991 E0.03664
G1 X238.701 Y136.009 E1.41017
G1 X237.844 Y136.009 E0.03664
G1 X237.844 Y168.991 E1.41017
G1 X236.987 Y168.991 E0.03664
G1 X236.987 Y136.009 E1.41017
G1 X236.13 Y136.009 E0.03664
G1 X236.13 Y168.991 E1.41017
G1 X235.273 Y168.991 E0.03664
G1 X235.273 Y136.009 E1.41017
G1 X234.416 Y136.009 E0.03664
G1 X234.416 Y168.991 E1.41017
G1 X233.559 Y168.991 E0.03664
G1 X233.559 Y136.009 E1.41017
G1 X232.702 Y136.009 E0.03664
G1 X232.702 Y168.991 E1.41017
G1 X231.845 Y168.991 E0.03664
G1 X231.845 Y136.009 E1.41017
G1 X230.988 Y136.009 E0.03664
G1 X230.988 Y168.991 E1.41017
G1 X230.131 Y168.991 E0.03664
G1 X230.131 Y136.009 E1.41017
G1 X229.274 Y136.009 E0.03664
G1 X229.274 Y148.729 E0.54384
G1 X228.417 Y148.729 E0.03664
G1 X228.417 Y136.009 E0.54384
G1 X227.56 Y136.009 E0.03664
G1 X227.56 Y148.729 E0.54384
G1 X226.703 Y148.729 E0.03664
G1 X226.703 Y136.009 E0.54384
G1 X225.846 Y136.009 E0.03664
G1 X225.846 Y148.729 E0.54384
G1 X224.989 Y148.729 E0.03664
G1 X224.989 Y136.009 E0.54384
G1 X224.132 Y136.009 E0.03664
G1 X224.132 Y148.729 E0.54384
G1 X223.275 Y148.729 E0.03664
G1 X223.275 Y136.009 E0.54384
G1 X222.418 Y136.009 E0.03664
G1 X222.418 Y148.729 E0.54384
G1 X221.561 Y148.729 E0.03664
G1 X221.561 Y136.009 E0.54384
G1 X220.704 Y136.009 E0.03664
G1 X220.704 Y148.729 E0.54384
G1 X219.847 Y148.729 E0.03664
G1 X219.847 Y136.009 E0.54384
G1 X218.99 Y136.009 E0.03664
G1 X218.99 Y148.729 E0.54384
G1 X218.133 Y148.729 E0.03664
G1 X218.133 Y136.009 E0.54384
G1 X217.276 Y136.009 E0.03664
G1 X217.276 Y148.729 E0.54384
G1 X216.419 Y148.729 E0.03664
G1 X216.419 Y136.009 E0.54384
G1 X215.562 Y136.009 E0.03664
G1 X215.562 Y148.729 E0.54384
G1 X214.705 Y148.729 E0.03664
G1 X214.705 Y136.009 E0.54384
G1 X213.848 Y136.009 E0.03664
G1 X213.848 Y139.859 E0.16463
G1 X213.783 Y139.794 E0.00393
G1 X212.991 Y139.794 E0.03386
G1 X212.991 Y136.009 E0.16185
G1 X212.135 Y136.009 E0.03664
G1 X212.135 Y139.794 E0.16185
G1 X211.278 Y139.794 E0.03664
G1 X211.278 Y136.009 E0.16185
G1 X210.421 Y136.009 E0.03664
G1 X210.421 Y139.794 E0.16185
G1 X209.564 Y139.794 E0.03664
G1 X209.564 Y135.825 E0.16973
G1 E-0.6 F3000
G1 X229.274 Y169.175 F9000
G1 E0.6 F1800
G1 X229.274 Y156.271 E0.55172
G1 X228.417 Y156.271 E0.03664
G1 X228.417 Y168.991 E0.54384
G1 X227.56 Y168.991 E0.03664
G1 X227.56 Y156.271 E0.54384
G1 X226.703 Y156.271 E0.03664
G1 X226.703 Y168.991 E0.54384
G1 X225.846 Y168.991 E0.03664
G1 X225.846 Y156.271 E0.54384
G1 X224.989 Y156.271 E0.03664
G1 X224.989 Y168.991 E0.54384
G1 X224.132 Y168.991 E0.03664
G1 X224.132 Y156.271 E0.54384
G1 X223.275 Y156.271 E0.03664
G1 X223.275 Y168.991 E0.54384
G1 X222.418 Y168.991 E0.03664
G1 X222.418 Y156.271 E0.54384
G1 X221.561 Y156.271 E0.03664
G1 X221.561 Y168.991 E0.54384
G1 X220.704 Y168.991 E0.03664
G1 X220.704 Y156.271 E0.54384
G1 X219.847 Y156.271 E0.03664
G1 X219.847 Y168.991 E0.54384
G1 X218.99 Y168.991 E0.03664
G1 X218.99 Y156.271 E0.54384
G1 X218.133 Y156.271 E0.03664
G1 X218.133 Y168.991 E0.54384
G1 X217.276 Y168.991 E0.03664
G1 X217.276 Y156.271 E0.54384
G1 X216.419 Y156.271 E0.03664
G1 X216.419 Y168.991 E0.54384
G1 X215.562 Y168.991 E0.03664
G1 X215.562 Y156.271 E0.54384
G1 X214.705 Y156.271 E0.03664
G1 X214.705 Y168.991 E0.54384
G1 X213.848 Y168.991 E0.03664
G1 X213.848 Y165.141 E0.16463
G1 X213.783 Y165.206 E0.00393
G1 X212.991 Y165.206 E0.03386
G1 X212.991 Y168.991 E0.16185
G1 X212.135 Y168.991 E0.03664
G1 X212.135 Y165.206 E0.16185
G1 X211.278 Y165.206 E0.03664
G1 X211.278 Y168.991 E0.16185
G1 X210.421 Y168.991 E0.03664
G1 X210.421 Y165.206 E0.16185
G1 X209.564 Y165.206 E0.03664
G1 X209.564 Y169.175 E0.16972
G1 E-0.6 F3000
G1 X212.353 Y163.303 F9000
G1 E0.6 F1800
; External perimeter
;Perimeter
SET_VELOCITY_LIMIT ACCEL=2000 ACCEL_TO_DECEL=2000 SQUARE_CORNER_VELOCITY=8

; Overhang perimeter

;TYPE:Internal perimeter
G1 X117.647 Y163.303 E4.04917
G1 X117.647 Y141.697 E0.92378
G1 X212.353 Y141.697 E4.04917
G1 X212.353 Y163.243 E0.92121
G1 X212.781 Y163.732 F9000
G1 F1800
G1 X117.219 Y163.732 E4.08582
G1 X117.219 Y141.268 E0.96042
G1 X212.781 Y141.268 E4.08582
G1 X212.781 Y163.672 E0.95785
G1 X213.21 Y164.16 F9000
; External perimeter
;ExternalPerimeter
SET_VELOCITY_LIMIT ACCEL=1000 ACCEL_TO_DECEL=1000 SQUARE_CORNER_VELOCITY=8

; Perimeter

;TYPE:External perimeter
G1 F1800
G1 X116.79 Y164.16 E4.12246
G1 X116.79 Y164.04 E0.00458
G1 X116.79 Y163.8 E0.00971
G1 X116.79 Y140.84 E0.98167
G1 X116.91 Y140.84 E0.00458
G1 X117.15 Y140.84 E0.00971
G1 X213.21 Y140.84 E4.10706
G1 X213.21 Y140.96 E0.00458
G1 X213.21 Y141.2 E0.00971
G1 X213.21 Y164.1 E0.9791
;WIPE_START
G1 X212.863 Y163.96 F9000
;WIPE_END
G1 X211.422 Y141.761
; External perimeter
;SolidInfill
SET_VELOCITY_LIMIT ACCEL=2000 ACCEL_TO_DECEL=2000 SQUARE_CORNER_VELOCITY=8

; Bridge infill

;TYPE:Solid infill
;WIDTH:0.476079
G1 F2400
G1 X212.104 Y142.443 E0.0409
G1 X212.104 Y143.049 E0.0257
G1 X211.001 Y141.945 E0.06619
G1 X210.395 Y141.945 E0.0257
G1 X212.104 Y143.655 E0.10253
G1 X212.104 Y144.261 E0.0257
G1 X209.789 Y141.945 E0.13887
G1 X209.183 Y141.945 E0.0257
G1 X212.104 Y144.867 E0.17521
G1 X212.104 Y145.473 E0.0257
G1 X208.577 Y141.945 E0.21156
G1 X207.971 Y141.945 E0.0257
G1 X212.104 Y146.079 E0.2479
G1 X212.104 Y146.685 E0.0257
G1 X207.365 Y141.945 E0.28424
G1 X206.759 Y141.945 E0.0257
G1 X212.104 Y147.291 E0.32058
G1 X212.104 Y147.897 E0.0257
G1 X206.153 Y141.945 E0.35692
G1 X205.547 Y141.945 E0.0257
G1 X212.104 Y148.503 E0.39326
G1 X212.104 Y149.109 E0.0257
G1 X204.941 Y141.945 E0.42961
G1 X204.335 Y141.945 E0.0257
G1 X212.104 Y149.715 E0.46595
G1 X212.104 Y150.321 E0.0257
G1 X203.729 Y141.945 E0.50229
G1 X203.123 Y141.945 E0.0257
G1 X212.104 Y150.927 E0.53863
G1 X212.104 Y151.533 E0.0257
G1 X202.517 Y141.945 E0.57497
G1 X201.911 Y141.945 E0.0257
G1 X212.104 Y152.139 E0.61131
G1 X212.104 Y152.745 E0.0257
G1 X201.305 Y141.945 E0.64766
G1 X200.699 Y141.945 E0.0257
G1 X212.104 Y153.351 E0.684
G1 X212.104 Y153.957 E0.0257
G1 X200.093 Y141.945 E0.72034
G1 X199.487 Y141.945 E0.0257
G1 X212.104 Y154.563 E0.75668
G1 X212.104 Y155.169 E0.0257
G1 X198.881 Y141.945 E0.79302
G1 X198.275 Y141.945 E0.0257
G1 X212.104 Y155.775 E0.82936
G1 X212.104 Y156.381 E0.0257
G1 X197.669 Y141.945 E0.86571
G1 X197.063 Y141.945 E0.0257
G1 X212.104 Y156.987 E0.90205
G1 X212.104 Y157.593 E0.0257
G1 X196.457 Y141.945 E0.93839
G1 X195.851 Y141.945 E0.0257
G1 X212.104 Y158.199 E0.97473
G1 X212.104 Y158.805 E0.0257
G1 X195.245 Y141.945 E1.01107
G1 X194.639 Y141.945 E0.0257
G1 X212.104 Y159.411 E1.04741
G1 X212.104 Y160.017 E0.0257
G1 X194.033 Y141.945 E1.08376
G1 X193.427 Y141.945 E0.0257
G1 X212.104 Y160.623 E1.1201
G1 X212.104 Y161.229 E0.0257
G1 X192.821 Y141.945 E1.15644
G1 X192.215 Y141.945 E0.0257
G1 X212.104 Y161.835 E1.19278
G1 X212.104 Y162.441 E0.0257
G1 X191.609 Y141.945 E1.22912
G1 X191.003 Y141.945 E0.0257
G1 X212.104 Y163.047 E1.26547
G1 X212.104 Y163.055 E0.00033
G1 X211.506 Y163.055 E0.02536
G1 X190.397 Y141.945 E1.26594
G1 X189.791 Y141.945 E0.0257
G1 X210.9 Y163.055 E1.26594
G1 X210.294 Y163.055 E0.0257
G1 X189.185 Y141.945 E1.26594
G1 X188.579 Y141.945 E0.0257
G1 X209.688 Y163.055 E1.26594
G1 X209.082 Y163.055 E0.0257
G1 X187.973 Y141.945 E1.26594
G1 X187.367 Y141.945 E0.0257
G1 X208.476 Y163.055 E1.26594
G1 X207.87 Y163.055 E0.0257
G1 X186.761 Y141.945 E1.26594
G1 X186.155 Y141.945 E0.0257
G1 X207.264 Y163.055 E1.26594
G1 X206.658 Y163.055 E0.0257
G1 X185.549 Y141.945 E1.26594
G1 X184.943 Y141.945 E0.0257
G1 X206.052 Y163.055 E1.26594
G1 X205.446 Y163.055 E0.0257
G1 X184.337 Y141.945 E1.26594
G1 X183.731 Y141.945 E0.0257
G1 X204.84 Y163.055 E1.26594
G1 X204.234 Y163.055 E0.0257
G1 X183.125 Y141.945 E1.26594
G1 X182.519 Y141.945 E0.0257
G1 X203.628 Y163.055 E1.26594
G1 X203.022 Y163.055 E0.0257
G1 X181.913 Y141.945 E1.26594
G1 X181.307 Y141.945 E0.0257
G1 X202.416 Y163.055 E1.26594
G1 X201.81 Y163.055 E0.0257
G1 X180.701 Y141.945 E1.26594
G1 X180.095 Y141.945 E0.0257
G1 X201.204 Y163.055 E1.26594
G1 X200.598 Y163.055 E0.0257
G1 X179.489 Y141.945 E1.26594
G1 X178.883 Y141.945 E0.0257
G1 X199.992 Y163.055 E1.26594
G1 X199.386 Y163.055 E0.0257
G1 X178.277 Y141.945 E1.26594
G1 X177.671 Y141.945 E0.0257
G1 X198.78 Y163.055 E1.26594
G1 X198.174 Y163.055 E0.0257
G1 X177.065 Y141.945 E1.26594
G1 X176.459 Y141.945 E0.0257
G1 X197.568 Y163.055 E1.26594
