; generated by SuperSlicer 2.3.57 on 2022-02-08 at 02:58:28 UTC


;
;

;
;
; 

; external perimeters extrusion width = 0.40mm
; perimeters extrusion width = 0.40mm
; infill extrusion width = 0.72mm
; solid infill extrusion width = 0.40mm
; top infill extrusion width = 0.40mm
; support material extrusion width = 0.40mm
; first layer extrusion width = 0.48mm


;TYPE:Custom
START_PRINT T_BED=70 T_EXTRUDER=230
M107
G21 ; set units to millimeters
G90 ; use absolute coordinates
M83 ; use relative distances for extrusion
; Filament gcode
M109 S230 ; set temperature and wait for it to be reached
M190 S70 ; set bed temperature and wait for it to be reached
;LAYER_CHANGE
;Z:0.24
;HEIGHT:0.24
G1 E-1 F3000
G1 Z0.24 F9000
G1 X114.439 Y103.339
G1 E1 F1800
;TYPE:Skirt
;WIDTH:0.48
G1 X113.161 Y104.982 E0.089
G1 X112.694 Y105.748 E0.03835
G1 X102.209 Y126.868 E1.00814
G1 X99.569 Y132.698 E0.27366
G1 X97.426 Y138.553 E0.26658
G1 X96.11 Y143.49 E0.21841
G1 X95.323 Y148.59 E0.22067
G1 X95.088 Y153.693 E0.21841
G1 X95.408 Y158.88 E0.22217
G1 X96.278 Y163.955 E0.22016
G1 X97.687 Y168.908 E0.22016
G1 X99.622 Y173.686 E0.22042
G1 X102.053 Y178.219 E0.21991
G1 X104.946 Y182.45 E0.21914
G1 X108.495 Y186.666 E0.23561
G1 X112.386 Y190.501 E0.2336
G1 X116.653 Y193.989 E0.23561
G1 X121.205 Y197.052 E0.23461
G1 X126.022 Y199.68 E0.23461
G1 X131.062 Y201.851 E0.23461
G1 X136.281 Y203.544 E0.23461
G1 X141.635 Y204.747 E0.23461
G1 X147.077 Y205.449 E0.23461
G1 X152.5 Y205.643 E0.23201
G1 X157.925 Y205.448 E0.2321
G1 X163.367 Y204.747 E0.23461
G1 X168.715 Y203.546 E0.23436
G1 X173.94 Y201.85 E0.23486
G1 X178.974 Y199.682 E0.23436
G1 X183.796 Y197.051 E0.23486
G1 X188.349 Y193.988 E0.23461
G1 X192.61 Y190.504 E0.23536
G1 X196.506 Y186.665 E0.23385
G1 X200.052 Y182.453 E0.23538
G1 X202.945 Y178.222 E0.21916
G1 X205.376 Y173.689 E0.21991
G1 X207.312 Y168.911 E0.22042
G1 X208.723 Y163.953 E0.22041
G1 X209.592 Y158.877 E0.22017
G1 X209.912 Y153.697 E0.22192
G1 X209.678 Y148.594 E0.21841
G1 X208.889 Y143.487 E0.22092
G1 X207.575 Y138.556 E0.21822
G1 X205.431 Y132.699 E0.26664
G1 X202.792 Y126.869 E0.27363
G1 X192.306 Y105.748 E1.00821
G1 X191.839 Y104.982 E0.03837
G1 X190.561 Y103.339 E0.089
G1 X189.08 Y101.951 E0.08678
G1 X187.274 Y100.736 E0.09305
G1 X185.283 Y99.83 E0.09354
G1 X183.395 Y99.313 E0.08369
G1 X155.059 Y94.575 E1.22834
G1 X152.508 Y94.357 E0.10944
G1 X149.94 Y94.575 E0.11022
G1 X121.607 Y99.313 E1.22821
G1 X119.717 Y99.83 E0.08377
G1 X117.725 Y100.736 E0.09355
G1 X115.92 Y101.951 E0.09305
G1 X114.483 Y103.298 E0.08422
G1 X114.776 Y103.61 F9000
G1 F1800
G1 X114.746 Y103.637 E0.00172
G1 X113.36 Y105.448 E0.09748
G1 X112.496 Y107.087 E0.07925
G1 X102.592 Y127.06 E0.95317
G1 X99.969 Y132.854 E0.27194
G1 X97.834 Y138.685 E0.26548
G1 X96.53 Y143.578 E0.21651
G1 X95.749 Y148.639 E0.21892
G1 X95.517 Y153.691 E0.21627
G1 X95.834 Y158.83 E0.22012
G1 X96.695 Y163.86 E0.2182
G1 X98.092 Y168.769 E0.21819
G1 X100.01 Y173.504 E0.21844
G1 X102.42 Y177.996 E0.21795
G1 X105.287 Y182.192 E0.21728
G1 X108.811 Y186.376 E0.23387
G1 X112.679 Y190.187 E0.23218
G1 X116.909 Y193.646 E0.23363
G1 X121.429 Y196.687 E0.23291
G1 X126.211 Y199.296 E0.23291
G1 X131.209 Y201.448 E0.23267
G1 X136.396 Y203.132 E0.23315
G1 X141.711 Y204.325 E0.23291
G1 X147.113 Y205.022 E0.23291
G1 X152.498 Y205.214 E0.23037
G1 X157.891 Y205.021 E0.23074
G1 X163.294 Y204.325 E0.23291
G1 X168.603 Y203.132 E0.23267
G1 X173.79 Y201.449 E0.23315
G1 X178.788 Y199.296 E0.23267
G1 X183.57 Y196.687 E0.23291
G1 X188.09 Y193.646 E0.23291
G1 X192.321 Y190.188 E0.23363
G1 X196.189 Y186.377 E0.23218
G1 X199.711 Y182.193 E0.23382
G1 X202.579 Y177.999 E0.21723
G1 X204.989 Y173.507 E0.21796
G1 X206.907 Y168.772 E0.21844
G1 X208.305 Y163.858 E0.21844
G1 X209.167 Y158.828 E0.2182
G1 X209.483 Y153.695 E0.21988
G1 X209.251 Y148.636 E0.21651
G1 X208.47 Y143.576 E0.21892
G1 X207.166 Y138.684 E0.21647
G1 X205.031 Y132.854 E0.26543
G1 X202.407 Y127.058 E0.27204
G1 X192.504 Y107.087 E0.95306
G1 X191.64 Y105.449 E0.07919
G1 X190.254 Y103.638 E0.09748
G1 X188.818 Y102.289 E0.08427
G1 X187.066 Y101.11 E0.09029
G1 X185.133 Y100.231 E0.09077
G1 X183.288 Y99.728 E0.08177
G1 X154.995 Y94.999 E1.22649
G1 X152.504 Y94.786 E0.10688
G1 X150.009 Y94.998 E0.10706
G1 X121.71 Y99.729 E1.22673
G1 X119.868 Y100.231 E0.08161
G1 X117.935 Y101.109 E0.09077
G1 X116.184 Y102.289 E0.09029
G1 X114.819 Y103.569 E0.07999
G1 E-1 F3000
G1 X116.255 Y116.467 F9000
G1 E1 F1800
;TYPE:Internal perimeter
G1 X117.642 Y114.644 E0.09793
G1 X117.322 Y113.143 E0.06561
G1 X117.275 Y111.973 E0.05007
G1 X117.426 Y110.812 E0.05007
G1 X117.771 Y109.693 E0.05007
G1 X118.299 Y108.648 E0.05007
G1 X118.997 Y107.707 E0.05007
G1 X119.843 Y106.898 E0.05007
G1 X120.814 Y106.242 E0.05007
G1 X121.881 Y105.761 E0.05007
G1 X123.015 Y105.466 E0.05007
G1 X124.21 Y105.364 E0.05129
G1 X144.429 Y105.364 E0.86448
G1 X145.595 Y103.798 E0.08349
G1 X146.724 Y102.721 E0.06672
G1 X148.017 Y101.848 E0.06672
G1 X149.439 Y101.204 E0.06672
G1 X150.948 Y100.808 E0.06672
G1 X152.5 Y100.671 E0.06661
G1 X154.052 Y100.808 E0.06661
G1 X155.561 Y101.204 E0.06672
G1 X156.983 Y101.848 E0.06672
G1 X158.276 Y102.721 E0.06672
G1 X159.405 Y103.798 E0.06672
G1 X160.571 Y105.364 E0.08349
G1 X180.79 Y105.364 E0.86448
G1 X181.985 Y105.466 E0.05129
G1 X183.119 Y105.761 E0.05007
G1 X184.186 Y106.243 E0.05007
G1 X185.157 Y106.898 E0.05007
G1 X186.003 Y107.707 E0.05007
G1 X186.701 Y108.648 E0.05007
G1 X187.229 Y109.693 E0.05007
G1 X187.574 Y110.812 E0.05007
G1 X187.725 Y111.973 E0.05007
G1 X187.678 Y113.143 E0.05007
G1 X187.358 Y114.644 E0.06561
G1 X191.11 Y119.575 E0.26493
G1 X194.303 Y124.494 E0.25074
G1 X197.12 Y129.638 E0.25074
G1 X199.545 Y134.978 E0.25074
G1 X201.563 Y140.479 E0.25051
G1 X202.716 Y144.804 E0.19139
G1 X203.397 Y149.223 E0.19116
G1 X203.6 Y153.689 E0.19116
G1 X203.322 Y158.151 E0.19116
G1 X202.567 Y162.558 E0.19116
G1 X201.343 Y166.858 E0.19116
G1 X199.665 Y171.002 E0.19116
G1 X197.552 Y174.942 E0.19116
G1 X195.026 Y178.634 E0.19126
G1 X191.87 Y182.381 E0.20946
G1 X188.378 Y185.821 E0.20956
G1 X184.583 Y188.922 E0.20956
G1 X180.516 Y191.658 E0.20956
G1 X176.213 Y194.006 E0.20956
G1 X171.712 Y195.944 E0.20956
G1 X167.049 Y197.457 E0.20956
G1 X162.267 Y198.532 E0.20956
G1 X157.406 Y199.158 E0.20956
G1 X152.5 Y199.331 E0.20988
G1 X147.594 Y199.158 E0.20988
G1 X142.733 Y198.532 E0.20956
G1 X137.951 Y197.457 E0.20956
G1 X133.288 Y195.944 E0.20956
G1 X128.787 Y194.006 E0.20956
G1 X124.484 Y191.658 E0.20956
G1 X120.417 Y188.922 E0.20956
G1 X116.622 Y185.821 E0.20956
G1 X113.13 Y182.381 E0.20956
G1 X109.974 Y178.634 E0.20946
G1 X107.448 Y174.942 E0.19126
G1 X105.335 Y171.002 E0.19116
G1 X103.657 Y166.858 E0.19116
G1 X102.433 Y162.558 E0.19116
G1 X101.678 Y158.151 E0.19116
G1 X101.4 Y153.689 E0.19116
G1 X101.603 Y149.223 E0.19116
G1 X102.284 Y144.804 E0.19116
G1 X103.437 Y140.479 E0.19139
G1 X105.455 Y134.978 E0.25051
G1 X107.88 Y129.638 E0.25074
G1 X110.697 Y124.494 E0.25074
G1 X113.89 Y119.575 E0.25074
G1 X116.219 Y116.515 E0.16444
G1 X115.878 Y116.255 F9000
;TYPE:External perimeter
G1 F1800
G1 X117.182 Y114.541 E0.09209
G1 X116.896 Y113.197 E0.05876
G1 X116.846 Y111.954 E0.05318
G1 X117.006 Y110.72 E0.05318
G1 X117.372 Y109.532 E0.05318
G1 X117.934 Y108.422 E0.05318
G1 X118.674 Y107.423 E0.05318
G1 X119.573 Y106.563 E0.05318
G1 X120.604 Y105.867 E0.05318
G1 X121.738 Y105.355 E0.05318
G1 X122.942 Y105.042 E0.05318
G1 X124.192 Y104.936 E0.05362
G1 X144.214 Y104.936 E0.85606
G1 X145.273 Y103.513 E0.07583
G1 X146.454 Y102.386 E0.06981
G1 X147.807 Y101.472 E0.06981
G1 X149.295 Y100.799 E0.06981
G1 X150.874 Y100.384 E0.06981
G1 X152.5 Y100.241 E0.06978
G1 X154.126 Y100.384 E0.06978
G1 X155.705 Y100.799 E0.06981
G1 X157.193 Y101.472 E0.06981
G1 X158.546 Y102.386 E0.06981
G1 X159.727 Y103.513 E0.06981
G1 X160.786 Y104.936 E0.07583
G1 X180.808 Y104.936 E0.85606
G1 X182.058 Y105.042 E0.05362
G1 X183.262 Y105.355 E0.05318
G1 X184.396 Y105.867 E0.05318
G1 X185.427 Y106.563 E0.05318
G1 X186.326 Y107.423 E0.05318
G1 X187.066 Y108.422 E0.05318
G1 X187.628 Y109.532 E0.05318
G1 X187.994 Y110.72 E0.05318
G1 X188.154 Y111.954 E0.05318
G1 X188.104 Y113.197 E0.05318
G1 X187.818 Y114.541 E0.05876
G1 X191.461 Y119.328 E0.25721
G1 X194.671 Y124.274 E0.25211
G1 X197.503 Y129.446 E0.25211
G1 X199.942 Y134.815 E0.25211
G1 X201.972 Y140.349 E0.25203
G1 X203.136 Y144.716 E0.19321
G1 X203.824 Y149.18 E0.19313
G1 X204.029 Y153.693 E0.19313
G1 X203.748 Y158.201 E0.19313
G1 X202.985 Y162.653 E0.19313
G1 X201.749 Y166.997 E0.19313
G1 X200.053 Y171.184 E0.19313
G1 X197.918 Y175.165 E0.19313
G1 X195.368 Y178.894 E0.19317
G1 X192.185 Y182.672 E0.21123
G1 X188.665 Y186.14 E0.21127
G1 X184.839 Y189.267 E0.21127
G1 X180.739 Y192.025 E0.21127
G1 X176.401 Y194.392 E0.21127
G1 X171.863 Y196.346 E0.21127
G1 X167.163 Y197.871 E0.21127
G1 X162.342 Y198.954 E0.21127
G1 X157.441 Y199.585 E0.21127
G1 X152.5 Y199.76 E0.21138
G1 X147.559 Y199.585 E0.21138
G1 X142.658 Y198.954 E0.21127
G1 X137.837 Y197.871 E0.21127
G1 X133.137 Y196.346 E0.21127
G1 X128.599 Y194.392 E0.21127
G1 X124.261 Y192.025 E0.21127
G1 X120.161 Y189.267 E0.21127
G1 X116.335 Y186.14 E0.21127
G1 X112.815 Y182.672 E0.21127
G1 X109.632 Y178.894 E0.21123
G1 X107.082 Y175.165 E0.19317
G1 X104.947 Y171.184 E0.19313
G1 X103.251 Y166.997 E0.19313
G1 X102.015 Y162.653 E0.19313
G1 X101.252 Y158.201 E0.19313
G1 X100.971 Y153.693 E0.19313
G1 X101.176 Y149.18 E0.19313
G1 X101.864 Y144.716 E0.19313
G1 X103.028 Y140.349 E0.19321
G1 X105.058 Y134.815 E0.25203
G1 X107.497 Y129.446 E0.25211
G1 X110.329 Y124.274 E0.25211
G1 X113.539 Y119.328 E0.25211
G1 X115.842 Y116.303 E0.16255
;WIPE_START
G1 X116.275 Y116.306 F9000
;WIPE_END
G1 E-1 F3000
G1 X186.608 Y108.797 F9000
G1 E1 F1800
;TYPE:Solid infill
;WIDTH:0.480455
G1 X185.482 Y107.671 E0.06817
G1 X184.946 Y107.159 E0.03171
G1 X184.023 Y106.535 E0.04769
G1 X183.508 Y106.303 E0.02416
G1 X186.811 Y109.606 E0.19989
G1 X186.918 Y109.818 E0.01018
G1 X187.141 Y110.542 E0.03243
G1 X182.56 Y105.961 E0.27729
G1 X181.929 Y105.797 E0.0279
G1 X181.777 Y105.784 E0.00653
G1 X187.301 Y111.308 E0.33438
G1 X187.389 Y112.002 E0.02992
G1 X181.114 Y105.727 E0.37977
G1 X180.776 Y105.699 E0.01453
G1 X180.48 Y105.699 E0.01268
G1 X187.366 Y112.585 E0.41676
G1 X187.345 Y113.101 E0.02213
G1 X187.333 Y113.158 E0.00247
G1 X179.874 Y105.699 E0.45144
G1 X179.268 Y105.699 E0.02593
G1 X187.226 Y113.657 E0.48168
G1 X187.12 Y114.157 E0.02186
G1 X178.662 Y105.699 E0.51191
G1 X178.056 Y105.699 E0.02593
G1 X187.013 Y114.656 E0.54214
G1 X186.999 Y114.724 E0.00298
G1 X188.664 Y116.913 E0.11771
G1 X177.45 Y105.699 E0.67874
G1 X176.844 Y105.699 E0.02593
G1 X190.593 Y119.448 E0.83216
G1 X190.836 Y119.768 E0.01718
G1 X191.816 Y121.277 E0.07701
G1 X176.238 Y105.699 E0.94284
G1 X175.632 Y105.699 E0.02593
G1 X192.937 Y123.004 E1.04736
G1 X194.016 Y124.666 E0.0848
G1 X194.043 Y124.716 E0.00246
G1 X175.026 Y105.699 E1.151
G1 X174.42 Y105.699 E0.02593
G1 X194.777 Y126.056 E1.23207
G1 X195.511 Y127.395 E0.06536
G1 X173.814 Y105.699 E1.31315
G1 X173.208 Y105.699 E0.02593
G1 X196.244 Y128.735 E1.39423
G1 X196.821 Y129.788 E0.05136
G1 X196.929 Y130.026 E0.01118
G1 X172.602 Y105.699 E1.47233
G1 X171.996 Y105.699 E0.02593
G1 X197.433 Y131.136 E1.53952
G1 X197.937 Y132.246 E0.05218
G1 X171.39 Y105.699 E1.60671
G1 X170.784 Y105.699 E0.02593
G1 X198.441 Y133.356 E1.67391
G1 X198.946 Y134.466 E0.05218
G1 X170.178 Y105.699 E1.7411
G1 X169.572 Y105.699 E0.02593
G1 X199.385 Y135.511 E1.80435
G1 X199.736 Y136.469 E0.04363
G1 X168.966 Y105.699 E1.86228
G1 X168.36 Y105.699 E0.02593
G1 X200.087 Y137.426 E1.9202
G1 X200.438 Y138.383 E0.04363
G1 X167.754 Y105.699 E1.97813
G1 X167.148 Y105.699 E0.02593
G1 X200.789 Y139.34 E2.03605
G1 X201.14 Y140.297 E0.04363
G1 X166.542 Y105.699 E2.09398
G1 X165.936 Y105.699 E0.02593
G1 X201.399 Y141.162 E2.14632
G1 X201.619 Y141.988 E0.03659
G1 X165.33 Y105.699 E2.19632
G1 X164.724 Y105.699 E0.02593
G1 X201.839 Y142.814 E2.24632
G1 X202.06 Y143.64 E0.03659
G1 X164.118 Y105.699 E2.29632
G1 X163.512 Y105.699 E0.02593
G1 X202.28 Y144.466 E2.34633
G1 X202.388 Y144.873 E0.01799
G1 X202.444 Y145.237 E0.01577
G1 X162.906 Y105.699 E2.39295
G1 X162.3 Y105.699 E0.02593
G1 X202.555 Y145.953 E2.43631
G1 X202.665 Y146.67 E0.03102
G1 X161.694 Y105.699 E2.47967
G1 X161.088 Y105.699 E0.02593
G1 X202.775 Y147.386 E2.52303
G1 X202.886 Y148.102 E0.03102
G1 X157.141 Y102.358 E2.7686
G1 X156.819 Y102.14 E0.01661
G1 X155.903 Y101.726 E0.04304
G1 X202.996 Y148.819 E2.8502
G1 X203.064 Y149.256 E0.01892
G1 X203.075 Y149.503 E0.0106
G1 X154.965 Y101.393 E2.91177
G1 X154.143 Y101.177 E0.03635
G1 X203.104 Y150.138 E2.96323
G1 X203.133 Y150.773 E0.0272
G1 X153.45 Y101.09 E3.00692
G1 X152.785 Y101.032 E0.02855
G1 X203.161 Y151.408 E3.04889
G1 X203.19 Y152.043 E0.0272
G1 X152.182 Y101.035 E3.08714
G1 X151.625 Y101.084 E0.02392
G1 X203.219 Y152.677 E3.12258
G1 X203.248 Y153.312 E0.0272
G1 X151.069 Y101.133 E3.15803
G1 X151.006 Y101.138 E0.00271
G1 X150.58 Y101.25 E0.01884
G1 X203.25 Y153.921 E3.18776
G1 X203.215 Y154.491 E0.02446
G1 X150.1 Y101.376 E3.21466
G1 X149.62 Y101.502 E0.02124
G1 X203.179 Y155.062 E3.24157
G1 X203.144 Y155.632 E0.02446
G1 X149.194 Y101.682 E3.26521
G1 X148.776 Y101.871 E0.0196
G1 X203.108 Y156.202 E3.28831
G1 X203.073 Y156.773 E0.02446
G1 X148.359 Y102.059 E3.31141
G1 X148.181 Y102.14 E0.00839
G1 X147.974 Y102.28 E0.01068
G1 X203.037 Y157.343 E3.33259
G1 X203.002 Y157.914 E0.02446
G1 X147.612 Y102.524 E3.35234
G1 X147.25 Y102.768 E0.01868
G1 X202.932 Y158.45 E3.36999
G1 X202.843 Y158.967 E0.02246
G1 X146.895 Y103.019 E3.38612
G1 X146.585 Y103.315 E0.01834
G1 X202.754 Y159.484 E3.39952
G1 X202.666 Y160.002 E0.02246
G1 X146.275 Y103.611 E3.41292
G1 X145.965 Y103.907 E0.01834
G1 X202.577 Y160.519 E3.42631
G1 X202.488 Y161.036 E0.02246
G1 X145.687 Y104.235 E3.43779
G1 X145.428 Y104.582 E0.01853
G1 X202.4 Y161.554 E3.44808
G1 X202.311 Y162.071 E0.02246
G1 X145.169 Y104.929 E3.45836
G1 X144.911 Y105.277 E0.01853
G1 X202.213 Y162.579 E3.46809
G1 X202.079 Y163.051 E0.02099
G1 X144.652 Y105.624 E3.47562
G1 X144.597 Y105.699 E0.00397
G1 X144.121 Y105.699 E0.02038
G1 X201.945 Y163.523 E3.49967
G1 X201.81 Y163.994 E0.02099
G1 X143.515 Y105.699 E3.52822
G1 X142.909 Y105.699 E0.02593
G1 X201.676 Y164.466 E3.55677
G1 X201.542 Y164.938 E0.02099
G1 X142.303 Y105.699 E3.58532
G1 X141.697 Y105.699 E0.02593
G1 X201.408 Y165.41 E3.61387
G1 X201.274 Y165.881 E0.02099
G1 X141.091 Y105.699 E3.64242
G1 X140.485 Y105.699 E0.02593
G1 X201.139 Y166.353 E3.67097
G1 X201.027 Y166.749 E0.01763
G1 X200.999 Y166.818 E0.00319
G1 X139.879 Y105.699 E3.69913
G1 X139.273 Y105.699 E0.02593
G1 X200.824 Y167.25 E3.72524
G1 X200.649 Y167.681 E0.01991
G1 X138.667 Y105.699 E3.75134
G1 X138.061 Y105.699 E0.02593
G1 X200.475 Y168.112 E3.77744
G1 X200.3 Y168.544 E0.01991
G1 X137.455 Y105.699 E3.80355
G1 X136.849 Y105.699 E0.02593
G1 X200.125 Y168.975 E3.82965
G1 X199.951 Y169.406 E0.01991
G1 X136.243 Y105.699 E3.85576
G1 X135.637 Y105.699 E0.02593
G1 X199.776 Y169.838 E3.88186
G1 X199.601 Y170.269 E0.01991
G1 X135.031 Y105.699 E3.90797
G1 X134.425 Y105.699 E0.02593
G1 X199.427 Y170.7 E3.93407
G1 X199.362 Y170.86 E0.00737
G1 X199.229 Y171.108 E0.01206
G1 X133.819 Y105.699 E3.95877
G1 X133.213 Y105.699 E0.02593
G1 X199.017 Y171.503 E3.98264
G1 X198.805 Y171.897 E0.01915
G1 X132.607 Y105.699 E4.00651
G1 X132.001 Y105.699 E0.02593
G1 X198.594 Y172.292 E4.03038
G1 X198.382 Y172.686 E0.01915
G1 X131.395 Y105.699 E4.05425
G1 X130.789 Y105.699 E0.02593
G1 X198.171 Y173.08 E4.07813
G1 X197.959 Y173.475 E0.01915
G1 X130.183 Y105.699 E4.102
G1 X129.577 Y105.699 E0.02593
G1 X197.748 Y173.869 E4.12587
G1 X197.536 Y174.264 E0.01915
G1 X128.971 Y105.699 E4.14974
G1 X128.365 Y105.699 E0.02593
G1 X197.325 Y174.658 E4.17361
G1 X197.266 Y174.768 E0.00534
G1 X197.088 Y175.028 E0.01345
G1 X127.759 Y105.699 E4.19597
G1 X127.153 Y105.699 E0.02593
G1 X196.842 Y175.387 E4.21775
G1 X196.596 Y175.747 E0.01866
G1 X126.547 Y105.699 E4.23953
G1 X125.941 Y105.699 E0.02593
G1 X196.35 Y176.107 E4.26131
G1 X196.104 Y176.467 E0.01866
