; generated by SuperSlicer 2.3.57 on 2022-02-05 at 17:46:00 UTC


;
;

;
;
; 

; external perimeters extrusion width = 0.40mm
; perimeters extrusion width = 0.45mm
; infill extrusion width = 0.72mm
; solid infill extrusion width = 0.56mm
; top infill extrusion width = 0.40mm
; first layer extrusion width = 0.48mm

; external perimeters extrusion width = 0.40mm
; perimeters extrusion width = 0.45mm
; infill extrusion width = 0.72mm
; solid infill extrusion width = 0.56mm
; top infill extrusion width = 0.40mm
; first layer extrusion width = 0.48mm

; external perimeters extrusion width = 0.40mm
; perimeters extrusion width = 0.45mm
; infill extrusion width = 0.72mm
; solid infill extrusion width = 0.56mm
; top infill extrusion width = 0.40mm
; first layer extrusion width = 0.48mm

; external perimeters extrusion width = 0.40mm
; perimeters extrusion width = 0.45mm
; infill extrusion width = 0.72mm
; solid infill extrusion width = 0.56mm
; top infill extrusion width = 0.40mm
; first layer extrusion width = 0.48mm

; external perimeters extrusion width = 0.40mm
; perimeters extrusion width = 0.45mm
; infill extrusion width = 0.72mm
; solid infill extrusion width = 0.56mm
; top infill extrusion width = 0.40mm
; first layer extrusion width = 0.48mm

; object:{"name":"Part4-red","id":"Part4-red.STL id:0 copy 0","object_center":[164.851980,172.175420,0.000000],"boundingbox_center":[164.851980,172.175420,0.750000],"boundingbox_size":[15.131686,15.126669,1.500000]}
; object:{"name":"Part3-red2x","id":"Part3-red2x.STL id:1 copy 0","object_center":[164.999956,153.704873,0.000000],"boundingbox_center":[164.999956,153.704873,0.750000],"boundingbox_size":[34.745237,6.887507,1.500000]}
; object:{"name":"Part3-red2x","id":"Part3-red2x.STL id:2 copy 0","object_center":[164.999956,160.839054,0.000000],"boundingbox_center":[164.999956,160.839054,0.750000],"boundingbox_size":[34.745237,6.887507,1.500000]}
; plater:{"center":[164.999956,164.999937,0.000000],"boundingbox_center":[164.999956,164.999937,0.750000],"boundingbox_size":[34.745237,29.477635,1.500000]}

;TYPE:Custom
START_PRINT T_BED=60 T_EXTRUDER=200
M107
G21 ; set units to millimeters
G90 ; use absolute coordinates
M83 ; use relative distances for extrusion
; Filament gcode
M104 S200 ; set temperature
M109 S200 ; set temperature and wait for it to be reached
M190 S60 ; set bed temperature and wait for it to be reached
;LAYER_CHANGE
;Z:0.24
;HEIGHT:0.24
G1 E-0.6 F3000
G1 Z0.24 F9000
; INIT printing object Part4-red.STL id:0 copy 0
; printing object Part4-red.STL id:0 copy 0
G1 X162.164 Y172.747
G1 E0.6 F1800
;TYPE:Internal perimeter
;WIDTH:0.48
G1 X161.78 Y173.147 E0.02372
G1 X161.47 Y173.607 E0.02372
G1 X161.241 Y174.112 E0.02372
G1 X161.101 Y174.649 E0.02372
G1 X161.054 Y175.202 E0.02372
G1 X161.101 Y175.755 E0.02372
G1 X161.241 Y176.292 E0.02372
G1 X161.47 Y176.797 E0.02372
G1 X161.78 Y177.257 E0.02372
G1 X162.164 Y177.657 E0.02372
G1 X162.61 Y177.987 E0.02372
G1 X163.105 Y178.237 E0.02372
G1 X163.636 Y178.399 E0.02372
G1 X164.186 Y178.47 E0.02372
G1 X164.74 Y178.446 E0.02372
G1 X165.283 Y178.329 E0.02372
G1 X165.797 Y178.123 E0.02372
G1 X166.27 Y177.832 E0.02372
G1 X166.686 Y177.465 E0.02372
G1 X167.035 Y177.034 E0.02372
G1 X167.305 Y176.549 E0.02372
G1 X167.49 Y176.026 E0.02372
G1 X167.581 Y175.496 E0.02302
G1 X167.593 Y175.202 E0.01256
G1 X167.581 Y174.909 E0.01256
G1 X167.49 Y174.378 E0.02302
G1 X167.305 Y173.855 E0.02372
G1 X167.035 Y173.371 E0.02372
G1 X166.686 Y172.939 E0.02372
G1 X166.27 Y172.572 E0.02372
G1 X165.797 Y172.282 E0.02372
G1 X165.283 Y172.075 E0.02372
G1 X164.74 Y171.958 E0.02372
G1 X164.186 Y171.934 E0.02372
G1 X163.636 Y172.005 E0.02372
G1 X163.105 Y172.167 E0.02372
G1 X162.61 Y172.417 E0.02372
G1 X162.212 Y172.711 E0.02115
G1 X162.467 Y173.056 F9000
;TYPE:External perimeter
G1 F1800
G1 X162.448 Y173.07 E0.00101
G1 X162.115 Y173.418 E0.0206
G1 X161.845 Y173.817 E0.0206
G1 X161.647 Y174.256 E0.0206
G1 X161.525 Y174.722 E0.0206
G1 X161.484 Y175.202 E0.0206
G1 X161.525 Y175.682 E0.0206
G1 X161.647 Y176.148 E0.0206
G1 X161.845 Y176.587 E0.0206
G1 X162.115 Y176.987 E0.0206
G1 X162.448 Y177.334 E0.0206
G1 X162.835 Y177.621 E0.0206
G1 X163.266 Y177.838 E0.0206
G1 X163.726 Y177.979 E0.0206
G1 X164.204 Y178.04 E0.0206
G1 X164.686 Y178.02 E0.0206
G1 X165.157 Y177.918 E0.0206
G1 X165.604 Y177.739 E0.0206
G1 X166.014 Y177.486 E0.0206
G1 X166.376 Y177.168 E0.0206
G1 X166.678 Y176.793 E0.0206
G1 X166.913 Y176.372 E0.0206
G1 X167.074 Y175.918 E0.0206
G1 X167.154 Y175.45 E0.02029
G1 X167.165 Y175.202 E0.01062
G1 X167.154 Y174.954 E0.01062
G1 X167.074 Y174.486 E0.02029
G1 X166.913 Y174.032 E0.0206
G1 X166.678 Y173.611 E0.0206
G1 X166.376 Y173.237 E0.0206
G1 X166.014 Y172.918 E0.0206
G1 X165.604 Y172.666 E0.0206
G1 X165.157 Y172.486 E0.0206
G1 X164.686 Y172.384 E0.0206
G1 X164.204 Y172.364 E0.0206
G1 X163.726 Y172.425 E0.0206
G1 X163.266 Y172.566 E0.0206
G1 X162.835 Y172.783 E0.0206
G1 X162.515 Y173.02 E0.01703
;WIPE_START
G1 X162.445 Y173.046 F9000
;WIPE_END
G1 E-0.6 F3000
G1 X167.076 Y178.134 F9000
G1 E0.6 F1800
;TYPE:Internal perimeter
G1 X166.899 Y177.883 E0.01313
G1 X167.391 Y177.274 E0.03346
G1 X167.697 Y176.726 E0.02684
G1 X167.906 Y176.135 E0.02684
G1 X168.008 Y175.541 E0.02574
G1 X168.022 Y175.202 E0.01451
G1 X168.008 Y174.863 E0.01451
G1 X167.906 Y174.27 E0.02574
G1 X167.697 Y173.678 E0.02684
G1 X167.391 Y173.13 E0.02684
G1 X166.997 Y172.641 E0.02684
G1 X166.525 Y172.227 E0.02684
G1 X165.991 Y171.898 E0.02684
G1 X165.408 Y171.664 E0.02684
G1 X164.795 Y171.531 E0.02684
G1 X164.168 Y171.505 E0.02684
G1 X163.545 Y171.584 E0.02684
G1 X162.945 Y171.768 E0.02684
G1 X162.385 Y172.051 E0.02684
G1 X161.88 Y172.424 E0.02684
G1 X161.446 Y172.877 E0.02684
G1 X161.094 Y173.397 E0.02684
G1 X160.836 Y173.969 E0.02684
G1 X160.677 Y174.577 E0.02684
G1 X160.624 Y175.202 E0.02684
G1 X160.677 Y175.828 E0.02684
G1 X160.836 Y176.435 E0.02684
G1 X161.024 Y176.851 E0.01953
G1 X160.766 Y177.047 E0.01386
G1 X160.527 Y176.848 E0.01329
G1 X160.069 Y176.379 E0.02803
G1 X159.662 Y175.865 E0.02803
G1 X159.311 Y175.312 E0.02803
G1 X159.018 Y174.725 E0.02803
G1 X158.786 Y174.112 E0.02803
G1 X158.619 Y173.478 E0.02803
G1 X158.518 Y172.83 E0.02803
G1 X158.485 Y172.175 E0.02803
G1 X158.518 Y171.521 E0.02803
G1 X158.619 Y170.873 E0.02803
G1 X158.786 Y170.239 E0.02803
G1 X159.018 Y169.626 E0.02803
G1 X159.311 Y169.039 E0.02803
G1 X159.662 Y168.486 E0.02803
G1 X160.069 Y167.972 E0.02803
G1 X160.527 Y167.503 E0.02803
G1 X161.03 Y167.083 E0.02803
G1 X161.574 Y166.717 E0.02803
G1 X162.153 Y166.409 E0.02803
G1 X162.76 Y166.162 E0.02803
G1 X163.389 Y165.978 E0.02803
G1 X164.034 Y165.861 E0.02803
G1 X164.688 Y165.81 E0.02803
G1 X165.343 Y165.827 E0.02803
G1 X165.994 Y165.911 E0.02803
G1 X166.632 Y166.062 E0.02803
G1 X167.251 Y166.277 E0.02803
G1 X167.844 Y166.555 E0.02803
G1 X168.406 Y166.893 E0.02803
G1 X168.931 Y167.286 E0.02803
G1 X169.412 Y167.731 E0.02803
G1 X169.845 Y168.224 E0.02803
G1 X170.225 Y168.758 E0.02803
G1 X170.547 Y169.329 E0.02803
G1 X170.81 Y169.929 E0.02803
G1 X171.009 Y170.554 E0.02803
G1 X171.143 Y171.196 E0.02803
G1 X171.211 Y171.849 E0.02808
G1 X171.211 Y172.502 E0.02792
G1 X171.143 Y173.155 E0.02808
G1 X171.009 Y173.797 E0.02803
G1 X170.81 Y174.421 E0.02803
G1 X170.547 Y175.022 E0.02803
G1 X170.225 Y175.593 E0.02803
G1 X169.845 Y176.127 E0.02803
G1 X169.412 Y176.619 E0.02803
G1 X168.931 Y177.065 E0.02803
G1 X168.406 Y177.458 E0.02803
G1 X167.844 Y177.796 E0.02803
G1 X167.251 Y178.074 E0.02803
G1 X167.133 Y178.115 E0.00535
G1 X167.273 Y178.519 F9000
G1 F1800
G1 X166.751 Y178.701 E0.02363
G1 X166.07 Y178.862 E0.02992
G1 X165.376 Y178.951 E0.02992
G1 X164.677 Y178.969 E0.02992
G1 X163.979 Y178.915 E0.02992
G1 X163.291 Y178.79 E0.02992
G1 X162.619 Y178.594 E0.02992
G1 X161.971 Y178.331 E0.02992
G1 X161.353 Y178.002 E0.02992
G1 X160.773 Y177.611 E0.02992
G1 X160.235 Y177.163 E0.02992
G1 X159.747 Y176.662 E0.02992
G1 X159.313 Y176.113 E0.02992
G1 X158.937 Y175.523 E0.02992
G1 X158.624 Y174.897 E0.02992
G1 X158.378 Y174.242 E0.02992
G1 X158.199 Y173.566 E0.02992
G1 X158.092 Y172.874 E0.02992
G1 X158.056 Y172.175 E0.02992
G1 X158.092 Y171.477 E0.02992
G1 X158.199 Y170.785 E0.02992
G1 X158.378 Y170.109 E0.02992
G1 X158.624 Y169.454 E0.02992
G1 X158.937 Y168.828 E0.02992
G1 X159.313 Y168.237 E0.02992
G1 X159.747 Y167.689 E0.02992
G1 X160.235 Y167.188 E0.02992
G1 X160.773 Y166.739 E0.02992
G1 X161.353 Y166.349 E0.02992
G1 X161.971 Y166.02 E0.02992
G1 X162.619 Y165.756 E0.02992
G1 X163.291 Y165.561 E0.02992
G1 X163.979 Y165.435 E0.02992
G1 X164.677 Y165.381 E0.02992
G1 X165.376 Y165.399 E0.02992
G1 X166.07 Y165.489 E0.02992
G1 X166.751 Y165.65 E0.02992
G1 X167.412 Y165.88 E0.02992
G1 X168.046 Y166.176 E0.02992
G1 X168.646 Y166.537 E0.02992
G1 X169.206 Y166.957 E0.02992
G1 X169.719 Y167.432 E0.02992
G1 X170.181 Y167.958 E0.02992
G1 X170.587 Y168.528 E0.02992
G1 X170.931 Y169.137 E0.02992
G1 X171.211 Y169.778 E0.02992
G1 X171.424 Y170.445 E0.02992
G1 X171.567 Y171.13 E0.02992
G1 X171.639 Y171.827 E0.02997
G1 X171.639 Y172.524 E0.02981
G1 X171.567 Y173.221 E0.02997
G1 X171.424 Y173.906 E0.02992
G1 X171.211 Y174.573 E0.02992
G1 X170.931 Y175.214 E0.02992
G1 X170.587 Y175.823 E0.02992
G1 X170.181 Y176.393 E0.02992
G1 X169.719 Y176.919 E0.02992
G1 X169.206 Y177.394 E0.02992
G1 X168.646 Y177.814 E0.02992
G1 X168.046 Y178.174 E0.02992
G1 X167.412 Y178.471 E0.02992
G1 X167.33 Y178.5 E0.00372
G1 X167.471 Y178.904 F9000
;TYPE:External perimeter
G1 F1800
G1 X166.871 Y179.113 E0.02714
G1 X166.147 Y179.284 E0.03181
G1 X165.41 Y179.379 E0.03181
G1 X164.666 Y179.398 E0.03181
G1 X163.924 Y179.341 E0.03181
G1 X163.192 Y179.208 E0.03181
G1 X162.478 Y179 E0.03181
G1 X161.789 Y178.719 E0.03181
G1 X161.132 Y178.37 E0.03181
G1 X160.515 Y177.955 E0.03181
G1 X159.944 Y177.478 E0.03181
G1 X159.425 Y176.945 E0.03181
G1 X158.963 Y176.362 E0.03181
G1 X158.564 Y175.734 E0.03181
G1 X158.231 Y175.069 E0.03181
G1 X157.969 Y174.373 E0.03181
G1 X157.779 Y173.653 E0.03181
G1 X157.665 Y172.918 E0.03181
G1 X157.627 Y172.175 E0.03181
G1 X157.665 Y171.432 E0.03181
G1 X157.779 Y170.697 E0.03181
G1 X157.969 Y169.978 E0.03181
G1 X158.231 Y169.282 E0.03181
G1 X158.564 Y168.617 E0.03181
G1 X158.963 Y167.989 E0.03181
G1 X159.425 Y167.406 E0.03181
G1 X159.944 Y166.873 E0.03181
G1 X160.515 Y166.396 E0.03181
G1 X161.132 Y165.981 E0.03181
G1 X161.789 Y165.631 E0.03181
G1 X162.478 Y165.351 E0.03181
G1 X163.192 Y165.143 E0.03181
G1 X163.924 Y165.01 E0.03181
G1 X164.666 Y164.952 E0.03181
G1 X165.41 Y164.972 E0.03181
G1 X166.147 Y165.067 E0.03181
G1 X166.871 Y165.238 E0.03181
G1 X167.574 Y165.482 E0.03181
G1 X168.248 Y165.798 E0.03181
G1 X168.886 Y166.181 E0.03181
G1 X169.481 Y166.627 E0.03181
G1 X170.026 Y167.132 E0.03181
G1 X170.518 Y167.691 E0.03181
G1 X170.949 Y168.298 E0.03181
G1 X171.315 Y168.945 E0.03181
G1 X171.613 Y169.627 E0.03181
G1 X171.839 Y170.335 E0.03181
G1 X171.991 Y171.063 E0.03181
G1 X172.068 Y171.805 E0.03186
G1 X172.068 Y172.546 E0.0317
G1 X171.991 Y173.287 E0.03186
G1 X171.839 Y174.016 E0.03181
G1 X171.613 Y174.724 E0.03181
G1 X171.315 Y175.406 E0.03181
G1 X170.949 Y176.053 E0.03181
G1 X170.518 Y176.66 E0.03181
G1 X170.026 Y177.218 E0.03181
G1 X169.481 Y177.724 E0.03181
G1 X168.886 Y178.17 E0.03181
G1 X168.248 Y178.553 E0.03181
G1 X167.574 Y178.868 E0.03181
G1 X167.528 Y178.885 E0.0021
;WIPE_START
G1 X167.168 Y178.643 F9000
;WIPE_END
G1 X166.867 Y178.452
;TYPE:Gap fill
;WIDTH:0.79352
G1 F1800
G1 X166.673 Y178.279 E0.01921
;WIDTH:0.76738
G1 X166.543 Y178.243 E0.00968
;WIDTH:0.644771
G1 X166.434 Y178.288 E0.00697
;WIDTH:0.59786
G1 X166.325 Y178.333 E0.00642
;WIDTH:0.550949
G1 X166.216 Y178.378 E0.00587
;WIDTH:0.504038
G1 X166.107 Y178.423 E0.00532
;WIDTH:0.455468
G1 X165.959 Y178.48 E0.00641
G1 X165.844 Y178.51 E0.00478
;WIDTH:0.405091
G1 X165.73 Y178.54 E0.00418
;WIDTH:0.367633
G1 X165.615 Y178.57 E0.00374
;WIDTH:0.330176
G1 X165.5 Y178.6 E0.0033
;WIDTH:0.292219
G1 X165.352 Y178.637 E0.00366
G1 X165.209 Y178.654 E0.00347
;WIDTH:0.252316
G1 X165.066 Y178.671 E0.00289
;WIDTH:0.216479
G1 X164.922 Y178.688 E0.00238
;WIDTH:0.180611
G1 X164.768 Y178.706 E0.002
G1 X164.684 Y178.709 E0.00109
G1 X164.541 Y178.707 E0.00184
;WIDTH:0.143863
G1 X164.351 Y178.703 E0.00174
G1 X163.025 Y178.464 F9000
;WIDTH:0.143864
G1 F1800
G1 X162.982 Y178.447 E0.00042
G1 X162.845 Y178.393 E0.00136
;WIDTH:0.197995
G1 X162.708 Y178.339 E0.00216
G1 X162.588 Y178.285 E0.00192
G1 X162.456 Y178.224 E0.00213
;WIDTH:0.238036
G1 X162.284 Y178.127 E0.00367
;WIDTH:0.303821
G1 X162.112 Y178.03 E0.00497
;WIDTH:0.334788
G1 X161.945 Y177.925 E0.00557
G1 X161.924 Y177.911 E0.00073
G1 X161.835 Y177.844 E0.00314
;WIDTH:0.402118
G1 X161.747 Y177.776 E0.00389
;WIDTH:0.448961
G1 X161.658 Y177.709 E0.00441
;WIDTH:0.495804
G1 X161.569 Y177.642 E0.00493
G1 X161.424 Y177.518 E0.00848
;WIDTH:0.558129
G1 X161.325 Y177.419 E0.00709
;WIDTH:0.629579
G1 X161.225 Y177.319 E0.0081
;WIDTH:0.554804
G1 X161.055 Y177.324 E0.00856
;WIDTH:0.392688
G1 X160.987 Y177.326 E0.00232
;WIDTH:0.239317
G1 X160.891 Y177.454 E0.00298
G1 X160.686 Y176.675 F9000
;WIDTH:0.160511
G1 F1800
G1 X160.587 Y176.529 E0.00192
;WIDTH:0.215408
G1 X160.506 Y176.387 E0.00266
;WIDTH:0.309913
G1 X160.432 Y176.256 E0.00389
;WIDTH:0.425651
G1 X160.358 Y176.125 E0.00563
G1 X160.307 Y176.022 E0.00428
;WIDTH:0.520001
G1 X160.256 Y175.92 E0.00535
;WIDTH:0.546303
G1 X160.217 Y175.827 E0.00495
;WIDTH:0.68572
G1 X160.086 Y175.694 E0.01184
;WIDTH:0.839229
G1 X159.973 Y175.618 E0.01069
G1 E-0.6 F3000
G1 X167.253 Y177.816 F9000
G1 E0.6 F1800
;WIDTH:0.166009
G1 X167.289 Y177.787 E0.00053
G1 X167.418 Y177.686 E0.00187
;WIDTH:0.254588
G1 X167.548 Y177.585 E0.00332
;WIDTH:0.343167
G1 X167.677 Y177.484 E0.00477
;WIDTH:0.416133
G1 X167.697 Y177.465 E0.001
G1 X167.828 Y177.33 E0.00672
;WIDTH:0.526347
G1 X167.958 Y177.195 E0.00889
G1 X168.063 Y177.2 E0.00498
;WIDTH:0.348943
G1 X168.238 Y177.208 E0.0052
;WIDTH:0.260241
G1 X168.402 Y177.216 E0.00341
G1 X170.25 Y168.933 F9000
;TYPE:Solid infill
;WIDTH:0.463999
G1 F3600
G1 X169.075 Y167.758 E0.06866
G1 X168.771 Y167.477 E0.01708
G1 X168.268 Y167.099 E0.02604
G1 X167.728 Y166.775 E0.02604
G1 X167.273 Y166.562 E0.02075
G1 X170.46 Y169.749 E0.18629
G1 X170.577 Y170.017 E0.01208
G1 X170.769 Y170.617 E0.02604
G1 X170.781 Y170.676 E0.00249
G1 X166.357 Y166.252 E0.25856
G1 X165.949 Y166.156 E0.01734
G1 X165.611 Y166.112 E0.01407
G1 X170.917 Y171.418 E0.31009
G1 X170.962 Y171.862 E0.01845
G1 X170.962 Y172.07 E0.00859
G1 X164.959 Y166.066 E0.35092
G1 X164.694 Y166.059 E0.01092
G1 X164.371 Y166.084 E0.01341
G1 X170.945 Y172.658 E0.38425
G1 X170.898 Y173.117 E0.01907
G1 X170.88 Y173.199 E0.00348
G1 X163.831 Y166.15 E0.41201
G1 X163.447 Y166.221 E0.01616
G1 X163.33 Y166.255 E0.00504
G1 X170.776 Y173.701 E0.43522
G1 X170.769 Y173.734 E0.00139
G1 X170.632 Y174.163 E0.01862
G1 X162.86 Y166.391 E0.45424
G1 X162.428 Y166.565 E0.01926
G1 X170.461 Y174.598 E0.46956
G1 X170.325 Y174.911 E0.01409
G1 X170.268 Y175.011 E0.00476
G1 X162.019 Y166.762 E0.48219
G1 X161.702 Y166.93 E0.01481
G1 X161.63 Y166.979 E0.00361
G1 X170.049 Y175.398 E0.49211
G1 X170.015 Y175.459 E0.0029
G1 X169.802 Y175.757 E0.01513
G1 X168.091 Y174.046 E0.10006
G1 X168.147 Y174.207 E0.00707
G1 X168.251 Y174.812 E0.02539
G1 X169.538 Y176.099 E0.07522
G1 X169.255 Y176.422 E0.01775
G1 X168.261 Y175.428 E0.05806
G1 X168.255 Y175.567 E0.00575
G1 X168.188 Y175.961 E0.0165
G1 X168.942 Y176.715 E0.04409
G1 X168.771 Y176.874 E0.00963
G1 X168.613 Y176.992 E0.00817
G1 X167.917 Y176.296 E0.04069
G1 X165.794 Y171.749 F9000
G1 F3600
G1 X161.268 Y167.223 E0.2646
G1 X161.18 Y167.282 E0.00438
G1 X160.929 Y167.49 E0.01347
G1 X164.718 Y171.279 E0.22147
G1 X164.157 Y171.256 E0.02322
G1 X164.096 Y171.263 E0.00253
G1 X160.608 Y167.775 E0.20388
G1 X160.309 Y168.082 E0.01771
G1 X163.559 Y171.332 E0.18997
G1 X163.493 Y171.341 E0.00277
G1 X163.086 Y171.465 E0.01757
G1 X160.036 Y168.415 E0.17829
G1 X159.865 Y168.63 E0.01136
G1 X159.78 Y168.765 E0.00658
G1 X162.653 Y171.637 E0.16791
G1 X162.25 Y171.841 E0.01864
G1 X159.544 Y169.135 E0.15817
