; generated by SuperSlicer 2.3.57 on 2022-02-05 at 23:34:13 UTC


;
;

;
;
; 

; external perimeters extrusion width = 0.40mm
; perimeters extrusion width = 0.45mm
; infill extrusion width = 0.72mm
; solid infill extrusion width = 0.56mm
; top infill extrusion width = 0.40mm
; first layer extrusion width = 0.48mm

; external perimeters extrusion width = 0.40mm
; perimeters extrusion width = 0.45mm
; infill extrusion width = 0.72mm
; solid infill extrusion width = 0.56mm
; top infill extrusion width = 0.40mm
; first layer extrusion width = 0.48mm

; external perimeters extrusion width = 0.40mm
; perimeters extrusion width = 0.45mm
; infill extrusion width = 0.72mm
; solid infill extrusion width = 0.56mm
; top infill extrusion width = 0.40mm
; first layer extrusion width = 0.48mm

; external perimeters extrusion width = 0.40mm
; perimeters extrusion width = 0.45mm
; infill extrusion width = 0.72mm
; solid infill extrusion width = 0.56mm
; top infill extrusion width = 0.40mm
; first layer extrusion width = 0.48mm

; external perimeters extrusion width = 0.40mm
; perimeters extrusion width = 0.45mm
; infill extrusion width = 0.72mm
; solid infill extrusion width = 0.56mm
; top infill extrusion width = 0.40mm
; first layer extrusion width = 0.48mm

; object:{"name":"Part2-White","id":"Part2-White.STL id:0 copy 0","object_center":[152.500000,150.000000,0.000000],"boundingbox_center":[152.500000,150.000000,0.675000],"boundingbox_size":[94.555862,86.860966,1.350000]}
; plater:{"center":[152.500000,150.000000,0.000000],"boundingbox_center":[152.500000,150.000000,0.675000],"boundingbox_size":[94.555862,86.860966,1.350000]}

;TYPE:Custom
START_PRINT T_BED=70 T_EXTRUDER=230
M107
G21 ; set units to millimeters
G90 ; use absolute coordinates
M83 ; use relative distances for extrusion
; Filament gcode
M104 S230 ; set temperature
M109 S230 ; set temperature and wait for it to be reached
M190 S70 ; set bed temperature and wait for it to be reached
;LAYER_CHANGE
;Z:0.24
;HEIGHT:0.24
G1 E-1.2 F3000
G1 Z0.24 F9000
G1 X117.791 Y105.248
G1 E1.2 F1800
;TYPE:Skirt
;WIDTH:0.48
G1 X115.695 Y107.594 E0.13452
G1 X112.96 Y111.183 E0.19289
G1 X110.461 Y115.077 E0.19783
G1 X107.708 Y120.093 E0.24465
G1 X105.991 Y123.619 E0.16771
G1 X104.612 Y127.08 E0.15929
G1 X103.418 Y130.983 E0.17447
G1 X102.477 Y135.328 E0.1901
G1 X101.911 Y139.604 E0.18444
G1 X101.68 Y144.03 E0.18948
G1 X101.818 Y148.63 E0.19676
G1 X102.199 Y151.892 E0.14042
G1 X102.854 Y154.965 E0.13433
G1 X104.003 Y158.486 E0.15836
G1 X105.368 Y161.527 E0.1425
G1 X107.112 Y164.709 E0.15518
G1 X109.18 Y167.963 E0.16485
G1 X110.014 Y169.052 E0.05862
G1 X111.862 Y171.15 E0.11953
G1 X134.177 Y193.49 E1.35007
G1 X136.082 Y194.911 E0.10162
G1 X138.08 Y195.944 E0.09616
G1 X140.204 Y196.653 E0.09571
G1 X142.394 Y196.97 E0.09461
G1 X162.566 Y196.971 E0.86248
G1 X165.055 Y196.581 E0.10771
G1 X166.741 Y196.026 E0.07591
G1 X168.757 Y195.007 E0.09657
G1 X170.869 Y193.447 E0.11225
G1 X193.126 Y171.163 E1.34659
G1 X195.008 Y169.025 E0.12181
G1 X196.154 Y167.485 E0.08206
G1 X197.939 Y164.624 E0.14419
G1 X199.645 Y161.502 E0.15209
G1 X201.012 Y158.447 E0.14312
G1 X202.104 Y155.135 E0.14912
G1 X202.801 Y151.891 E0.14185
G1 X203.196 Y148.464 E0.14749
G1 X203.32 Y144.026 E0.18984
G1 X203.091 Y139.622 E0.18852
G1 X202.524 Y135.333 E0.185
G1 X201.603 Y131.057 E0.18702
G1 X200.437 Y127.212 E0.17178
G1 X198.965 Y123.523 E0.16979
G1 X197.246 Y120.003 E0.16749
G1 X194.583 Y115.153 E0.23657
G1 X192.201 Y111.413 E0.18959
G1 X189.308 Y107.598 E0.20471
G1 X186.139 Y104.061 E0.20305
G1 X185.592 Y103.622 E0.02999
G1 X184.97 Y103.296 E0.02999
G1 X184.298 Y103.095 E0.02999
G1 X183.6 Y103.027 E0.02999
G1 X121.4 Y103.027 E2.6594
G1 X120.605 Y103.116 E0.0342
G1 X119.602 Y103.504 E0.046
G1 X118.759 Y104.165 E0.0458
G1 X117.831 Y105.204 E0.05953
G1 X118.15 Y105.489 F9000
G1 F1800
G1 X116.025 Y107.868 E0.1364
G1 X113.296 Y111.449 E0.19253
G1 X110.829 Y115.297 E0.1954
G1 X108.097 Y120.273 E0.24273
G1 X106.382 Y123.794 E0.16744
G1 X105.01 Y127.238 E0.15852
G1 X103.829 Y131.106 E0.17292
G1 X102.899 Y135.402 E0.18791
G1 X102.338 Y139.645 E0.18301
G1 X102.108 Y144.036 E0.18796
G1 X102.244 Y148.582 E0.19447
G1 X102.622 Y151.822 E0.13945
G1 X103.272 Y154.874 E0.13342
G1 X104.401 Y158.327 E0.15534
G1 X105.751 Y161.336 E0.14102
G1 X107.476 Y164.483 E0.15342
G1 X109.526 Y167.71 E0.16346
G1 X110.344 Y168.779 E0.05757
G1 X112.178 Y170.861 E0.1186
G1 X134.468 Y193.176 E1.34856
G1 X136.313 Y194.55 E0.09834
G1 X138.266 Y195.557 E0.09393
G1 X140.302 Y196.236 E0.09179
G1 X142.416 Y196.542 E0.09131
G1 X162.555 Y196.543 E0.86107
G1 X164.929 Y196.172 E0.10272
G1 X166.572 Y195.632 E0.07397
G1 X168.552 Y194.63 E0.09487
G1 X170.57 Y193.139 E0.10727
G1 X192.811 Y170.873 E1.34554
G1 X194.678 Y168.752 E0.12084
G1 X195.8 Y167.244 E0.08033
G1 X197.569 Y164.409 E0.14287
G1 X199.257 Y161.32 E0.15052
G1 X200.612 Y158.294 E0.14176
G1 X201.69 Y155.025 E0.14719
G1 X202.378 Y151.823 E0.14002
G1 X202.769 Y148.435 E0.14579
G1 X202.892 Y144.03 E0.18841
G1 X202.664 Y139.661 E0.18707
G1 X202.102 Y135.405 E0.18353
G1 X201.192 Y131.18 E0.18481
G1 X200.034 Y127.358 E0.17076
G1 X198.618 Y123.794 E0.16393
G1 X196.866 Y120.202 E0.17088
G1 X194.115 Y115.205 E0.24388
G1 X191.695 Y111.437 E0.19149
G1 X188.977 Y107.87 E0.19173
G1 X185.99 Y104.526 E0.19172
G1 X185.492 Y104.074 E0.02873
G1 X184.911 Y103.737 E0.02873
G1 X184.268 Y103.526 E0.02892
G1 X183.6 Y103.455 E0.02873
G1 X121.402 Y103.455 E2.6593
G1 X120.708 Y103.532 E0.02986
G1 X119.814 Y103.876 E0.04094
G1 X119.059 Y104.472 E0.04113
G1 X118.19 Y105.444 E0.05574
; INIT printing object Part2-White.STL id:0 copy 0
G1 E-1.2 F3000
; printing object Part2-White.STL id:0 copy 0
G1 X151.576 Y173.062 F9000
G1 E1.2 F1800
;TYPE:Internal perimeter
G1 X151.614 Y173.392 E0.0142
G1 X150.588 Y173.729 E0.04617
G1 X149.876 Y172.708 E0.05325
G1 X151.026 Y173.014 E0.0509
G1 X151.516 Y173.057 E0.02103
G1 X153.424 Y173.062 F9000
G1 F1800
G1 X153.974 Y173.014 E0.02359
G1 X155.124 Y172.708 E0.0509
G1 X154.412 Y173.73 E0.05325
G1 X153.386 Y173.392 E0.04617
G1 X153.417 Y173.122 E0.01163
G1 E-1.2 F3000
G1 X166.37 Y150.063 F9000
G1 E1.2 F1800
G1 X166.37 Y153.226 E0.13523
G1 X197.222 Y154.821 E1.32087
G1 X196.591 Y156.736 E0.0862
G1 X195.39 Y159.411 E0.12537
G1 X193.845 Y162.236 E0.13766
G1 X192.444 Y164.482 E0.11318
G1 X166.502 Y155.296 E1.17665
G1 X165.493 Y158.144 E0.12917
G1 X190.312 Y167.188 E1.1294
G1 X189.659 Y167.93 E0.04225
G1 X187.656 Y169.796 E0.11704
G1 X185.18 Y171.701 E0.13358
G1 X182.513 Y173.348 E0.13403
G1 X179.67 Y174.763 E0.13578
G1 X177.194 Y175.742 E0.11384
G1 X175.254 Y176.282 E0.08611
G1 X175.182 Y175.753 E0.02282
G1 X174.626 Y173.926 E0.08167
G1 X173.753 Y172.128 E0.08544
G1 X172.547 Y170.403 E0.08999
G1 X171.023 Y168.838 E0.09341
G1 X169.253 Y167.529 E0.09412
G1 X167.266 Y166.503 E0.0956
G1 X165.294 Y165.851 E0.0888
G1 X163.789 Y165.499 E0.0661
G1 X163.081 Y168.722 E0.14106
G1 X164.383 Y169.02 E0.05712
G1 X165.915 Y169.518 E0.06886
G1 X167.466 Y170.315 E0.07457
G1 X168.833 Y171.332 E0.07283
G1 X170.006 Y172.544 E0.07214
G1 X170.911 Y173.846 E0.06782
G1 X171.559 Y175.186 E0.06361
G1 X171.96 Y176.514 E0.05931
G1 X172.147 Y177.897 E0.05967
G1 X172.168 Y179.793 E0.08105
G1 X171.923 Y181.693 E0.08193
G1 X171.402 Y183.825 E0.09381
G1 X170.774 Y185.599 E0.08048
G1 X169.923 Y187.21 E0.07788
G1 X168.712 Y188.888 E0.08848
G1 X167.603 Y190.009 E0.06745
G1 X166.402 Y190.89 E0.06364
G1 X164.897 Y191.655 E0.07219
G1 X163.705 Y192.037 E0.05354
G1 X162.382 Y192.232 E0.05715
G1 X160.563 Y192.207 E0.07782
G1 X159.501 Y192.033 E0.04602
G1 X158.753 Y191.793 E0.03355
G1 X158.179 Y191.506 E0.02747
G1 X157.621 Y191.104 E0.02937
G1 X156.937 Y190.421 E0.04136
G1 X156.163 Y189.355 E0.05631
G1 X155.312 Y187.7 E0.07955
G1 X154.514 Y185.49 E0.10048
G1 X154.371 Y184.935 E0.02452
G1 X154.018 Y182.863 E0.08985
G1 X153.803 Y180.501 E0.10143
G1 X153.809 Y180.308 E0.00823
G1 X154.124 Y180.243 E0.01377
G1 X154.33 Y180.686 E0.02086
G1 X154.906 Y181.513 E0.04309
G1 X155.55 Y182.159 E0.03902
G1 X156.233 Y182.639 E0.03569
G1 X156.938 Y182.969 E0.03324
G1 X157.653 Y183.161 E0.03166
G1 X158.372 Y183.224 E0.03088
G1 X159.092 Y183.161 E0.03089
G1 X159.807 Y182.969 E0.03166
G1 X160.511 Y182.64 E0.03324
G1 X161.194 Y182.16 E0.03569
G1 X161.838 Y181.513 E0.03902
G1 X162.415 Y180.687 E0.04309
G1 X162.883 Y179.679 E0.04748
G1 X163.192 Y178.518 E0.05138
G1 X163.301 Y177.267 E0.05372
G1 X163.192 Y176.015 E0.05372
G1 X162.883 Y174.854 E0.05138
G1 X162.415 Y173.847 E0.04748
G1 X161.839 Y173.02 E0.04309
G1 X161.195 Y172.374 E0.03902
G1 X160.511 Y171.894 E0.03569
G1 X159.807 Y171.564 E0.03324
G1 X159.092 Y171.372 E0.03165
G1 X158.373 Y171.309 E0.03088
G1 X157.764 Y171.362 E0.02611
G1 X159.012 Y170.126 E0.07508
G1 X159.867 Y168.919 E0.06326
G1 X160.501 Y167.582 E0.06326
G1 X160.895 Y166.156 E0.06326
G1 X161.036 Y164.683 E0.06326
G1 X160.922 Y163.208 E0.06326
G1 X160.554 Y161.775 E0.06326
G1 X159.944 Y160.427 E0.06326
G1 X159.111 Y159.205 E0.06326
G1 X158.079 Y158.144 E0.06326
G1 X156.88 Y157.278 E0.06326
G1 X155.549 Y156.632 E0.06326
G1 X154.126 Y156.225 E0.06326
G1 X153.83 Y156.194 E0.01273
G1 X153.83 Y123.107 E1.41464
G1 X155.618 Y123.128 E0.07645
G1 X158.915 Y123.506 E0.14188
G1 X162.306 Y124.253 E0.14846
G1 X165.443 Y125.26 E0.14084
G1 X168.659 Y126.6 E0.14896
G1 X172.108 Y128.379 E0.16597
G1 X175.593 Y130.57 E0.176
G1 X178.423 Y132.705 E0.15156
G1 X180.817 Y134.835 E0.13699
G1 X182.909 Y137.056 E0.13046
G1 X184.656 Y139.327 E0.12249
G1 X186.507 Y142.308 E0.15004
G1 X187.49 Y144.293 E0.0947
G1 X188.149 Y146.254 E0.08846
G1 X189.231 Y151.246 E0.21837
G1 X166.43 Y150.066 E0.97619
G1 X153.402 Y122.674 F9000
G1 F1800
G1 X155.645 Y122.7 E0.09593
G1 X158.986 Y123.083 E0.14376
G1 X162.418 Y123.839 E0.15026
G1 X165.591 Y124.857 E0.14248
G1 X168.839 Y126.211 E0.15048
G1 X172.321 Y128.007 E0.16749
G1 X175.837 Y130.217 E0.17755
G1 X178.695 Y132.373 E0.15309
G1 X181.116 Y134.527 E0.13854
G1 X183.235 Y136.778 E0.13218
G1 X185.009 Y139.082 E0.12432
G1 X186.882 Y142.1 E0.15184
G1 X187.887 Y144.129 E0.09682
G1 X188.563 Y146.14 E0.09071
G1 X189.493 Y150.43 E0.18765
G1 X191.921 Y149.959 E0.10577
G1 X190.561 Y144.834 E0.22669
G1 X189.839 Y142.792 E0.09261
G1 X188.807 Y140.78 E0.09668
G1 X186.78 Y137.569 E0.16235
G1 X184.812 Y135.028 E0.13741
G1 X182.488 Y132.564 E0.14481
G1 X179.901 Y130.295 E0.14714
G1 X176.998 Y128.171 E0.15378
G1 X173.556 Y126.047 E0.17293
G1 X169.81 Y124.065 E0.18119
G1 X166.407 Y122.562 E0.15906
G1 X163.216 Y121.454 E0.14444
G1 X160.174 Y120.697 E0.13402
G1 X157.237 Y120.266 E0.12691
G1 X154.378 Y120.145 E0.12234
G1 X153.874 Y120.169 E0.0216
G1 X152.5 Y120.235 E0.05881
G1 X150.622 Y120.145 E0.08041
G1 X147.763 Y120.266 E0.12234
G1 X144.826 Y120.697 E0.12691
G1 X141.784 Y121.454 E0.13402
G1 X138.593 Y122.562 E0.14444
G1 X135.19 Y124.065 E0.15906
G1 X131.443 Y126.047 E0.1812
G1 X127.945 Y128.21 E0.17588
G1 X125.099 Y130.295 E0.15084
G1 X122.512 Y132.564 E0.14713
G1 X120.188 Y135.028 E0.14481
G1 X118.22 Y137.569 E0.13741
G1 X116.193 Y140.78 E0.16235
G1 X115.161 Y142.792 E0.09668
G1 X114.439 Y144.834 E0.09261
G1 X113.079 Y149.959 E0.22669
G1 X115.474 Y150.423 E0.10431
G1 X116.808 Y145.416 E0.22156
G1 X117.516 Y143.505 E0.08714
G1 X118.721 Y141.286 E0.10795
G1 X120.618 Y138.411 E0.14724
G1 X122.733 Y135.83 E0.14269
G1 X125.017 Y133.563 E0.13758
G1 X127.551 Y131.481 E0.14023
G1 X130.607 Y129.387 E0.15838
G1 X133.885 Y127.477 E0.16221
G1 X137.785 Y125.547 E0.18604
G1 X140.92 Y124.297 E0.14431
G1 X143.864 Y123.411 E0.13146
G1 X146.658 Y122.856 E0.12178
G1 X149.352 Y122.603 E0.11569
G1 X151.598 Y122.634 E0.09605
G1 X151.598 Y156.58 E1.45137
G1 X150.956 Y156.647 E0.02763
G1 X149.605 Y157.034 E0.06007
G1 X148.341 Y157.647 E0.06007
G1 X147.202 Y158.47 E0.06007
G1 X146.222 Y159.477 E0.06007
G1 X145.431 Y160.638 E0.06007
G1 X144.852 Y161.918 E0.06007
G1 X144.503 Y163.279 E0.06007
G1 X144.394 Y164.679 E0.06007
G1 X144.528 Y166.078 E0.06007
G1 X144.902 Y167.432 E0.06007
G1 X145.504 Y168.701 E0.06007
G1 X146.316 Y169.848 E0.06007
G1 X147.314 Y170.837 E0.06007
G1 X148.468 Y171.639 E0.06007
G1 X149.743 Y172.229 E0.06007
G1 X151.1 Y172.591 E0.06007
G1 X152.5 Y172.712 E0.06007
G1 X153.9 Y172.591 E0.06007
G1 X155.257 Y172.229 E0.06007
G1 X156.532 Y171.639 E0.06007
G1 X157.686 Y170.837 E0.06007
G1 X158.684 Y169.848 E0.06007
G1 X159.496 Y168.701 E0.06007
G1 X160.098 Y167.432 E0.06007
G1 X160.472 Y166.078 E0.06007
G1 X160.606 Y164.679 E0.06007
G1 X160.497 Y163.279 E0.06007
G1 X160.148 Y161.918 E0.06007
G1 X159.569 Y160.638 E0.06007
G1 X158.778 Y159.477 E0.06007
G1 X157.798 Y158.47 E0.06007
G1 X156.659 Y157.647 E0.06007
G1 X155.395 Y157.034 E0.06007
G1 X154.044 Y156.647 E0.06007
G1 X153.402 Y156.58 E0.02763
G1 X153.402 Y122.734 E1.44711
G1 X152.973 Y122.24 F9000
;TYPE:External perimeter
G1 F1800
G1 X155.672 Y122.272 E0.1154
G1 X159.056 Y122.659 E0.14564
G1 X162.53 Y123.425 E0.15207
G1 X165.739 Y124.455 E0.14411
G1 X169.02 Y125.822 E0.152
G1 X172.534 Y127.634 E0.16901
G1 X176.08 Y129.864 E0.17911
G1 X178.967 Y132.041 E0.15461
G1 X181.415 Y134.22 E0.14009
G1 X183.562 Y136.5 E0.1339
G1 X185.361 Y138.838 E0.12615
G1 X187.257 Y141.891 E0.15364
G1 X188.283 Y143.965 E0.09894
G1 X188.976 Y146.026 E0.09297
G1 X189.823 Y149.929 E0.17075
G1 X189.941 Y149.906 E0.00462
G1 X190.176 Y149.861 E0.00975
G1 X191.39 Y149.625 E0.05284
G1 X191.359 Y149.509 E0.00451
G1 X191.297 Y149.277 E0.00964
G1 X190.152 Y144.961 E0.19095
G1 X189.445 Y142.962 E0.09065
G1 X188.434 Y140.993 E0.09463
G1 X186.429 Y137.815 E0.16065
G1 X184.486 Y135.307 E0.13565
G1 X182.191 Y132.873 E0.14305
G1 X179.633 Y130.629 E0.14546
G1 X176.759 Y128.527 E0.15225
G1 X173.343 Y126.419 E0.1716
G1 X169.623 Y124.451 E0.17994
G1 X166.25 Y122.962 E0.15766
G1 X163.094 Y121.865 E0.14286
G1 X160.091 Y121.118 E0.13229
G1 X157.197 Y120.693 E0.12506
G1 X154.38 Y120.574 E0.12057
G1 X153.894 Y120.597 E0.02078
G1 X152.5 Y120.664 E0.05968
G1 X150.62 Y120.574 E0.08045
G1 X147.803 Y120.693 E0.12057
G1 X144.909 Y121.118 E0.12506
G1 X141.906 Y121.865 E0.13229
G1 X138.75 Y122.962 E0.14286
G1 X135.377 Y124.451 E0.15766
G1 X131.656 Y126.419 E0.17994
G1 X128.184 Y128.566 E0.17454
G1 X125.367 Y130.629 E0.14932
G1 X122.809 Y132.873 E0.14546
G1 X120.514 Y135.307 E0.14305
G1 X118.571 Y137.815 E0.13565
G1 X116.566 Y140.993 E0.16065
G1 X115.555 Y142.962 E0.09463
G1 X114.848 Y144.961 E0.09065
G1 X113.61 Y149.625 E0.20635
G1 X113.728 Y149.648 E0.00451
G1 X113.964 Y149.694 E0.00964
G1 X115.163 Y149.926 E0.05221
G1 X115.194 Y149.81 E0.00466
G1 X115.255 Y149.578 E0.00979
G1 X116.399 Y145.286 E0.18994
G1 X117.125 Y143.327 E0.08931
G1 X118.354 Y141.065 E0.11005
G1 X120.272 Y138.157 E0.14897
G1 X122.416 Y135.542 E0.14458
G1 X124.729 Y133.244 E0.13938
G1 X127.293 Y131.138 E0.14189
G1 X130.377 Y129.024 E0.15985
G1 X133.682 Y127.1 E0.16351
G1 X137.61 Y125.155 E0.1874
G1 X140.779 Y123.892 E0.14585
G1 X143.761 Y122.995 E0.13314
G1 X146.596 Y122.431 E0.1236
G1 X149.335 Y122.174 E0.11762
G1 X152.027 Y122.211 E0.11511
G1 X152.027 Y122.331 E0.0046
G1 X152.027 Y122.571 E0.00973
G1 X152.027 Y156.966 E1.47054
G1 X151.908 Y156.978 E0.00472
G1 X151.669 Y157.003 E0.00985
G1 X151.038 Y157.07 E0.02714
G1 X149.758 Y157.435 E0.05688
G1 X148.562 Y158.016 E0.05688
G1 X147.483 Y158.795 E0.05688
G1 X146.555 Y159.749 E0.05688
G1 X145.806 Y160.848 E0.05688
G1 X145.258 Y162.06 E0.05688
G1 X144.927 Y163.349 E0.05688
G1 X144.824 Y164.675 E0.05688
G1 X144.951 Y166 E0.05688
G1 X145.305 Y167.282 E0.05688
G1 X145.875 Y168.484 E0.05688
G1 X146.644 Y169.57 E0.05688
G1 X147.589 Y170.506 E0.05688
G1 X148.682 Y171.265 E0.05688
G1 X149.889 Y171.825 E0.05688
G1 X151.175 Y172.167 E0.05688
G1 X152.5 Y172.282 E0.05688
G1 X153.825 Y172.167 E0.05688
G1 X155.111 Y171.825 E0.05688
G1 X156.318 Y171.265 E0.05688
G1 X157.411 Y170.506 E0.05688
G1 X158.356 Y169.57 E0.05688
G1 X159.125 Y168.484 E0.05688
G1 X159.695 Y167.282 E0.05688
G1 X160.049 Y166 E0.05688
G1 X160.176 Y164.675 E0.05688
G1 X160.073 Y163.349 E0.05688
G1 X159.742 Y162.06 E0.05688
G1 X159.194 Y160.848 E0.05688
G1 X158.445 Y159.749 E0.05688
