; generated by SuperSlicer 2.4 on 2022-06-16 at 22:49:39 UTC


;
;

;
;
; 

; external perimeters extrusion width = 0.40mm
; perimeters extrusion width = 0.48mm
; infill extrusion width = 0.72mm
; solid infill extrusion width = 0.56mm
; top infill extrusion width = 0.40mm
; support material extrusion width = 0.40mm
; first layer extrusion width = 0.48mm

; object:{"name":"parts","id":"parts.stl id:0 copy 0","object_center":[164.999992,165.000000,0.000000],"boundingbox_center":[164.999992,165.000000,1.097563],"boundingbox_size":[107.029999,79.360001,2.194000]}
; plater:{"center":[164.999992,165.000000,0.000000],"boundingbox_center":[164.999992,165.000000,1.097563],"boundingbox_size":[107.029999,79.360001,2.194000]}

M73 P0 R14
;TYPE:Custom
START_PRINT T_BED=60 T_EXTRUDER=200
M107
G21 ; set units to millimeters
G90 ; use absolute coordinates
M83 ; use relative distances for extrusion
; Filament gcode
M104 S200 ; set temperature
M109 S200 ; set temperature and wait for it to be reached
M190 S60 ; set bed temperature and wait for it to be reached
M107
;LAYER_CHANGE
;Z:0.24
;HEIGHT:0.24
G1 Z0.24 F9000
G92 E0
M73 P2 R13
G1 E-0.8 F3000
M204 S1000
G1 X112.096 Y152.723 F9000
G1 E0.8 F1800
;TYPE:Skirt
;WIDTH:0.52
G1 X111.289 Y153.709 E0.05838
G1 X108.596 Y158.49 E0.25139
G1 X108.196 Y159.533 E0.05114
G1 X108.072 Y160.436 E0.04175
G1 X107.887 Y174.016 E0.6222
G1 X107.936 Y174.688 E0.03087
G1 X108.241 Y175.754 E0.05078
G1 X108.779 Y176.651 E0.04792
G1 X110.796 Y179.117 E0.14595
G1 X111.436 Y179.736 E0.0408
G1 X112.739 Y180.425 E0.06753
G1 X206.839 Y208.095 E4.4934
M73 P3 R13
G1 X207.845 Y208.245 E0.04659
G1 X211.433 Y208.282 E0.1644
G1 X213.504 Y207.673 E0.09889
G1 X214.273 Y207.108 E0.04371
G1 X215.051 Y206.268 E0.05243
G1 X217.061 Y202.785 E0.18426
G1 X220.363 Y196.418 E0.32857
G1 X220.741 Y194.858 E0.07349
G1 X222.113 Y136.597 E2.66982
G1 X222.069 Y135.035 E0.07155
G1 X221.936 Y134.163 E0.04041
G1 X221.506 Y132.616 E0.07357
G1 X218.23 Y124.238 E0.41212
G1 X217.736 Y123.358 E0.04621
G1 X216.486 Y122.296 E0.07515
G1 X215.159 Y121.793 E0.06503
G1 X214.057 Y121.626 E0.05107
G1 X210.133 Y121.633 E0.17974
G1 X208.978 Y121.696 E0.05303
G1 X208.221 Y121.851 E0.03538
G1 X113.439 Y151.957 E4.55592
G1 X112.096 Y152.723 E0.07082
G1 X112.406 Y153.071 F9000
G1 F1800
G1 X111.695 Y153.938 E0.05138
G1 X109.002 Y158.719 E0.25139
G1 X108.647 Y159.653 E0.04577
G1 X108.538 Y160.442 E0.03649
G1 X108.353 Y174.022 E0.6222
G1 X108.399 Y174.627 E0.0278
G1 X108.671 Y175.573 E0.04507
G1 X109.141 Y176.357 E0.04188
G1 X111.156 Y178.822 E0.14586
M73 P4 R13
G1 X111.732 Y179.376 E0.03658
G1 X112.87 Y179.978 E0.05902
G1 X206.971 Y207.648 E4.4934
G1 X207.85 Y207.779 E0.04072
G1 X211.438 Y207.815 E0.1644
G1 X213.248 Y207.284 E0.08642
G1 X213.982 Y206.744 E0.04173
G1 X214.679 Y205.987 E0.04712
G1 X216.656 Y202.555 E0.18146
G1 X219.933 Y196.237 E0.32607
G1 X220.274 Y194.848 E0.06553
G1 X221.647 Y136.586 E2.66982
G1 X221.603 Y135.05 E0.07037
G1 X221.487 Y134.288 E0.03532
G1 X221.057 Y132.741 E0.07357
G1 X217.796 Y124.408 E0.4099
G1 X217.363 Y123.638 E0.0405
G1 X216.271 Y122.71 E0.06568
G1 X215.021 Y122.238 E0.0612
G1 X214.058 Y122.093 E0.04463
G1 X210.134 Y122.099 E0.17974
G1 X209.023 Y122.16 E0.05096
G1 X208.362 Y122.296 E0.03092
G1 X113.58 Y152.402 E4.55592
M73 P5 R13
G1 X112.406 Y153.071 E0.06189
G1 E-0.8 F3000
; printing object parts.stl id:0 copy 0
; acceleration to travel
M204 S3000
G1 X182.438 Y188.965 F9000
; decel to extrusion
M204 S1000
G1 X205.781 Y200.93
; end travel
G1 E0.8 F1800
;TYPE:External perimeter
;WIDTH:0.48
G1 X205.901 Y200.829 E0.00656
G1 X206.051 Y200.781 E0.0066
G1 X206.503 Y200.713 E0.01917
G1 X207.027 Y200.679 E0.02199
G1 X207.086 Y200.694 E0.00254
G1 X207.432 Y200.941 E0.01782
G1 X206.847 Y201.155 E0.02611
G1 X206.623 Y201.175 E0.00942
G1 X206.16 Y201.127 E0.01949
G1 X205.966 Y200.999 E0.00974
G1 X205.781 Y200.93 E0.00828
;WIPE_START
M204 S4000
G1 X206.157 Y200.794 F9000
;WIPE_END
; acceleration to travel
M204 S3000
G1 X210.47 Y200.903
; decel to extrusion
M204 S1000
G1 X211.908 Y200.939
; end travel
G1 F1800
G1 X212.241 Y200.702 E0.01713
G1 X212.38 Y200.672 E0.00595
G1 X213.066 Y200.689 E0.02876
G1 X213.426 Y200.812 E0.01594
G1 X213.547 Y200.921 E0.00682
G1 X213.164 Y201.072 E0.01724
G1 X212.941 Y201.136 E0.0097
G1 X212.619 Y201.161 E0.01354
G1 X211.908 Y200.939 E0.03122
;WIPE_START
M204 S4000
G1 X212.289 Y200.816 F9000
;WIPE_END
; acceleration to travel
M204 S3000
G1 X210.556 Y201.131
; decel to extrusion
M204 S1000
G1 X209.978 Y201.236
; end travel
;TYPE:Internal perimeter
G1 F1800
G1 X209.97 Y201.449 E0.00894
G1 X209.907 Y201.941 E0.02079
G1 X209.91 Y202.338 E0.01662
G1 X209.867 Y202.539 E0.00862
G1 X209.64 Y202.713 E0.012
G1 X209.499 Y202.554 E0.00891
G1 X209.432 Y202.297 E0.01111
G1 X209.432 Y201.93 E0.01538
G1 X209.363 Y201.439 E0.02077
G1 X209.351 Y201.213 E0.00951
G1 X209.399 Y201.095 E0.00531
G1 X209.469 Y200.988 E0.00537
G1 X209.655 Y200.752 E0.01259
G1 X209.787 Y200.927 E0.00919
G1 X209.908 Y201.06 E0.0075
G1 X209.978 Y201.236 E0.00794
G1 X210.376 Y201.077 F9000
G1 F1800
G1 X210.409 Y201.161 E0.0038
G1 X210.397 Y201.484 E0.01353
G1 X210.336 Y201.967 E0.02039
G1 X210.339 Y202.381 E0.01736
G1 X210.267 Y202.719 E0.01446
G1 X210.166 Y202.85 E0.00693
G1 X209.881 Y203.068 E0.01506
G1 X209.723 Y203.15 E0.00745
G1 X209.611 Y203.131 E0.00477
G1 X209.436 Y203.053 E0.00802
G1 X209.257 Y202.928 E0.00917
G1 X209.109 Y202.756 E0.00951
G1 X209.004 Y202.352 E0.01751
G1 X209.003 Y201.96 E0.0164
G1 X208.936 Y201.48 E0.02031
G1 X208.918 Y201.139 E0.01433
G1 X209.018 Y200.896 E0.01103
G1 X209.12 Y200.738 E0.00788
G1 X209.417 Y200.362 E0.02005
G1 X209.667 Y200.167 E0.01331
G1 X209.929 Y200.404 E0.0148
G1 X210.117 Y200.653 E0.0131
G1 X210.277 Y200.828 E0.00992
G1 X210.376 Y201.077 E0.01121
G1 X210.774 Y200.918 F9000
G1 F1800
G1 X210.808 Y201.004 E0.00387
G1 X210.843 Y201.045 E0.00225
G1 X210.825 Y201.519 E0.01988
G1 X210.765 Y201.992 E0.01999
G1 X210.768 Y202.424 E0.0181
G1 X210.666 Y202.903 E0.02049
G1 X210.471 Y203.156 E0.01339
G1 X210.111 Y203.431 E0.01899
G1 X209.918 Y203.532 E0.00915
G1 X209.731 Y203.586 E0.00814
G1 X209.486 Y203.545 E0.01039
G1 X209.225 Y203.428 E0.012
G1 X208.967 Y203.249 E0.01316
G1 X208.719 Y202.96 E0.01596
G1 X208.576 Y202.406 E0.02396
G1 X208.575 Y201.991 E0.01742
G1 X208.509 Y201.522 E0.01984
G1 X208.485 Y201.065 E0.01914
G1 X208.637 Y200.696 E0.01674
G1 X208.772 Y200.488 E0.01039
G1 X209.112 Y200.056 E0.02303
G1 X209.687 Y199.607 E0.03058
G1 X210.247 Y200.113 E0.03162
G1 X210.447 Y200.379 E0.01396
G1 X210.646 Y200.597 E0.01235
G1 X210.774 Y200.918 E0.01449
G1 E-0.8 F3000
; acceleration to travel
M204 S3000
G1 X208.156 Y196.119 F9000
; decel to extrusion
M204 S1000
G1 X207.284 Y194.52
; end travel
G1 E0.8 F1800
G1 X207.127 Y194.331 E0.01027
G1 X206.609 Y193.811 E0.03076
G1 X206.052 Y193.499 E0.02672
G1 X205.404 Y193.373 E0.02768
G1 X204.779 Y193.45 E0.02639
G1 X203.967 Y193.763 E0.03646
G1 X203.932 Y191.441 E0.09731
G1 X204.168 Y191.36 E0.01043
G1 X204.354 Y191.608 E0.01299
G1 X205.412 Y192.544 E0.05919
G1 X206.413 Y193.152 E0.04908
G1 X207.878 Y193.664 E0.06502
G1 X207.653 Y193.866 E0.01268
G1 X207.284 Y194.52 E0.03144
G1 X207.385 Y195.31 F9000
G1 F1800
G1 X206.81 Y194.62 E0.03763
G1 X206.347 Y194.156 E0.02747
G1 X205.903 Y193.907 E0.02135
G1 X205.389 Y193.806 E0.02194
G1 X204.884 Y193.868 E0.02131
G1 X203.831 Y194.275 E0.04729
G1 X203.534 Y194.527 E0.01635
G1 X203.538 Y193.734 E0.03325
G1 X203.484 Y190.087 E0.15281
G1 X203.746 Y190.02 E0.01133
G1 X203.859 Y190.235 E0.01015
G1 X204.671 Y191.316 E0.05667
G1 X205.667 Y192.198 E0.05576
G1 X206.597 Y192.762 E0.04558
G1 X208.233 Y193.335 E0.07263
G1 X208.619 Y193.347 E0.01615
G1 X208.67 Y193.617 E0.01152
G1 X208.484 Y193.697 E0.00849
G1 X207.991 Y194.138 E0.02772
G1 X207.67 Y194.707 E0.02734
G1 X207.415 Y195.347 E0.02888
G1 X207.385 Y195.31 E0.00199
G1 E-0.8 F3000
; acceleration to travel
M204 S3000
G1 X210.795 Y194.737 F9000
; decel to extrusion
M204 S1000
G1 X211.932 Y194.545
; end travel
G1 E0.8 F1800
G1 X211.11 Y193.745 E0.04809
G1 X210.414 Y193.431 E0.03197
G1 X212.001 Y192.983 E0.06909
G1 X212.46 Y192.751 E0.02152
G1 X212.634 Y192.963 E0.01148
G1 X212.332 Y193.353 E0.02069
G1 X212.079 Y194.031 E0.0303
G1 X211.932 Y194.545 E0.02242
; acceleration to travel
M204 S3000
G1 X213.724 Y192.642 F9000
; decel to extrusion
M204 S1000
G1 X214.321 Y192.008
; end travel
G1 F1800
G1 X215.221 Y190.883 E0.06039
G1 X215.337 Y191.431 E0.02349
G1 X215.306 Y192.207 E0.03253
G1 X214.736 Y192.035 E0.02495
G1 X214.321 Y192.008 E0.01744
; acceleration to travel
M204 S3000
G1 X213.53 Y192.437 F9000
; decel to extrusion
M204 S1000
G1 X213.267 Y192.58
; end travel
G1 F1800
G1 X213.16 Y192.336 E0.01116
G1 X214.085 Y191.616 E0.04912
G1 X215.008 Y190.463 E0.06187
G1 X215.232 Y189.987 E0.02204
G1 X215.477 Y190.016 E0.01034
G1 X215.767 Y191.395 E0.05906
G1 X215.704 Y192.974 E0.06623
G1 X215.125 Y192.6 E0.0289
G1 X214.659 Y192.459 E0.0204
G1 X214.193 Y192.429 E0.01958
G1 X213.267 Y192.58 E0.03931
G1 E-0.8 F3000
; acceleration to travel
M204 S3000
G1 X210.866 Y183.312 F9000
; decel to extrusion
M204 S1000
G1 X210.065 Y180.223
; end travel
G1 E0.8 F1800
G1 X209.825 Y180.19 E0.01019
G1 X209.722 Y180.109 E0.00547
G1 X208.582 Y180.125 E0.04775
G1 X207.838 Y180.239 E0.03156
G1 X206.846 Y180.534 E0.04335
G1 X205.553 Y181.19 E0.06078
G1 X204.33 Y182.201 E0.06646
G1 X203.178 Y183.923 E0.0868
G1 X201.328 Y174.954 E0.38369
G1 X201.537 Y174.829 E0.01021
G1 X205.971 Y178.545 E0.24241
G1 X207.443 Y178.124 E0.06415
G1 X207.978 Y177.612 E0.03103
G1 X209.262 Y175.874 E0.09055
G1 X210.301 Y174.673 E0.06653
G1 X210.969 Y173.798 E0.04613
G1 X210.961 Y173.736 E0.00261
G1 X211.499 Y173.273 E0.02973
G1 X212.03 Y172.71 E0.03243
G1 X212.096 Y175.788 E0.12899
G1 X212.182 Y176.438 E0.02748
G1 X213.19 Y181.23 E0.20518
G1 X212.09 Y180.635 E0.05238
G1 X210.893 Y180.338 E0.05171
G1 X210.065 Y180.223 E0.03499
G1 X210.007 Y180.648 F9000
G1 F1800
G1 X209.651 Y180.598 E0.01504
G1 X209.576 Y180.54 E0.00397
G1 X208.618 Y180.553 E0.04017
G1 X207.932 Y180.658 E0.02908
G1 X207.006 Y180.934 E0.04049
G1 X205.789 Y181.551 E0.05716
G1 X204.651 Y182.491 E0.06184
M73 P6 R13
G1 X203.494 Y184.221 E0.08723
G1 X203.233 Y185.041 E0.03605
G1 X202.969 Y185.027 E0.01109
G1 X200.66 Y173.835 E0.47884
G1 X200.869 Y173.71 E0.01021
G1 X206.072 Y178.071 E0.28446
G1 X207.223 Y177.741 E0.05017
G1 X207.655 Y177.328 E0.02505
G1 X208.927 Y175.606 E0.08971
G1 X209.969 Y174.403 E0.06667
G1 X210.522 Y173.678 E0.0382
G1 X210.506 Y173.561 E0.00492
G1 X211.203 Y172.963 E0.03848
G1 X211.915 Y172.208 E0.04347
G1 X212.436 Y171.615 E0.03309
G1 X212.524 Y175.755 E0.17353
G1 X212.604 Y176.366 E0.0258
G1 X213.851 Y182.289 E0.25363
G1 X213.005 Y181.617 E0.04526
G1 X211.934 Y181.038 E0.05101
G1 X210.811 Y180.759 E0.04848
G1 X210.007 Y180.648 E0.03404
G1 E-0.8 F3000
; acceleration to travel
M204 S3000
G1 X207.793 Y191.85 F9000
; decel to extrusion
M204 S1000
G1 X207.056 Y195.585
; end travel
G1 E0.8 F1800
G1 X206.493 Y194.909 E0.03684
G1 X206.086 Y194.5 E0.02418
G1 X205.753 Y194.314 E0.01597
G1 X205.374 Y194.24 E0.01621
G1 X204.989 Y194.287 E0.01624
G1 X204.053 Y194.648 E0.04203
G1 X203.752 Y194.903 E0.01652
G1 X203.451 Y195.579 E0.03099
G1 X203.401 Y195.786 E0.00894
G1 X203.098 Y195.75 E0.01282
G1 X203.11 Y193.736 E0.08439
G1 X203.014 Y187.37 E0.26675
G1 X199.991 Y172.716 E0.62695
G1 X200.201 Y172.591 E0.01021
G1 X206.173 Y177.596 E0.32652
G1 X207.003 Y177.358 E0.03619
G1 X207.332 Y177.043 E0.01907
G1 X208.593 Y175.338 E0.08887
G1 X209.636 Y174.132 E0.0668
G1 X210.074 Y173.558 E0.03026
G1 X210.052 Y173.387 E0.00722
G1 X210.907 Y172.652 E0.04722
G1 X211.598 Y171.92 E0.04221
G1 X212.862 Y170.479 E0.08033
G1 X212.86 Y171.388 E0.03811
G1 X212.952 Y175.723 E0.18166
G1 X213.027 Y176.294 E0.02413
G1 X214.525 Y183.411 E0.30474
G1 X214.273 Y183.524 E0.01157
G1 X213.64 Y182.669 E0.04454
G1 X212.768 Y181.976 E0.04668
G1 X211.778 Y181.441 E0.04715
G1 X210.73 Y181.18 E0.04525
G1 X209.478 Y181.007 E0.05299
G1 X209.431 Y180.97 E0.00248
G1 X208.653 Y180.981 E0.03258
G1 X208.026 Y181.077 E0.02659
G1 X207.165 Y181.333 E0.03763
G1 X206.025 Y181.911 E0.05355
G1 X204.973 Y182.781 E0.05722
G1 X203.884 Y184.409 E0.08206
G1 X203.463 Y185.73 E0.05809
G1 X203.396 Y186.267 E0.02269
G1 X203.392 Y187.448 E0.04948
G1 X203.462 Y188.009 E0.02369
G1 X203.76 Y189.034 E0.0447
G1 X203.962 Y189.511 E0.02171
G1 X204.222 Y190.005 E0.02337
G1 X204.987 Y191.024 E0.05341
G1 X205.923 Y191.852 E0.05233
G1 X206.781 Y192.373 E0.04209
G1 X208.313 Y192.908 E0.06798
G1 X210.45 Y192.976 E0.08958
G1 X211.845 Y192.581 E0.06076
G1 X212.704 Y192.148 E0.0403
G1 X213.782 Y191.309 E0.05727
G1 X214.642 Y190.235 E0.05763
G1 X215.241 Y188.96 E0.05905
G1 X215.307 Y188.504 E0.01931
G1 X215.595 Y188.495 E0.01203
G1 X216.197 Y191.359 E0.12265
G1 X216.138 Y192.864 E0.06312
G1 X216.102 Y193.336 E0.01984
G1 X215.998 Y194.113 E0.03285
G1 X215.539 Y193.377 E0.03635
G1 X214.943 Y192.993 E0.02969
G1 X214.582 Y192.884 E0.0158
G1 X214.214 Y192.86 E0.01547
G1 X213.806 Y192.926 E0.01733
G1 X213.296 Y193.01 E0.02163
G1 X212.919 Y193.294 E0.01978
G1 X212.71 Y193.564 E0.0143
G1 X212.487 Y194.165 E0.02686
G1 X212.233 Y195.053 E0.03872
G1 X211.931 Y195.077 E0.01271
G1 X211.513 Y195.154 E0.01778
G1 X211.473 Y194.696 E0.01925
G1 X210.865 Y194.104 E0.03556
G1 X209.977 Y193.704 E0.0408
G1 X209.977 Y193.52 E0.0077
G1 X209.769 Y193.61 E0.00952
G1 X209.389 Y193.439 E0.01748
G1 X209.39 Y193.773 E0.01401
G1 X208.718 Y194.063 E0.03069
G1 X208.33 Y194.41 E0.02183
G1 X208.058 Y194.892 E0.02318
G1 X207.744 Y195.678 E0.03545
G1 X207.181 Y195.734 E0.02375
G1 X207.056 Y195.585 E0.00817
G1 E-0.8 F3000
; acceleration to travel
M204 S3000
G1 X209.624 Y151.349 F9000
; decel to extrusion
M204 S1000
G1 X210.48 Y136.603
; end travel
G1 E0.8 F1800
G1 X210.899 Y136.583 E0.01759
G1 X211.226 Y136.617 E0.01379
G1 X211.688 Y136.79 E0.02064
G1 X212.017 Y137.119 E0.01952
G1 X212.181 Y137.522 E0.01824
G1 X212.192 Y137.576 E0.0023
G1 X212.192 Y137.986 E0.01717
G1 X212.181 Y138.04 E0.0023
G1 X212.017 Y138.443 E0.01824
G1 X211.689 Y138.771 E0.01946
G1 X211.655 Y138.794 E0.00169
G1 X211.404 Y138.904 E0.01149
G1 X211.136 Y138.964 E0.01152
G1 X210.871 Y138.975 E0.01114
G1 X210.582 Y138.932 E0.01221
G1 X210.391 Y138.924 E0.00803
G1 X210.342 Y138.85 E0.00373
G1 X210.133 Y138.599 E0.01369
G1 X209.965 Y138.335 E0.01312
G1 X209.875 Y138.113 E0.01005
G1 X209.832 Y137.894 E0.00931
G1 X209.832 Y137.676 E0.00915
G1 X209.905 Y137.358 E0.01368
G1 X210.012 Y137.154 E0.00964
G1 X210.48 Y136.603 E0.03029
G1 X210.274 Y136.184 F9000
G1 F1800
G1 X210.911 Y136.153 E0.02674
G1 X211.325 Y136.197 E0.01745
G1 X211.889 Y136.407 E0.02523
G1 X211.962 Y136.457 E0.00369
G1 X212.342 Y136.837 E0.02252
G1 X212.4 Y136.923 E0.00435
G1 X212.593 Y137.399 E0.02151
G1 X212.62 Y137.534 E0.00577
G1 X212.62 Y138.028 E0.02071
G1 X212.593 Y138.163 E0.00577
G1 X212.4 Y138.639 E0.02151
G1 X212.342 Y138.725 E0.00435
G1 X211.964 Y139.103 E0.0224
G1 X211.864 Y139.171 E0.00505
G1 X211.538 Y139.313 E0.0149
G1 X211.192 Y139.391 E0.01486
G1 X210.848 Y139.405 E0.01446
G1 X210.542 Y139.359 E0.01295
G1 X210.153 Y139.344 E0.01632
G1 X209.997 Y139.105 E0.01193
G1 X209.786 Y138.852 E0.01382
G1 X209.583 Y138.532 E0.0159
G1 X209.462 Y138.235 E0.01341
G1 X209.404 Y137.935 E0.01279
G1 X209.404 Y137.628 E0.01288
G1 X209.468 Y137.297 E0.01412
G1 X209.499 Y137.208 E0.00397
G1 X209.655 Y136.913 E0.01399
G1 X210.274 Y136.184 E0.04005
G1 X209.999 Y135.768 F9000
G1 F1800
G1 X210.923 Y135.724 E0.03878
G1 X211.424 Y135.776 E0.0211
G1 X212.089 Y136.025 E0.02974
G1 X212.237 Y136.127 E0.00754
G1 X212.673 Y136.563 E0.02583
G1 X212.78 Y136.719 E0.00795
G1 X213.005 Y137.275 E0.02514
G1 X213.048 Y137.492 E0.00924
G1 X213.048 Y138.07 E0.02425
G1 X213.005 Y138.287 E0.00924
G1 X212.78 Y138.843 E0.02514
G1 X212.673 Y138.999 E0.00795
G1 X212.238 Y139.434 E0.02575
G1 X212.073 Y139.547 E0.0084
G1 X211.673 Y139.722 E0.01831
G1 X211.249 Y139.817 E0.01821
G1 X210.825 Y139.835 E0.01778
G1 X210.501 Y139.787 E0.01369
G1 X209.915 Y139.763 E0.0246
