; generated by SuperSlicer 2.3.57 on 2022-02-08 at 23:53:37 UTC


;
;

;
;
; 

; external perimeters extrusion width = 0.40mm
; perimeters extrusion width = 0.40mm
; infill extrusion width = 0.72mm
; solid infill extrusion width = 0.40mm
; top infill extrusion width = 0.40mm
; support material extrusion width = 0.40mm
; first layer extrusion width = 0.48mm


;TYPE:Custom
START_PRINT T_BED=60 T_EXTRUDER=200
M107
G21 ; set units to millimeters
G90 ; use absolute coordinates
M83 ; use relative distances for extrusion
; Filament gcode
M104 S200 ; set temperature
M109 S200 ; set temperature and wait for it to be reached
M190 S60 ; set bed temperature and wait for it to be reached
M107
;LAYER_CHANGE
;Z:0.24
;HEIGHT:0.24
G1 E-0.6 F3000
G1 Z0.24 F9000
G1 X85.841 Y131.25
G1 E0.6 F1800
;TYPE:Skirt
;WIDTH:0.48
G1 X85.191 Y131.702 E0.03385
G1 X84.607 Y132.245 E0.0341
G1 X84.104 Y132.864 E0.0341
G1 X83.694 Y133.548 E0.0341
G1 X83.387 Y134.278 E0.03385
G1 X83.184 Y135.049 E0.0341
G1 X83.091 Y135.841 E0.0341
G1 X83.085 Y194.128 E2.49212
G1 X83.199 Y195.212 E0.0466
G1 X83.521 Y196.26 E0.04685
G1 X83.888 Y196.987 E0.03485
G1 X84.357 Y197.654 E0.03485
G1 X84.917 Y198.246 E0.03485
G1 X85.556 Y198.752 E0.03485
G1 X86.261 Y199.16 E0.03485
G1 X87.018 Y199.463 E0.03485
G1 X87.811 Y199.653 E0.03485
G1 X88.622 Y199.727 E0.03485
G1 X241.286 Y199.728 E6.52721
G1 X242.388 Y199.617 E0.04735
G1 X243.447 Y199.292 E0.04735
G1 X244.154 Y198.937 E0.03385
G1 X244.804 Y198.486 E0.03385
G1 X245.381 Y197.952 E0.0336
G1 X245.882 Y197.339 E0.03385
G1 X246.289 Y196.667 E0.0336
G1 X246.601 Y195.94 E0.03385
G1 X246.807 Y195.182 E0.0336
G1 X246.906 Y194.396 E0.03385
G1 X246.912 Y135.921 E2.50014
G1 X246.774 Y134.846 E0.04635
G1 X246.433 Y133.817 E0.04635
G1 X245.901 Y132.872 E0.04635
G1 X245.199 Y132.046 E0.04635
G1 X244.351 Y131.37 E0.04635
G1 X243.39 Y130.869 E0.04635
G1 X242.351 Y130.56 E0.04635
G1 X241.272 Y130.456 E0.04635
G1 X88.714 Y130.456 E6.52269
G1 X87.612 Y130.567 E0.04735
G1 X86.553 Y130.892 E0.04735
G1 X85.895 Y131.223 E0.03153
G1 X86.085 Y131.605 F9000
G1 F1800
G1 X85.465 Y132.032 E0.03219
G1 X84.923 Y132.533 E0.03157
G1 X84.458 Y133.106 E0.03157
G1 X84.078 Y133.74 E0.03157
G1 X83.789 Y134.425 E0.03181
G1 X83.603 Y135.14 E0.03157
G1 X83.518 Y135.873 E0.03157
G1 X83.514 Y194.118 E2.4903
G1 X83.616 Y195.116 E0.04287
G1 X83.91 Y196.08 E0.04311
G1 X84.249 Y196.755 E0.03229
G1 X84.685 Y197.379 E0.03253
G1 X85.203 Y197.928 E0.03229
G1 X85.796 Y198.397 E0.03229
G1 X86.449 Y198.775 E0.03229
G1 X87.151 Y199.055 E0.03229
G1 X87.885 Y199.231 E0.03229
G1 X88.638 Y199.299 E0.03229
G1 X241.288 Y199.3 E6.52666
G1 X242.297 Y199.198 E0.04335
G1 X243.267 Y198.903 E0.04335
G1 X243.923 Y198.576 E0.03133
G1 X244.526 Y198.16 E0.03133
G1 X245.069 Y197.659 E0.03157
G1 X245.532 Y197.092 E0.03133
G1 X245.912 Y196.465 E0.03133
G1 X246.2 Y195.791 E0.03133
G1 X246.39 Y195.083 E0.03133
G1 X246.48 Y194.35 E0.03157
G1 X246.484 Y135.947 E2.49705
G1 X246.359 Y134.953 E0.04287
G1 X246.045 Y134 E0.04287
G1 X245.552 Y133.121 E0.04311
G1 X244.903 Y132.357 E0.04287
G1 X244.12 Y131.731 E0.04287
G1 X243.231 Y131.267 E0.04287
G1 X242.27 Y130.981 E0.04287
G1 X241.272 Y130.885 E0.04287
G1 X88.712 Y130.885 E6.5228
G1 X87.703 Y130.986 E0.04335
G1 X86.733 Y131.281 E0.04335
G1 X86.139 Y131.578 E0.02838
G1 E-0.6 F3000
G1 X120.436 Y169.085 F9000
G1 E0.6 F1800
;TYPE:Support material
G1 X120.436 Y165.306 E0.1616
G1 X119.579 Y165.306 E0.03664
G1 X119.579 Y168.901 E0.15372
G1 X118.722 Y168.901 E0.03664
G1 X118.722 Y165.306 E0.15372
G1 X117.865 Y165.306 E0.03664
G1 X117.865 Y168.901 E0.15372
G1 X117.009 Y168.901 E0.03664
G1 X117.009 Y165.306 E0.15372
G1 X116.152 Y165.306 E0.03664
G1 X116.152 Y168.901 E0.15372
G1 X115.295 Y168.901 E0.03664
G1 X115.295 Y136.099 E1.40247
G1 X114.438 Y136.099 E0.03664
G1 X114.438 Y168.901 E1.40247
G1 X113.581 Y168.901 E0.03664
G1 X113.581 Y136.099 E1.40247
G1 X112.724 Y136.099 E0.03664
G1 X112.724 Y168.901 E1.40247
G1 X111.867 Y168.901 E0.03664
G1 X111.867 Y136.099 E1.40247
G1 X111.01 Y136.099 E0.03664
G1 X111.01 Y168.901 E1.40247
G1 X110.153 Y168.901 E0.03664
G1 X110.153 Y136.099 E1.40247
G1 X109.296 Y136.099 E0.03664
G1 X109.296 Y168.901 E1.40247
G1 X108.439 Y168.901 E0.03664
G1 X108.439 Y136.099 E1.40247
G1 X107.582 Y136.099 E0.03664
G1 X107.582 Y168.901 E1.40247
G1 X106.725 Y168.901 E0.03664
G1 X106.725 Y136.099 E1.40247
G1 X105.868 Y136.099 E0.03664
G1 X105.868 Y168.901 E1.40247
G1 X105.011 Y168.901 E0.03664
G1 X105.011 Y136.099 E1.40247
G1 X104.154 Y136.099 E0.03664
G1 X104.154 Y168.901 E1.40247
G1 X103.297 Y168.901 E0.03664
G1 X103.297 Y136.099 E1.40247
G1 X102.44 Y136.099 E0.03664
G1 X102.44 Y168.901 E1.40247
G1 X101.583 Y168.901 E0.03664
G1 X101.583 Y136.099 E1.40247
G1 X100.726 Y136.099 E0.03664
G1 X100.726 Y168.901 E1.40247
G1 X99.869 Y168.901 E0.03664
G1 X99.869 Y136.099 E1.40247
G1 X99.012 Y136.099 E0.03664
G1 X99.012 Y168.901 E1.40247
G1 X98.155 Y168.901 E0.03664
G1 X98.155 Y136.099 E1.40247
G1 X97.298 Y136.099 E0.03664
G1 X97.298 Y168.901 E1.40247
G1 X96.441 Y168.901 E0.03664
G1 X96.441 Y136.099 E1.40247
G1 X95.584 Y136.099 E0.03664
G1 X95.584 Y168.901 E1.40247
G1 X94.727 Y168.901 E0.03664
G1 X94.727 Y136.099 E1.40247
G1 X93.87 Y136.099 E0.03664
G1 X93.87 Y168.901 E1.40247
G1 X93.013 Y168.901 E0.03664
G1 X93.013 Y136.099 E1.40247
G1 X92.156 Y136.099 E0.03664
G1 X92.156 Y168.901 E1.40247
G1 X91.299 Y168.901 E0.03664
G1 X91.299 Y136.099 E1.40247
G1 X90.442 Y136.099 E0.03664
G1 X90.442 Y168.901 E1.40247
G1 X89.585 Y168.901 E0.03664
G1 X89.585 Y136.099 E1.40247
G1 X88.728 Y136.099 E0.03664
G1 X88.728 Y169.085 E1.41035
G1 E-0.6 F3000
G1 X120.436 Y139.879 F9000
G1 E0.6 F1800
G1 X120.436 Y136.099 E0.1616
G1 X119.579 Y136.099 E0.03664
G1 X119.579 Y139.694 E0.15372
G1 X118.722 Y139.694 E0.03664
G1 X118.722 Y136.099 E0.15372
G1 X117.865 Y136.099 E0.03664
G1 X117.865 Y139.694 E0.15372
G1 X117.009 Y139.694 E0.03664
G1 X117.009 Y136.099 E0.15372
G1 X116.152 Y136.099 E0.03664
G1 X116.152 Y139.92 E0.16337
G1 E-0.6 F3000
G1 X241.272 Y169.085 F9000
G1 E0.6 F1800
G1 X241.272 Y136.099 E1.41035
G1 X240.415 Y136.099 E0.03664
G1 X240.415 Y168.901 E1.40247
G1 X239.558 Y168.901 E0.03664
G1 X239.558 Y136.099 E1.40247
G1 X238.701 Y136.099 E0.03664
G1 X238.701 Y168.901 E1.40247
G1 X237.844 Y168.901 E0.03664
G1 X237.844 Y136.099 E1.40247
G1 X236.987 Y136.099 E0.03664
G1 X236.987 Y168.901 E1.40247
G1 X236.13 Y168.901 E0.03664
G1 X236.13 Y136.099 E1.40247
G1 X235.273 Y136.099 E0.03664
G1 X235.273 Y168.901 E1.40247
G1 X234.416 Y168.901 E0.03664
G1 X234.416 Y136.099 E1.40247
G1 X233.559 Y136.099 E0.03664
G1 X233.559 Y168.901 E1.40247
G1 X232.702 Y168.901 E0.03664
G1 X232.702 Y136.099 E1.40247
G1 X231.845 Y136.099 E0.03664
G1 X231.845 Y168.901 E1.40247
G1 X230.988 Y168.901 E0.03664
G1 X230.988 Y136.099 E1.40247
G1 X230.131 Y136.099 E0.03664
G1 X230.131 Y168.901 E1.40247
G1 X229.274 Y168.901 E0.03664
G1 X229.274 Y136.099 E1.40247
G1 X228.417 Y136.099 E0.03664
G1 X228.417 Y168.901 E1.40247
G1 X227.56 Y168.901 E0.03664
G1 X227.56 Y136.099 E1.40247
G1 X226.703 Y136.099 E0.03664
G1 X226.703 Y168.901 E1.40247
G1 X225.846 Y168.901 E0.03664
G1 X225.846 Y136.099 E1.40247
G1 X224.989 Y136.099 E0.03664
G1 X224.989 Y168.901 E1.40247
G1 X224.132 Y168.901 E0.03664
G1 X224.132 Y136.099 E1.40247
G1 X223.275 Y136.099 E0.03664
G1 X223.275 Y168.901 E1.40247
G1 X222.418 Y168.901 E0.03664
G1 X222.418 Y136.099 E1.40247
G1 X221.561 Y136.099 E0.03664
G1 X221.561 Y168.901 E1.40247
G1 X220.704 Y168.901 E0.03664
G1 X220.704 Y136.099 E1.40247
G1 X219.847 Y136.099 E0.03664
G1 X219.847 Y168.901 E1.40247
G1 X218.99 Y168.901 E0.03664
G1 X218.99 Y136.099 E1.40247
G1 X218.133 Y136.099 E0.03664
G1 X218.133 Y168.901 E1.40247
G1 X217.276 Y168.901 E0.03664
G1 X217.276 Y136.099 E1.40247
G1 X216.419 Y136.099 E0.03664
G1 X216.419 Y168.901 E1.40247
G1 X215.562 Y168.901 E0.03664
G1 X215.562 Y136.099 E1.40247
G1 X214.705 Y136.099 E0.03664
G1 X214.705 Y168.901 E1.40247
G1 X213.848 Y168.901 E0.03664
G1 X213.848 Y165.306 E0.15372
G1 X212.991 Y165.306 E0.03664
G1 X212.991 Y168.901 E0.15372
G1 X212.135 Y168.901 E0.03664
G1 X212.135 Y165.306 E0.15372
G1 X211.278 Y165.306 E0.03664
G1 X211.278 Y168.901 E0.15372
G1 X210.421 Y168.901 E0.03664
G1 X210.421 Y165.306 E0.15372
G1 X209.564 Y165.306 E0.03664
G1 X209.564 Y169.085 E0.1616
G1 E-0.6 F3000
G1 X213.848 Y139.92 F9000
G1 E0.6 F1800
G1 X213.848 Y136.099 E0.16337
G1 X212.991 Y136.099 E0.03664
G1 X212.991 Y139.694 E0.15372
G1 X212.135 Y139.694 E0.03664
G1 X212.135 Y136.099 E0.15372
G1 X211.278 Y136.099 E0.03664
G1 X211.278 Y139.694 E0.15372
G1 X210.421 Y139.694 E0.03664
G1 X210.421 Y136.099 E0.15372
G1 X209.564 Y136.099 E0.03664
G1 X209.564 Y139.879 E0.1616
G1 E-0.6 F3000
G1 X163.634 Y163.403 F9000
G1 E0.6 F1800
;TYPE:Internal perimeter
G1 X117.547 Y163.403 E1.97045
G1 X117.547 Y141.597 E0.93233
G1 X212.453 Y141.597 E4.05773
G1 X212.453 Y163.403 E0.93233
G1 X163.694 Y163.403 E2.08471
G1 X163.694 Y163.832 F9000
G1 F1800
G1 X117.119 Y163.832 E1.99134
G1 X117.119 Y141.168 E0.96897
G1 X212.881 Y141.168 E4.09437
G1 X212.881 Y163.832 E0.96897
G1 X163.754 Y163.832 E2.10046
G1 X163.754 Y164.26 F9000
;TYPE:External perimeter
G1 F1800
G1 X116.69 Y164.26 E2.01222
G1 X116.69 Y140.74 E1.00561
G1 X213.31 Y140.74 E4.13101
G1 X213.31 Y164.26 E1.00561
G1 X163.814 Y164.26 E2.11622
;WIPE_START
G1 X163.554 Y163.914 F9000
;WIPE_END
G1 E-0.6 F3000
G1 X211.437 Y141.747 F9000
G1 E0.6 F1800
;TYPE:Solid infill
;WIDTH:0.48077
G1 X212.119 Y142.429 E0.0413
G1 X212.119 Y143.035 E0.02595
G1 X211.015 Y141.931 E0.06684
G1 X210.409 Y141.931 E0.02595
G1 X212.119 Y143.641 E0.10354
G1 X212.119 Y144.247 E0.02595
G1 X209.803 Y141.931 E0.14024
G1 X209.197 Y141.931 E0.02595
G1 X212.119 Y144.853 E0.17694
G1 X212.119 Y145.459 E0.02595
G1 X208.591 Y141.931 E0.21364
G1 X207.985 Y141.931 E0.02595
G1 X212.119 Y146.065 E0.25034
G1 X212.119 Y146.671 E0.02595
G1 X207.379 Y141.931 E0.28704
G1 X206.773 Y141.931 E0.02595
G1 X212.119 Y147.277 E0.32374
G1 X212.119 Y147.883 E0.02595
G1 X206.167 Y141.931 E0.36044
G1 X205.561 Y141.931 E0.02595
G1 X212.119 Y148.489 E0.39714
G1 X212.119 Y149.095 E0.02595
G1 X204.955 Y141.931 E0.43384
G1 X204.349 Y141.931 E0.02595
G1 X212.119 Y149.701 E0.47054
G1 X212.119 Y150.307 E0.02595
G1 X203.743 Y141.931 E0.50724
G1 X203.137 Y141.931 E0.02595
G1 X212.119 Y150.913 E0.54394
G1 X212.119 Y151.519 E0.02595
G1 X202.531 Y141.931 E0.58064
G1 X201.925 Y141.931 E0.02595
G1 X212.119 Y152.125 E0.61734
G1 X212.119 Y152.731 E0.02595
G1 X201.319 Y141.931 E0.65404
G1 X200.713 Y141.931 E0.02595
G1 X212.119 Y153.337 E0.69074
G1 X212.119 Y153.943 E0.02595
G1 X200.107 Y141.931 E0.72744
G1 X199.501 Y141.931 E0.02595
G1 X212.119 Y154.549 E0.76414
G1 X212.119 Y155.155 E0.02595
G1 X198.895 Y141.931 E0.80084
G1 X198.289 Y141.931 E0.02595
G1 X212.119 Y155.761 E0.83754
G1 X212.119 Y156.367 E0.02595
G1 X197.683 Y141.931 E0.87424
G1 X197.077 Y141.931 E0.02595
G1 X212.119 Y156.972 E0.91094
G1 X212.119 Y157.578 E0.02595
G1 X196.471 Y141.931 E0.94764
G1 X195.865 Y141.931 E0.02595
G1 X212.119 Y158.184 E0.98434
G1 X212.119 Y158.79 E0.02595
G1 X195.259 Y141.931 E1.02104
G1 X194.653 Y141.931 E0.02595
G1 X212.119 Y159.396 E1.05774
G1 X212.119 Y160.002 E0.02595
G1 X194.047 Y141.931 E1.09444
G1 X193.441 Y141.931 E0.02595
G1 X212.119 Y160.608 E1.13114
G1 X212.119 Y161.214 E0.02595
G1 X192.835 Y141.931 E1.16784
G1 X192.229 Y141.931 E0.02595
G1 X212.119 Y161.82 E1.20454
G1 X212.119 Y162.426 E0.02595
G1 X191.623 Y141.931 E1.24124
G1 X191.017 Y141.931 E0.02595
G1 X212.119 Y163.032 E1.27794
G1 X212.119 Y163.069 E0.00156
G1 X211.549 Y163.069 E0.02439
G1 X190.411 Y141.931 E1.28014
G1 X189.805 Y141.931 E0.02595
G1 X210.943 Y163.069 E1.28014
G1 X210.337 Y163.069 E0.02595
G1 X189.199 Y141.931 E1.28014
G1 X188.593 Y141.931 E0.02595
G1 X209.731 Y163.069 E1.28014
G1 X209.125 Y163.069 E0.02595
G1 X187.987 Y141.931 E1.28014
G1 X187.381 Y141.931 E0.02595
G1 X208.519 Y163.069 E1.28014
G1 X207.913 Y163.069 E0.02595
G1 X186.775 Y141.931 E1.28014
G1 X186.17 Y141.931 E0.02595
G1 X207.307 Y163.069 E1.28014
G1 X206.701 Y163.069 E0.02595
G1 X185.564 Y141.931 E1.28014
G1 X184.958 Y141.931 E0.02595
G1 X206.095 Y163.069 E1.28014
G1 X205.489 Y163.069 E0.02595
G1 X184.352 Y141.931 E1.28014
G1 X183.746 Y141.931 E0.02595
G1 X204.883 Y163.069 E1.28014
G1 X204.277 Y163.069 E0.02595
G1 X183.14 Y141.931 E1.28014
G1 X182.534 Y141.931 E0.02595
G1 X203.671 Y163.069 E1.28014
G1 X203.065 Y163.069 E0.02595
G1 X181.928 Y141.931 E1.28014
G1 X181.322 Y141.931 E0.02595
G1 X202.459 Y163.069 E1.28014
G1 X201.853 Y163.069 E0.02595
G1 X180.716 Y141.931 E1.28014
G1 X180.11 Y141.931 E0.02595
G1 X201.247 Y163.069 E1.28014
G1 X200.641 Y163.069 E0.02595
G1 X179.504 Y141.931 E1.28014
G1 X178.898 Y141.931 E0.02595
G1 X200.035 Y163.069 E1.28014
G1 X199.429 Y163.069 E0.02595
G1 X178.292 Y141.931 E1.28014
G1 X177.686 Y141.931 E0.02595
G1 X198.823 Y163.069 E1.28014
G1 X198.217 Y163.069 E0.02595
G1 X177.08 Y141.931 E1.28014
G1 X176.474 Y141.931 E0.02595
G1 X197.611 Y163.069 E1.28014
G1 X197.005 Y163.069 E0.02595
G1 X175.868 Y141.931 E1.28014
G1 X175.262 Y141.931 E0.02595
G1 X196.399 Y163.069 E1.28014
G1 X195.793 Y163.069 E0.02595
G1 X174.656 Y141.931 E1.28014
G1 X174.05 Y141.931 E0.02595
G1 X195.187 Y163.069 E1.28014
G1 X194.581 Y163.069 E0.02595
G1 X173.444 Y141.931 E1.28014
G1 X172.838 Y141.931 E0.02595
G1 X193.975 Y163.069 E1.28014
G1 X193.37 Y163.069 E0.02595
G1 X172.232 Y141.931 E1.28014
G1 X171.626 Y141.931 E0.02595
G1 X192.764 Y163.069 E1.28014
G1 X192.158 Y163.069 E0.02595
G1 X171.02 Y141.931 E1.28014
G1 X170.414 Y141.931 E0.02595
G1 X191.552 Y163.069 E1.28014
G1 X190.946 Y163.069 E0.02595
G1 X169.808 Y141.931 E1.28014
G1 X169.202 Y141.931 E0.02595
G1 X190.34 Y163.069 E1.28014
G1 X189.734 Y163.069 E0.02595
G1 X168.596 Y141.931 E1.28014
G1 X167.99 Y141.931 E0.02595
G1 X189.128 Y163.069 E1.28014
G1 X188.522 Y163.069 E0.02595
G1 X167.384 Y141.931 E1.28014
G1 X166.778 Y141.931 E0.02595
G1 X187.916 Y163.069 E1.28014
G1 X187.31 Y163.069 E0.02595
G1 X166.172 Y141.931 E1.28014
G1 X165.566 Y141.931 E0.02595
G1 X186.704 Y163.069 E1.28014
G1 X186.098 Y163.069 E0.02595
G1 X164.96 Y141.931 E1.28014
G1 X164.354 Y141.931 E0.02595
G1 X185.492 Y163.069 E1.28014
G1 X184.886 Y163.069 E0.02595
G1 X163.748 Y141.931 E1.28014
G1 X163.142 Y141.931 E0.02595
G1 X184.28 Y163.069 E1.28014
G1 X183.674 Y163.069 E0.02595
G1 X162.536 Y141.931 E1.28014
G1 X161.93 Y141.931 E0.02595
G1 X183.068 Y163.069 E1.28014
G1 X182.462 Y163.069 E0.02595
G1 X161.324 Y141.931 E1.28014
G1 X160.718 Y141.931 E0.02595
G1 X181.856 Y163.069 E1.28014
G1 X181.25 Y163.069 E0.02595
G1 X160.112 Y141.931 E1.28014
G1 X159.506 Y141.931 E0.02595
G1 X180.644 Y163.069 E1.28014
G1 X180.038 Y163.069 E0.02595
G1 X158.9 Y141.931 E1.28014
G1 X158.294 Y141.931 E0.02595
G1 X179.432 Y163.069 E1.28014
G1 X178.826 Y163.069 E0.02595
G1 X157.688 Y141.931 E1.28014
G1 X157.082 Y141.931 E0.02595
G1 X178.22 Y163.069 E1.28014
G1 X177.614 Y163.069 E0.02595
G1 X156.476 Y141.931 E1.28014
G1 X155.87 Y141.931 E0.02595
G1 X177.008 Y163.069 E1.28014
G1 X176.402 Y163.069 E0.02595
G1 X155.264 Y141.931 E1.28014
G1 X154.658 Y141.931 E0.02595
G1 X175.796 Y163.069 E1.28014
G1 X175.19 Y163.069 E0.02595
G1 X154.052 Y141.931 E1.28014
G1 X153.446 Y141.931 E0.02595
G1 X174.584 Y163.069 E1.28014
G1 X173.978 Y163.069 E0.02595
G1 X152.84 Y141.931 E1.28014
G1 X152.234 Y141.931 E0.02595
G1 X173.372 Y163.069 E1.28014
G1 X172.766 Y163.069 E0.02595
G1 X151.628 Y141.931 E1.28014
G1 X151.022 Y141.931 E0.02595
G1 X172.16 Y163.069 E1.28014
G1 X171.554 Y163.069 E0.02595
G1 X150.416 Y141.931 E1.28014
G1 X149.811 Y141.931 E0.02595
G1 X170.948 Y163.069 E1.28014
G1 X170.342 Y163.069 E0.02595
G1 X149.205 Y141.931 E1.28014
G1 X148.599 Y141.931 E0.02595
G1 X169.736 Y163.069 E1.28014
G1 X169.13 Y163.069 E0.02595
G1 X147.993 Y141.931 E1.28014
G1 X147.387 Y141.931 E0.02595
G1 X168.524 Y163.069 E1.28014
G1 X167.918 Y163.069 E0.02595
G1 X146.781 Y141.931 E1.28014
G1 X146.175 Y141.931 E0.02595
G1 X167.312 Y163.069 E1.28014
G1 X166.706 Y163.069 E0.02595
G1 X145.569 Y141.931 E1.28014
