; generated by SuperSlicer 2.3.57 on 2022-02-07 at 22:13:58 UTC


;
;

;
;
; 

; external perimeters extrusion width = 0.40mm
; perimeters extrusion width = 0.40mm
; infill extrusion width = 0.72mm
; solid infill extrusion width = 0.40mm
; top infill extrusion width = 0.40mm
; support material extrusion width = 0.40mm
; first layer extrusion width = 0.52mm


;TYPE:Custom
START_PRINT T_BED=60 T_EXTRUDER=200
M107
G21 ; set units to millimeters
G90 ; use absolute coordinates
M83 ; use relative distances for extrusion
; Filament gcode
M104 S200 ; set temperature
M109 S200 ; set temperature and wait for it to be reached
M190 S60 ; set bed temperature and wait for it to be reached
;LAYER_CHANGE
;Z:0.24
;HEIGHT:0.24
G1 E-0.6 F3000
G1 Z0.24 F9000
G1 X156.999 Y157.994
G1 E0.6 F1800
;TYPE:Skirt
;WIDTH:0.52
G1 F600
G1 X155.852 Y159.613 E0.09278
G1 X155.007 Y161.46 E0.09494
G1 X154.565 Y163.119 E0.08027
G1 X154.086 Y165.925 E0.13307
G1 X154.008 Y166.93 E0.04711
G1 X154.149 Y168.294 E0.06409
G1 X154.613 Y169.671 E0.06794
G1 X155.331 Y170.83 E0.06373
G1 X156.331 Y171.835 E0.06626
G1 X158.998 Y173.837 E0.15593
G1 X160.217 Y174.512 E0.06511
G1 X161.626 Y175.056 E0.07062
G1 X162.916 Y175.427 E0.06274
G1 X163.973 Y175.607 E0.05011
G1 X165.001 Y175.669 E0.04816
G1 X166.02 Y175.606 E0.04771
G1 X167.381 Y175.357 E0.06468
G1 X169.793 Y174.508 E0.11956
G1 X170.917 Y173.894 E0.05987
G1 X173.679 Y171.828 E0.1612
G1 X174.648 Y170.857 E0.06414
G1 X175.397 Y169.651 E0.06637
G1 X175.837 Y168.361 E0.06371
G1 X175.992 Y166.919 E0.06782
G1 X175.911 Y165.909 E0.04737
G1 X175.472 Y163.335 E0.12202
G1 X175.045 Y161.61 E0.08311
G1 X174.248 Y159.793 E0.09274
G1 X173.514 Y158.641 E0.06388
G1 X172.881 Y157.858 E0.04705
G1 X172.115 Y157.086 E0.05084
G1 X171.265 Y156.395 E0.05121
G1 X170.406 Y155.832 E0.048
G1 X169.15 Y155.198 E0.06581
G1 X168.107 Y154.815 E0.05192
G1 X167.126 Y154.564 E0.04734
G1 X165.004 Y154.331 E0.09979
G1 X163.953 Y154.397 E0.0492
G1 X162.554 Y154.637 E0.06639
G1 X160.598 Y155.306 E0.09661
G1 X159.632 Y155.809 E0.0509
G1 X158.48 Y156.59 E0.06509
G1 X157.043 Y157.952 E0.09257
G1 X157.366 Y158.292 F9000
G1 F600
G1 X157.339 Y158.317 E0.00173
G1 X156.257 Y159.848 E0.08764
G1 X155.449 Y161.617 E0.0909
G1 X155.026 Y163.201 E0.07665
G1 X154.55 Y165.988 E0.13219
G1 X154.476 Y166.933 E0.0443
G1 X154.608 Y168.197 E0.05943
G1 X155.041 Y169.48 E0.06329
G1 X155.746 Y170.599 E0.06183
G1 X156.644 Y171.485 E0.05897
G1 X159.255 Y173.445 E0.15263
G1 X160.396 Y174.079 E0.06101
G1 X162.625 Y174.874 E0.11061
G1 X163.914 Y175.128 E0.06142
G1 X165.001 Y175.201 E0.0509
G1 X165.964 Y175.141 E0.04511
G1 X167.28 Y174.9 E0.06253
G1 X169.613 Y174.075 E0.11567
G1 X170.66 Y173.502 E0.05583
G1 X173.363 Y171.48 E0.15778
G1 X174.268 Y170.582 E0.05958
G1 X174.969 Y169.461 E0.06182
G1 X175.379 Y168.261 E0.05928
G1 X175.524 Y166.917 E0.0632
G1 X175.446 Y165.971 E0.04439
G1 X175.011 Y163.421 E0.12091
G1 X174.604 Y161.767 E0.07962
G1 X173.848 Y160.037 E0.08826
G1 X173.135 Y158.917 E0.06205
G1 X172.539 Y158.178 E0.04438
G1 X171.804 Y157.436 E0.04881
G1 X170.997 Y156.779 E0.04867
G1 X170.177 Y156.24 E0.04589
G1 X168.961 Y155.626 E0.06366
G1 X167.029 Y155.023 E0.09459
G1 X165.007 Y154.799 E0.09511
G1 X164.007 Y154.862 E0.04683
G1 X162.656 Y155.094 E0.06411
G1 X160.791 Y155.733 E0.09213
G1 X159.872 Y156.211 E0.04842
G1 X158.757 Y156.968 E0.06302
G1 X157.409 Y158.25 E0.08695
G1 E-0.6 F3000
G1 X166.054 Y160.921 F9000
G1 E0.6 F1800
;TYPE:Internal perimeter
G1 F600
G1 X166.194 Y160.956 E0.00676
G1 X166.551 Y161.08 E0.01765
G1 X166.889 Y161.233 E0.01735
G1 X167.213 Y161.415 E0.01739
G1 X167.518 Y161.623 E0.01725
G1 X167.798 Y161.853 E0.01695
G1 X168.05 Y162.103 E0.01658
G1 X168.276 Y162.373 E0.01645
G1 X168.479 Y162.665 E0.01663
G1 X168.663 Y162.983 E0.01716
G1 X168.823 Y163.324 E0.01762
G1 X168.957 Y163.684 E0.018
G1 X169.063 Y164.06 E0.01826
G1 X169.137 Y164.446 E0.01837
G1 X169.179 Y164.836 E0.01832
G1 X169.187 Y165.222 E0.01807
G1 X169.175 Y165.406 E0.00858
G1 X168.547 Y165.541 E0.03006
G1 X168.547 Y167.088 E0.07231
G1 X168.082 Y167.193 E0.02229
G1 X167.806 Y167.237 E0.01306
G1 X166.819 Y167.299 E0.0462
G1 X166.819 Y168.765 E0.06857
G1 X166.209 Y169.001 E0.03058
G1 X165.853 Y169.11 E0.01739
G1 X165.52 Y169.184 E0.01596
G1 X165.212 Y169.226 E0.01456
G1 X165.005 Y169.237 E0.00969
G1 X164.71 Y169.218 E0.01378
G1 X164.402 Y169.169 E0.0146
G1 X164.066 Y169.088 E0.01615
G1 X163.703 Y168.97 E0.01783
G1 X163.181 Y168.765 E0.02623
G1 X163.181 Y167.297 E0.06861
G1 X162.205 Y167.238 E0.0457
G1 X161.936 Y167.196 E0.01272
G1 X161.454 Y167.088 E0.02313
G1 X161.454 Y165.545 E0.07209
G1 X160.822 Y165.404 E0.03028
G1 X160.813 Y165.047 E0.01674
G1 X160.836 Y164.665 E0.01788
G1 X160.891 Y164.279 E0.01823
G1 X160.98 Y163.895 E0.01842
G1 X161.1 Y163.519 E0.01843
G1 X161.251 Y163.158 E0.01827
G1 X161.428 Y162.818 E0.01796
G1 X161.631 Y162.501 E0.01756
G1 X161.85 Y162.218 E0.01675
G1 X162.092 Y161.957 E0.01663
G1 X162.352 Y161.724 E0.01633
G1 X162.637 Y161.512 E0.0166
G1 X162.946 Y161.321 E0.01696
G1 X163.274 Y161.155 E0.0172
G1 X163.617 Y161.018 E0.01728
G1 X163.971 Y160.911 E0.01729
G1 X164.337 Y160.833 E0.01749
G1 X164.73 Y160.781 E0.01853
G1 X164.996 Y160.764 E0.01245
G1 X165.401 Y160.795 E0.01899
G1 X165.813 Y160.861 E0.01949
G1 X165.996 Y160.907 E0.00882
G1 X166.109 Y160.452 F9000
;TYPE:External perimeter
G1 F600
G1 X166.328 Y160.507 E0.01054
G1 X166.724 Y160.645 E0.0196
G1 X167.1 Y160.814 E0.01927
G1 X167.461 Y161.016 E0.01932
G1 X167.8 Y161.248 E0.0192
G1 X168.113 Y161.506 E0.01895
G1 X168.395 Y161.786 E0.0186
G1 X168.648 Y162.088 E0.01842
G1 X168.875 Y162.413 E0.01854
G1 X169.079 Y162.765 E0.01902
G1 X169.256 Y163.142 E0.01945
G1 X169.403 Y163.539 E0.01982
G1 X169.519 Y163.953 E0.02007
G1 X169.601 Y164.377 E0.02019
G1 X169.647 Y164.806 E0.02017
G1 X169.656 Y165.233 E0.01996
G1 X169.628 Y165.654 E0.01974
G1 X169.617 Y165.737 E0.00389
G1 X169.555 Y165.775 E0.00343
G1 X169.395 Y165.838 E0.00804
G1 X169.015 Y165.919 E0.01815
G1 X169.015 Y166.665 E0.03484
G1 X169.533 Y166.562 E0.02467
G1 X169.699 Y166.555 E0.00777
G1 X169.804 Y166.565 E0.00495
G1 X169.869 Y166.582 E0.00313
G1 X169.909 Y166.598 E0.00198
G1 X169.944 Y166.623 E0.00203
G1 X169.971 Y166.66 E0.00218
G1 X169.994 Y166.715 E0.00275
G1 X170.012 Y166.779 E0.00314
G1 X170.029 Y166.926 E0.00688
G1 X170.025 Y167.017 E0.00425
G1 X170.014 Y167.077 E0.00289
G1 X170.001 Y167.113 E0.00177
G1 X169.978 Y167.149 E0.00198
G1 X169.963 Y167.163 E0.00098
G1 X169.919 Y167.193 E0.00247
G1 X169.867 Y167.22 E0.00277
G1 X169.652 Y167.301 E0.01073
G1 X169.328 Y167.386 E0.01567
G1 X168.636 Y167.548 E0.03323
G1 X168.17 Y167.653 E0.02232
G1 X167.857 Y167.703 E0.0148
G1 X167.288 Y167.739 E0.02666
G1 X167.288 Y168.43 E0.0323
G1 X167.554 Y168.492 E0.01278
G1 X167.606 Y168.512 E0.00262
G1 X167.66 Y168.545 E0.00296
G1 X167.694 Y168.574 E0.00206
G1 X167.715 Y168.599 E0.00155
G1 X167.731 Y168.625 E0.00141
G1 X167.741 Y168.672 E0.00225
G1 X167.741 Y168.704 E0.00154
G1 X167.732 Y168.754 E0.00234
G1 X167.717 Y168.801 E0.00233
G1 X167.692 Y168.846 E0.00241
G1 X167.663 Y168.885 E0.00225
G1 X167.626 Y168.92 E0.00242
G1 X167.549 Y168.973 E0.00435
G1 X167.383 Y169.054 E0.00864
G1 X166.913 Y169.231 E0.02347
G1 X166.362 Y169.444 E0.0276
G1 X165.973 Y169.563 E0.01901
G1 X165.603 Y169.646 E0.01775
G1 X165.255 Y169.693 E0.01639
G1 X165.002 Y169.706 E0.01186
G1 X164.659 Y169.684 E0.01606
G1 X164.31 Y169.629 E0.01651
G1 X163.938 Y169.539 E0.01789
G1 X163.545 Y169.411 E0.01931
G1 X162.969 Y169.185 E0.02894
G1 X162.623 Y169.056 E0.01726
G1 X162.462 Y168.98 E0.00831
G1 X162.39 Y168.932 E0.00406
G1 X162.343 Y168.891 E0.00291
G1 X162.315 Y168.857 E0.00208
G1 X162.292 Y168.818 E0.00211
G1 X162.272 Y168.769 E0.00245
G1 X162.262 Y168.725 E0.00214
G1 X162.259 Y168.684 E0.00191
G1 X162.261 Y168.654 E0.00138
G1 X162.285 Y168.599 E0.00283
G1 X162.305 Y168.575 E0.00145
G1 X162.336 Y168.548 E0.00192
G1 X162.379 Y168.52 E0.00241
G1 X162.434 Y168.496 E0.00279
G1 X162.713 Y168.42 E0.0135
G1 X162.713 Y167.738 E0.03187
G1 X162.155 Y167.704 E0.0261
G1 X161.849 Y167.657 E0.01448
G1 X161.352 Y167.545 E0.02383
G1 X160.896 Y167.436 E0.02191
G1 X160.682 Y167.388 E0.01026
G1 X160.449 Y167.331 E0.01121
G1 X160.241 Y167.264 E0.0102
G1 X160.091 Y167.198 E0.00764
G1 X160.039 Y167.164 E0.00294
G1 X160.012 Y167.137 E0.00177
G1 X159.99 Y167.087 E0.00253
G1 X159.977 Y167.031 E0.00271
G1 X159.971 Y166.938 E0.00437
G1 X159.985 Y166.797 E0.00659
G1 X160.008 Y166.708 E0.0043
G1 X160.027 Y166.663 E0.00228
G1 X160.056 Y166.623 E0.0023
G1 X160.089 Y166.599 E0.00192
G1 X160.132 Y166.581 E0.00217
G1 X160.207 Y166.564 E0.00357
G1 X160.334 Y166.554 E0.00598
G1 X160.521 Y166.57 E0.00876
G1 X160.985 Y166.671 E0.02223
G1 X160.985 Y165.921 E0.03508
G1 X160.591 Y165.833 E0.01891
G1 X160.432 Y165.768 E0.00799
G1 X160.386 Y165.74 E0.00254
G1 X160.354 Y165.45 E0.01363
G1 X160.344 Y165.038 E0.01925
G1 X160.369 Y164.617 E0.01971
G1 X160.431 Y164.193 E0.02005
G1 X160.528 Y163.77 E0.02025
G1 X160.66 Y163.357 E0.02028
G1 X160.826 Y162.96 E0.02014
G1 X161.022 Y162.583 E0.01987
G1 X161.247 Y162.231 E0.0195
G1 X161.492 Y161.914 E0.01873
G1 X161.764 Y161.622 E0.01863
G1 X162.056 Y161.361 E0.0183
G1 X162.373 Y161.125 E0.01851
G1 X162.716 Y160.912 E0.01886
G1 X163.081 Y160.728 E0.01909
G1 X163.462 Y160.575 E0.01919
G1 X163.854 Y160.456 E0.01917
G1 X164.258 Y160.371 E0.01928
G1 X164.684 Y160.315 E0.02013
G1 X164.999 Y160.294 E0.01472
G1 X165.456 Y160.329 E0.02143
G1 X165.907 Y160.401 E0.02134
G1 X166.051 Y160.438 E0.00697
;WIPE_START
G1 X166.171 Y160.669 F9000
;WIPE_END
G1 X166.78 Y161.364
;TYPE:Solid infill
;WIDTH:0.520626
G1 F1800
G1 X167.849 Y162.433 E0.07077
G1 X167.985 Y162.595 E0.00993
G1 X168.171 Y162.861 E0.01516
G1 X168.339 Y163.152 E0.01572
G1 X168.486 Y163.465 E0.0162
G1 X168.61 Y163.798 E0.0166
G1 X168.632 Y163.879 E0.00393
G1 X166.051 Y161.297 E0.17086
G1 X165.739 Y161.219 E0.01505
G1 X165.358 Y161.158 E0.01806
G1 X165.24 Y161.149 E0.00552
G1 X168.797 Y164.706 E0.23544
G1 X168.813 Y164.854 E0.00697
G1 X168.812 Y165.11 E0.01198
G1 X168.587 Y165.159 E0.01074
G1 X164.596 Y161.167 E0.26418
G1 X164.399 Y161.193 E0.0093
G1 X164.062 Y161.265 E0.01611
G1 X164.038 Y161.272 E0.00117
G1 X168.181 Y165.415 E0.27422
G1 X168.181 Y166.078 E0.03101
G1 X163.544 Y161.441 E0.30692
G1 X163.424 Y161.489 E0.00604
G1 X163.124 Y161.64 E0.01573
G1 X163.098 Y161.657 E0.00147
G1 X168.181 Y166.74 E0.33647
G1 X168.181 Y166.789 E0.00227
G1 X167.758 Y166.873 E0.0202
G1 X167.658 Y166.88 E0.00468
G1 X162.7 Y161.921 E0.3282
G1 X162.584 Y162.008 E0.00676
G1 X162.342 Y162.226 E0.01526
G1 X167.035 Y166.919 E0.31065
G1 X166.454 Y166.956 E0.02725
G1 X166.454 Y167 E0.0021
G1 X162.032 Y162.579 E0.29266
G1 X161.93 Y162.712 E0.00786
G1 X161.763 Y162.972 E0.01447
G1 X166.454 Y167.663 E0.31048
G1 X166.454 Y168.326 E0.03101
G1 X161.541 Y163.412 E0.32521
G1 X161.443 Y163.645 E0.01182
G1 X161.363 Y163.897 E0.01237
G1 X166.112 Y168.647 E0.31436
G1 X166.09 Y168.655 E0.00114
G1 X165.76 Y168.756 E0.01613
G1 X165.596 Y168.793 E0.00786
G1 X161.238 Y164.435 E0.28845
G1 X161.2 Y164.702 E0.01262
G1 X161.179 Y165.039 E0.0158
G1 X161.271 Y165.13 E0.00606
G1 X161.819 Y165.253 E0.02629
G1 X161.819 Y165.679 E0.01994
G1 X163.065 Y166.924 E0.08245
G1 X163.547 Y166.954 E0.02259
G1 X163.547 Y167.406 E0.02117
G1 X165.01 Y168.869 E0.09684
G1 X164.751 Y168.854 E0.01214
G1 X164.474 Y168.811 E0.01312
G1 X164.229 Y168.751 E0.01176
G1 X163.345 Y167.867 E0.05854
G1 X162.574 Y167.096 F9000
G1 F1800
G1 X161.618 Y166.14 E0.0633
G1 X161.238 Y167.121 F9000
;TYPE:Gap fill
;WIDTH:0.367794
G1 F600
G1 X161.07 Y167.083 E0.00545
G1 X160.983 Y167.063 E0.00281
G1 X160.875 Y167.039 E0.00351
G1 X160.769 Y167.016 E0.00342
G1 X160.553 Y166.965 E0.007
G1 X160.37 Y166.923 E0.00591
;WIDTH:0.317317
G1 X160.193 Y166.883 E0.00481
G1 E-0.6 F3000
G1 X168.762 Y167.115 F9000
G1 E0.6 F1800
;WIDTH:0.389664
G1 F600
G1 X168.936 Y167.077 E0.00602
G1 X169.086 Y167.045 E0.00515
G1 X169.235 Y167.013 E0.00515
G1 X169.386 Y166.978 E0.00524
;WIDTH:0.354328
G1 X169.538 Y166.943 E0.00469
G1 X169.668 Y166.913 E0.00405
;WIDTH:0.294373
G1 X169.809 Y166.902 E0.00342
;LAYER_CHANGE
;Z:0.44
;HEIGHT:0.2
G1 E-0.6 F3000
G1 Z0.44 F9000
G1 X164.121 Y160.703
G1 E0.6 F1800
;TYPE:Internal perimeter
;WIDTH:0.4
G1 F5400
G1 X164.308 Y160.664 E0.00567
G1 X164.713 Y160.61 E0.01214
G1 X164.997 Y160.592 E0.00843
G1 X165.421 Y160.625 E0.01263
G1 X165.847 Y160.693 E0.01281
G1 X166.243 Y160.792 E0.01213
G1 X166.614 Y160.921 E0.01167
G1 X166.966 Y161.08 E0.01147
G1 X167.304 Y161.269 E0.01149
G1 X167.621 Y161.486 E0.01141
G1 X167.913 Y161.726 E0.01123
G1 X168.176 Y161.987 E0.011
G1 X168.412 Y162.269 E0.01091
G1 X168.624 Y162.573 E0.01101
G1 X168.815 Y162.903 E0.01133
G1 X168.981 Y163.257 E0.01162
G1 X169.121 Y163.631 E0.01185
G1 X169.23 Y164.021 E0.01202
G1 X169.307 Y164.421 E0.01209
G1 X169.35 Y164.825 E0.01206
G1 X169.359 Y165.226 E0.01192
G1 X169.338 Y165.546 E0.00951
G1 X168.718 Y165.68 E0.01882
G1 X168.718 Y167.224 E0.04585
G1 X168.569 Y167.259 E0.00454
G1 X168.114 Y167.361 E0.01385
G1 X167.824 Y167.407 E0.0087
G1 X166.991 Y167.46 E0.0248
G1 X166.991 Y168.884 E0.0423
G1 X166.807 Y168.954 E0.00583
G1 X166.265 Y169.163 E0.01725
G1 X165.897 Y169.276 E0.01142
G1 X165.55 Y169.353 E0.01055
G1 X165.228 Y169.397 E0.00967
G1 X165.004 Y169.408 E0.00666
G1 X164.692 Y169.388 E0.00928
G1 X164.368 Y169.338 E0.00972
G1 X164.019 Y169.253 E0.01066
G1 X163.646 Y169.131 E0.01167
G1 X163.01 Y168.882 E0.02028
G1 X163.01 Y167.459 E0.04226
G1 X162.187 Y167.408 E0.02447
G1 X161.904 Y167.365 E0.00849
G1 X161.419 Y167.256 E0.01477
G1 X161.282 Y167.223 E0.00417
G1 X161.282 Y165.683 E0.04572
G1 X160.653 Y165.543 E0.01913
G1 X160.641 Y165.043 E0.01482
G1 X160.665 Y164.647 E0.01178
G1 X160.723 Y164.247 E0.012
G1 X160.814 Y163.849 E0.01213
G1 X160.939 Y163.46 E0.01214
G1 X161.095 Y163.086 E0.01204
G1 X161.28 Y162.732 E0.01185
G1 X161.49 Y162.402 E0.0116
G1 X161.719 Y162.107 E0.0111
G1 X161.972 Y161.835 E0.01103
G1 X162.244 Y161.592 E0.01083
G1 X162.54 Y161.37 E0.01099
G1 X162.862 Y161.171 E0.01122
G1 X163.203 Y160.999 E0.01136
G1 X163.56 Y160.856 E0.01142
G1 X163.928 Y160.744 E0.01142
G1 X164.063 Y160.716 E0.00408
G1 X163.988 Y160.367 F9000
;TYPE:External perimeter
G1 F4800
G1 X164.247 Y160.311 E0.00787
G1 X164.679 Y160.255 E0.01291
G1 X164.999 Y160.234 E0.00953
G1 X165.463 Y160.27 E0.01381
G1 X165.919 Y160.343 E0.01371
G1 X166.345 Y160.449 E0.01306
G1 X166.746 Y160.589 E0.01261
G1 X167.127 Y160.761 E0.0124
G1 X167.492 Y160.965 E0.01243
G1 X167.836 Y161.2 E0.01235
G1 X168.153 Y161.461 E0.0122
G1 X168.439 Y161.745 E0.01198
G1 X168.696 Y162.051 E0.01186
G1 X168.926 Y162.381 E0.01193
G1 X169.132 Y162.738 E0.01223
G1 X169.311 Y163.119 E0.01251
G1 X169.46 Y163.521 E0.01273
G1 X169.578 Y163.939 E0.0129
G1 X169.66 Y164.368 E0.01298
G1 X169.707 Y164.802 E0.01296
G1 X169.716 Y165.234 E0.01283
G1 X169.688 Y165.66 E0.01268
G1 X169.673 Y165.773 E0.00339
G1 X169.581 Y165.829 E0.00318
G1 X169.412 Y165.895 E0.0054
G1 X169.075 Y165.968 E0.01023
G1 X169.075 Y166.592 E0.01852
G1 X169.526 Y166.503 E0.01364
G1 X169.701 Y166.495 E0.0052
G1 X169.815 Y166.506 E0.00341
G1 X169.888 Y166.524 E0.00225
G1 X169.936 Y166.544 E0.00153
G1 X169.987 Y166.58 E0.00184
G1 X170.025 Y166.633 E0.00193
G1 X170.051 Y166.695 E0.00201
G1 X170.071 Y166.768 E0.00225
G1 X170.089 Y166.923 E0.00464
G1 X170.085 Y167.023 E0.00297
G1 X170.072 Y167.093 E0.00211
G1 X170.039 Y167.168 E0.00242
G1 X170.001 Y167.21 E0.0017
G1 X169.95 Y167.244 E0.00182
G1 X169.891 Y167.275 E0.00197
G1 X169.67 Y167.358 E0.007
G1 X169.342 Y167.445 E0.01007
G1 X168.649 Y167.607 E0.02114
G1 X168.181 Y167.712 E0.01424
G1 X167.864 Y167.762 E0.00955
G1 X167.348 Y167.795 E0.01535
G1 X167.348 Y168.382 E0.01743
G1 X167.572 Y168.434 E0.00684
G1 X167.633 Y168.459 E0.00194
G1 X167.695 Y168.496 E0.00217
G1 X167.764 Y168.563 E0.00284
G1 X167.797 Y168.635 E0.00235
G1 X167.801 Y168.71 E0.00222
G1 X167.791 Y168.768 E0.00176
G1 X167.772 Y168.825 E0.00177
G1 X167.743 Y168.879 E0.00182
G1 X167.708 Y168.925 E0.00172
G1 X167.664 Y168.967 E0.00181
