; generated by SuperSlicer 2.3.57 on 2022-02-06 at 02:31:11 UTC


;
;

;
;
; 

; external perimeters extrusion width = 0.40mm
; perimeters extrusion width = 0.45mm
; infill extrusion width = 0.72mm
; solid infill extrusion width = 0.56mm
; top infill extrusion width = 0.40mm
; first layer extrusion width = 0.48mm

; external perimeters extrusion width = 0.40mm
; perimeters extrusion width = 0.45mm
; infill extrusion width = 0.72mm
; solid infill extrusion width = 0.56mm
; top infill extrusion width = 0.40mm
; first layer extrusion width = 0.48mm

; external perimeters extrusion width = 0.40mm
; perimeters extrusion width = 0.45mm
; infill extrusion width = 0.72mm
; solid infill extrusion width = 0.56mm
; top infill extrusion width = 0.40mm
; first layer extrusion width = 0.48mm

; external perimeters extrusion width = 0.40mm
; perimeters extrusion width = 0.45mm
; infill extrusion width = 0.72mm
; solid infill extrusion width = 0.56mm
; top infill extrusion width = 0.40mm
; first layer extrusion width = 0.48mm

; external perimeters extrusion width = 0.40mm
; perimeters extrusion width = 0.45mm
; infill extrusion width = 0.72mm
; solid infill extrusion width = 0.56mm
; top infill extrusion width = 0.40mm
; first layer extrusion width = 0.48mm

; object:{"name":"Part7-white","id":"Part7-white.STL id:0 copy 0","object_center":[165.310090,163.277316,0.000000],"boundingbox_center":[165.310090,163.277316,0.615000],"boundingbox_size":[3.240052,3.240052,1.230000]}
; object:{"name":"Part8-white2x","id":"Part8-white2x.STL id:1 copy 0","object_center":[163.759772,166.665992,0.000000],"boundingbox_center":[163.759772,166.665992,0.615000],"boundingbox_size":[1.379765,2.535117,1.230000]}
; object:{"name":"Part8-white2x","id":"Part8-white2x.STL id:2 copy 0","object_center":[166.139513,167.074695,0.000000],"boundingbox_center":[166.139513,167.074695,0.615000],"boundingbox_size":[1.379765,2.535117,1.230000]}
; plater:{"center":[165.000003,164.999772,0.000000],"boundingbox_center":[165.000003,164.999772,0.615000],"boundingbox_size":[3.860227,6.684963,1.230000]}

;TYPE:Custom
START_PRINT T_BED=60 T_EXTRUDER=200
M107
G21 ; set units to millimeters
G90 ; use absolute coordinates
M83 ; use relative distances for extrusion
; Filament gcode
M104 S200 ; set temperature
M109 S200 ; set temperature and wait for it to be reached
M190 S60 ; set bed temperature and wait for it to be reached
;LAYER_CHANGE
;Z:0.24
;HEIGHT:0.24
G1 E-0.6 F3000
G1 Z0.24 F9000
G1 X159.148 Y157.294
G1 E0.6 F1800
;TYPE:Skirt
;WIDTH:0.48
G1 X158.542 Y157.993 E0.03958
G1 X157.684 Y159.327 E0.06782
G1 X157.034 Y160.98 E0.07593
G1 X156.197 Y165.127 E0.18089
G1 X156.105 Y166.121 E0.04266
G1 X156.118 Y167.063 E0.04031
G1 X156.429 Y168.92 E0.08049
G1 X157.037 Y170.519 E0.07314
G1 X157.471 Y171.298 E0.03813
G1 X158.036 Y172.083 E0.04135
G1 X159.305 Y173.327 E0.076
G1 X160.593 Y174.134 E0.06496
G1 X161.936 Y174.642 E0.06141
G1 X165.318 Y175.245 E0.14689
G1 X166.708 Y175.298 E0.05945
G1 X167.6 Y175.187 E0.03845
G1 X168.471 Y174.964 E0.03845
G1 X169.389 Y174.603 E0.04216
G1 X170.196 Y174.163 E0.03929
G1 X170.923 Y173.634 E0.03845
G1 X171.64 Y172.964 E0.04194
G1 X172.199 Y172.293 E0.03733
G1 X172.726 Y171.484 E0.04131
G1 X173.355 Y170.068 E0.06621
G1 X173.71 Y168.546 E0.06686
G1 X173.793 Y167.611 E0.04011
G1 X173.88 Y162.695 E0.21021
G1 X173.59 Y160.996 E0.0737
G1 X173.047 Y159.555 E0.06585
G1 X172.374 Y158.399 E0.05721
G1 X171.315 Y157.14 E0.07031
G1 X170.065 Y156.125 E0.06884
G1 X168.508 Y155.309 E0.07516
G1 X166.872 Y154.836 E0.07283
G1 X165.476 Y154.695 E0.06001
G1 X164.388 Y154.736 E0.04653
G1 X163.303 Y154.93 E0.0471
G1 X162.44 Y155.181 E0.03845
G1 X161.513 Y155.576 E0.04308
G1 X160.766 Y155.988 E0.03649
G1 X159.955 Y156.563 E0.04247
G1 X159.193 Y157.253 E0.04398
G1 X159.481 Y157.57 F9000
G1 F1800
G1 X159.44 Y157.608 E0.0024
G1 X158.864 Y158.279 E0.03781
G1 X158.057 Y159.54 E0.06399
G1 X157.443 Y161.111 E0.07212
G1 X156.621 Y165.189 E0.17789
G1 X156.533 Y166.143 E0.04093
G1 X156.547 Y167.05 E0.03879
G1 X156.865 Y168.89 E0.07986
G1 X157.517 Y170.517 E0.07491
G1 X158.433 Y171.892 E0.07066
G1 X159.592 Y173.007 E0.06876
G1 X160.809 Y173.763 E0.06124
G1 X162.071 Y174.235 E0.05761
G1 X165.378 Y174.821 E0.14359
G1 X166.693 Y174.87 E0.05626
G1 X167.539 Y174.763 E0.03645
G1 X168.364 Y174.548 E0.03645
G1 X169.231 Y174.204 E0.0399
G1 X170 Y173.779 E0.03754
G1 X170.686 Y173.273 E0.03645
G1 X171.365 Y172.631 E0.03997
G1 X171.889 Y171.991 E0.03537
G1 X172.388 Y171.21 E0.03961
G1 X172.965 Y169.881 E0.06196
G1 X173.291 Y168.448 E0.06283
G1 X173.365 Y167.593 E0.03668
G1 X173.451 Y162.708 E0.20891
G1 X173.172 Y161.089 E0.07023
G1 X172.654 Y159.726 E0.06236
G1 X172.019 Y158.639 E0.05382
G1 X171.015 Y157.445 E0.06668
G1 X169.832 Y156.484 E0.06518
G1 X168.35 Y155.707 E0.07153
G1 X166.791 Y155.256 E0.06939
G1 X165.475 Y155.124 E0.05653
G1 X164.436 Y155.162 E0.04445
G1 X163.394 Y155.349 E0.04527
G1 X162.576 Y155.588 E0.03645
G1 X161.687 Y155.967 E0.0413
G1 X160.986 Y156.356 E0.03428
G1 X160.209 Y156.908 E0.04077
G1 X159.526 Y157.53 E0.0395
G1 X159.815 Y157.847 F9000
G1 F1800
G1 X159.733 Y157.921 E0.00473
G1 X159.186 Y158.563 E0.03604
G1 X158.433 Y159.745 E0.05992
G1 X157.852 Y161.24 E0.06858
G1 X157.045 Y165.251 E0.17495
G1 X156.961 Y166.164 E0.03918
G1 X156.975 Y167.035 E0.03723
G1 X157.28 Y168.784 E0.0759
G1 X157.904 Y170.332 E0.07139
G1 X158.775 Y171.633 E0.06694
G1 X159.876 Y172.685 E0.06511
G1 X161.021 Y173.39 E0.05748
G1 X162.204 Y173.827 E0.05388
G1 X165.44 Y174.397 E0.1405
G1 X166.681 Y174.441 E0.0531
G1 X167.481 Y174.338 E0.03447
G1 X168.26 Y174.131 E0.03447
G1 X169.081 Y173.801 E0.03784
G1 X169.805 Y173.395 E0.03552
G1 X170.446 Y172.915 E0.03421
G1 X171.086 Y172.301 E0.03794
G1 X171.572 Y171.697 E0.03315
G1 X172.047 Y170.942 E0.03813
G1 X172.598 Y169.621 E0.06117
G1 X172.896 Y168.142 E0.06454
G1 X173.023 Y162.723 E0.23175
G1 X172.755 Y161.191 E0.06649
G1 X172.264 Y159.904 E0.05888
G1 X171.671 Y158.89 E0.05022
G1 X170.719 Y157.756 E0.06332
G1 X169.598 Y156.843 E0.06181
G1 X168.187 Y156.103 E0.06814
G1 X166.705 Y155.676 E0.06594
G1 X165.475 Y155.552 E0.05284
G1 X164.479 Y155.588 E0.0426
G1 X163.486 Y155.767 E0.04314
G1 X162.718 Y155.992 E0.03421
G1 X161.869 Y156.355 E0.0395
G1 X160.469 Y157.249 E0.07102
G1 X159.859 Y157.806 E0.03532
G1 X160.148 Y158.122 F9000
G1 F1800
G1 X160.028 Y158.233 E0.00701
G1 X159.511 Y158.845 E0.03427
G1 X158.81 Y159.949 E0.0559
G1 X158.263 Y161.362 E0.06477
G1 X157.469 Y165.313 E0.17232
G1 X157.403 Y167.018 E0.07294
G1 X157.695 Y168.676 E0.07196
G1 X158.287 Y170.141 E0.06759
G1 X159.112 Y171.368 E0.06322
G1 X160.159 Y172.362 E0.06169
G1 X161.231 Y173.015 E0.05368
G1 X162.334 Y173.418 E0.05022
G1 X165.498 Y173.972 E0.13735
G1 X166.666 Y174.013 E0.04997
G1 X167.414 Y173.914 E0.03224
G1 X168.142 Y173.719 E0.03224
G1 X168.921 Y173.403 E0.03594
G1 X169.602 Y173.015 E0.03351
G1 X170.198 Y172.563 E0.03199
G1 X170.804 Y171.974 E0.03611
G1 X171.702 Y170.677 E0.06743
G1 X172.2 Y169.456 E0.05641
G1 X172.475 Y168.051 E0.0612
G1 X172.594 Y162.739 E0.22718
G1 X172.339 Y161.294 E0.06276
G1 X171.872 Y160.078 E0.05566
G1 X171.324 Y159.141 E0.04643
G1 X170.424 Y158.066 E0.05994
G1 X169.364 Y157.202 E0.05846
G1 X168.024 Y156.5 E0.06469
G1 X166.626 Y156.097 E0.06222
G1 X165.475 Y155.981 E0.04946
G1 X164.529 Y156.014 E0.04046
G1 X163.58 Y156.186 E0.04123
G1 X162.856 Y156.397 E0.03224
G1 X162.047 Y156.746 E0.03769
G1 X160.725 Y157.593 E0.0671
G1 X160.193 Y158.081 E0.03091
G1 X160.493 Y158.394 F9000
G1 F1800
G1 X160.203 Y158.672 E0.01716
G1 X159.649 Y159.384 E0.03855
G1 X159.121 Y160.292 E0.04491
G1 X158.654 Y161.566 E0.05802
G1 X157.892 Y165.38 E0.16631
G1 X157.832 Y167.005 E0.06952
G1 X158.111 Y168.572 E0.06805
G1 X158.675 Y169.959 E0.06402
G1 X159.452 Y171.106 E0.05923
G1 X160.443 Y172.04 E0.05822
G1 X161.437 Y172.639 E0.0496
G1 X162.462 Y173.008 E0.04661
G1 X165.553 Y173.547 E0.13413
G1 X166.648 Y173.585 E0.04686
G1 X168.034 Y173.303 E0.06045
G1 X168.763 Y173.003 E0.0337
G1 X169.401 Y172.635 E0.03151
G1 X170.518 Y171.651 E0.06366
G1 X171.354 Y170.418 E0.06367
G1 X171.801 Y169.293 E0.05174
G1 X172.053 Y167.97 E0.05758
G1 X172.166 Y162.752 E0.22319
G1 X171.922 Y161.393 E0.05902
G1 X171.482 Y160.254 E0.0522
G1 X170.97 Y159.383 E0.04321
G1 X170.125 Y158.373 E0.05631
G1 X169.13 Y157.561 E0.05486
G1 X167.863 Y156.897 E0.06119
G1 X166.542 Y156.518 E0.05875
G1 X165.475 Y156.409 E0.04588
G1 X164.557 Y156.442 E0.03928
G1 X163.625 Y156.615 E0.04051
G1 X162.931 Y156.827 E0.03102
G1 X162.113 Y157.191 E0.0383
G1 X160.854 Y158.048 E0.06511
G1 X160.536 Y158.353 E0.01882
G1 X160.833 Y158.661 F9000
G1 F1800
G1 X160.511 Y158.971 E0.01913
G1 X159.977 Y159.662 E0.03729
G1 X159.501 Y160.493 E0.04097
G1 X159.066 Y161.687 E0.05432
G1 X158.316 Y165.441 E0.16369
G1 X158.261 Y166.99 E0.06627
G1 X158.525 Y168.461 E0.06392
G1 X159.06 Y169.769 E0.06041
G1 X159.79 Y170.842 E0.05548
G1 X160.725 Y171.715 E0.05469
G1 X161.644 Y172.263 E0.04573
G1 X162.588 Y172.598 E0.04284
G1 X165.609 Y173.122 E0.13109
G1 X166.632 Y173.156 E0.04377
G1 X167.917 Y172.89 E0.05611
G1 X168.6 Y172.606 E0.0316
G1 X169.195 Y172.256 E0.02952
G1 X170.232 Y171.327 E0.05954
G1 X171.004 Y170.159 E0.05987
G1 X171.402 Y169.13 E0.04718
G1 X171.63 Y167.893 E0.05375
G1 X171.738 Y162.772 E0.219
G1 X171.506 Y161.494 E0.05553
G1 X171.092 Y160.432 E0.04874
G1 X170.623 Y159.634 E0.03957
G1 X169.83 Y158.684 E0.05293
G1 X168.901 Y157.924 E0.0513
G1 X167.703 Y157.294 E0.05788
G1 X166.46 Y156.938 E0.05526
G1 X165.474 Y156.838 E0.04237
G1 X164.608 Y156.868 E0.03705
G1 X163.724 Y157.032 E0.03847
G1 X162.298 Y157.578 E0.06529
G1 X161.123 Y158.382 E0.06086
G1 X160.876 Y158.619 E0.01466
G1 X161.159 Y158.926 F9000
G1 F1800
G1 X160.305 Y159.94 E0.05666
G1 X159.752 Y160.981 E0.05041
G1 X159.479 Y161.8 E0.03691
G1 X158.74 Y165.502 E0.16136
G1 X158.689 Y166.967 E0.06271
G1 X158.939 Y168.35 E0.06006
G1 X159.443 Y169.578 E0.05677
G1 X160.126 Y170.576 E0.05172
G1 X161 Y171.385 E0.05088
G1 X161.847 Y171.885 E0.04206
G1 X162.706 Y172.185 E0.03892
G1 X165.666 Y172.698 E0.12843
G1 X166.612 Y172.728 E0.04048
G1 X167.798 Y172.478 E0.05183
G1 X168.985 Y171.881 E0.05679
G1 X169.938 Y171.011 E0.05517
G1 X170.651 Y169.906 E0.05624
G1 X170.998 Y168.98 E0.04228
G1 X171.206 Y167.82 E0.0504
G1 X171.309 Y162.789 E0.21511
G1 X171.09 Y161.598 E0.05179
G1 X170.703 Y160.612 E0.04531
G1 X170.273 Y159.881 E0.03624
G1 X169.531 Y158.991 E0.04953
G1 X168.663 Y158.28 E0.048
G1 X167.539 Y157.69 E0.05428
G1 X166.375 Y157.358 E0.05176
G1 X165.474 Y157.266 E0.0387
G1 X164.655 Y157.293 E0.03503
G1 X163.819 Y157.45 E0.03638
G1 X162.484 Y157.964 E0.06114
G1 X161.772 Y158.407 E0.03587
G1 X161.204 Y158.888 E0.0318
G1 X161.483 Y159.214 F9000
G1 F1800
G1 X161.43 Y159.258 E0.00294
G1 X160.637 Y160.214 E0.05312
G1 X160.135 Y161.175 E0.04633
G1 X159.893 Y161.912 E0.0332
G1 X159.165 Y165.562 E0.1591
G1 X159.117 Y166.953 E0.05952
G1 X159.354 Y168.241 E0.05601
G1 X159.828 Y169.389 E0.0531
G1 X160.465 Y170.312 E0.04793
G1 X161.279 Y171.058 E0.04725
G1 X162.05 Y171.507 E0.03812
G1 X162.831 Y171.775 E0.03532
G1 X165.723 Y172.273 E0.12546
G1 X166.593 Y172.3 E0.03723
G1 X167.677 Y172.066 E0.04738
G1 X168.774 Y171.505 E0.05272
G1 X169.643 Y170.695 E0.05076
G1 X170.293 Y169.659 E0.05232
G1 X170.594 Y168.834 E0.03753
G1 X170.782 Y167.755 E0.04685
G1 X170.881 Y162.809 E0.21148
G1 X170.675 Y161.704 E0.04806
G1 X170.312 Y160.789 E0.04211
G1 X169.926 Y160.132 E0.03256
G1 X169.237 Y159.302 E0.04612
G1 X168.429 Y158.639 E0.0447
G1 X167.381 Y158.089 E0.05063
G1 X166.291 Y157.778 E0.04845
G1 X165.474 Y157.695 E0.03511
G1 X164.703 Y157.719 E0.03297
G1 X163.911 Y157.868 E0.03447
G1 X162.669 Y158.351 E0.05699
G1 X162.009 Y158.764 E0.03327
G1 X161.528 Y159.175 E0.02704
G1 X161.808 Y159.5 F9000
G1 F1800
G1 X161.706 Y159.588 E0.00577
G1 X160.972 Y160.484 E0.04952
G1 X160.52 Y161.364 E0.0423
G1 X160.307 Y162.023 E0.02959
G1 X159.589 Y165.622 E0.15692
G1 X159.545 Y166.931 E0.056
G1 X159.767 Y168.127 E0.05201
G1 X160.21 Y169.194 E0.04939
G1 X160.794 Y170.038 E0.04392
G1 X161.552 Y170.726 E0.04375
G1 X162.244 Y171.124 E0.03415
G1 X162.944 Y171.361 E0.0316
G1 X165.775 Y171.847 E0.12281
G1 X166.575 Y171.871 E0.0342
G1 X167.557 Y171.653 E0.04301
G1 X168.559 Y171.132 E0.0483
G1 X169.343 Y170.385 E0.04632
G1 X169.931 Y169.418 E0.04835
G1 X170.236 Y168.501 E0.04134
G1 X170.357 Y167.693 E0.03492
G1 X170.453 Y162.827 E0.20808
G1 X170.259 Y161.809 E0.04434
G1 X169.923 Y160.968 E0.0387
G1 X169.576 Y160.38 E0.02919
G1 X168.939 Y159.611 E0.04269
G1 X168.199 Y159 E0.04102
G1 X167.219 Y158.485 E0.04734
G1 X166.209 Y158.199 E0.0449
G1 X165.474 Y158.123 E0.0316
G1 X164.752 Y158.145 E0.03086
G1 X164.01 Y158.285 E0.03228
G1 X162.859 Y158.735 E0.05284
G1 X162.249 Y159.12 E0.03084
G1 X161.853 Y159.461 E0.02233
G1 X162.134 Y159.784 F9000
G1 F1800
G1 X161.984 Y159.914 E0.00845
G1 X161.31 Y160.748 E0.04587
G1 X160.907 Y161.549 E0.03833
G1 X160.723 Y162.126 E0.02591
G1 X160.013 Y165.686 E0.1552
G1 X159.973 Y166.906 E0.05219
G1 X160.179 Y168.011 E0.04805
G1 X160.59 Y168.997 E0.04566
G1 X161.126 Y169.766 E0.0401
G1 X161.821 Y170.391 E0.03996
G1 X162.438 Y170.742 E0.03034
G1 X163.059 Y170.948 E0.02798
G1 X165.831 Y171.423 E0.12024
G1 X166.551 Y171.444 E0.0308
G1 X167.582 Y171.184 E0.04546
G1 X168.394 Y170.719 E0.04
G1 X169.095 Y170.005 E0.04278
G1 X169.63 Y169.027 E0.04769
G1 X169.843 Y168.298 E0.03246
G1 X169.933 Y167.613 E0.02952
G1 X170.025 Y162.853 E0.20357
G1 X169.845 Y161.92 E0.04062
G1 X169.535 Y161.15 E0.03551
G1 X169.229 Y160.632 E0.02572
G1 X168.649 Y159.926 E0.03907
G1 X167.965 Y159.359 E0.03796
G1 X167.055 Y158.881 E0.04397
G1 X166.124 Y158.619 E0.04133
G1 X165.473 Y158.552 E0.02798
G1 X164.798 Y158.571 E0.0289
G1 X164.107 Y158.702 E0.03004
G1 X163.052 Y159.117 E0.0485
G1 X162.495 Y159.471 E0.02818
G1 X162.179 Y159.745 E0.0179
; INIT printing object Part7-white.STL id:0 copy 0
G1 E-0.6 F3000
; printing object Part7-white.STL id:0 copy 0
G1 X165.16 Y163.669 F9000
G1 E0.6 F1800
;TYPE:Internal perimeter
G1 X165.065 Y163.615 E0.00467
G1 X165 Y163.556 E0.00373
G1 X164.949 Y163.486 E0.00373
G1 X164.914 Y163.406 E0.00373
G1 X164.896 Y163.321 E0.00373
G1 X164.896 Y163.234 E0.00373
G1 X164.914 Y163.148 E0.00373
G1 X164.949 Y163.069 E0.00373
G1 X165 Y162.998 E0.00373
G1 X165.081 Y162.925 E0.00467
G1 X165.181 Y162.881 E0.00467
G1 X165.267 Y162.863 E0.00373
G1 X165.354 Y162.863 E0.00373
G1 X165.439 Y162.881 E0.00373
G1 X165.539 Y162.925 E0.00467
G1 X165.62 Y162.998 E0.00467
G1 X165.671 Y163.069 E0.00373
G1 X165.707 Y163.148 E0.00373
G1 X165.725 Y163.234 E0.00373
G1 X165.725 Y163.321 E0.00373
G1 X165.707 Y163.406 E0.00373
G1 X165.671 Y163.486 E0.00373
G1 X165.62 Y163.556 E0.00373
G1 X165.555 Y163.615 E0.00373
G1 X165.461 Y163.669 E0.00467
G1 X165.354 Y163.692 E0.00467
G1 X165.267 Y163.692 E0.00373
G1 X165.218 Y163.682 E0.00211
G1 X164.68 Y163.845 F9000
G1 F1800
G1 X164.576 Y163.701 E0.00758
G1 X164.504 Y163.539 E0.00758
G1 X164.467 Y163.366 E0.00758
G1 X164.467 Y163.189 E0.00758
G1 X164.504 Y163.015 E0.00758
G1 X164.576 Y162.853 E0.00758
G1 X164.68 Y162.71 E0.00758
G1 X164.825 Y162.58 E0.00833
G1 X164.87 Y162.55 E0.0023
G1 X165.048 Y162.471 E0.00833
G1 X165.221 Y162.434 E0.00758
G1 X165.399 Y162.434 E0.00758
G1 X165.572 Y162.471 E0.00758
G1 X165.75 Y162.55 E0.00833
G1 X165.795 Y162.58 E0.0023
G1 X165.94 Y162.71 E0.00833
G1 X166.044 Y162.853 E0.00758
G1 X166.116 Y163.015 E0.00758
G1 X166.153 Y163.189 E0.00758
G1 X166.153 Y163.366 E0.00758
G1 X166.116 Y163.539 E0.00758
G1 X166.044 Y163.701 E0.00758
G1 X165.94 Y163.845 E0.00758
G1 X165.808 Y163.963 E0.00758
G1 X165.64 Y164.061 E0.00833
G1 X165.589 Y164.08 E0.0023
G1 X165.399 Y164.12 E0.00833
G1 X165.221 Y164.12 E0.00758
G1 X165.031 Y164.08 E0.00833
G1 X164.981 Y164.061 E0.0023
G1 X164.812 Y163.963 E0.00833
G1 X164.725 Y163.885 E0.00501
G1 X164.438 Y164.203 F9000
;TYPE:External perimeter
G1 F1800
G1 X164.36 Y164.133 E0.00449
G1 X164.203 Y163.917 E0.01143
G1 X164.094 Y163.672 E0.01143
G1 X164.039 Y163.411 E0.01143
G1 X164.039 Y163.144 E0.01143
G1 X164.094 Y162.882 E0.01143
