; generated by SuperSlicer 2.3.57 on 2022-02-05 at 17:46:33 UTC


;
;

;
;
; 

; external perimeters extrusion width = 0.40mm
; perimeters extrusion width = 0.45mm
; infill extrusion width = 0.72mm
; solid infill extrusion width = 0.56mm
; top infill extrusion width = 0.40mm
; first layer extrusion width = 0.48mm

; external perimeters extrusion width = 0.40mm
; perimeters extrusion width = 0.45mm
; infill extrusion width = 0.72mm
; solid infill extrusion width = 0.56mm
; top infill extrusion width = 0.40mm
; first layer extrusion width = 0.48mm

; external perimeters extrusion width = 0.40mm
; perimeters extrusion width = 0.45mm
; infill extrusion width = 0.72mm
; solid infill extrusion width = 0.56mm
; top infill extrusion width = 0.40mm
; first layer extrusion width = 0.48mm

; external perimeters extrusion width = 0.40mm
; perimeters extrusion width = 0.45mm
; infill extrusion width = 0.72mm
; solid infill extrusion width = 0.56mm
; top infill extrusion width = 0.40mm
; first layer extrusion width = 0.48mm

; external perimeters extrusion width = 0.40mm
; perimeters extrusion width = 0.45mm
; infill extrusion width = 0.72mm
; solid infill extrusion width = 0.56mm
; top infill extrusion width = 0.40mm
; first layer extrusion width = 0.48mm

; object:{"name":"Part6-yellow","id":"Part6-yellow.STL id:0 copy 0","object_center":[165.000000,165.000000,0.000000],"boundingbox_center":[165.000000,165.000000,0.750000],"boundingbox_size":[13.223538,12.415849,1.500000]}
; plater:{"center":[165.000000,165.000000,0.000000],"boundingbox_center":[165.000000,165.000000,0.750000],"boundingbox_size":[13.223538,12.415849,1.500000]}

;TYPE:Custom
START_PRINT T_BED=60 T_EXTRUDER=200
M107
G21 ; set units to millimeters
G90 ; use absolute coordinates
M83 ; use relative distances for extrusion
; Filament gcode
M104 S200 ; set temperature
M109 S200 ; set temperature and wait for it to be reached
M190 S60 ; set bed temperature and wait for it to be reached
;LAYER_CHANGE
;Z:0.24
;HEIGHT:0.24
G1 E-0.6 F3000
G1 Z0.24 F9000
; INIT printing object Part6-yellow.STL id:0 copy 0
; printing object Part6-yellow.STL id:0 copy 0
G1 X163.013 Y167.602
G1 E0.6 F1800
;TYPE:Internal perimeter
;WIDTH:0.48
G1 X161.537 Y167.512 E0.0632
G1 X161.226 Y167.464 E0.01345
G1 X160.854 Y167.379 E0.01635
G1 X160.854 Y165.452 E0.08236
G1 X160.058 Y165.275 E0.03486
G1 X160.053 Y165.063 E0.00905
G1 X160.08 Y164.61 E0.01942
G1 X160.146 Y164.151 E0.01982
G1 X160.251 Y163.694 E0.02004
G1 X160.394 Y163.248 E0.02005
G1 X160.573 Y162.819 E0.01984
G1 X160.783 Y162.416 E0.01947
G1 X161.023 Y162.041 E0.01899
G1 X161.281 Y161.708 E0.01804
G1 X161.566 Y161.401 E0.01788
G1 X161.872 Y161.128 E0.01757
G1 X162.208 Y160.877 E0.0179
G1 X162.572 Y160.651 E0.01833
G1 X162.96 Y160.455 E0.0186
G1 X163.366 Y160.293 E0.01869
G1 X163.785 Y160.166 E0.01872
G1 X164.22 Y160.073 E0.019
G1 X164.69 Y160.012 E0.0203
G1 X164.993 Y159.992 E0.01297
G1 X165.467 Y160.028 E0.02034
G1 X165.958 Y160.107 E0.02124
G1 X166.41 Y160.22 E0.01994
G1 X166.832 Y160.367 E0.01909
G1 X167.232 Y160.547 E0.01875
G1 X167.616 Y160.762 E0.0188
G1 X167.975 Y161.008 E0.01862
G1 X168.305 Y161.279 E0.01827
G1 X168.601 Y161.573 E0.01783
G1 X168.867 Y161.89 E0.0177
G1 X169.107 Y162.235 E0.01795
G1 X169.325 Y162.611 E0.01857
G1 X169.515 Y163.016 E0.01911
G1 X169.674 Y163.444 E0.01956
G1 X169.8 Y163.891 E0.01986
G1 X169.888 Y164.35 E0.01998
G1 X169.937 Y164.813 E0.01991
G1 X169.947 Y165.273 E0.01965
G1 X169.147 Y165.445 E0.03501
G1 X169.147 Y167.376 E0.08257
G1 X168.792 Y167.461 E0.0156
G1 X168.476 Y167.511 E0.01368
G1 X166.988 Y167.604 E0.06374
G1 X166.988 Y169.512 E0.08157
G1 X166.419 Y169.73 E0.02603
G1 X165.994 Y169.86 E0.01903
G1 X165.6 Y169.948 E0.01725
G1 X165.238 Y169.997 E0.01561
G1 X165.007 Y170.009 E0.00986
G1 X164.669 Y169.987 E0.01448
G1 X164.309 Y169.931 E0.01562
G1 X163.911 Y169.834 E0.01749
G1 X163.473 Y169.691 E0.0197
G1 X163.013 Y169.514 E0.02108
G1 X163.013 Y167.662 E0.07918
G1 X162.584 Y168.005 F9000
G1 F1800
G1 X161.491 Y167.939 E0.04681
G1 X161.146 Y167.885 E0.01497
G1 X160.425 Y167.72 E0.0316
G1 X160.425 Y165.796 E0.08226
G1 X159.638 Y165.62 E0.0345
G1 X159.624 Y165.056 E0.02414
G1 X159.653 Y164.566 E0.02095
G1 X159.724 Y164.072 E0.02135
G1 X159.838 Y163.581 E0.02157
G1 X159.992 Y163.1 E0.02159
G1 X160.184 Y162.638 E0.02141
G1 X160.412 Y162.201 E0.02107
G1 X160.672 Y161.794 E0.02061
G1 X160.954 Y161.43 E0.0197
G1 X161.265 Y161.095 E0.01956
G1 X161.601 Y160.795 E0.01922
G1 X161.966 Y160.523 E0.01951
G1 X162.362 Y160.277 E0.01992
G1 X162.784 Y160.064 E0.02019
G1 X163.224 Y159.888 E0.02028
G1 X163.678 Y159.751 E0.02029
G1 X164.147 Y159.651 E0.0205
G1 X164.649 Y159.585 E0.02163
G1 X164.996 Y159.562 E0.01486
G1 X165.518 Y159.602 E0.02239
G1 X166.044 Y159.687 E0.02279
G1 X166.533 Y159.809 E0.02155
G1 X166.991 Y159.968 E0.02072
G1 X167.425 Y160.164 E0.02037
G1 X167.842 Y160.397 E0.02041
G1 X168.233 Y160.665 E0.02026
G1 X168.593 Y160.961 E0.01993
G1 X168.917 Y161.283 E0.01952
G1 X169.208 Y161.63 E0.01936
G1 X169.469 Y162.005 E0.01954
G1 X169.705 Y162.412 E0.02013
G1 X169.91 Y162.849 E0.02065
G1 X170.082 Y163.312 E0.02108
G1 X170.217 Y163.793 E0.02138
G1 X170.312 Y164.287 E0.02151
G1 X170.365 Y164.786 E0.02145
G1 X170.376 Y165.275 E0.02091
G1 X170.346 Y165.625 E0.01503
G1 X169.575 Y165.791 E0.03372
G1 X169.575 Y167.715 E0.08225
G1 X168.875 Y167.882 E0.03078
G1 X168.523 Y167.937 E0.01525
G1 X167.416 Y168.007 E0.0474
G1 X167.416 Y169.807 E0.07698
G1 X166.559 Y170.135 E0.03926
G1 X166.103 Y170.275 E0.02037
G1 X165.675 Y170.37 E0.01875
G1 X165.278 Y170.424 E0.01715
G1 X165.005 Y170.438 E0.01168
G1 X164.622 Y170.414 E0.01638
G1 X164.225 Y170.351 E0.01722
G1 X163.794 Y170.246 E0.01895
G1 X163.33 Y170.095 E0.02088
G1 X162.584 Y169.808 E0.03414
G1 X162.584 Y168.065 E0.07452
G1 X159.997 Y167.108 F9000
;TYPE:External perimeter
G1 F1800
G1 X159.997 Y166.139 E0.04142
G1 X159.88 Y166.113 E0.00481
G1 X159.645 Y166.061 E0.00994
G1 X159.493 Y166.027 E0.00668
G1 X159.297 Y165.947 E0.00903
G1 X159.247 Y165.916 E0.00254
G1 X159.208 Y165.561 E0.01524
G1 X159.195 Y165.048 E0.02196
G1 X159.227 Y164.523 E0.02248
G1 X159.303 Y163.994 E0.02287
G1 X159.424 Y163.467 E0.0231
G1 X159.589 Y162.952 E0.02313
G1 X159.796 Y162.456 E0.02297
G1 X160.041 Y161.986 E0.02266
G1 X160.321 Y161.548 E0.02224
G1 X160.627 Y161.152 E0.02136
G1 X160.965 Y160.789 E0.02124
G1 X161.329 Y160.463 E0.02087
G1 X161.725 Y160.168 E0.02111
G1 X162.153 Y159.903 E0.02151
G1 X162.607 Y159.674 E0.02177
G1 X163.082 Y159.483 E0.02188
G1 X163.571 Y159.335 E0.02186
G1 X164.075 Y159.228 E0.02199
G1 X164.607 Y159.158 E0.02296
G1 X164.998 Y159.133 E0.01676
G1 X165.568 Y159.177 E0.02443
G1 X166.13 Y159.266 E0.02434
G1 X166.656 Y159.398 E0.02317
G1 X167.15 Y159.57 E0.02235
G1 X167.618 Y159.781 E0.02198
G1 X168.068 Y160.033 E0.02203
G1 X168.491 Y160.322 E0.0219
G1 X168.881 Y160.643 E0.0216
G1 X169.233 Y160.992 E0.0212
G1 X169.548 Y161.369 E0.02101
G1 X169.831 Y161.774 E0.02114
G1 X170.085 Y162.214 E0.02169
G1 X170.306 Y162.683 E0.02219
G1 X170.49 Y163.179 E0.0226
G1 X170.634 Y163.694 E0.0229
G1 X170.736 Y164.223 E0.02303
G1 X170.793 Y164.758 E0.023
G1 X170.805 Y165.288 E0.02266
G1 X170.752 Y165.916 E0.02691
G1 X170.687 Y165.955 E0.00325
G1 X170.489 Y166.033 E0.00908
G1 X170.004 Y166.137 E0.02121
G1 X170.004 Y166.257 E0.00481
G1 X170.004 Y166.497 E0.00994
G1 X170.004 Y167.099 E0.02573
G1 X170.122 Y167.076 E0.00428
G1 X170.357 Y167.029 E0.00941
G1 X170.668 Y166.968 E0.01355
G1 X170.873 Y166.958 E0.00879
G1 X170.995 Y166.971 E0.00524
G1 X171.12 Y167.01 E0.00559
G1 X171.187 Y167.067 E0.00375
G1 X171.226 Y167.145 E0.00372
G1 X171.271 Y167.414 E0.01166
G1 X171.267 Y167.511 E0.00417
G1 X171.237 Y167.626 E0.00509
G1 X171.183 Y167.697 E0.00382
G1 X171.07 Y167.763 E0.00558
G1 X170.813 Y167.861 E0.01175
G1 X168.958 Y168.302 E0.08153
G1 X168.57 Y168.364 E0.01682
G1 X167.845 Y168.409 E0.03106
G1 X167.845 Y168.529 E0.00466
G1 X167.845 Y168.769 E0.00979
G1 X167.845 Y169.299 E0.02264
G1 X167.962 Y169.326 E0.00483
G1 X168.178 Y169.376 E0.0092
G1 X168.316 Y169.446 E0.00659
G1 X168.376 Y169.505 E0.00362
G1 X168.406 Y169.57 E0.00307
G1 X168.409 Y169.628 E0.00245
G1 X168.38 Y169.744 E0.00513
G1 X168.316 Y169.843 E0.00504
G1 X168.172 Y169.957 E0.00785
G1 X167.972 Y170.053 E0.0095
G1 X166.698 Y170.541 E0.05831
G1 X166.213 Y170.689 E0.02171
G1 X165.751 Y170.792 E0.02024
G1 X165.318 Y170.851 E0.01868
G1 X165.002 Y170.867 E0.0135
G1 X164.575 Y170.84 E0.01829
G1 X164.141 Y170.772 E0.01882
G1 X163.677 Y170.659 E0.0204
G1 X163.186 Y170.499 E0.02206
G1 X162.036 Y170.056 E0.0527
G1 X161.842 Y169.965 E0.00915
G1 X161.691 Y169.851 E0.0081
G1 X161.625 Y169.757 E0.00493
G1 X161.608 Y169.715 E0.00192
G1 X161.591 Y169.604 E0.00481
G1 X161.599 Y169.549 E0.00238
G1 X161.62 Y169.509 E0.00194
G1 X161.679 Y169.45 E0.00357
G1 X161.806 Y169.382 E0.00615
G1 X162.156 Y169.286 E0.0155
G1 X162.156 Y169.166 E0.00485
G1 X162.156 Y168.926 E0.00998
G1 X162.156 Y168.409 E0.02213
G1 X162.036 Y168.401 E0.00466
G1 X161.796 Y168.387 E0.00979
G1 X161.446 Y168.365 E0.01502
G1 X161.065 Y168.307 E0.01648
G1 X159.61 Y167.972 E0.06381
G1 X159.053 Y167.814 E0.02478
G1 X158.871 Y167.734 E0.00847
G1 X158.815 Y167.698 E0.00286
G1 X158.78 Y167.661 E0.00221
G1 X158.755 Y167.607 E0.00252
G1 X158.73 Y167.414 E0.00832
G1 X158.746 Y167.256 E0.00679
G1 X158.801 Y167.084 E0.00772
G1 X158.832 Y167.041 E0.00231
G1 X158.867 Y167.016 E0.00182
G1 X159.019 Y166.969 E0.00678
G1 X159.167 Y166.958 E0.00638
G1 X159.399 Y166.977 E0.00992
G1 X159.938 Y167.095 E0.0236
;WIPE_START
G1 X160.396 Y167.137 F9000
;WIPE_END
G1 X160.228 Y167.636
;TYPE:Gap fill
;WIDTH:0.584603
G1 F1800
G1 X159.96 Y167.576 E0.0146
G1 X159.726 Y167.523 E0.01281
G1 X159.529 Y167.474 E0.0108
;WIDTH:0.547123
G1 X159.332 Y167.424 E0.01004
G1 X159.201 Y167.4 E0.00657
;WIDTH:0.512853
G1 X159.115 Y167.364 E0.00431
G1 X158.95 Y167.264 E0.00887
G1 E-0.6 F3000
G1 X161.794 Y169.629 F9000
G1 E0.6 F1800
;WIDTH:0.159014
G1 X161.85 Y169.642 E0.00062
;WIDTH:0.254924
G1 X162.018 Y169.674 E0.00347
;WIDTH:0.399448
G1 X162.191 Y169.694 E0.00603
;WIDTH:0.277056
G1 X162.113 Y169.875 E0.00443
G1 X167.613 Y169.7 F9000
;WIDTH:0.51479
G1 F1800
G1 X167.81 Y169.694 E0.00908
;WIDTH:0.382642
G1 X167.995 Y169.674 E0.00618
;WIDTH:0.250279
G1 X168.142 Y169.649 E0.00295
;WIDTH:0.131111
G1 X168.2 Y169.639 E0.00047
G1 E-0.6 F3000
G1 X169.772 Y167.624 F9000
G1 E0.6 F1800
;WIDTH:0.588509
G1 X170.041 Y167.566 E0.01472
G1 X170.36 Y167.497 E0.01753
;WIDTH:0.559419
G1 X170.68 Y167.427 E0.01658
G1 X170.722 Y167.415 E0.00221
;WIDTH:0.528463
G1 X170.902 Y167.397 E0.00861
G1 X171.071 Y167.411 E0.00804
G1 E-0.6 F3000
G1 X167.353 Y160.688 F9000
G1 E0.6 F1800
;TYPE:Solid infill
;WIDTH:0.463888
G1 F2322
G1 X168.481 Y161.816 E0.06593
G1 X168.67 Y162.042 E0.01214
G1 X168.898 Y162.368 E0.01645
G1 X169.104 Y162.726 E0.01708
G1 X169.286 Y163.112 E0.01761
G1 X169.354 Y163.295 E0.00808
G1 X166.612 Y160.553 E0.16023
G1 X166.339 Y160.458 E0.01192
G1 X165.908 Y160.35 E0.01836
G1 X165.783 Y160.33 E0.00525
G1 X169.595 Y164.142 E0.22276
G1 X169.642 Y164.387 E0.01029
G1 X169.69 Y164.843 E0.01895
G1 X165.096 Y160.249 E0.26845
G1 X164.992 Y160.241 E0.00431
G1 X164.715 Y160.259 E0.01147
G1 X164.524 Y160.284 E0.00793
G1 X169.381 Y165.14 E0.28379
G1 X168.898 Y165.244 E0.0204
G1 X168.898 Y165.264 E0.0008
G1 X164.007 Y160.373 E0.28582
G1 X163.847 Y160.407 E0.00676
G1 X163.531 Y160.502 E0.01365
G1 X168.898 Y165.87 E0.31365
G1 X168.898 Y166.476 E0.02504
G1 X163.093 Y160.67 E0.33927
G1 X163.063 Y160.682 E0.00132
G1 X162.688 Y160.872 E0.01735
G1 X168.898 Y167.082 E0.36289
G1 X168.898 Y167.192 E0.00457
G1 X168.471 Y167.26 E0.0179
G1 X162.316 Y161.106 E0.35962
G1 X162.029 Y161.32 E0.0148
G1 X161.974 Y161.37 E0.00307
G1 X167.902 Y167.298 E0.34643
G1 X167.332 Y167.334 E0.0236
G1 X161.662 Y161.663 E0.33137
G1 X161.47 Y161.869 E0.0116
G1 X161.379 Y161.987 E0.00616
G1 X166.762 Y167.37 E0.31457
G1 X166.739 Y167.371 E0.00095
G1 X166.739 Y167.953 E0.02403
G1 X161.127 Y162.34 E0.32798
G1 X160.999 Y162.54 E0.00982
G1 X160.903 Y162.723 E0.00851
G1 X166.739 Y168.559 E0.34102
G1 X166.739 Y169.165 E0.02504
G1 X160.71 Y163.136 E0.35231
G1 X160.628 Y163.334 E0.00887
G1 X160.549 Y163.58 E0.01069
G1 X166.429 Y169.46 E0.3436
G1 X166.338 Y169.495 E0.00401
G1 X165.97 Y169.607 E0.0159
G1 X160.422 Y164.059 E0.3242
G1 X160.391 Y164.197 E0.00582
G1 X160.335 Y164.579 E0.01594
G1 X165.468 Y169.712 E0.29995
G1 X165.003 Y169.76 E0.01935
G1 X164.904 Y169.753 E0.00408
G1 X163.261 Y168.11 E0.096
G1 X163.261 Y168.716 E0.02504
G1 X164.191 Y169.646 E0.05433
G1 X163.979 Y169.595 E0.00902
G1 X163.556 Y169.457 E0.01838
G1 X163.296 Y169.357 E0.01153
G1 X163.077 Y169.138 E0.01277
G1 X162.668 Y167.517 F9000
G1 F2322
G1 X161.102 Y165.951 E0.09148
G1 X161.102 Y166.557 E0.02504
G1 X161.826 Y167.281 E0.04228
G1 X161.564 Y167.265 E0.01084
G1 X161.138 Y167.199 E0.0178
G1 X160.918 Y166.979 E0.01286
; INIT stop printing object Part6-yellow.STL id:0 copy 0
;LAYER_CHANGE
;Z:0.44
;HEIGHT:0.2
G1 E-0.6 F3000
; stop printing object Part6-yellow.STL id:0 copy 0
G1 Z0.44 F9000
; INIT printing object Part6-yellow.STL id:0 copy 0
; printing object Part6-yellow.STL id:0 copy 0
G1 X162.855 Y167.751
G1 E0.6 F1800
;TYPE:Internal perimeter
;WIDTH:0.45
G1 F2264
G1 X161.52 Y167.669 E0.04526
G1 X161.197 Y167.619 E0.01109
G1 X160.696 Y167.504 E0.0174
G1 X160.696 Y165.579 E0.06517
G1 X159.903 Y165.402 E0.02749
G1 X159.895 Y165.06 E0.01156
G1 X159.923 Y164.594 E0.01582
G1 X159.991 Y164.122 E0.01614
G1 X160.099 Y163.652 E0.01631
G1 X160.246 Y163.193 E0.01632
G1 X160.43 Y162.752 E0.01617
G1 X160.647 Y162.336 E0.01588
G1 X160.893 Y161.95 E0.01551
G1 X161.16 Y161.605 E0.01477
G1 X161.455 Y161.289 E0.01465
G1 X161.772 Y161.005 E0.01439
G1 X162.119 Y160.747 E0.01464
G1 X162.495 Y160.514 E0.01498
G1 X162.895 Y160.311 E0.01519
G1 X163.314 Y160.144 E0.01526
G1 X163.746 Y160.013 E0.01528
G1 X164.193 Y159.918 E0.01548
G1 X164.675 Y159.854 E0.01646
G1 X164.994 Y159.834 E0.01082
G1 X165.486 Y159.871 E0.0167
G1 X165.99 Y159.952 E0.01727
G1 X166.456 Y160.069 E0.01626
G1 X166.891 Y160.22 E0.01559
G1 X167.303 Y160.406 E0.01532
G1 X167.699 Y160.628 E0.01535
G1 X168.07 Y160.881 E0.01522
G1 X168.411 Y161.162 E0.01495
G1 X168.717 Y161.466 E0.01461
G1 X168.993 Y161.794 E0.0145
G1 X169.241 Y162.15 E0.01468
G1 X169.465 Y162.538 E0.01516
G1 X169.66 Y162.954 E0.01558
G1 X169.825 Y163.395 E0.01593
G1 X169.953 Y163.855 E0.01616
G1 X170.044 Y164.327 E0.01626
G1 X170.095 Y164.803 E0.01621
G1 X170.108 Y165.4 E0.02019
G1 X169.305 Y165.573 E0.02781
G1 X169.305 Y167.501 E0.06527
G1 X168.822 Y167.616 E0.01679
G1 X168.493 Y167.668 E0.01128
G1 X167.146 Y167.753 E0.0457
G1 X167.146 Y169.621 E0.06324
G1 X166.471 Y169.879 E0.02446
G1 X166.034 Y170.013 E0.01546
G1 X165.628 Y170.104 E0.01409
G1 X165.252 Y170.154 E0.01281
G1 X165.006 Y170.167 E0.00834
G1 X164.652 Y170.144 E0.01202
G1 X164.278 Y170.085 E0.01283
G1 X163.868 Y169.986 E0.01427
G1 X163.42 Y169.84 E0.01595
G1 X162.855 Y169.623 E0.02049
G1 X162.855 Y167.811 E0.06133
G1 X162.448 Y168.134 F9000
G1 F2264
G1 X161.477 Y168.075 E0.03293
G1 X161.12 Y168.019 E0.01223
G1 X160.289 Y167.828 E0.02887
G1 X160.289 Y165.905 E0.0651
G1 X159.521 Y165.734 E0.02664
G1 X159.499 Y165.542 E0.00654
G1 X159.487 Y165.053 E0.01654
G1 X159.517 Y164.553 E0.01697
G1 X159.59 Y164.047 E0.01728
G1 X159.706 Y163.544 E0.01746
G1 X159.864 Y163.053 E0.01748
G1 X160.061 Y162.58 E0.01734
G1 X160.294 Y162.132 E0.01708
G1 X160.56 Y161.716 E0.01673
G1 X160.85 Y161.342 E0.01601
G1 X161.17 Y160.997 E0.01591
G1 X161.514 Y160.69 E0.01563
G1 X161.889 Y160.41 E0.01585
G1 X162.296 Y160.158 E0.01617
G1 X162.727 Y159.94 E0.01638
G1 X163.179 Y159.759 E0.01646
G1 X163.644 Y159.618 E0.01646
G1 X164.124 Y159.516 E0.0166
G1 X164.636 Y159.449 E0.01746
G1 X164.997 Y159.426 E0.01225
G1 X165.534 Y159.467 E0.01824
G1 X166.072 Y159.553 E0.01844
G1 X166.572 Y159.678 E0.01747
G1 X167.042 Y159.842 E0.01682
G1 X167.487 Y160.042 E0.01653
G1 X167.914 Y160.281 E0.01657
G1 X168.315 Y160.556 E0.01645
G1 X168.684 Y160.86 E0.0162
G1 X169.017 Y161.19 E0.01588
