; generated by SuperSlicer 2.3.57 on 2022-02-05 at 17:19:21 UTC


;
;

;
;
; 

; external perimeters extrusion width = 0.40mm
; perimeters extrusion width = 0.45mm
; infill extrusion width = 0.72mm
; solid infill extrusion width = 0.56mm
; top infill extrusion width = 0.40mm
; first layer extrusion width = 0.48mm

; external perimeters extrusion width = 0.40mm
; perimeters extrusion width = 0.45mm
; infill extrusion width = 0.72mm
; solid infill extrusion width = 0.56mm
; top infill extrusion width = 0.40mm
; first layer extrusion width = 0.48mm

; external perimeters extrusion width = 0.40mm
; perimeters extrusion width = 0.45mm
; infill extrusion width = 0.72mm
; solid infill extrusion width = 0.56mm
; top infill extrusion width = 0.40mm
; first layer extrusion width = 0.48mm

; external perimeters extrusion width = 0.40mm
; perimeters extrusion width = 0.45mm
; infill extrusion width = 0.72mm
; solid infill extrusion width = 0.56mm
; top infill extrusion width = 0.40mm
; first layer extrusion width = 0.48mm

; external perimeters extrusion width = 0.40mm
; perimeters extrusion width = 0.45mm
; infill extrusion width = 0.72mm
; solid infill extrusion width = 0.56mm
; top infill extrusion width = 0.40mm
; first layer extrusion width = 0.48mm

; object:{"name":"Part5-black2x","id":"Part5-black2x.STL id:0 copy 0","object_center":[169.005698,165.197857,0.000000],"boundingbox_center":[169.005698,165.197857,0.750000],"boundingbox_size":[7.042904,9.401196,1.500000]}
; object:{"name":"Part5-black2x","id":"Part5-black2x.STL id:1 copy 0","object_center":[160.994283,164.802165,0.000000],"boundingbox_center":[160.994283,164.802165,0.750000],"boundingbox_size":[7.042904,9.401196,1.500000]}
; plater:{"center":[164.999990,165.000011,0.000000],"boundingbox_center":[164.999990,165.000011,0.750000],"boundingbox_size":[15.054319,9.796888,1.500000]}

;TYPE:Custom
START_PRINT T_BED=60 T_EXTRUDER=200
M107
G21 ; set units to millimeters
G90 ; use absolute coordinates
M83 ; use relative distances for extrusion
; Filament gcode
M104 S200 ; set temperature
M109 S200 ; set temperature and wait for it to be reached
M190 S60 ; set bed temperature and wait for it to be reached
;LAYER_CHANGE
;Z:0.24
;HEIGHT:0.24
G1 E-0.6 F3000
G1 Z0.24 F9000
; INIT printing object Part5-black2x.STL id:0 copy 0
; printing object Part5-black2x.STL id:0 copy 0
G1 X168.833 Y162.644
G1 E0.6 F1800
;TYPE:Internal perimeter
;WIDTH:0.48
G1 F1398
G1 X168.383 Y162.809 E0.02049
G1 X168.121 Y162.991 E0.01363
G1 X167.887 Y163.224 E0.01413
G1 X167.689 Y163.497 E0.01444
G1 X167.528 Y163.797 E0.01453
G1 X167.402 Y164.117 E0.01472
G1 X167.309 Y164.454 E0.01494
G1 X167.248 Y164.802 E0.01511
G1 X167.219 Y165.156 E0.0152
G1 X167.222 Y165.512 E0.01518
G1 X167.257 Y165.862 E0.01507
G1 X167.326 Y166.203 E0.01488
G1 X167.429 Y166.531 E0.01467
G1 X167.57 Y166.839 E0.0145
G1 X167.751 Y167.123 E0.01438
G1 X167.965 Y167.36 E0.01364
G1 X168.21 Y167.551 E0.01329
G1 X168.63 Y167.731 E0.01956
G1 X169.018 Y167.766 E0.01663
G1 X169.448 Y167.671 E0.01885
G1 X169.712 Y167.535 E0.01268
G1 X169.95 Y167.353 E0.01279
G1 X170.177 Y167.107 E0.01431
G1 X170.366 Y166.827 E0.01446
G1 X170.517 Y166.521 E0.01457
G1 X170.635 Y166.197 E0.01477
G1 X170.72 Y165.857 E0.01498
G1 X170.774 Y165.507 E0.01514
G1 X170.795 Y165.152 E0.0152
G1 X170.784 Y164.797 E0.01517
G1 X170.741 Y164.448 E0.01503
G1 X170.664 Y164.11 E0.01483
G1 X170.551 Y163.787 E0.01462
G1 X170.401 Y163.484 E0.01448
G1 X170.21 Y163.208 E0.01434
G1 X169.994 Y162.988 E0.01321
G1 X169.746 Y162.811 E0.01298
G1 X169.311 Y162.647 E0.0199
G1 X168.893 Y162.644 E0.01788
G1 X168.907 Y163.073 F9000
;TYPE:External perimeter
G1 F1398
G1 X168.582 Y163.192 E0.01482
G1 X168.397 Y163.321 E0.00964
G1 X168.214 Y163.503 E0.01105
G1 X168.053 Y163.725 E0.01172
G1 X167.918 Y163.977 E0.01221
G1 X167.809 Y164.253 E0.01269
G1 X167.728 Y164.548 E0.0131
G1 X167.673 Y164.857 E0.01339
G1 X167.648 Y165.172 E0.01353
G1 X167.65 Y165.488 E0.01351
G1 X167.682 Y165.798 E0.01333
G1 X167.742 Y166.096 E0.013
G1 X167.83 Y166.377 E0.01257
G1 X167.947 Y166.634 E0.01209
G1 X168.093 Y166.862 E0.01158
G1 X168.258 Y167.045 E0.01052
G1 X168.429 Y167.179 E0.0093
G1 X168.736 Y167.31 E0.01428
G1 X168.99 Y167.333 E0.01089
G1 X169.301 Y167.264 E0.01362
G1 X169.482 Y167.171 E0.00869
G1 X169.66 Y167.035 E0.0096
G1 X169.84 Y166.841 E0.01131
G1 X169.994 Y166.611 E0.01184
G1 X170.123 Y166.352 E0.01233
G1 X170.225 Y166.071 E0.0128
G1 X170.3 Y165.772 E0.01318
G1 X170.347 Y165.461 E0.01344
G1 X170.366 Y165.145 E0.01354
G1 X170.356 Y164.83 E0.01348
G1 X170.318 Y164.523 E0.01326
G1 X170.251 Y164.228 E0.01291
G1 X170.156 Y163.953 E0.01246
G1 X170.031 Y163.702 E0.01197
G1 X169.879 Y163.482 E0.01144
G1 X169.714 Y163.314 E0.01005
G1 X169.543 Y163.192 E0.00899
G1 X169.232 Y163.075 E0.01423
G1 X168.967 Y163.073 E0.0113
;WIPE_START
G1 X168.67 Y162.821 F9000
;WIPE_END
G1 X168.15 Y162.056
;TYPE:Internal perimeter
G1 F1398
G1 X168.312 Y161.947 E0.00838
G1 X168.517 Y161.84 E0.00988
G1 X168.718 Y161.764 E0.0092
G1 X168.915 Y161.717 E0.00864
G1 X169.107 Y161.696 E0.00825
G1 X169.295 Y161.7 E0.00805
G1 X169.481 Y161.729 E0.00806
G1 X169.667 Y161.783 E0.00829
G1 X169.854 Y161.864 E0.0087
G1 X170.041 Y161.975 E0.00928
G1 X170.226 Y162.116 E0.00997
G1 X170.416 Y162.298 E0.01124
G1 X170.174 Y162.59 E0.01619
G1 X169.95 Y162.43 E0.01177
G1 X169.39 Y162.219 E0.02558
G1 X168.758 Y162.215 E0.02703
G1 X168.313 Y162.378 E0.02024
G1 X168.177 Y162.11 E0.01285
G1 E-0.6 F3000
G1 X167.824 Y167.852 F9000
G1 E0.6 F1800
G1 F1398
G1 X168.524 Y168.151 E0.03253
G1 X169.045 Y168.199 E0.02237
G1 X169.686 Y168.057 E0.02805
G1 X169.807 Y168.394 E0.01532
G1 X169.482 Y168.56 E0.01562
G1 X169.281 Y168.634 E0.00916
G1 X169.084 Y168.68 E0.00861
G1 X168.888 Y168.7 E0.00844
G1 X168.734 Y168.697 E0.0066
G1 X168.542 Y168.669 E0.00827
G1 X168.356 Y168.616 E0.00827
G1 X168.17 Y168.537 E0.00867
G1 X167.983 Y168.428 E0.00924
G1 X167.798 Y168.288 E0.00992
G1 X167.637 Y168.137 E0.00941
G1 X167.792 Y167.902 E0.01201
G1 X167.259 Y168.358 F9000
G1 F1398
G1 X167.102 Y168.175 E0.0103
G1 X166.914 Y167.906 E0.01404
G1 X166.745 Y167.607 E0.0147
G1 X166.598 Y167.28 E0.01532
G1 X166.474 Y166.93 E0.01588
G1 X166.376 Y166.56 E0.01636
G1 X166.306 Y166.174 E0.01676
G1 X166.265 Y165.777 E0.01706
G1 X166.253 Y165.374 E0.01727
G1 X166.271 Y164.968 E0.01737
G1 X166.319 Y164.564 E0.01737
G1 X166.396 Y164.168 E0.01726
G1 X166.501 Y163.784 E0.01705
G1 X166.633 Y163.415 E0.01674
G1 X166.789 Y163.066 E0.01633
G1 X166.968 Y162.742 E0.01584
G1 X167.166 Y162.444 E0.01528
G1 X167.381 Y162.177 E0.01466
G1 X167.61 Y161.943 E0.01399
G1 X167.848 Y161.743 E0.01331
G1 X168.093 Y161.578 E0.01263
G1 X168.342 Y161.448 E0.01199
G1 X168.592 Y161.354 E0.01142
G1 X168.841 Y161.294 E0.01095
G1 X169.088 Y161.267 E0.01062
G1 X169.332 Y161.272 E0.01046
G1 X169.574 Y161.309 E0.01047
G1 X169.814 Y161.379 E0.01066
G1 X170.05 Y161.482 E0.01101
G1 X170.281 Y161.619 E0.01149
G1 X170.505 Y161.79 E0.01207
G1 X170.72 Y161.996 E0.01272
G1 X170.922 Y162.236 E0.0134
G1 X171.109 Y162.507 E0.01408
G1 X171.276 Y162.808 E0.01474
G1 X171.422 Y163.136 E0.01536
G1 X171.545 Y163.488 E0.01591
G1 X171.641 Y163.859 E0.01639
G1 X171.709 Y164.245 E0.01678
G1 X171.748 Y164.643 E0.01708
G1 X171.758 Y165.047 E0.01728
G1 X171.738 Y165.453 E0.01737
G1 X171.688 Y165.856 E0.01736
G1 X171.61 Y166.252 E0.01725
G1 X171.503 Y166.635 E0.01703
G1 X171.37 Y167.003 E0.01671
G1 X171.212 Y167.35 E0.0163
G1 X171.032 Y167.673 E0.01581
G1 X170.832 Y167.968 E0.01524
G1 X170.616 Y168.233 E0.01462
G1 X170.387 Y168.466 E0.01395
G1 X170.148 Y168.664 E0.01327
G1 X169.903 Y168.826 E0.01259
G1 X169.654 Y168.953 E0.01195
G1 X169.404 Y169.046 E0.01139
G1 X169.155 Y169.104 E0.01093
G1 X168.905 Y169.129 E0.01075
G1 X168.698 Y169.125 E0.00885
G1 X168.453 Y169.089 E0.0106
G1 X168.213 Y169.021 E0.01064
G1 X167.977 Y168.92 E0.01098
G1 X167.746 Y168.786 E0.01145
G1 X167.521 Y168.616 E0.01203
G1 X167.298 Y168.404 E0.01317
G1 X166.972 Y168.683 F9000
;TYPE:External perimeter
G1 F1398
G1 X166.763 Y168.438 E0.01378
G1 X166.551 Y168.134 E0.01582
G1 X166.363 Y167.801 E0.01638
G1 X166.2 Y167.44 E0.01692
G1 X166.064 Y167.056 E0.0174
G1 X165.958 Y166.653 E0.01782
G1 X165.882 Y166.235 E0.01818
G1 X165.837 Y165.806 E0.01845
G1 X165.824 Y165.37 E0.01863
G1 X165.844 Y164.933 E0.01872
G1 X165.896 Y164.498 E0.01872
G1 X165.979 Y164.071 E0.01862
G1 X166.092 Y163.655 E0.01843
G1 X166.235 Y163.255 E0.01816
G1 X166.405 Y162.875 E0.0178
G1 X166.601 Y162.519 E0.01737
G1 X166.82 Y162.191 E0.01688
G1 X167.06 Y161.893 E0.01635
G1 X167.318 Y161.629 E0.01578
G1 X167.59 Y161.4 E0.0152
G1 X167.874 Y161.209 E0.01464
G1 X168.167 Y161.057 E0.01411
G1 X168.465 Y160.944 E0.01364
G1 X168.767 Y160.871 E0.01326
G1 X169.069 Y160.838 E0.013
G1 X169.37 Y160.844 E0.01287
G1 X169.668 Y160.89 E0.01288
G1 X169.96 Y160.975 E0.01303
G1 X170.245 Y161.1 E0.01331
G1 X170.521 Y161.263 E0.0137
G1 X170.784 Y161.465 E0.01417
G1 X171.033 Y161.702 E0.01471
G1 X171.263 Y161.975 E0.01528
G1 X171.473 Y162.281 E0.01585
G1 X171.66 Y162.616 E0.01642
G1 X171.821 Y162.979 E0.01695
G1 X171.955 Y163.364 E0.01743
G1 X172.06 Y163.768 E0.01785
G1 X172.134 Y164.187 E0.0182
G1 X172.176 Y164.617 E0.01846
G1 X172.187 Y165.052 E0.01864
G1 X172.165 Y165.49 E0.01872
G1 X172.112 Y165.924 E0.01871
G1 X172.027 Y166.351 E0.01861
G1 X171.911 Y166.766 E0.01842
G1 X171.767 Y167.165 E0.01814
G1 X171.595 Y167.543 E0.01777
G1 X171.397 Y167.897 E0.01734
G1 X171.177 Y168.224 E0.01685
G1 X170.936 Y168.52 E0.01631
G1 X170.677 Y168.782 E0.01574
G1 X170.404 Y169.008 E0.01517
G1 X170.119 Y169.197 E0.0146
G1 X169.826 Y169.347 E0.01408
G1 X169.527 Y169.457 E0.01361
G1 X169.226 Y169.527 E0.01324
G1 X168.922 Y169.558 E0.01305
G1 X168.662 Y169.552 E0.01111
G1 X168.363 Y169.509 E0.01293
G1 X168.07 Y169.426 E0.01301
G1 X167.784 Y169.304 E0.01328
G1 X167.508 Y169.143 E0.01367
G1 X167.244 Y168.944 E0.01414
G1 X167.013 Y168.726 E0.01357
;WIPE_START
G1 X167.07 Y168.375 F9000
;WIPE_END
G1 X167.785 Y167.621
;TYPE:Gap fill
;WIDTH:0.315061
G1 F1398
G1 X167.736 Y167.584 E0.00162
;WIDTH:0.391157

G1 X167.583 Y167.538 E0.00542
;WIDTH:0.520994

G1 X167.445 Y167.534 E0.00645
;WIDTH:0.823981

G1 X167.29 Y167.437 E0.01414
;WIDTH:0.770612

G1 X167.241 Y167.355 E0.00682
G1 X167.176 Y167.236 E0.00977
;WIDTH:0.728415

G1 X167.09 Y167.073 E0.01242
G1 X167.031 Y166.925 E0.01078
;WIDTH:0.696564

G1 X166.971 Y166.777 E0.01027
G1 X166.943 Y166.697 E0.00546
G1 X166.908 Y166.573 E0.00827
;WIDTH:0.672349

G1 X166.872 Y166.45 E0.00796
G1 X166.839 Y166.312 E0.00875
G1 X166.819 Y166.208 E0.00657
G1 X166.799 Y166.104 E0.00657
;WIDTH:0.643619

G1 X166.772 Y165.921 E0.01093
G1 X166.754 Y165.745 E0.01046
G1 X166.741 Y165.551 E0.01148
G1 X166.737 Y165.378 E0.01026
G1 X166.739 Y165.264 E0.00668
;WIDTH:0.612964

G1 X166.742 Y165.126 E0.00776
G1 X166.75 Y165.007 E0.00669
G1 X166.763 Y164.88 E0.00712
G1 X166.778 Y164.729 E0.00854
G1 X166.792 Y164.638 E0.00513
G1 X166.817 Y164.5 E0.00785
G1 X166.848 Y164.336 E0.00935
G1 X166.862 Y164.277 E0.00342
G1 X166.903 Y164.128 E0.00863
G1 X166.952 Y163.952 E0.01028
G1 X166.96 Y163.928 E0.0014
G1 X167.02 Y163.768 E0.00956
G1 X167.085 Y163.596 E0.01027
G1 X167.094 Y163.577 E0.00118
G1 X167.164 Y163.433 E0.00901
;WIDTH:0.653905

G1 X167.235 Y163.289 E0.00966
G1 X167.277 Y163.215 E0.00507
G1 X167.342 Y163.112 E0.00735
;WIDTH:0.686029

G1 X167.408 Y163.009 E0.00774
G1 X167.509 Y162.867 E0.01105
;WIDTH:0.710665

G1 X167.596 Y162.76 E0.00907
G1 X167.672 Y162.676 E0.00746
;WIDTH:0.762723

G1 X167.787 Y162.537 E0.01278
;WIDTH:0.649935

G1 X167.813 Y162.364 E0.01046
;WIDTH:0.423166

G1 X167.839 Y162.19 E0.0065
;WIDTH:0.220781

G1 X167.744 Y162.087 E0.00238
G1 X170.701 Y162.279 F9000
;WIDTH:0.228813
G1 F1398
G1 X170.695 Y162.409 E0.00231
;WIDTH:0.316863

G1 X170.687 Y162.575 E0.0044
;WIDTH:0.559

G1 X170.678 Y162.774 E0.01009
;WIDTH:0.728389

G1 X170.669 Y162.878 E0.0071
;WIDTH:0.787715

G1 X170.724 Y162.967 E0.00771
;WIDTH:0.752789

G1 X170.78 Y163.057 E0.00734
G1 X170.853 Y163.187 E0.01048
;WIDTH:0.728355

G1 X170.924 Y163.333 E0.01099
G1 X170.973 Y163.451 E0.00857
;WIDTH:0.69412

G1 X171.022 Y163.568 E0.00814
G1 X171.037 Y163.605 E0.00259
G1 X171.096 Y163.796 E0.01282
;WIDTH:0.665087

G1 X171.144 Y163.955 E0.01013
G1 X171.185 Y164.15 E0.01223
;WIDTH:0.62898

G1 X171.218 Y164.313 E0.00957
G1 X171.224 Y164.348 E0.00206
G1 X171.244 Y164.525 E0.01027
G1 X171.261 Y164.673 E0.00857
G1 X171.266 Y164.746 E0.00423
G1 X171.271 Y164.907 E0.00927
G1 X171.275 Y165.041 E0.00772
G1 X171.274 Y165.146 E0.00605
G1 X171.267 Y165.291 E0.0084
G1 X171.26 Y165.412 E0.00693
G1 X171.248 Y165.544 E0.00767
G1 X171.23 Y165.675 E0.00758
G1 X171.216 Y165.78 E0.00612
G1 X171.183 Y165.963 E0.01073
G1 X171.143 Y166.14 E0.01047
G1 X171.095 Y166.322 E0.01084
G1 X171.043 Y166.488 E0.01002
G1 X171.005 Y166.592 E0.00638
G1 X170.967 Y166.696 E0.00638
G1 X170.916 Y166.818 E0.00759
;WIDTH:0.655438

G1 X170.859 Y166.938 E0.00801
G1 X170.802 Y167.058 E0.00801
G1 X170.766 Y167.125 E0.00458
G1 X170.68 Y167.265 E0.00987
;WIDTH:0.686082

G1 X170.595 Y167.404 E0.01038
G1 X170.484 Y167.547 E0.01147
;WIDTH:0.732527

G1 X170.403 Y167.65 E0.00885
G1 X170.292 Y167.774 E0.01132
;WIDTH:0.788073

G1 X170.153 Y167.848 E0.0116
;WIDTH:0.525177

G1 X169.972 Y167.814 E0.00869
;WIDTH:0.423362

G1 X169.813 Y167.828 E0.00593
; INIT stop printing object Part5-black2x.STL id:0 copy 0
; INIT printing object Part5-black2x.STL id:1 copy 0
G1 E-0.6 F3000
; stop printing object Part5-black2x.STL id:0 copy 0
; printing object Part5-black2x.STL id:1 copy 0
G1 X160.821 Y162.248 F9000
G1 E0.6 F1800
;TYPE:Internal perimeter
;WIDTH:0.48
G1 F1398
G1 X160.371 Y162.413 E0.02049
G1 X160.109 Y162.595 E0.01363
G1 X159.875 Y162.828 E0.01413
G1 X159.677 Y163.102 E0.01444
G1 X159.517 Y163.401 E0.01453
G1 X159.391 Y163.722 E0.01472
G1 X159.298 Y164.058 E0.01494
G1 X159.237 Y164.406 E0.01511
G1 X159.207 Y164.761 E0.0152
G1 X159.21 Y165.116 E0.01518
G1 X159.246 Y165.467 E0.01507
G1 X159.315 Y165.808 E0.01488
G1 X159.418 Y166.135 E0.01467
G1 X159.559 Y166.444 E0.0145
G1 X159.74 Y166.727 E0.01438
G1 X159.953 Y166.964 E0.01364
G1 X160.198 Y167.155 E0.01329
G1 X160.619 Y167.335 E0.01956
G1 X161.006 Y167.37 E0.01663
G1 X161.437 Y167.275 E0.01885
G1 X161.7 Y167.139 E0.01268
G1 X161.938 Y166.957 E0.01279
G1 X162.165 Y166.712 E0.01431
G1 X162.354 Y166.431 E0.01446
G1 X162.506 Y166.126 E0.01457
G1 X162.624 Y165.801 E0.01477
G1 X162.709 Y165.461 E0.01498
G1 X162.762 Y165.111 E0.01514
G1 X162.784 Y164.756 E0.0152
G1 X162.773 Y164.401 E0.01517
G1 X162.729 Y164.053 E0.01503
G1 X162.652 Y163.714 E0.01483
G1 X162.54 Y163.391 E0.01462
G1 X162.39 Y163.088 E0.01448
G1 X162.198 Y162.812 E0.01434
G1 X161.982 Y162.592 E0.01321
G1 X161.735 Y162.415 E0.01298
G1 X161.299 Y162.251 E0.0199
G1 X160.881 Y162.249 E0.01788
G1 X160.896 Y162.677 F9000
;TYPE:External perimeter
G1 F1398
G1 X160.57 Y162.796 E0.01482
G1 X160.385 Y162.925 E0.00964
G1 X160.202 Y163.107 E0.01105
G1 X160.041 Y163.329 E0.01172
G1 X159.906 Y163.581 E0.01221
G1 X159.798 Y163.857 E0.01269
G1 X159.716 Y164.153 E0.0131
G1 X159.662 Y164.461 E0.01339
G1 X159.636 Y164.776 E0.01353
G1 X159.639 Y165.092 E0.01351
G1 X159.67 Y165.402 E0.01333
G1 X159.73 Y165.701 E0.013
G1 X159.819 Y165.981 E0.01257
G1 X159.936 Y166.238 E0.01209
G1 X160.082 Y166.466 E0.01158
G1 X160.246 Y166.649 E0.01052
G1 X160.418 Y166.783 E0.0093
G1 X160.725 Y166.914 E0.01428
G1 X160.979 Y166.937 E0.01089
G1 X161.29 Y166.869 E0.01362
G1 X161.47 Y166.775 E0.00869
G1 X161.649 Y166.639 E0.0096
G1 X161.828 Y166.445 E0.01131
G1 X161.983 Y166.215 E0.01184
G1 X162.111 Y165.957 E0.01233
G1 X162.213 Y165.675 E0.0128
G1 X162.288 Y165.376 E0.01318
G1 X162.336 Y165.066 E0.01344
G1 X162.355 Y164.75 E0.01354
G1 X162.345 Y164.435 E0.01348
G1 X162.307 Y164.127 E0.01326
G1 X162.24 Y163.832 E0.01291
G1 X162.144 Y163.557 E0.01246
G1 X162.02 Y163.306 E0.01197
G1 X161.867 Y163.087 E0.01144
G1 X161.703 Y162.919 E0.01005
G1 X161.531 Y162.797 E0.00899
G1 X161.22 Y162.679 E0.01423
G1 X160.956 Y162.678 E0.0113
;WIPE_START
G1 X160.658 Y162.425 F9000
;WIPE_END
