; generated by SuperSlicer 2.3.56 on 2021-12-03 at 05:24:30 UTC


;
;

;
;
; 

; external perimeters extrusion width = 0.40mm
; perimeters extrusion width = 0.40mm
; infill extrusion width = 0.40mm
; solid infill extrusion width = 0.40mm
; top infill extrusion width = 0.40mm
; support material extrusion width = 0.40mm
; first layer extrusion width = 0.48mm


;TYPE:Custom
START_PRINT T_BED=60 T_EXTRUDER=200
M107
G21 ; set units to millimeters
G90 ; use absolute coordinates
M83 ; use relative distances for extrusion
; Filament gcode
M109 S200 ; set temperature and wait for it to be reached
M190 S60 ; set bed temperature and wait for it to be reached
;LAYER_CHANGE
;Z:0.24
;HEIGHT:0.24
G1 Z0.240000 F12000.000
G1 E-0.80000 F3000.000
G1 X133.591 Y126.123 F12000.000
G1 E0.80000 F1500.000
;TYPE:Skirt
;WIDTH:0.48
G1 F600.000
G1 X135.073 Y124.640 E0.08963
G1 X136.722 Y123.146 E0.09512
G1 X138.396 Y121.781 E0.09237
G1 X140.137 Y120.502 E0.09237
G1 X141.887 Y119.348 E0.08963
G1 X143.864 Y118.184 E0.09809
G1 X145.725 Y117.213 E0.08974
G1 X147.745 Y116.287 E0.09501
G1 X149.691 Y115.511 E0.08957
G1 X151.736 Y114.812 E0.09237
G1 X153.813 Y114.218 E0.09237
G1 X155.917 Y113.730 E0.09237
G1 X158.044 Y113.349 E0.09237
G1 X160.187 Y113.076 E0.09237
G1 X162.341 Y112.912 E0.09237
G1 X164.505 Y112.857 E0.09255
G1 X166.661 Y112.912 E0.09220
G1 X168.815 Y113.076 E0.09237
G1 X170.959 Y113.349 E0.09237
G1 X173.085 Y113.730 E0.09237
G1 X175.190 Y114.219 E0.09237
G1 X177.267 Y114.813 E0.09237
G1 X179.311 Y115.512 E0.09237
G1 X181.314 Y116.312 E0.09220
G1 X183.281 Y117.216 E0.09255
G1 X185.196 Y118.216 E0.09237
G1 X187.058 Y119.312 E0.09237
G1 X188.858 Y120.499 E0.09220
G1 X190.603 Y121.780 E0.09255
G1 X192.274 Y123.143 E0.09220
G1 X193.877 Y124.591 E0.09237
G1 X195.360 Y126.073 E0.08963
G1 X196.854 Y127.722 E0.09512
G1 X198.219 Y129.396 E0.09237
G1 X199.498 Y131.137 E0.09237
G1 X200.652 Y132.887 E0.08963
G1 X201.816 Y134.864 E0.09809
G1 X202.787 Y136.725 E0.08974
G1 X203.712 Y138.745 E0.09501
G1 X204.489 Y140.691 E0.08957
G1 X205.188 Y142.736 E0.09237
G1 X205.782 Y144.813 E0.09237
G1 X206.270 Y146.917 E0.09237
G1 X206.651 Y149.044 E0.09237
G1 X206.924 Y151.187 E0.09237
G1 X207.088 Y153.341 E0.09237
G1 X207.143 Y155.501 E0.09237
G1 X207.088 Y157.661 E0.09237
G1 X206.924 Y159.815 E0.09237
G1 X206.651 Y161.959 E0.09237
G1 X206.270 Y164.085 E0.09237
G1 X205.781 Y166.190 E0.09237
G1 X205.187 Y168.267 E0.09237
G1 X204.488 Y170.311 E0.09237
G1 X203.688 Y172.314 E0.09220
G1 X202.784 Y174.281 E0.09255
G1 X201.784 Y176.196 E0.09237
G1 X200.688 Y178.058 E0.09237
G1 X199.501 Y179.858 E0.09220
G1 X198.220 Y181.603 E0.09255
G1 X196.857 Y183.274 E0.09220
G1 X195.409 Y184.877 E0.09237
G1 X193.927 Y186.360 E0.08963
G1 X192.278 Y187.854 E0.09512
G1 X190.604 Y189.219 E0.09237
G1 X188.863 Y190.498 E0.09237
G1 X187.113 Y191.652 E0.08963
G1 X185.136 Y192.816 E0.09809
G1 X183.275 Y193.787 E0.08974
G1 X181.255 Y194.712 E0.09501
G1 X179.309 Y195.489 E0.08957
G1 X177.264 Y196.188 E0.09237
G1 X175.187 Y196.782 E0.09237
G1 X173.083 Y197.270 E0.09237
G1 X170.956 Y197.651 E0.09237
G1 X168.813 Y197.924 E0.09237
G1 X166.659 Y198.088 E0.09237
G1 X164.499 Y198.143 E0.09237
G1 X162.339 Y198.088 E0.09237
G1 X160.185 Y197.924 E0.09237
G1 X158.041 Y197.651 E0.09237
G1 X155.915 Y197.270 E0.09237
G1 X153.810 Y196.781 E0.09237
G1 X151.733 Y196.187 E0.09237
G1 X149.689 Y195.488 E0.09237
G1 X147.686 Y194.688 E0.09220
G1 X145.719 Y193.784 E0.09255
G1 X143.804 Y192.784 E0.09237
G1 X141.942 Y191.688 E0.09237
G1 X140.142 Y190.501 E0.09220
G1 X138.397 Y189.220 E0.09255
G1 X136.726 Y187.857 E0.09220
G1 X135.123 Y186.409 E0.09237
G1 X133.640 Y184.927 E0.08963
G1 X132.146 Y183.278 E0.09512
G1 X130.781 Y181.604 E0.09237
G1 X129.502 Y179.863 E0.09237
G1 X128.348 Y178.113 E0.08963
G1 X127.184 Y176.136 E0.09809
G1 X126.213 Y174.275 E0.08974
G1 X125.287 Y172.255 E0.09501
G1 X124.511 Y170.309 E0.08957
G1 X123.812 Y168.264 E0.09237
G1 X123.218 Y166.187 E0.09237
G1 X122.730 Y164.083 E0.09237
G1 X122.349 Y161.956 E0.09237
G1 X122.076 Y159.813 E0.09237
G1 X121.912 Y157.659 E0.09237
G1 X121.857 Y155.499 E0.09237
G1 X121.912 Y153.339 E0.09237
G1 X122.076 Y151.185 E0.09237
G1 X122.349 Y149.041 E0.09237
G1 X122.730 Y146.915 E0.09237
G1 X123.219 Y144.810 E0.09237
G1 X123.813 Y142.733 E0.09237
G1 X124.512 Y140.689 E0.09237
G1 X125.312 Y138.686 E0.09220
G1 X126.216 Y136.719 E0.09255
G1 X127.216 Y134.804 E0.09237
G1 X128.312 Y132.942 E0.09237
G1 X129.499 Y131.142 E0.09220
G1 X130.780 Y129.397 E0.09255
G1 X132.143 Y127.726 E0.09220
G1 X133.551 Y126.167 E0.08981
G1 X133.869 Y126.454 F12000.000
G1 F600.000
G1 X133.903 Y126.416 E0.00218
G1 X135.376 Y124.943 E0.08909
G1 X136.999 Y123.473 E0.09364
G1 X138.616 Y122.153 E0.08925
G1 X140.431 Y120.821 E0.09624
G1 X142.172 Y119.674 E0.08916
G1 X144.016 Y118.589 E0.09145
G1 X145.912 Y117.599 E0.09145
G1 X147.903 Y116.686 E0.09364
G1 X149.841 Y115.913 E0.08925
G1 X151.865 Y115.221 E0.09145
G1 X153.918 Y114.634 E0.09129
G1 X156.005 Y114.149 E0.09160
G1 X158.107 Y113.773 E0.09129
G1 X160.228 Y113.502 E0.09145
G1 X162.361 Y113.340 E0.09145
G1 X164.503 Y113.286 E0.09160
G1 X166.637 Y113.340 E0.09129
G1 X168.770 Y113.502 E0.09145
G1 X170.891 Y113.772 E0.09145
G1 X172.997 Y114.150 E0.09145
G1 X175.080 Y114.633 E0.09145
G1 X177.136 Y115.221 E0.09145
G1 X179.160 Y115.913 E0.09145
G1 X181.147 Y116.707 E0.09145
G1 X183.090 Y117.599 E0.09145
G1 X184.986 Y118.590 E0.09145
G1 X186.829 Y119.675 E0.09145
G1 X188.615 Y120.852 E0.09145
G1 X190.339 Y122.117 E0.09145
G1 X191.996 Y123.469 E0.09145
G1 X193.584 Y124.903 E0.09145
G1 X195.057 Y126.376 E0.08909
G1 X196.527 Y127.999 E0.09364
G1 X197.847 Y129.616 E0.08925
G1 X199.179 Y131.431 E0.09624
G1 X200.326 Y133.172 E0.08916
G1 X201.411 Y135.016 E0.09145
G1 X202.401 Y136.912 E0.09145
G1 X203.314 Y138.903 E0.09364
G1 X204.087 Y140.841 E0.08925
G1 X204.779 Y142.865 E0.09145
G1 X205.366 Y144.918 E0.09129
G1 X205.851 Y147.005 E0.09160
G1 X206.227 Y149.107 E0.09129
G1 X206.498 Y151.228 E0.09145
G1 X206.660 Y153.361 E0.09145
G1 X206.714 Y155.499 E0.09145
G1 X206.660 Y157.637 E0.09145
G1 X206.498 Y159.770 E0.09145
G1 X206.228 Y161.891 E0.09145
G1 X205.850 Y163.997 E0.09145
G1 X205.367 Y166.080 E0.09145
G1 X204.779 Y168.136 E0.09145
G1 X204.087 Y170.160 E0.09145
G1 X203.315 Y172.096 E0.08909
G1 X202.402 Y174.087 E0.09364
G1 X201.436 Y175.937 E0.08925
G1 X200.295 Y177.877 E0.09624
G1 X199.146 Y179.618 E0.08916
G1 X197.880 Y181.342 E0.09145
G1 X196.529 Y182.999 E0.09145
G1 X195.057 Y184.624 E0.09373
G1 X193.582 Y186.098 E0.08916
G1 X191.995 Y187.532 E0.09145
G1 X190.340 Y188.881 E0.09129
G1 X188.613 Y190.149 E0.09160
G1 X186.831 Y191.324 E0.09129
G1 X184.987 Y192.409 E0.09145
G1 X183.092 Y193.400 E0.09145
G1 X181.145 Y194.294 E0.09160
G1 X179.162 Y195.086 E0.09129
G1 X177.138 Y195.778 E0.09145
G1 X175.082 Y196.366 E0.09145
G1 X172.999 Y196.850 E0.09145
G1 X170.893 Y197.227 E0.09145
G1 X168.772 Y197.498 E0.09145
G1 X166.639 Y197.660 E0.09145
G1 X164.501 Y197.714 E0.09145
G1 X162.363 Y197.660 E0.09145
G1 X160.230 Y197.498 E0.09145
G1 X158.109 Y197.228 E0.09145
G1 X156.003 Y196.850 E0.09145
G1 X153.920 Y196.367 E0.09145
G1 X151.864 Y195.779 E0.09145
G1 X149.840 Y195.087 E0.09145
G1 X147.904 Y194.315 E0.08909
G1 X145.913 Y193.402 E0.09364
G1 X144.063 Y192.436 E0.08925
G1 X142.123 Y191.295 E0.09624
G1 X140.382 Y190.146 E0.08916
G1 X138.658 Y188.880 E0.09145
G1 X137.001 Y187.529 E0.09145
G1 X135.376 Y186.057 E0.09373
G1 X133.902 Y184.582 E0.08916
G1 X132.468 Y182.995 E0.09145
G1 X131.119 Y181.340 E0.09129
G1 X129.851 Y179.613 E0.09160
G1 X128.676 Y177.831 E0.09129
G1 X127.591 Y175.987 E0.09145
G1 X126.600 Y174.092 E0.09145
G1 X125.706 Y172.145 E0.09160
G1 X124.914 Y170.162 E0.09129
G1 X124.222 Y168.138 E0.09145
G1 X123.634 Y166.082 E0.09145
G1 X123.150 Y163.999 E0.09145
G1 X122.773 Y161.893 E0.09145
G1 X122.502 Y159.772 E0.09145
G1 X122.340 Y157.639 E0.09145
G1 X122.286 Y155.501 E0.09145
G1 X122.340 Y153.363 E0.09145
G1 X122.502 Y151.230 E0.09145
G1 X122.772 Y149.109 E0.09145
G1 X123.150 Y147.003 E0.09145
G1 X123.633 Y144.920 E0.09145
G1 X124.221 Y142.864 E0.09145
G1 X124.913 Y140.840 E0.09145
G1 X125.707 Y138.853 E0.09145
G1 X126.599 Y136.910 E0.09145
G1 X127.590 Y135.014 E0.09145
G1 X128.675 Y133.171 E0.09145
G1 X129.852 Y131.385 E0.09145
G1 X131.117 Y129.661 E0.09145
G1 X132.469 Y128.004 E0.09145
G1 X133.828 Y126.499 E0.08670
G1 E-0.80000 F3000.000
G1 X136.285 Y128.718 F12000.000
G1 E0.80000 F1500.000
;TYPE:Internal perimeter
G1 F600.000
G1 X136.304 Y128.697 E0.00119
G1 X137.697 Y127.304 E0.08427
G1 X139.160 Y125.982 E0.08427
G1 X140.687 Y124.737 E0.08427
G1 X142.276 Y123.570 E0.08427
G1 X143.922 Y122.485 E0.08427
G1 X145.620 Y121.486 E0.08427
G1 X147.367 Y120.573 E0.08427
G1 X149.159 Y119.750 E0.08427
G1 X150.989 Y119.019 E0.08427
G1 X152.854 Y118.381 E0.08427
G1 X154.749 Y117.839 E0.08427
G1 X156.669 Y117.394 E0.08427
G1 X158.609 Y117.046 E0.08427
G1 X160.564 Y116.797 E0.08427
G1 X162.530 Y116.647 E0.08427
G1 X164.500 Y116.597 E0.08427
G1 X166.470 Y116.647 E0.08427
G1 X168.436 Y116.797 E0.08427
G1 X170.391 Y117.046 E0.08427
G1 X172.331 Y117.394 E0.08427
G1 X174.251 Y117.839 E0.08427
G1 X176.146 Y118.381 E0.08427
G1 X178.011 Y119.019 E0.08427
G1 X179.841 Y119.750 E0.08427
G1 X181.633 Y120.573 E0.08427
G1 X183.380 Y121.486 E0.08427
G1 X185.078 Y122.485 E0.08427
G1 X186.724 Y123.570 E0.08427
G1 X188.313 Y124.737 E0.08427
G1 X189.840 Y125.982 E0.08427
G1 X191.303 Y127.304 E0.08427
G1 X192.696 Y128.697 E0.08427
G1 X194.018 Y130.160 E0.08427
G1 X195.263 Y131.687 E0.08427
G1 X196.430 Y133.276 E0.08427
G1 X197.515 Y134.922 E0.08427
G1 X198.514 Y136.620 E0.08427
G1 X199.427 Y138.367 E0.08427
G1 X200.250 Y140.159 E0.08427
G1 X200.981 Y141.989 E0.08427
G1 X201.619 Y143.854 E0.08427
G1 X202.161 Y145.749 E0.08427
G1 X202.606 Y147.669 E0.08427
G1 X202.954 Y149.609 E0.08427
G1 X203.203 Y151.564 E0.08427
G1 X203.353 Y153.530 E0.08427
G1 X203.403 Y155.500 E0.08427
G1 X203.353 Y157.470 E0.08427
G1 X203.203 Y159.436 E0.08427
G1 X202.954 Y161.391 E0.08427
G1 X202.606 Y163.331 E0.08427
G1 X202.161 Y165.251 E0.08427
G1 X201.619 Y167.146 E0.08427
G1 X200.981 Y169.011 E0.08427
G1 X200.250 Y170.841 E0.08427
G1 X199.427 Y172.633 E0.08427
G1 X198.514 Y174.380 E0.08427
G1 X197.515 Y176.078 E0.08427
G1 X196.430 Y177.724 E0.08427
G1 X195.263 Y179.313 E0.08427
G1 X194.018 Y180.840 E0.08427
G1 X192.696 Y182.303 E0.08427
G1 X191.303 Y183.696 E0.08427
G1 X189.840 Y185.018 E0.08427
G1 X188.313 Y186.263 E0.08427
G1 X186.724 Y187.430 E0.08427
G1 X185.078 Y188.515 E0.08427
G1 X183.380 Y189.514 E0.08427
G1 X181.633 Y190.427 E0.08427
G1 X179.841 Y191.250 E0.08427
G1 X178.011 Y191.981 E0.08427
G1 X176.146 Y192.619 E0.08427
G1 X174.251 Y193.161 E0.08427
G1 X172.331 Y193.606 E0.08427
G1 X170.391 Y193.954 E0.08427
G1 X168.436 Y194.203 E0.08427
G1 X166.470 Y194.353 E0.08427
G1 X164.500 Y194.403 E0.08427
G1 X162.530 Y194.353 E0.08427
G1 X160.564 Y194.203 E0.08427
G1 X158.609 Y193.954 E0.08427
G1 X156.669 Y193.606 E0.08427
G1 X154.749 Y193.161 E0.08427
G1 X152.854 Y192.619 E0.08427
G1 X150.989 Y191.981 E0.08427
G1 X149.159 Y191.250 E0.08427
G1 X147.367 Y190.427 E0.08427
G1 X145.620 Y189.514 E0.08427
G1 X143.922 Y188.515 E0.08427
G1 X142.276 Y187.430 E0.08427
G1 X140.687 Y186.263 E0.08427
G1 X139.160 Y185.018 E0.08427
G1 X137.697 Y183.696 E0.08427
G1 X136.304 Y182.303 E0.08427
G1 X134.982 Y180.840 E0.08427
G1 X133.737 Y179.313 E0.08427
G1 X132.570 Y177.724 E0.08427
G1 X131.485 Y176.078 E0.08427
G1 X130.486 Y174.380 E0.08427
G1 X129.573 Y172.633 E0.08427
G1 X128.750 Y170.841 E0.08427
G1 X128.019 Y169.011 E0.08427
G1 X127.381 Y167.146 E0.08427
G1 X126.839 Y165.251 E0.08427
G1 X126.394 Y163.331 E0.08427
G1 X126.046 Y161.391 E0.08427
G1 X125.797 Y159.436 E0.08427
G1 X125.647 Y157.470 E0.08427
G1 X125.597 Y155.500 E0.08427
G1 X125.647 Y153.530 E0.08427
G1 X125.797 Y151.564 E0.08427
G1 X126.046 Y149.609 E0.08427
G1 X126.394 Y147.669 E0.08427
G1 X126.839 Y145.749 E0.08427
G1 X127.381 Y143.854 E0.08427
G1 X128.019 Y141.989 E0.08427
G1 X128.750 Y140.159 E0.08427
G1 X129.573 Y138.367 E0.08427
G1 X130.486 Y136.620 E0.08427
G1 X131.485 Y134.922 E0.08427
G1 X132.570 Y133.276 E0.08427
G1 X133.737 Y131.687 E0.08427
G1 X134.982 Y130.160 E0.08427
G1 X136.245 Y128.763 E0.08051
G1 X135.927 Y128.475 F12000.000
G1 F600.000
G1 X135.993 Y128.402 E0.00422
G1 X137.402 Y126.993 E0.08520
G1 X138.881 Y125.657 E0.08520
G1 X140.425 Y124.398 E0.08520
G1 X142.031 Y123.218 E0.08520
G1 X143.695 Y122.122 E0.08520
G1 X145.412 Y121.111 E0.08520
G1 X147.179 Y120.188 E0.08520
G1 X148.989 Y119.356 E0.08520
G1 X150.840 Y118.617 E0.08520
G1 X152.726 Y117.972 E0.08520
G1 X154.642 Y117.424 E0.08520
G1 X156.583 Y116.974 E0.08520
G1 X158.544 Y116.622 E0.08520
G1 X160.521 Y116.371 E0.08520
G1 X162.508 Y116.219 E0.08520
G1 X164.500 Y116.169 E0.08520
G1 X166.492 Y116.219 E0.08520
G1 X168.479 Y116.371 E0.08520
G1 X170.456 Y116.622 E0.08520
G1 X172.417 Y116.974 E0.08520
G1 X174.358 Y117.424 E0.08520
G1 X176.274 Y117.972 E0.08520
G1 X178.160 Y118.617 E0.08520
G1 X180.011 Y119.356 E0.08520
G1 X181.821 Y120.188 E0.08520
G1 X183.588 Y121.111 E0.08520
G1 X185.305 Y122.122 E0.08520
G1 X186.969 Y123.218 E0.08520
G1 X188.575 Y124.398 E0.08520
G1 X190.119 Y125.657 E0.08520
G1 X191.598 Y126.993 E0.08520
G1 X193.007 Y128.402 E0.08520
G1 X194.343 Y129.881 E0.08520
G1 X195.602 Y131.425 E0.08520
G1 X196.782 Y133.031 E0.08520
G1 X197.878 Y134.695 E0.08520
G1 X198.889 Y136.412 E0.08520
G1 X199.812 Y138.179 E0.08520
G1 X200.644 Y139.989 E0.08520
G1 X201.383 Y141.840 E0.08520
G1 X202.028 Y143.726 E0.08520
G1 X202.576 Y145.642 E0.08520
G1 X203.026 Y147.583 E0.08520
G1 X203.378 Y149.544 E0.08520
G1 X203.629 Y151.521 E0.08520
G1 X203.781 Y153.508 E0.08520
G1 X203.831 Y155.500 E0.08520
G1 X203.781 Y157.492 E0.08520
G1 X203.629 Y159.479 E0.08520
G1 X203.378 Y161.456 E0.08520
G1 X203.026 Y163.417 E0.08520
G1 X202.576 Y165.358 E0.08520
G1 X202.028 Y167.274 E0.08520
G1 X201.383 Y169.160 E0.08520
G1 X200.644 Y171.011 E0.08520
G1 X199.812 Y172.821 E0.08520
G1 X198.889 Y174.588 E0.08520
G1 X197.878 Y176.305 E0.08520
G1 X196.782 Y177.969 E0.08520
G1 X195.602 Y179.575 E0.08520
G1 X194.343 Y181.119 E0.08520
G1 X193.007 Y182.598 E0.08520
G1 X191.598 Y184.007 E0.08520
G1 X190.119 Y185.343 E0.08520
G1 X188.575 Y186.602 E0.08520
G1 X186.969 Y187.782 E0.08520
G1 X185.305 Y188.878 E0.08520
G1 X183.588 Y189.889 E0.08520
G1 X181.821 Y190.812 E0.08520
G1 X180.011 Y191.644 E0.08520
G1 X178.160 Y192.383 E0.08520
G1 X176.274 Y193.028 E0.08520
G1 X174.358 Y193.576 E0.08520
G1 X172.417 Y194.026 E0.08520
G1 X170.456 Y194.378 E0.08520
G1 X168.479 Y194.629 E0.08520
G1 X166.492 Y194.781 E0.08520
G1 X164.500 Y194.831 E0.08520
G1 X162.508 Y194.781 E0.08520
G1 X160.521 Y194.629 E0.08520
G1 X158.544 Y194.378 E0.08520
G1 X156.583 Y194.026 E0.08520
G1 X154.642 Y193.576 E0.08520
G1 X152.726 Y193.028 E0.08520
G1 X150.840 Y192.383 E0.08520
G1 X148.989 Y191.644 E0.08520
G1 X147.179 Y190.812 E0.08520
G1 X145.412 Y189.889 E0.08520
G1 X143.695 Y188.878 E0.08520
G1 X142.031 Y187.782 E0.08520
G1 X140.425 Y186.602 E0.08520
G1 X138.881 Y185.343 E0.08520
G1 X137.402 Y184.007 E0.08520
G1 X135.993 Y182.598 E0.08520
G1 X134.657 Y181.119 E0.08520
G1 X133.398 Y179.575 E0.08520
G1 X132.218 Y177.969 E0.08520
G1 X131.122 Y176.305 E0.08520
G1 X130.111 Y174.588 E0.08520
G1 X129.188 Y172.821 E0.08520
G1 X128.356 Y171.011 E0.08520
G1 X127.617 Y169.160 E0.08520
G1 X126.972 Y167.274 E0.08520
G1 X126.424 Y165.358 E0.08520
G1 X125.974 Y163.417 E0.08520
G1 X125.622 Y161.456 E0.08520
G1 X125.371 Y159.479 E0.08520
G1 X125.219 Y157.492 E0.08520
G1 X125.169 Y155.500 E0.08520
G1 X125.219 Y153.508 E0.08520
G1 X125.371 Y151.521 E0.08520
G1 X125.622 Y149.544 E0.08520
G1 X125.974 Y147.583 E0.08520
G1 X126.424 Y145.642 E0.08520
G1 X126.972 Y143.726 E0.08520
G1 X127.617 Y141.840 E0.08520
G1 X128.356 Y139.989 E0.08520
G1 X129.188 Y138.179 E0.08520
G1 X130.111 Y136.412 E0.08520
G1 X131.122 Y134.695 E0.08520
G1 X132.218 Y133.031 E0.08520
G1 X133.398 Y131.425 E0.08520
G1 X134.657 Y129.881 E0.08520
G1 X135.887 Y128.520 E0.07841
