; generated by SuperSlicer 2.4 on 2022-08-22 at 19:02:45 UTC


;
;

;
;
; 

; external perimeters extrusion width = 0.48mm
; perimeters extrusion width = 0.48mm
; infill extrusion width = 0.72mm
; solid infill extrusion width = 0.56mm
; top infill extrusion width = 0.40mm
; first layer extrusion width = 0.48mm

; object:{"name":"pieces","id":"pieces.stl id:0 copy 0","object_center":[165.000000,165.000000,0.000000],"boundingbox_center":[165.000000,165.000000,1.003478],"boundingbox_size":[187.932007,67.289993,2.006000]}
; plater:{"center":[165.000000,165.000000,0.000000],"boundingbox_center":[165.000000,165.000000,1.003478],"boundingbox_size":[187.932007,67.289993,2.006000]}

M73 P0 R26
;TYPE:Custom
START_PRINT T_BED=110 T_EXTRUDER=245
M107
G21 ; set units to millimeters
G90 ; use absolute coordinates
M83 ; use relative distances for extrusion
; Filament gcode
M109 S245 ; set temperature and wait for it to be reached
M190 S110 ; set bed temperature and wait for it to be reached
M107
;LAYER_CHANGE
;Z:0.2
;HEIGHT:0.2
G1 Z0.2 F9000
G92 E0
M73 P0 R26
G1 E-0.5 F3000
M204 S1000
G1 X69.154 Y122.067 F9000
G1 E0.5 F1800
;TYPE:Skirt
;WIDTH:0.52
G1 X66.811 Y123.81 E0.11588
G1 X65.026 Y126.122 E0.11588
G1 X61.855 Y131.648 E0.25273
G1 X60.813 Y134.156 E0.10772
G1 X60.434 Y137.052 E0.11588
G1 X60.622 Y165.354 E1.12275
G1 X60.811 Y179.015 E0.54198
G1 X61.192 Y193.305 E0.56707
G1 X61.515 Y195.646 E0.09376
G1 X62.61 Y198.354 E0.11588
G1 X65.783 Y203.88 E0.25277
G1 X67.239 Y205.853 E0.09725
G1 X69.503 Y207.698 E0.11588
G1 X72.182 Y208.862 E0.11588
G1 X75.076 Y209.261 E0.11588
G1 X81.889 Y209.25 E0.27026
G1 X209.525 Y203.662 E5.06809
G1 X256.877 Y198.357 E1.89017
M73 P1 R26
G1 X260.843 Y197.098 E0.16506
G1 X263.186 Y195.354 E0.11588
G1 X264.972 Y193.043 E0.11588
G1 X268.144 Y187.515 E0.25284
G1 X269.222 Y184.874 E0.11316
G1 X269.564 Y181.973 E0.11588
M73 P1 R26
G1 X269.318 Y169.309 E0.50247
G1 X268.994 Y166.891 E0.09677
G1 X267.898 Y164.183 E0.11588
G1 X264.437 Y158.18 E0.27488
G1 X255.245 Y143.93 E0.67269
G1 X252.784 Y141.253 E0.14426
G1 X250.249 Y139.801 E0.11588
G1 X247.416 Y139.088 E0.11588
G1 X81.84 Y120.804 E6.60822
G1 X80.664 Y120.739 E0.04673
G1 X74.32 Y120.739 E0.25167
G1 X71.882 Y121.02 E0.09736
G1 X69.154 Y122.067 E0.11588
G1 X69.443 Y122.463 F9000
G1 F1800
G1 X67.192 Y124.106 E0.11058
G1 X65.439 Y126.36 E0.11325
G1 X62.269 Y131.886 E0.25273
G1 X61.29 Y134.219 E0.10039
G1 X60.911 Y137.049 E0.11325
G1 X61.099 Y165.351 E1.12275
G1 X61.288 Y179.009 E0.54184
G1 X61.668 Y193.292 E0.56683
G1 X61.962 Y195.467 E0.08704
G1 X63.024 Y198.117 E0.11325
G1 X66.197 Y203.643 E0.25277
G1 X67.457 Y205.384 E0.08528
G1 X69.642 Y207.222 E0.11325
G1 X72.249 Y208.385 E0.11325
G1 X75.076 Y208.784 E0.11325
G1 X81.868 Y208.774 E0.26944
G1 X209.504 Y203.186 E5.06809
M73 P2 R26
G1 X256.823 Y197.883 E1.88888
G1 X260.499 Y196.742 E0.15268
G1 X262.806 Y195.059 E0.11325
G1 X264.558 Y192.805 E0.11325
G1 X267.731 Y187.277 E0.25284
G1 X268.744 Y184.816 E0.10558
G1 X269.087 Y181.982 E0.11325
G1 X268.841 Y169.318 E0.50247
G1 X268.547 Y167.071 E0.08992
G1 X267.485 Y164.421 E0.11325
G1 X264.036 Y158.439 E0.2739
G1 X254.844 Y144.189 E0.67269
G1 X252.594 Y141.711 E0.13279
G1 X250.13 Y140.268 E0.11325
G1 X247.364 Y139.562 E0.11325
G1 X81.788 Y121.278 E6.60822
G1 X80.664 Y121.216 E0.04465
G1 X74.32 Y121.216 E0.25167
G1 X72.179 Y121.443 E0.08539
G1 X69.498 Y122.423 E0.11325
G1 X69.443 Y122.463 E0.00268
G1 E-0.5 F3000
; printing object pieces.stl id:0 copy 0
; acceleration to travel
M204 S3000
G1 X74.152 Y172.07 F9000
; decel to extrusion
M204 S1000
G1 X75.721 Y188.605
; end travel
G1 E0.5 F1800
;TYPE:Internal perimeter
;WIDTH:0.48
G1 X80.775 Y188.605 E0.18367
G1 X83.308 Y193.019 E0.18495
G1 X80.775 Y197.431 E0.18489
G1 X75.721 Y197.431 E0.18368
G1 X73.188 Y193.019 E0.18489
G1 X75.721 Y188.605 E0.18495
G1 X75.468 Y188.168 F9000
G1 F1800
G1 X81.028 Y188.168 E0.20207
G1 X83.812 Y193.019 E0.20327
G1 X81.028 Y197.868 E0.20321
M73 P3 R25
G1 X75.468 Y197.868 E0.20208
G1 X72.684 Y193.019 E0.20321
G1 X75.468 Y188.168 E0.20327
G1 X75.215 Y187.731 F9000
;TYPE:External perimeter
G1 F1800
G1 X81.281 Y187.731 E0.22047
G1 X81.432 Y187.993 E0.01099
G1 X84.316 Y193.019 E0.2106
G1 X81.281 Y198.305 E0.22152
G1 X75.215 Y198.305 E0.22047
G1 X72.18 Y193.019 E0.22152
G1 X75.215 Y187.731 E0.22158
;WIPE_START
M204 S4000
G1 X75.522 Y187.988 F9000
;WIPE_END
G1 E-0.5 F3000
; acceleration to travel
M204 S3000
G1 X80.169 Y190 F9000
; decel to extrusion
M204 S1000
G1 X81.939 Y190.766
; end travel
G1 E0.5 F1800
;TYPE:Solid infill
;WIDTH:0.465503
G1 F3600
G1 X80.032 Y188.859 E0.09507
G1 X79.414 Y188.859 E0.02179
G1 X82.263 Y191.708 E0.14203
G1 X83.016 Y193.019 E0.05327
G1 X82.994 Y193.057 E0.00154
G1 X78.796 Y188.859 E0.20925
G1 X78.178 Y188.859 E0.02179
G1 X82.769 Y193.449 E0.22883
G1 X82.543 Y193.842 E0.01596
G1 X77.56 Y188.859 E0.2484
G1 X76.942 Y188.859 E0.02179
G1 X82.318 Y194.235 E0.26797
G1 X82.092 Y194.627 E0.01596
G1 X76.323 Y188.859 E0.28755
G1 X75.868 Y188.859 E0.01606
G1 X75.809 Y188.962 E0.0042
G1 X81.867 Y195.02 E0.30197
G1 X81.641 Y195.413 E0.01596
G1 X75.583 Y189.355 E0.30197
G1 X75.358 Y189.747 E0.01596
G1 X81.416 Y195.805 E0.30197
G1 X81.19 Y196.198 E0.01596
G1 X75.132 Y190.14 E0.30196
G1 X74.907 Y190.533 E0.01596
G1 X80.965 Y196.591 E0.30196
G1 X80.74 Y196.984 E0.01596
G1 X74.682 Y190.926 E0.30196
G1 X74.456 Y191.318 E0.01596
G1 X80.315 Y197.177 E0.29205
G1 X79.697 Y197.177 E0.02179
G1 X74.231 Y191.711 E0.27247
G1 X74.005 Y192.104 E0.01596
G1 X79.079 Y197.177 E0.25289
G1 X78.461 Y197.177 E0.02179
G1 X73.78 Y192.496 E0.23332
G1 X73.555 Y192.889 E0.01596
G1 X77.843 Y197.177 E0.21374
G1 X77.225 Y197.177 E0.02179
G1 X74.038 Y193.991 E0.15882
G1 X74.872 Y195.443 E0.05899
G1 X76.607 Y197.177 E0.08647
G1 X75.988 Y197.177 E0.02179
G1 X75.196 Y196.385 E0.03949
G1 E-0.5 F3000
; acceleration to travel
M204 S3000
G1 X79.613 Y190.947 F9000
; decel to extrusion
M204 S1000
G1 X80.902 Y189.361
; end travel
G1 E0.5 F1800
;TYPE:Gap fill
;WIDTH:0.13892
G1 X80.821 Y189.256 E0.00106
;WIDTH:0.185388
G1 X80.741 Y189.151 E0.00157
;WIDTH:0.231855
G1 X80.661 Y189.046 E0.00208
;WIDTH:0.272931
G1 X80.58 Y188.941 E0.00253
G1 X80.465 Y188.824 E0.00315
G1 E-0.5 F3000
; acceleration to travel
M204 S3000
G1 X80.414 Y184.667 F9000
; decel to extrusion
M204 S1000
G1 X80.397 Y183.281
; end travel
G1 E0.5 F1800
;TYPE:Internal perimeter
;WIDTH:0.48
G1 X75.343 Y183.281 E0.18367
G1 X72.81 Y178.867 E0.18496
G1 X75.343 Y174.453 E0.18496
G1 X80.397 Y174.453 E0.18367
G1 X82.93 Y178.867 E0.18496
G1 X80.397 Y183.281 E0.18495
G1 X80.65 Y183.718 F9000
G1 F1800
G1 X75.09 Y183.718 E0.20207
G1 X72.306 Y178.867 E0.20327
G1 X75.09 Y174.016 E0.20327
G1 X80.65 Y174.016 E0.20207
G1 X83.434 Y178.867 E0.20327
G1 X80.65 Y183.718 E0.20327
G1 X80.903 Y184.155 F9000
;TYPE:External perimeter
G1 F1800
G1 X74.837 Y184.155 E0.22047
G1 X71.802 Y178.867 E0.22159
G1 X74.837 Y173.579 E0.22159
G1 X80.903 Y173.579 E0.22047
G1 X80.999 Y173.746 E0.00698
G1 X83.938 Y178.867 E0.21461
G1 X80.903 Y184.155 E0.22158
;WIPE_START
M204 S4000
G1 X80.596 Y183.898 F9000
;WIPE_END
G1 E-0.5 F3000
; acceleration to travel
M204 S3000
G1 X81.295 Y178.623 F9000
; decel to extrusion
M204 S1000
G1 X81.561 Y176.614
; end travel
G1 E0.5 F1800
;TYPE:Solid infill
;WIDTH:0.465508
G1 F3600
G1 X79.654 Y174.707 E0.09507
G1 X79.036 Y174.707 E0.02179
G1 X81.885 Y177.556 E0.14203
G1 X82.638 Y178.867 E0.05328
G1 X82.616 Y178.905 E0.00154
G1 X78.418 Y174.707 E0.20926
G1 X77.8 Y174.707 E0.02179
G1 X82.391 Y179.298 E0.22884
G1 X82.165 Y179.69 E0.01596
G1 X77.182 Y174.707 E0.24841
G1 X76.564 Y174.707 E0.02179
G1 X81.94 Y180.083 E0.26799
G1 X81.715 Y180.476 E0.01596
G1 X75.945 Y174.707 E0.28756
G1 X75.49 Y174.707 E0.01606
G1 X75.431 Y174.81 E0.0042
G1 X81.489 Y180.868 E0.30199
G1 X81.264 Y181.261 E0.01596
G1 X75.205 Y175.203 E0.30199
G1 X74.98 Y175.595 E0.01596
G1 X81.038 Y181.654 E0.30199
G1 X80.813 Y182.047 E0.01596
G1 X74.754 Y175.988 E0.30199
G1 X74.529 Y176.381 E0.01596
G1 X80.588 Y182.439 E0.30199
G1 X80.362 Y182.832 E0.01596
G1 X74.304 Y176.774 E0.30199
G1 X74.078 Y177.166 E0.01596
G1 X79.939 Y183.027 E0.29215
G1 X79.321 Y183.027 E0.02179
G1 X73.853 Y177.559 E0.27257
G1 X73.627 Y177.952 E0.01596
G1 X78.703 Y183.027 E0.253
G1 X78.085 Y183.027 E0.02179
G1 X73.402 Y178.344 E0.23342
G1 X73.177 Y178.737 E0.01596
G1 X77.467 Y183.027 E0.21385
G1 X76.849 Y183.027 E0.02179
G1 X73.66 Y179.838 E0.15896
G1 X74.492 Y181.289 E0.05895
G1 X76.231 Y183.027 E0.08665
G1 X75.612 Y183.027 E0.02179
G1 X74.816 Y182.231 E0.03969
G1 E-0.5 F3000
; acceleration to travel
M204 S3000
G1 X79.235 Y176.795 F9000
; decel to extrusion
M204 S1000
G1 X80.524 Y175.209
; end travel
G1 E0.5 F1800
;TYPE:Gap fill
;WIDTH:0.13892
G1 X80.443 Y175.104 E0.00106
;WIDTH:0.185386
G1 X80.363 Y174.999 E0.00157
;WIDTH:0.231852
G1 X80.283 Y174.894 E0.00208
;WIDTH:0.272929
G1 X80.202 Y174.789 E0.00253
G1 X80.087 Y174.672 E0.00315
G1 E-0.5 F3000
; acceleration to travel
M204 S3000
G1 X80.178 Y170.941 F9000
; decel to extrusion
M204 S1000
G1 X80.209 Y169.697
; end travel
G1 E0.5 F1800
;TYPE:Internal perimeter
;WIDTH:0.48
G1 X75.155 Y169.697 E0.18367
G1 X72.622 Y165.283 E0.18495
G1 X75.155 Y160.869 E0.18495
G1 X80.209 Y160.869 E0.18367
M73 P4 R25
G1 X80.356 Y161.125 E0.01073
G1 X82.742 Y165.283 E0.17423
G1 X80.209 Y169.697 E0.18495
G1 X80.462 Y170.134 F9000
G1 F1800
G1 X74.902 Y170.134 E0.20207
G1 X72.118 Y165.283 E0.20327
G1 X74.902 Y160.432 E0.20327
G1 X80.462 Y160.432 E0.20207
G1 X80.735 Y160.908 E0.01993
G1 X83.246 Y165.283 E0.18334
G1 X80.462 Y170.134 E0.20327
G1 X80.715 Y170.571 F9000
;TYPE:External perimeter
G1 F1800
G1 X74.649 Y170.571 E0.22047
G1 X71.614 Y165.283 E0.22158
G1 X74.649 Y159.995 E0.22159
G1 X80.715 Y159.995 E0.22047
G1 X81.114 Y160.69 E0.02913
G1 X83.75 Y165.283 E0.19246
G1 X80.715 Y170.571 E0.22159
;WIPE_START
M204 S4000
G1 X80.408 Y170.314 F9000
;WIPE_END
G1 E-0.5 F3000
; acceleration to travel
M204 S3000
G1 X81.107 Y165.039 F9000
; decel to extrusion
M204 S1000
G1 X81.373 Y163.03
; end travel
G1 E0.5 F1800
;TYPE:Solid infill
;WIDTH:0.465508
G1 F3600
G1 X79.466 Y161.123 E0.09507
G1 X78.848 Y161.123 E0.02179
G1 X81.697 Y163.972 E0.14203
G1 X82.45 Y165.283 E0.05328
G1 X82.428 Y165.321 E0.00154
G1 X78.23 Y161.123 E0.20926
G1 X77.612 Y161.123 E0.02179
G1 X82.203 Y165.714 E0.22884
G1 X81.977 Y166.106 E0.01596
G1 X76.994 Y161.123 E0.24841
G1 X76.376 Y161.123 E0.02179
G1 X81.752 Y166.499 E0.26799
G1 X81.527 Y166.892 E0.01596
G1 X75.757 Y161.123 E0.28756
G1 X75.302 Y161.123 E0.01606
G1 X75.243 Y161.226 E0.0042
G1 X81.301 Y167.284 E0.30199
G1 X81.076 Y167.677 E0.01596
G1 X75.017 Y161.619 E0.30199
G1 X74.792 Y162.011 E0.01596
G1 X80.85 Y168.07 E0.30199
G1 X80.625 Y168.463 E0.01596
G1 X74.566 Y162.404 E0.30199
G1 X74.341 Y162.797 E0.01596
G1 X80.4 Y168.855 E0.30199
G1 X80.174 Y169.248 E0.01596
G1 X74.116 Y163.19 E0.30199
G1 X73.89 Y163.582 E0.01596
G1 X79.751 Y169.443 E0.29215
G1 X79.133 Y169.443 E0.02179
G1 X73.665 Y163.975 E0.27257
G1 X73.439 Y164.368 E0.01596
G1 X78.515 Y169.443 E0.253
G1 X77.897 Y169.443 E0.02179
G1 X73.214 Y164.76 E0.23342
G1 X72.989 Y165.153 E0.01596
G1 X77.279 Y169.443 E0.21385
G1 X76.661 Y169.443 E0.02179
G1 X73.472 Y166.254 E0.15896
G1 X74.304 Y167.705 E0.05895
G1 X76.043 Y169.443 E0.08665
G1 X75.424 Y169.443 E0.02179
G1 X74.628 Y168.647 E0.03969
G1 E-0.5 F3000
; acceleration to travel
M204 S3000
G1 X79.047 Y163.211 F9000
; decel to extrusion
M204 S1000
G1 X80.336 Y161.625
; end travel
G1 E0.5 F1800
;TYPE:Gap fill
;WIDTH:0.13892
G1 X80.255 Y161.52 E0.00106
;WIDTH:0.185384
G1 X80.175 Y161.415 E0.00157
;WIDTH:0.231848
G1 X80.095 Y161.31 E0.00208
;WIDTH:0.272922
G1 X80.014 Y161.205 E0.00253
G1 X79.899 Y161.088 E0.00315
G1 E-0.5 F3000
; acceleration to travel
M204 S3000
G1 X80.273 Y157.072 F9000
; decel to extrusion
M204 S1000
G1 X80.397 Y155.733
; end travel
G1 E0.5 F1800
;TYPE:Internal perimeter
;WIDTH:0.48
G1 X75.343 Y155.733 E0.18368
G1 X72.81 Y151.321 E0.18489
G1 X75.343 Y146.907 E0.18495
G1 X80.397 Y146.907 E0.18367
G1 X82.93 Y151.321 E0.18495
G1 X80.397 Y155.733 E0.18489
G1 X80.65 Y156.17 F9000
G1 F1800
G1 X75.09 Y156.17 E0.20208
G1 X72.306 Y151.321 E0.20321
G1 X75.09 Y146.47 E0.20327
G1 X80.65 Y146.47 E0.20207
G1 X83.434 Y151.321 E0.20327
G1 X80.65 Y156.17 E0.20321
G1 X80.903 Y156.607 F9000
;TYPE:External perimeter
G1 F1800
G1 X74.837 Y156.607 E0.22047
G1 X71.802 Y151.321 E0.22152
G1 X74.837 Y146.033 E0.22158
G1 X80.903 Y146.033 E0.22047
G1 X83.787 Y151.057 E0.21054
G1 X83.938 Y151.321 E0.01105
G1 X80.903 Y156.607 E0.22152
;WIPE_START
M204 S4000
G1 X80.597 Y156.35 F9000
;WIPE_END
G1 E-0.5 F3000
; acceleration to travel
M204 S3000
G1 X81.295 Y151.077 F9000
; decel to extrusion
M204 S1000
G1 X81.561 Y149.068
; end travel
G1 E0.5 F1800
;TYPE:Solid infill
;WIDTH:0.465503
G1 F3600
G1 X79.654 Y147.161 E0.09507
G1 X79.036 Y147.161 E0.02179
G1 X81.885 Y150.01 E0.14203
G1 X82.638 Y151.321 E0.05327
G1 X82.616 Y151.359 E0.00154
G1 X78.418 Y147.161 E0.20925
G1 X77.8 Y147.161 E0.02179
G1 X82.391 Y151.751 E0.22883
G1 X82.165 Y152.144 E0.01596
G1 X77.182 Y147.161 E0.2484
G1 X76.564 Y147.161 E0.02179
G1 X81.94 Y152.537 E0.26797
G1 X81.714 Y152.929 E0.01596
G1 X75.945 Y147.161 E0.28755
G1 X75.49 Y147.161 E0.01606
G1 X75.431 Y147.264 E0.0042
G1 X81.489 Y153.322 E0.30197
G1 X81.263 Y153.715 E0.01596
G1 X75.205 Y147.657 E0.30197
G1 X74.98 Y148.049 E0.01596
G1 X81.038 Y154.107 E0.30197
G1 X80.812 Y154.5 E0.01596
G1 X74.754 Y148.442 E0.30196
G1 X74.529 Y148.835 E0.01596
G1 X80.587 Y154.893 E0.30196
G1 X80.362 Y155.286 E0.01596
G1 X74.304 Y149.228 E0.30196
G1 X74.078 Y149.62 E0.01596
G1 X79.937 Y155.479 E0.29205
G1 X79.319 Y155.479 E0.02179
G1 X73.853 Y150.013 E0.27247
G1 X73.627 Y150.406 E0.01596
G1 X78.701 Y155.479 E0.25289
G1 X78.083 Y155.479 E0.02179
G1 X73.402 Y150.798 E0.23332
G1 X73.177 Y151.191 E0.01596
G1 X77.465 Y155.479 E0.21374
G1 X76.847 Y155.479 E0.02179
G1 X73.66 Y152.293 E0.15882
G1 X74.494 Y153.744 E0.05899
G1 X76.229 Y155.479 E0.08647
G1 X75.61 Y155.479 E0.02179
G1 X74.818 Y154.687 E0.03949
G1 E-0.5 F3000
; acceleration to travel
M204 S3000
G1 X79.235 Y149.249 F9000
; decel to extrusion
M204 S1000
G1 X80.524 Y147.663
; end travel
G1 E0.5 F1800
;TYPE:Gap fill
;WIDTH:0.13892
G1 X80.443 Y147.558 E0.00106
;WIDTH:0.185387
G1 X80.363 Y147.453 E0.00157
;WIDTH:0.231854
G1 X80.283 Y147.348 E0.00208
;WIDTH:0.272929
G1 X80.202 Y147.243 E0.00253
G1 X80.087 Y147.126 E0.00315
M73 P5 R25
G1 E-0.5 F3000
; acceleration to travel
M204 S3000
G1 X87.426 Y152.339 F9000
; decel to extrusion
M204 S1000
G1 X89.873 Y154.077
; end travel
G1 E0.5 F1800
;TYPE:Internal perimeter
;WIDTH:0.48
G1 X94.927 Y154.077 E0.18368
G1 X95.074 Y154.333 E0.01072
G1 X97.46 Y158.489 E0.17417
G1 X94.927 Y162.903 E0.18495
G1 X89.873 Y162.903 E0.18367
G1 X87.34 Y158.489 E0.18495
G1 X89.873 Y154.077 E0.18489
G1 X89.62 Y153.64 F9000
G1 F1800
G1 X95.18 Y153.64 E0.20208
G1 X95.453 Y154.115 E0.01992
G1 X97.964 Y158.489 E0.18329
G1 X95.18 Y163.34 E0.20327
G1 X89.62 Y163.34 E0.20207
G1 X86.836 Y158.489 E0.20327
G1 X89.62 Y153.64 E0.20321
G1 X89.367 Y153.203 F9000
;TYPE:External perimeter
G1 F1800
G1 X95.433 Y153.203 E0.22047
G1 X95.832 Y153.898 E0.02912
G1 X98.468 Y158.489 E0.1924
G1 X95.433 Y163.777 E0.22158
M73 P5 R25
G1 X89.367 Y163.777 E0.22047
G1 X86.332 Y158.489 E0.22158
G1 X89.367 Y153.203 E0.22152
;WIPE_START
M204 S4000
G1 X89.673 Y153.46 F9000
;WIPE_END
G1 E-0.5 F3000
; acceleration to travel
M204 S3000
G1 X94.322 Y155.472 F9000
; decel to extrusion
M204 S1000
G1 X96.093 Y156.239
; end travel
G1 E0.5 F1800
;TYPE:Solid infill
;WIDTH:0.465516
G1 F3600
G1 X94.184 Y154.331 E0.09512
G1 X93.566 Y154.331 E0.02179
G1 X96.417 Y157.181 E0.1421
G1 X97.168 Y158.489 E0.05315
G1 X97.145 Y158.528 E0.00158
G1 X92.948 Y154.331 E0.20922
G1 X92.33 Y154.331 E0.02179
G1 X96.92 Y158.921 E0.2288
G1 X96.695 Y159.313 E0.01596
G1 X91.712 Y154.331 E0.24838
G1 X91.094 Y154.331 E0.02179
G1 X96.469 Y159.706 E0.26795
G1 X96.244 Y160.099 E0.01596
G1 X90.476 Y154.331 E0.28753
G1 X90.02 Y154.331 E0.01607
G1 X89.961 Y154.434 E0.00419
