; Postprocessed by [ArcWelder](https://github.com/FormerLurker/ArcWelderLib)
; Copyright(C) 2021 - Brad Hochgesang
; Version: 1.2.0, Branch: HEAD, BuildDate: 2021-11-21T20:25:43Z
; resolution=0.05mm
; path_tolerance=5.0%
; max_radius=9999.00mm
; g90_influences_extruder=True
; default_xyz_precision=3
; default_e_precision=5
; extrusion_rate_variance_percent=5.0%

; generated by SuperSlicer 2.4 on 2022-05-01 at 21:59:35 UTC







; 

; external perimeters extrusion width = 0.40mm
; perimeters extrusion width = 0.40mm
; infill extrusion width = 0.72mm
; solid infill extrusion width = 0.56mm
; top infill extrusion width = 0.40mm
; first layer extrusion width = 0.48mm

; object:{"name":"extruder_motor_plate","id":"extruder_motor_plate.stl id:0 copy 0","object_center":[165.000000,165.000000,0.000000],"boundingbox_center":[165.000000,165.000000,6.850142],"boundingbox_size":[59.853119,44.200012,13.700284]}
; plater:{"center":[165.000000,165.000000,0.000000],"boundingbox_center":[165.000000,165.000000,6.850142],"boundingbox_size":[59.853119,44.200012,13.700284]}

M73 P0 R37
;TYPE:Custom
START_PRINT T_BED=110 T_EXTRUDER=245
M107
G21 ; set units to millimeters
G90 ; use absolute coordinates
M83 ; use relative distances for extrusion
; Filament gcode
M104 S245 ; set temperature
M109 S245 ; set temperature and wait for it to be reached
M190 S110 ; set bed temperature and wait for it to be reached
M107
;LAYER_CHANGE
;Z:0.24
;HEIGHT:0.24
G1 Z0.24 F9000
G92 E0
G1 E-0.5 F3000
M204 S1000
G1 X138.685 Y141.628 F9000
G1 E0.5 F1800
;TYPE:Skirt
;WIDTH:0.52
G1 X137.786 Y142.715 E0.06594
G1 X137.036 Y144.139 E0.07525
G1 X132.008 Y156.993 E0.64519
G1 X131.754 Y158.34 E0.06411
G1 X131.754 Y171.659 E0.6226
G1 X132.009 Y173.009 E0.06424
G1 X137.161 Y186.151 E0.65988
G1 X137.852 Y187.387 E0.06616
G1 X138.607 Y188.293 E0.05512
G1 X139.591 Y189.126 E0.06029
G1 X140.716 Y189.766 E0.06051
G1 X141.927 Y190.199 E0.06012
G1 X143.513 Y190.416 E0.07481
G1 X187.167 Y190.42 E2.04071
G1 X188.564 Y190.283 E0.06562
G1 X190.172 Y189.772 E0.07886
G1 X191.296 Y189.143 E0.06019
G1 X192.427 Y188.192 E0.06911
G2 X196.176 Y182.892 I-14.501 J-14.233 E0.30466
G1 X197.184 Y180.439 E0.12397
G2 X198.246 Y173.957 I-19.298 J-6.490 E0.30832
G1 X198.246 Y156.043 E0.83745
G1 X198.101 Y153.621 E0.1134
G1 X197.651 Y151.162 E0.11689
G1 X196.847 Y148.634 E0.12397
G2 X195.459 Y145.772 I-18.923 J7.409 E0.14881
G1 X193.972 Y143.576 E0.12397
G1 X192.261 Y141.644 E0.12064
M73 P0 R36
G1 X191.038 Y140.689 E0.07255
G2 X187.260 Y139.584 I-3.872 J6.226 E0.18610
G1 X143.513 Y139.584 E2.04506
G1 X142.162 Y139.748 E0.06358
G1 X140.827 Y140.183 E0.06567
G1 X139.591 Y140.873 E0.06616
G1 X138.685 Y141.628 E0.05512
G1 X139.02 Y141.954 F9000
G1 F1800
G1 X138.182 Y142.961 E0.06126
G1 X137.47 Y144.309 E0.07124
G1 X132.442 Y157.162 E0.64519
G1 X132.22 Y158.34 E0.05603
G1 X132.22 Y171.659 E0.6226
G1 X132.443 Y172.839 E0.05614
G1 X137.596 Y185.981 E0.65988
G1 X138.239 Y187.127 E0.06146
G1 X138.932 Y187.958 E0.05057
G1 X139.85 Y188.739 E0.05634
G1 X140.925 Y189.35 E0.05779
G1 X142.333 Y189.814 E0.06932
G1 X143.534 Y189.95 E0.05647
G1 X187.167 Y189.953 E2.03972
G1 X188.767 Y189.763 E0.07529
G1 X189.992 Y189.341 E0.06058
G1 X191.041 Y188.753 E0.05622
G1 X192.089 Y187.871 E0.06403
G2 X195.761 Y182.680 I-14.155 J-13.907 E0.29841
G1 X196.74 Y180.298 E0.1204
G2 X197.780 Y173.957 I-18.867 J-6.350 E0.30160
G1 X197.78 Y156.043 E0.83745
G1 X197.707 Y154.348 E0.07931
G1 X197.349 Y151.931 E0.11421
G2 X196.464 Y148.935 I-19.612 J4.164 E0.14613
G1 X195.388 Y146.595 E0.12039
G1 X194.095 Y144.522 E0.11421
G1 X192.558 Y142.623 E0.11421
G2 X187.260 Y140.051 I-5.531 J4.651 E0.28378
G1 X143.534 Y140.05 E2.04406
G1 X142.276 Y140.2 E0.05922
G1 X140.997 Y140.617 E0.06288
G1 X139.851 Y141.261 E0.06146
G1 X139.02 Y141.954 E0.05058
; INIT printing object extruder_motor_plate.stl id:0 copy 0
G1 E-0.5 F3000
; printing object extruder_motor_plate.stl id:0 copy 0
; acceleration to travel
M204 S4000
G1 X143.959 Y165.168 F9000
; decel to extrusion
M204 S1000
G1 X145.194 Y170.971
; end travel
G1 E0.5 F1800
;TYPE:Internal perimeter
;WIDTH:0.48
G2 X144.844 Y177.533 I0.680 J3.327 E0.38194
G1 X144.815 Y177.799 E0.01144
G2 X146.022 Y177.962 I0.156 J3.398 E0.86044
G1 X146.066 Y177.689 E0.01182
G2 X145.194 Y170.971 I-0.185 J-3.392 E0.47772
G1 X145.253 Y171.396 F9000
;TYPE:External perimeter
G1 F1800
G2 X145.655 Y171.340 I0.610 J2.905 E0.78003
G1 X145.253 Y171.396 E0.01737
;WIPE_START
M204 S5000
G1 X145.035 Y171.16 F9000
;WIPE_END
G1 E-0.5 F3000
; acceleration to travel
M204 S4000
G1 X144.982 Y176.825 F9000
; decel to extrusion
M204 S1000
G1 X144.969 Y178.241
; end travel
G1 E0.5 F1800
G2 X146.925 Y178.956 I0.025 J2.966 E0.70629
G2 X144.969 Y178.241 I-1.876 J2.100 E0.09108
;WIPE_START
M204 S5000
G1 X144.864 Y178.055 F9000
;WIPE_END
G1 E-0.5 F3000
; acceleration to travel
M204 S4000
G1 X178.54 Y162.275 F9000
; decel to extrusion
M204 S1000
G1 X186.958 Y158.331
; end travel
G1 E0.5 F1800
;TYPE:Internal perimeter
G2 X186.767 Y157.937 I2.458 J-1.435 E0.74632
G2 X186.958 Y158.331 I1.835 J-0.646 E0.01873
G1 X187.292 Y158.05 F9000
G1 F1800
G2 X187.168 Y157.782 I2.130 J-1.148 E0.63695
G1 X187.292 Y158.05 E0.0126
G1 X187.681 Y157.869 F9000
;TYPE:External perimeter
G1 F1800
G2 X187.569 Y157.628 I1.744 J-0.957 E0.52303
G1 X187.681 Y157.869 E0.01137
;WIPE_START
M204 S5000
G1 X187.548 Y158.1 F9000
;WIPE_END
G1 E-0.5 F3000
; acceleration to travel
M204 S4000
G1 X166.381 Y174.02 F9000
; decel to extrusion
M204 S1000
G1 X161.089 Y178
; end travel
G1 E0.5 F1800
;TYPE:Internal perimeter
G2 X158.862 Y176.861 I-2.658 J2.450 E0.10908
G1 X157.505 Y176.852 E0.05802
G2 X157.651 Y184.157 I0.220 J3.650 E0.47832
G1 X158.83 Y184.139 E0.05038
G2 X161.089 Y178.000 I-0.392 J-3.629 E0.34616
G1 X160.791 Y178.308 F9000
G1 F1800
G2 X158.812 Y177.289 I-2.361 J2.154 E0.09710
G1 X157.533 Y177.28 E0.05466
G2 X154.914 Y182.091 I0.193 J3.223 E0.27942
M73 P1 R36
G2 X157.671 Y183.728 I2.811 J-1.594 E0.14331
G1 X158.787 Y183.711 E0.04773
G2 X160.791 Y178.308 I-0.352 J-3.204 E0.30440
G1 X160.541 Y178.67 F9000
G1 F1800
G2 X158.761 Y177.717 I-2.112 J1.807 E0.08823
G1 X157.562 Y177.709 E0.05129
G2 X157.691 Y183.299 I0.163 J2.793 E0.36713
G1 X158.745 Y183.283 E0.04509
G2 X160.541 Y178.670 I-0.313 J-2.778 E0.25949
G1 X160.195 Y178.923 F9000
;TYPE:External perimeter
G1 F1800
G2 X158.711 Y178.145 I-1.768 J1.568 E0.07313
G2 X157.162 Y178.198 I-0.582 J5.661 E0.06646
G2 X157.711 Y182.870 I0.568 J2.302 E0.29307
G2 X158.991 Y182.802 I0.110 J-10.013 E0.05494
G2 X160.195 Y178.923 I-0.560 J-2.300 E0.20836
;WIPE_START
M204 S5000
G1 X160.222 Y178.837 F9000
;WIPE_END
; acceleration to travel
M204 S4000
G1 X158.55 Y168.486
; decel to extrusion
M204 S1000
G1 X158.132 Y165.898
; end travel
;TYPE:Internal perimeter
G1 F1800
G2 X160.025 Y165.192 I-0.889 J-5.274 E0.08688
G2 X173.215 Y178.206 I13.200 J-0.187 E0.87806
G2 X184.405 Y156.963 I0.657 J-13.223 E1.28657
G2 X174.599 Y151.810 I-10.481 J8.038 E0.48863
G2 X169.255 Y152.405 I-0.930 J15.943 E0.23113
G2 X161.939 Y158.141 I3.984 J12.615 E0.40610
G2 X158.132 Y165.898 I-4.701 J2.506 E0.99992
; acceleration to travel
M204 S4000
G1 X159.993 Y164.915 F9000
; decel to extrusion
M204 S1000
G1 X160.458 Y164.669
; end travel
G1 F1800
G2 X173.218 Y177.777 I12.765 J0.338 E0.87180
G2 X185.696 Y160.027 I0.644 J-12.808 E1.10662
G2 X174.577 Y152.238 I-11.773 J4.975 E0.61179
G2 X169.384 Y152.814 I-0.913 J15.468 E0.22460
G2 X161.883 Y159.099 I3.879 J12.249 E0.42913
G2 X160.464 Y164.335 I-4.646 J1.551 E1.06956
G1 X160.458 Y164.669 E0.01429
; acceleration to travel
M204 S4000
G1 X158.52 Y164.971 F9000
; decel to extrusion
M204 S1000
G1 X158.036 Y165.046
; end travel
G1 F1800
G2 X160.739 Y163.427 I-0.801 J-4.404 E0.13766
G1 X160.97 Y163.53 E0.01082
G2 X173.221 Y177.349 I12.254 J1.477 E0.89207
G2 X185.731 Y161.375 I0.636 J-12.388 E1.01668
G2 X174.555 Y152.667 I-11.805 J3.626 E0.64508
G2 X169.513 Y153.223 I-0.895 J15.022 E0.21807
G2 X161.913 Y160.059 I3.703 J11.760 E0.45062
G1 X161.663 Y160.028 E0.01078
G2 X158.036 Y165.046 I-4.426 J0.621 E0.90802
G1 X157.959 Y164.624 F9000
;TYPE:External perimeter
G1 F1800
G2 X157.600 Y164.673 I-0.725 J-3.975 E1.06950
G1 X157.959 Y164.624 E0.0155
;WIPE_START
M204 S5000
G1 X158.198 Y164.897 F9000
;WIPE_END
; acceleration to travel
M204 S4000
G1 X160.688 Y164.942
; decel to extrusion
M204 S1000
G1 X161.31 Y164.953
; end travel
G1 F1800
G2 X173.224 Y176.920 I11.914 J0.053 E0.80238
G2 X185.825 Y164.301 I0.631 J-11.971 E0.86033
G1 X185.782 Y163.878 E0.01817
G2 X174.534 Y153.095 I-11.858 J1.111 E0.72635
G2 X169.642 Y153.632 I-0.869 J14.634 E0.21155
G2 X161.310 Y164.953 I3.580 J11.361 E0.64275
;WIPE_START
M204 S5000
G1 X161.19 Y165.019 F9000
;WIPE_END
G1 E-0.5 F3000
; acceleration to travel
M204 S4000
G1 X150.241 Y154.154 F9000
; decel to extrusion
M204 S1000
G1 X147.504 Y151.437
; end travel
G1 E0.5 F1800
;TYPE:Internal perimeter
G2 X148.429 Y147.606 I-2.459 J-2.621 E0.17818
G1 X148.652 Y147.461 E0.01135
G2 X167.798 Y144.818 I8.578 J-8.527 E0.95719
G1 X187.188 Y144.809 E0.82907
G3 X188.690 Y145.460 I-0.022 J2.109 E0.07173
G1 X189.065 Y145.855 E0.02329
G2 X188.651 Y153.157 I-0.337 J3.644 E0.50226
G1 X189.83 Y153.139 E0.05038
G2 X192.373 Y151.658 I-0.392 J-3.597 E0.12948
G3 X193.021 Y156.703 I-15.116 J4.506 E0.21843
G1 X192.695 Y156.72 E0.01394
G2 X192.616 Y157.673 I-3.271 J0.209 E0.83926
G1 X192.707 Y157.136 E0.02327
G1 X193.021 Y157.163 E0.01348
G1 X193.021 Y173.942 E0.7174
G3 X192.370 Y178.352 I-15.217 J0.007 E0.19130
G2 X189.867 Y176.862 I-2.931 J2.076 E0.12816
G2 X187.855 Y176.947 I-0.700 J7.285 E0.08638
G2 X189.059 Y184.151 I0.877 J3.556 E0.46766
G3 X187.108 Y185.195 I-2.057 J-1.498 E0.09814
G1 X147.076 Y185.195 E1.71157
G1 X147.012 Y184.933 E0.0115
G2 X147.869 Y178.081 I-2.015 J-3.732 E0.34480
G2 X149.618 Y172.261 I-2.020 J-3.780 E0.28847
M73 P2 R36
G2 X142.994 Y177.413 I-3.737 J2.030 E0.63061
G2 X141.411 Y178.890 I2.128 J3.868 E0.09344
G2 X139.881 Y176.828 I-4.648 J1.850 E0.11100
G1 X139.87 Y174.558 E0.09705
G2 X136.979 Y170.518 I-4.893 J0.447 E0.22250
G1 X136.979 Y159.482 E0.47184
G2 X139.885 Y155.036 I-2.000 J-4.480 E0.23976
G1 X139.885 Y153.168 E0.07989
G2 X141.662 Y150.342 I-3.213 J-3.992 E0.14532
G2 X147.504 Y151.437 I3.310 J-1.527 E0.29688
; acceleration to travel
M204 S4000
G1 X146.999 Y146.834 F9000
; decel to extrusion
M204 S1000
G1 X146.873 Y145.683
; end travel
G1 F1800
G2 X142.041 Y146.643 I-1.903 J3.063 E0.23193
G1 X141.791 Y146.544 E0.0115
G3 X143.731 Y144.806 I1.899 J0.168 E0.12243
G1 X146.678 Y144.817 E0.12598
G1 X147.072 Y145.496 E0.03358
G1 X146.873 Y145.683 E0.01166
G1 E-0.5 F3000
; acceleration to travel
M204 S4000
G1 X147.13 Y150.05 F9000
; decel to extrusion
M204 S1000
G1 X147.194 Y151.142
; end travel
G1 E0.5 F1800
G2 X146.262 Y151.763 I-2.227 J-2.333 E0.81869
G2 X147.194 Y151.142 I-1.158 J-2.747 E0.04809
G1 X146.883 Y150.847 F9000
G1 F1800
G2 X146.092 Y151.369 I-1.915 J-2.041 E0.71062
G2 X146.883 Y150.847 I-0.717 J-1.947 E0.04071
G1 X146.573 Y150.551 F9000
;TYPE:External perimeter
G1 F1800
G2 X146.186 Y150.840 I-1.605 J-1.745 E0.61531
G2 X146.573 Y150.551 I-19.943 J-27.110 E0.02063
;WIPE_START
M204 S5000
G1 X146.934 Y150.66 F9000
;WIPE_END
; acceleration to travel
M204 S4000
G1 X180.281 Y152.31
; decel to extrusion
M204 S1000
G1 X188.618 Y152.722
; end travel
;TYPE:Internal perimeter
G1 F1800
G1 X188.671 Y152.728 E0.00227
G1 X189.787 Y152.711 E0.04773
G2 X192.475 Y150.638 I-0.472 J-3.392 E0.15207
G3 X193.450 Y156.054 I-14.446 J5.396 E0.23654
G1 X193.45 Y173.946 E0.76499
G3 X192.459 Y179.408 I-15.435 J0.020 E0.23860
G2 X189.815 Y177.290 I-3.025 J1.067 E0.15236
G2 X187.957 Y177.364 I-0.665 J6.661 E0.07974
G2 X188.671 Y183.728 I0.770 J3.136 E0.39781
G1 X190.018 Y183.707 E0.05758
G3 X188.819 Y185.007 I-8.309 J-6.460 E0.07564
G3 X187.126 Y185.623 I-1.665 J-1.943 E0.07864
G1 X143.715 Y185.623 E1.85606
G3 X141.355 Y183.084 I-0.023 J-2.345 E0.16645
G1 X141.616 Y183.02 E0.0115
G2 X147.012 Y177.961 I3.365 J-1.819 E0.59789
G2 X143.844 Y177.538 I-1.123 J-3.661 E0.88702
G2 X141.310 Y179.966 I1.425 J4.024 E0.15493
G2 X139.453 Y177.028 I-4.879 J1.028 E0.15169
G1 X139.442 Y174.596 E0.10398
G2 X136.550 Y170.820 I-4.421 J0.390 E0.21451
G1 X136.55 Y159.179 E0.49768
G2 X139.456 Y155.026 I-1.530 J-4.164 E0.23059
G1 X139.456 Y152.968 E0.08799
G2 X141.339 Y149.629 I-2.813 J-3.787 E0.16865
G1 X141.369 Y146.47 E0.13509
G3 X143.713 Y144.377 I2.314 J0.232 E0.14734
G1 X146.925 Y144.39 E0.13733
G2 X167.551 Y144.389 I10.313 J-5.459 E1.08146
G1 X187.208 Y144.381 E0.84047
G3 X188.985 Y145.149 I-0.040 J2.533 E0.08484
G3 X190.016 Y146.290 I-13.366 J13.114 E0.06578
G1 X188.533 Y146.28 E0.06338
G2 X188.618 Y152.722 I0.190 J3.219 E0.42045
G1 X188.717 Y152.299 F9000
G1 F1800
G1 X189.745 Y152.283 E0.04395
G2 X192.230 Y149.571 I-0.325 J-2.793 E0.17120
G1 X192.486 Y149.531 E0.01107
G3 X193.878 Y156.050 I-14.514 J6.507 E0.28706
G1 X193.878 Y173.95 E0.76536
G3 X192.476 Y180.485 I-15.802 J0.028 E0.28791
G1 X192.215 Y180.434 E0.01136
G2 X189.763 Y177.718 I-2.785 J0.050 E0.17062
G2 X188.060 Y177.781 I-0.626 J6.128 E0.07309
G2 X188.691 Y183.299 I0.667 J2.719 E0.34545
G1 X189.745 Y183.283 E0.04508
G2 X190.800 Y182.929 I-0.245 J-2.479 E0.04790
G1 X190.974 Y183.136 E0.01156
G3 X189.090 Y185.339 I-11.663 J-8.067 E0.12414
G3 X187.144 Y186.052 I-1.933 J-2.264 E0.09043
G1 X143.696 Y186.052 E1.85765
G3 X140.927 Y183.283 I-0.013 J-2.756 E0.18605
G1 X140.927 Y180.782 E0.10691
G2 X139.026 Y177.273 I-4.193 J0.002 E0.17782
G1 X139.014 Y174.634 E0.11281
G2 X136.122 Y171.123 I-4.019 J0.364 E0.20653
G1 X136.122 Y158.875 E0.52368
G2 X139.028 Y155.016 I-1.121 J-3.868 E0.22141
G1 X139.028 Y152.725 E0.09796
G2 X140.911 Y149.590 I-2.298 J-3.513 E0.16176
G1 X140.94 Y146.439 E0.13474
G3 X143.695 Y143.949 I2.743 J0.266 E0.17411
G1 X147.105 Y143.962 E0.14579
G1 X147.2 Y144.011 E0.0046
G2 X167.276 Y144.010 I10.038 J-5.099 E1.05939
G3 X167.437 Y143.954 I0.184 J0.269 E0.00737
G1 X168.098 Y143.949 E0.02822
G1 X187.228 Y143.952 E0.81794
G3 X189.280 Y144.837 I-0.057 J2.954 E0.09791
G3 X190.959 Y146.844 I-11.352 J11.202 E0.11199
G1 X190.797 Y147.049 E0.01119
G2 X189.761 Y146.717 I-1.466 J2.793 E0.04670
G1 X188.562 Y146.709 E0.05129
G2 X188.717 Y152.299 I0.163 J2.793 E0.36826
G1 E-0.5 F3000
; acceleration to travel
M204 S4000
G1 X188.719 Y172.964 F9000
; decel to extrusion
M204 S1000
G1 X188.719 Y178.13
; end travel
G1 E0.5 F1800
;TYPE:External perimeter
G2 X188.711 Y182.870 I0.008 J2.370 E0.31709
G2 X189.991 Y182.802 I0.101 J-10.174 E0.05494
G2 X189.643 Y178.144 I-0.564 J-2.300 E0.28441
G1 X188.719 Y178.13 E0.03949
;WIPE_START
M204 S5000
G1 X188.572 Y177.895 F9000
;WIPE_END
G1 E-0.5 F3000
; acceleration to travel
M204 S4000
G1 X188.683 Y157.075 F9000
; decel to extrusion
M204 S1000
G1 X188.711 Y151.87
; end travel
G1 E0.5 F1800
G2 X189.703 Y151.855 I0.015 J-31.818 E0.04244
G2 X189.711 Y147.145 I-0.278 J-2.355 E0.29398
G2 X188.162 Y147.198 I-0.582 J5.661 E0.06646
G2 X187.460 Y151.504 I0.566 J2.302 E0.23670
M73 P2 R35
G2 X188.711 Y151.870 I1.309 J-2.152 E0.05635
;WIPE_START
M204 S5000
G1 X188.725 Y151.897 F9000
;WIPE_END
G1 E-0.5 F3000
; acceleration to travel
M204 S4000
G1 X146.3 Y157.213 F9000
; decel to extrusion
M204 S1000
M73 P3 R35
G1 X135.693 Y158.542
; end travel
G1 E0.5 F1800
G2 X138.599 Y155.007 I-0.700 J-3.538 E0.21186
G1 X138.599 Y152.494 E0.10743
G2 X140.483 Y149.551 I-1.890 J-3.284 E0.15520
G1 X140.512 Y146.408 E0.13439
G3 X143.863 Y143.520 I3.179 J0.300 E0.20874
G1 X146.864 Y143.52 E0.12833
G3 X147.549 Y143.757 I0.123 J0.752 E0.03218
G2 X166.939 Y143.745 I9.692 J-4.873 E1.02554
G3 X167.404 Y143.525 I0.498 J0.451 E0.02262
G1 X168.096 Y143.52 E0.02957
G1 X187.248 Y143.524 E0.81887
G3 X190.035 Y145.011 I-0.230 J3.787 E0.13957
G3 X194.307 Y156.045 I-12.128 J11.040 E0.51755
G1 X194.307 Y173.955 E0.76574
G3 X189.362 Y185.672 I-16.347 J0.003 E0.55855
G3 X187.162 Y186.480 I-2.198 J-2.585 E0.10226
G1 X143.686 Y186.48 E1.85885
G3 X140.498 Y183.292 I-0.006 J-3.182 E0.21404
G1 X140.498 Y180.792 E0.10691
G2 X138.598 Y177.505 I-3.785 J-0.005 E0.16997
