; generated by SuperSlicer 2.4 on 2022-05-11 at 03:11:09 UTC


;
;

;
;
; 

; external perimeters extrusion width = 0.40mm
; perimeters extrusion width = 0.40mm
; infill extrusion width = 0.72mm
; solid infill extrusion width = 0.56mm
; top infill extrusion width = 0.40mm
; support material extrusion width = 0.40mm
; first layer extrusion width = 0.48mm

; object:{"name":"systainer_porte_casque_v3","id":"systainer_porte_casque_v3.stl id:0 copy 0","object_center":[165.000000,165.000000,0.000000],"boundingbox_center":[165.000000,165.000000,24.500000],"boundingbox_size":[84.575478,73.400002,49.000000]}
; plater:{"center":[165.000000,165.000000,0.000000],"boundingbox_center":[165.000000,165.000000,24.500000],"boundingbox_size":[84.575478,73.400002,49.000000]}

M73 P0 R129
;TYPE:Custom
START_PRINT T_BED=60 T_EXTRUDER=200
M107
G21 ; set units to millimeters
G90 ; use absolute coordinates
M83 ; use relative distances for extrusion
; Filament gcode
M104 S200 ; set temperature
M109 S200 ; set temperature and wait for it to be reached
M190 S60 ; set bed temperature and wait for it to be reached
M107
;LAYER_CHANGE
;Z:0.24
;HEIGHT:0.24
G1 Z0.24 F9000
G92 E0
G1 E-0.8 F3000
M204 S1000
G1 X119.095 Y123.501 F9000
G1 E0.8 F1800
;TYPE:Skirt
;WIDTH:0.52
G1 X117.39 Y125.175 E0.1117
G1 X116.995 Y126.837 E0.07988
G1 X117 Y131.947 E0.23889
G1 X120.487 Y201.784 E3.26872
M73 P0 R128
G1 X121.212 Y203.805 E0.10036
G1 X122.52 Y204.905 E0.07988
G1 X124.182 Y205.3 E0.07988
G1 X205.818 Y205.3 E3.81621
G1 X207.872 Y204.677 E0.10036
G1 X209.036 Y203.425 E0.07988
G1 X209.513 Y201.784 E0.07988
G1 X213 Y131.947 E3.26873
G1 X213.005 Y126.837 E0.23888
G1 X212.233 Y124.576 E0.1117
G1 X210.904 Y123.501 E0.07988
G1 X209.036 Y122.606 E0.09684
G1 X207.469 Y122.154 E0.07625
G1 X206.655 Y122.062 E0.03831
G1 X203.549 Y122.055 E0.14517
G1 X123.643 Y122.055 E3.73537
G1 X122.83 Y122.11 E0.03808
G1 X121.576 Y122.384 E0.05999
G1 X119.095 Y123.501 E0.12717
G1 X119.297 Y123.922 F9000
G1 F1800
G1 X117.855 Y125.291 E0.09294
G1 X117.462 Y126.837 E0.0746
G1 X117.466 Y131.924 E0.2378
G1 X120.953 Y201.761 E3.26872
G1 X121.466 Y203.354 E0.07822
G1 X122.636 Y204.439 E0.0746
G1 X124.182 Y204.833 E0.0746
G1 X205.818 Y204.833 E3.81621
G1 X207.434 Y204.4 E0.07822
G1 X208.577 Y203.286 E0.0746
G1 X209.047 Y201.761 E0.0746
G1 X212.534 Y131.924 E3.26873
G1 X212.538 Y126.837 E0.2378
G1 X211.927 Y124.945 E0.09294
G1 X210.703 Y123.922 E0.0746
G1 X208.835 Y123.026 E0.09684
G1 X207.365 Y122.609 E0.07141
G1 X206.654 Y122.528 E0.03348
G1 X203.549 Y122.521 E0.14512
G1 X123.643 Y122.521 E3.73537
G1 X122.316 Y122.671 E0.0624
G1 X121.125 Y123.045 E0.05838
G1 X119.297 Y123.922 E0.09476
; INIT printing object systainer_porte_casque_v3.stl id:0 copy 0
G1 E-0.8 F3000
; printing object systainer_porte_casque_v3.stl id:0 copy 0
; acceleration to travel
M204 S3000
G1 X120.345 Y126.108 F9000
; decel to extrusion
M204 S1000
G1 X120.695 Y126.837
; end travel
G1 E0.8 F1800
;TYPE:Support material
;WIDTH:0.48
G1 X122.523 Y125.961 E0.08667
G1 X122.878 Y125.867 E0.0157
G1 X123.143 Y125.797 E0.01173
G1 X123.46 Y125.77 E0.01362
G1 X123.516 Y125.765 E0.00241
G1 X123.643 Y125.754 E0.00542
G1 X126.444 Y125.754 E0.11976
G1 X132.293 Y125.754 E0.25009
G1 X132.292 Y130.188 E0.18955
G1 X132.292 Y131.068 E0.03764
G1 X132.292 Y199.646 E2.93207
G1 X125.2 Y199.646 E0.30322
G1 X125.2 Y132.846 E2.85606
G1 X123.643 Y132.846 E0.06659
G1 X123.143 Y132.803 E0.02144
G1 X122.523 Y132.639 E0.02743
G1 X120.695 Y131.763 E0.08668
G1 X120.695 Y126.837 E0.2106
G1 E-0.8 F3000
; acceleration to travel
M204 S3000
G1 X128.928 Y181.363 F9000
; decel to extrusion
M204 S1000
G1 X131.673 Y199.539
; end travel
G1 E0.8 F1800
G1 X131.673 Y126.046 E3.14223
G1 X131.196 Y126.046 E0.02036
G1 X131.196 Y199.354 E3.13435
G1 X130.72 Y199.354 E0.02036
G1 X130.72 Y126.046 E3.13435
G1 X130.244 Y126.046 E0.02036
G1 X130.244 Y199.354 E3.13435
G1 X129.768 Y199.354 E0.02036
G1 X129.768 Y126.046 E3.13435
G1 X129.292 Y126.046 E0.02036
G1 X129.292 Y199.354 E3.13435
G1 X128.816 Y199.354 E0.02036
G1 X128.816 Y126.046 E3.13435
G1 X128.34 Y126.046 E0.02036
G1 X128.34 Y199.354 E3.13435
G1 X127.864 Y199.354 E0.02036
G1 X127.864 Y126.046 E3.13435
G1 X127.388 Y126.046 E0.02036
G1 X127.388 Y199.354 E3.13435
G1 X126.912 Y199.354 E0.02036
G1 X126.912 Y126.046 E3.13435
G1 X126.435 Y126.046 E0.02036
G1 X126.435 Y199.354 E3.13435
G1 X125.959 Y199.354 E0.02036
G1 X125.959 Y126.046 E3.13435
G1 X125.483 Y126.046 E0.02036
G1 X125.483 Y132.554 E0.27828
G1 X125.007 Y132.554 E0.02036
G1 X125.007 Y126.046 E0.27828
G1 X124.531 Y126.046 E0.02036
G1 X124.531 Y132.554 E0.27828
G1 X124.055 Y132.554 E0.02036
G1 X124.055 Y126.046 E0.27828
M73 P0 R127
G1 X123.655 Y126.046 E0.0171
G1 X123.579 Y126.052 E0.00327
G1 X123.579 Y132.548 E0.27773
G1 X123.193 Y132.515 E0.01655
G1 X123.103 Y132.491 E0.004
G1 X123.103 Y126.109 E0.27289
G1 X122.952 Y126.149 E0.00665
G1 X122.627 Y126.235 E0.01441
G1 X122.627 Y132.365 E0.26212
G1 X122.15 Y132.138 E0.02256
G1 X122.15 Y126.462 E0.24265
G1 X121.674 Y126.691 E0.02257
G1 X121.674 Y131.909 E0.22313
G1 X121.198 Y131.681 E0.02257
G1 X121.198 Y126.715 E0.21235
G1 E-0.8 F3000
; acceleration to travel
M204 S3000
G1 X138.488 Y126.723 F9000
; decel to extrusion
M204 S1000
G1 X144.251 Y126.726
; end travel
G1 E0.8 F1800
G1 X144.251 Y125.754 E0.04153
G1 X150.193 Y125.754 E0.25404
G1 X150.637 Y125.754 E0.01896
G1 X151.098 Y125.754 E0.01971
G1 X151.559 Y125.754 E0.01971
G1 X152.068 Y125.754 E0.0218
G1 X152.579 Y125.754 E0.02185
G1 X153.125 Y125.754 E0.02333
G1 X153.691 Y125.754 E0.02419
G1 X154.282 Y125.754 E0.0253
G1 X154.907 Y125.755 E0.02669
G1 X155.598 Y125.755 E0.02956
G1 X156.281 Y125.754 E0.02918
G1 X157.281 Y125.754 E0.04279
G1 X158.204 Y125.754 E0.03945
G1 X159.288 Y125.755 E0.04633
G1 X159.555 Y125.755 E0.01143
G1 X160.68 Y125.755 E0.04811
G1 X163.021 Y125.757 E0.10007
G1 X165.569 Y125.757 E0.10894
G1 X165.615 Y125.757 E0.00198
G1 X167.016 Y125.757 E0.05987
G1 X169.137 Y125.756 E0.0907
G1 X170.662 Y125.755 E0.06522
G1 X170.682 Y125.755 E0.00083
G1 X171.766 Y125.754 E0.04635
G1 X172.74 Y125.754 E0.04167
G1 X173.574 Y125.754 E0.03566
G1 X174.326 Y125.754 E0.03215
G1 X175.682 Y125.754 E0.05794
G1 X176.29 Y125.754 E0.02603
G1 X176.866 Y125.754 E0.02463
G1 X177.416 Y125.754 E0.02349
G1 X177.929 Y125.754 E0.02195
G1 X185.75 Y125.754 E0.33438
G1 X185.75 Y199.646 E3.15927
G1 X144.25 Y199.646 E1.77434
G1 X144.248 Y132.389 E2.87559
G1 X144.251 Y126.726 E0.24215
; acceleration to travel
M204 S3000
G1 X174.81 Y181.335 F9000
; decel to extrusion
M204 S1000
G1 X184.996 Y199.539
; end travel
G1 F1800
G1 X184.996 Y126.046 E3.14223
G1 X184.52 Y126.046 E0.02036
G1 X184.52 Y199.354 E3.13435
M73 P1 R127
G1 X184.044 Y199.354 E0.02036
G1 X184.044 Y126.046 E3.13435
G1 X183.568 Y126.046 E0.02036
G1 X183.568 Y199.354 E3.13435
G1 X183.092 Y199.354 E0.02036
G1 X183.092 Y126.046 E3.13435
G1 X182.616 Y126.046 E0.02036
G1 X182.616 Y199.354 E3.13435
G1 X182.14 Y199.354 E0.02036
G1 X182.14 Y126.046 E3.13435
G1 X181.664 Y126.046 E0.02036
G1 X181.664 Y199.354 E3.13435
G1 X181.188 Y199.354 E0.02036
G1 X181.188 Y126.046 E3.13435
G1 X180.712 Y126.046 E0.02036
G1 X180.711 Y199.354 E3.13435
G1 X180.235 Y199.354 E0.02036
G1 X180.235 Y126.046 E3.13435
G1 X179.759 Y126.046 E0.02036
G1 X179.759 Y199.354 E3.13435
G1 X179.283 Y199.354 E0.02036
G1 X179.283 Y126.046 E3.13435
G1 X178.807 Y126.046 E0.02036
G1 X178.807 Y199.354 E3.13435
G1 X178.331 Y199.354 E0.02036
G1 X178.331 Y126.046 E3.13435
G1 X177.855 Y126.046 E0.02036
G1 X177.855 Y199.354 E3.13435
G1 X177.379 Y199.354 E0.02036
G1 X177.379 Y126.046 E3.13435
G1 X176.903 Y126.046 E0.02036
G1 X176.903 Y199.354 E3.13435
G1 X176.427 Y199.354 E0.02036
G1 X176.427 Y126.046 E3.13435
G1 X176.29 Y126.046 E0.00583
G1 X175.95 Y126.046 E0.01453
G1 X175.95 Y199.354 E3.13435
M73 P1 R126
G1 X175.474 Y199.354 E0.02036
G1 X175.474 Y126.046 E3.13435
G1 X174.998 Y126.046 E0.02036
G1 X174.998 Y199.354 E3.13435
G1 X174.522 Y199.354 E0.02036
G1 X174.522 Y126.046 E3.13435
G1 X174.046 Y126.046 E0.02036
G1 X174.046 Y199.354 E3.13435
G1 X173.57 Y199.354 E0.02036
G1 X173.57 Y126.046 E3.13435
G1 X173.094 Y126.046 E0.02036
G1 X173.094 Y199.354 E3.13435
G1 X172.618 Y199.354 E0.02036
G1 X172.618 Y126.046 E3.13435
G1 X172.142 Y126.046 E0.02036
G1 X172.142 Y199.354 E3.13434
G1 X171.665 Y199.354 E0.02036
G1 X171.665 Y126.046 E3.13434
G1 X171.189 Y126.046 E0.02036
G1 X171.189 Y199.354 E3.13433
G1 X170.713 Y199.354 E0.02036
G1 X170.713 Y126.046 E3.13433
G1 X170.682 Y126.046 E0.00133
G1 X170.663 Y126.046 E0.00083
G1 X170.237 Y126.046 E0.01819
G1 X170.237 Y199.354 E3.13432
G1 X169.761 Y199.354 E0.02036
G1 X169.761 Y126.047 E3.13431
M73 P2 R126
G1 X169.285 Y126.047 E0.02036
G1 X169.285 Y199.354 E3.1343
G1 X168.809 Y199.354 E0.02036
G1 X168.809 Y126.047 E3.13428
G1 X168.333 Y126.048 E0.02036
G1 X168.333 Y199.354 E3.13427
G1 X167.857 Y199.354 E0.02036
G1 X167.857 Y126.048 E3.13425
G1 X167.381 Y126.048 E0.02036
G1 X167.381 Y199.354 E3.13423
G1 X166.904 Y199.354 E0.02036
G1 X166.904 Y126.049 E3.13422
G1 X166.428 Y126.049 E0.02036
G1 X166.428 Y199.354 E3.13422
G1 X165.952 Y199.354 E0.02036
G1 X165.952 Y126.048 E3.13423
G1 X165.615 Y126.048 E0.01441
G1 X165.569 Y126.048 E0.00198
G1 X165.476 Y126.048 E0.00396
G1 X165.476 Y199.354 E3.13423
G1 X165 Y199.354 E0.02036
G1 X165 Y126.048 E3.13423
G1 X164.524 Y126.048 E0.02036
G1 X164.524 Y199.354 E3.13424
G1 X164.048 Y199.354 E0.02036
G1 X164.048 Y126.048 E3.13424
M73 P2 R125
G1 X163.572 Y126.048 E0.02036
G1 X163.572 Y199.354 E3.13424
G1 X163.096 Y199.354 E0.02036
G1 X163.096 Y126.048 E3.13424
G1 X163.021 Y126.048 E0.0032
G1 X162.619 Y126.048 E0.01716
G1 X162.619 Y199.354 E3.13425
G1 X162.143 Y199.354 E0.02036
G1 X162.143 Y126.048 E3.13427
G1 X161.667 Y126.047 E0.02036
G1 X161.667 Y199.354 E3.13428
G1 X161.191 Y199.354 E0.02036
G1 X161.191 Y126.047 E3.13429
G1 X160.715 Y126.047 E0.02036
G1 X160.715 Y199.354 E3.13431
G1 X160.239 Y199.354 E0.02036
G1 X160.239 Y126.046 E3.13432
G1 X159.763 Y126.046 E0.02036
G1 X159.763 Y199.354 E3.13432
G1 X159.287 Y199.354 E0.02036
G1 X159.287 Y126.046 E3.13433
G1 X158.811 Y126.046 E0.02036
G1 X158.811 Y199.354 E3.13434
G1 X158.335 Y199.354 E0.02036
G1 X158.335 Y126.046 E3.13434
G1 X158.204 Y126.046 E0.00558
G1 X157.858 Y126.046 E0.01478
G1 X157.858 Y199.354 E3.13434
G1 X157.382 Y199.354 E0.02036
G1 X157.382 Y126.046 E3.13434
G1 X157.281 Y126.046 E0.00433
G1 X156.906 Y126.046 E0.01603
G1 X156.906 Y199.354 E3.13435
G1 X156.43 Y199.354 E0.02036
G1 X156.43 Y126.046 E3.13435
G1 X156.281 Y126.046 E0.00638
G1 X155.954 Y126.046 E0.01398
G1 X155.954 Y199.354 E3.13434
G1 X155.478 Y199.354 E0.02036
G1 X155.478 Y126.046 E3.13433
G1 X155.002 Y126.046 E0.02036
G1 X155.002 Y199.354 E3.13433
M73 P3 R125
G1 X154.526 Y199.354 E0.02036
G1 X154.526 Y126.046 E3.13434
G1 X154.282 Y126.046 E0.0104
G1 X154.05 Y126.046 E0.00995
G1 X154.05 Y199.354 E3.13434
G1 X153.573 Y199.354 E0.02036
G1 X153.573 Y126.046 E3.13435
G1 X153.125 Y126.046 E0.01917
G1 X153.097 Y126.046 E0.00118
G1 X153.097 Y199.354 E3.13435
G1 X152.621 Y199.354 E0.02036
G1 X152.621 Y126.046 E3.13435
M73 P3 R124
G1 X152.579 Y126.046 E0.00179
G1 X152.145 Y126.046 E0.01857
G1 X152.145 Y199.354 E3.13435
G1 X151.669 Y199.354 E0.02036
G1 X151.669 Y126.046 E3.13435
G1 X151.559 Y126.046 E0.00472
G1 X151.193 Y126.046 E0.01564
G1 X151.193 Y199.354 E3.13435
G1 X150.717 Y199.354 E0.02036
G1 X150.717 Y126.046 E3.13435
G1 X150.637 Y126.046 E0.00343
G1 X150.241 Y126.046 E0.01692
G1 X150.241 Y199.354 E3.13435
G1 X149.765 Y199.354 E0.02036
G1 X149.765 Y126.046 E3.13435
G1 X149.289 Y126.046 E0.02036
G1 X149.288 Y199.354 E3.13435
G1 X148.812 Y199.354 E0.02036
G1 X148.812 Y126.046 E3.13435
G1 X148.336 Y126.046 E0.02036
G1 X148.336 Y199.354 E3.13435
G1 X147.86 Y199.354 E0.02036
G1 X147.86 Y126.046 E3.13435
G1 X147.384 Y126.046 E0.02036
G1 X147.384 Y199.354 E3.13435
G1 X146.908 Y199.354 E0.02036
G1 X146.908 Y126.046 E3.13435
G1 X146.432 Y126.046 E0.02036
G1 X146.432 Y199.354 E3.13435
G1 X145.956 Y199.354 E0.02036
G1 X145.956 Y126.046 E3.13435
G1 X145.48 Y126.046 E0.02036
G1 X145.48 Y199.354 E3.13435
G1 X145.004 Y199.354 E0.02036
G1 X145.004 Y125.861 E3.14223
G1 E-0.8 F3000
; acceleration to travel
M204 S3000
G1 X184.532 Y125.861 F9000
; decel to extrusion
M204 S1000
G1 X197.708 Y125.861
; end travel
G1 E0.8 F1800
G1 X197.708 Y125.754 E0.00458
G1 X203.549 Y125.754 E0.24977
G1 X206.646 Y125.761 E0.13242
G1 X206.761 Y125.787 E0.00503
G1 X206.959 Y125.832 E0.00866
G1 X207.437 Y125.942 E0.02099
G1 X208.333 Y126.371 E0.04246
G1 X209.305 Y126.837 E0.04611
G1 X209.305 Y129.3 E0.1053
G1 X209.305 Y131.763 E0.1053
G1 X207.477 Y132.639 E0.08667
G1 X206.857 Y132.803 E0.02743
G1 X206.551 Y132.829 E0.01316
G1 X206.357 Y132.846 E0.00829
G1 X204.8 Y132.846 E0.0666
G1 X204.8 Y199.646 E2.85606
G1 X197.708 Y199.646 E0.30322
G1 X197.708 Y125.861 E3.15469
; acceleration to travel
M204 S3000
G1 X206.028 Y130.379 F9000
; decel to extrusion
M204 S1000
G1 X208.802 Y131.885
; end travel
G1 F1800
G1 X208.802 Y126.919 E0.21234
G1 X208.326 Y126.691 E0.02257
G1 X208.326 Y131.909 E0.22313
G1 X207.85 Y132.138 E0.02258
G1 X207.85 Y126.462 E0.24265
G1 X207.373 Y126.234 E0.02257
G1 X207.373 Y132.365 E0.26214
G1 X206.897 Y132.491 E0.02106
G1 X206.897 Y126.117 E0.27252
G1 X206.696 Y126.071 E0.00881
G1 X206.613 Y126.053 E0.00364
G1 X206.421 Y126.052 E0.00822
G1 X206.421 Y132.548 E0.27773
G1 X206.345 Y132.554 E0.00327
G1 X205.945 Y132.554 E0.01709
G1 X205.945 Y126.051 E0.27805
G1 X205.469 Y126.05 E0.02036
G1 X205.469 Y132.554 E0.2781
G1 X204.993 Y132.554 E0.02036
G1 X204.993 Y126.049 E0.27814
G1 X204.517 Y126.048 E0.02036
G1 X204.517 Y132.554 E0.27819
G1 X204.508 Y132.554 E0.00036
G1 X204.508 Y199.354 E2.85606
G1 X204.041 Y199.354 E0.01999
G1 X204.041 Y126.047 E3.1343
G1 X203.565 Y126.046 E0.02036
G1 X203.565 Y199.354 E3.13435
G1 X203.088 Y199.354 E0.02036
G1 X203.088 Y126.046 E3.13435
M73 P3 R123
G1 X202.612 Y126.046 E0.02036
G1 X202.612 Y199.354 E3.13435
G1 X202.136 Y199.354 E0.02036
G1 X202.136 Y126.046 E3.13435
G1 X201.66 Y126.046 E0.02036
G1 X201.66 Y199.354 E3.13435
M73 P4 R123
G1 X201.184 Y199.354 E0.02036
G1 X201.184 Y126.046 E3.13435
G1 X200.708 Y126.046 E0.02036
G1 X200.708 Y199.354 E3.13435
G1 X200.232 Y199.354 E0.02036
G1 X200.232 Y126.046 E3.13435
G1 X199.756 Y126.046 E0.02036
G1 X199.756 Y199.354 E3.13435
G1 X199.28 Y199.354 E0.02036
G1 X199.28 Y126.046 E3.13435
G1 X198.804 Y126.046 E0.02036
G1 X198.804 Y199.354 E3.13435
G1 X198.327 Y199.354 E0.02036
G1 X198.327 Y125.861 E3.14223
G1 E-0.8 F3000
; acceleration to travel
M204 S3000
G1 X203.765 Y181.945 F9000
; decel to extrusion
M204 S1000
G1 X205.578 Y200.64
; end travel
G1 E0.8 F1800
;TYPE:External perimeter
G1 X205.578 Y201.36 E0.03078
G1 X124.422 Y201.36 E3.46986
G1 X124.422 Y200.64 E0.03078
G1 X205.578 Y200.64 E3.46986
;WIPE_START
M204 S4000
G1 X205.378 Y200.986 F9000
;WIPE_END
M204 S1000
G1 X205.381 Y201
;TYPE:Gap fill
;WIDTH:0.37757
G1 F1800
G1 X205.218 Y201 E0.0053
G1 X124.619 Y201 E2.62228
; INIT stop printing object systainer_porte_casque_v3.stl id:0 copy 0
;LAYER_CHANGE
;Z:0.44
;HEIGHT:0.2
; stop printing object systainer_porte_casque_v3.stl id:0 copy 0
M204 S4000
G1 Z0.44 F9000
G92 E0
; INIT printing object systainer_porte_casque_v3.stl id:0 copy 0
; printing object systainer_porte_casque_v3.stl id:0 copy 0
; acceleration to travel
M204 S3000
G1 X124.325 Y201.238
; decel to extrusion
M204 S2000
G1 X124.085 Y201.433
; end travel
;TYPE:Overhang perimeter
;WIDTH:0.368782
;HEIGHT:0.368782
G1 F4200
G1 X123.905 Y201.433 E0.00798
G1 X123.905 Y200.567 E0.03849
G1 X124.085 Y200.567 E0.00798
;TYPE:External perimeter
;WIDTH:0.4
;HEIGHT:0.2
G1 F4800
M204 S1500
G1 X124.129 Y200.567 E0.00131
G1 X205.871 Y200.567 E2.42702
;TYPE:Overhang perimeter
;WIDTH:0.368782
;HEIGHT:0.368782
G1 F4200
M204 S2000
G1 X206.095 Y200.567 E0.00993
G1 X206.095 Y201.433 E0.03849
G1 X205.915 Y201.433 E0.00798
;TYPE:External perimeter
;WIDTH:0.4
;HEIGHT:0.2
G1 F4800
M204 S1500
G1 X205.871 Y201.433 E0.00131
G1 X124.129 Y201.433 E2.42702
;TYPE:Overhang perimeter
;WIDTH:0.368782
