; generated by SuperSlicer 2.4 on 2022-05-11 at 18:47:20 UTC


;
;

;
;
; 

; external perimeters extrusion width = 0.40mm
; perimeters extrusion width = 0.40mm
; infill extrusion width = 0.72mm
; solid infill extrusion width = 0.56mm
; top infill extrusion width = 0.40mm
; support material extrusion width = 0.40mm
; first layer extrusion width = 0.48mm

; object:{"name":"systainer_porte_casque_v3","id":"systainer_porte_casque_v3.stl id:0 copy 0","object_center":[165.000000,165.000000,0.000000],"boundingbox_center":[165.000000,165.000000,24.500000],"boundingbox_size":[84.575478,73.400002,49.000000]}
; plater:{"center":[165.000000,165.000000,0.000000],"boundingbox_center":[165.000000,165.000000,24.500000],"boundingbox_size":[84.575478,73.400002,49.000000]}

M73 P0 R136
;TYPE:Custom
START_PRINT T_BED=60 T_EXTRUDER=200
M107
G21 ; set units to millimeters
G90 ; use absolute coordinates
M83 ; use relative distances for extrusion
; Filament gcode
M104 S200 ; set temperature
M109 S200 ; set temperature and wait for it to be reached
M190 S60 ; set bed temperature and wait for it to be reached
M107
;LAYER_CHANGE
;Z:0.24
;HEIGHT:0.24
G1 Z0.24 F9000
G92 E0
G1 E-0.8 F3000
M204 S1000
G1 X116.5 Y120.092 F9000
G1 E0.8 F1800
;TYPE:Skirt
;WIDTH:0.52
G1 X115.4 Y121.4 E0.07988
G1 X115.005 Y123.062 E0.07988
G1 X115.014 Y137.479 E0.67394
G1 X119.371 Y200.708 E2.96274
G1 X119.536 Y201.573 E0.04118
G1 X120.415 Y203.038 E0.07988
G1 X121.535 Y204.185 E0.07493
G1 X122.52 Y204.905 E0.05701
G1 X124.182 Y205.3 E0.07988
G1 X205.818 Y205.3 E3.81621
G1 X207.021 Y205.098 E0.05703
G1 X208.465 Y204.184 E0.07988
G1 X209.585 Y203.038 E0.07493
G1 X210.121 Y202.339 E0.04116
G1 X210.629 Y200.707 E0.07988
G1 X214.986 Y137.479 E2.96273
G1 X214.994 Y123.062 E0.67394
G1 X214.265 Y120.857 E0.10858
G1 X212.957 Y119.757 E0.07988
G1 X211.295 Y119.363 E0.07988
G1 X118.705 Y119.363 E4.32827
G1 X116.5 Y120.092 E0.10858
G1 X116.869 Y120.434 F9000
G1 F1800
G1 X115.866 Y121.516 E0.06895
G1 X115.472 Y123.062 E0.0746
G1 X115.479 Y137.447 E0.67244
G1 X119.837 Y200.676 E2.96274
G1 X120.749 Y202.712 E0.10433
G1 X121.869 Y203.859 E0.07493
G1 X122.636 Y204.439 E0.04495
G1 X124.182 Y204.833 E0.0746
G1 X205.818 Y204.833 E3.81621
G1 X206.769 Y204.69 E0.04497
G1 X208.131 Y203.859 E0.0746
G1 X209.251 Y202.712 E0.07493
G1 X210.163 Y200.675 E0.10431
G1 X214.52 Y137.447 E2.96273
G1 X214.528 Y123.062 E0.67244
G1 X214.011 Y121.308 E0.08548
G1 X212.841 Y120.223 E0.0746
M73 P0 R135
G1 X211.295 Y119.829 E0.0746
G1 X118.705 Y119.829 E4.32827
G1 X116.951 Y120.346 E0.08548
G1 X116.869 Y120.434 E0.00565
; INIT printing object systainer_porte_casque_v3.stl id:0 copy 0
G1 E-0.8 F3000
; printing object systainer_porte_casque_v3.stl id:0 copy 0
; acceleration to travel
M204 S3000
G1 X118.246 Y122.405 F9000
; decel to extrusion
M204 S1000
G1 X118.705 Y123.062
; end travel
G1 E0.8 F1800
;TYPE:Support material
;WIDTH:0.48
G1 X132.868 Y123.062 E0.60553
G1 X132.868 Y199.646 E3.27437
G1 X123.87 Y199.646 E0.38471
G1 X123.062 Y200.453 E0.04883
G1 X123.062 Y137.225 E2.70337
G1 X118.705 Y137.225 E0.18629
G1 X118.705 Y123.062 E0.60553
G1 E-0.8 F3000
; acceleration to travel
M204 S3000
G1 X128.788 Y180.419 F9000
; decel to extrusion
M204 S1000
G1 X132.149 Y199.539
; end travel
G1 E0.8 F1800
G1 X132.149 Y123.353 E3.25733
G1 X131.673 Y123.353 E0.02036
G1 X131.673 Y199.354 E3.24945
G1 X131.196 Y199.354 E0.02036
G1 X131.196 Y123.353 E3.24945
G1 X130.72 Y123.353 E0.02036
G1 X130.72 Y199.354 E3.24945
G1 X130.244 Y199.354 E0.02036
G1 X130.244 Y123.353 E3.24945
G1 X129.768 Y123.353 E0.02036
G1 X129.768 Y199.354 E3.24945
G1 X129.292 Y199.354 E0.02036
G1 X129.292 Y123.353 E3.24945
G1 X128.816 Y123.353 E0.02036
G1 X128.816 Y199.354 E3.24945
G1 X128.34 Y199.354 E0.02036
G1 X128.34 Y123.353 E3.24945
G1 X127.864 Y123.353 E0.02036
G1 X127.864 Y199.354 E3.24945
G1 X127.388 Y199.354 E0.02036
G1 X127.388 Y123.353 E3.24945
G1 X126.912 Y123.353 E0.02036
G1 X126.912 Y199.354 E3.24945
G1 X126.435 Y199.354 E0.02036
G1 X126.435 Y123.353 E3.24945
G1 X125.959 Y123.353 E0.02036
G1 X125.959 Y199.354 E3.24945
G1 X125.483 Y199.354 E0.02036
G1 X125.483 Y123.353 E3.24945
G1 X125.007 Y123.353 E0.02036
G1 X125.007 Y199.354 E3.24945
G1 X124.531 Y199.354 E0.02036
G1 X124.531 Y123.353 E3.24945
G1 X124.055 Y123.353 E0.02036
G1 X124.055 Y199.354 E3.24945
G1 X123.749 Y199.354 E0.01308
G1 X123.579 Y199.525 E0.01029
G1 X123.579 Y123.353 E3.25673
G1 X123.103 Y123.353 E0.02036
G1 X123.103 Y136.933 E0.58061
G1 X122.627 Y136.933 E0.02036
G1 X122.627 Y123.353 E0.58061
M73 P1 R134
G1 X122.15 Y123.353 E0.02036
G1 X122.15 Y136.933 E0.58061
G1 X121.674 Y136.933 E0.02036
G1 X121.674 Y123.353 E0.58061
G1 X121.198 Y123.353 E0.02036
G1 X121.198 Y136.933 E0.58061
G1 X120.722 Y136.933 E0.02036
G1 X120.722 Y123.353 E0.58061
G1 X120.246 Y123.353 E0.02036
G1 X120.246 Y136.933 E0.58061
G1 X119.77 Y136.933 E0.02036
G1 X119.77 Y123.353 E0.58061
G1 X119.294 Y123.353 E0.02036
G1 X119.294 Y137.117 E0.58849
G1 E-0.8 F3000
; acceleration to travel
M204 S3000
G1 X177.673 Y137.117 F9000
; decel to extrusion
M204 S1000
G1 X197.132 Y137.117
; end travel
G1 E0.8 F1800
G1 X197.132 Y123.062 E0.60095
G1 X211.295 Y123.062 E0.60553
G1 X211.295 Y137.225 E0.60553
G1 X206.938 Y137.225 E0.18629
G1 X206.938 Y200.453 E2.70336
G1 X206.13 Y199.646 E0.04882
G1 X197.132 Y199.646 E0.38472
G1 X197.132 Y137.117 E2.67342
; acceleration to travel
M204 S3000
G1 X207.313 Y137.117 F9000
; decel to extrusion
M204 S1000
G1 X210.706 Y137.117
; end travel
G1 F1800
G1 X210.706 Y123.353 E0.58849
G1 X210.23 Y123.353 E0.02036
G1 X210.23 Y136.933 E0.58061
G1 X209.754 Y136.933 E0.02036
G1 X209.754 Y123.353 E0.58061
G1 X209.278 Y123.353 E0.02036
G1 X209.278 Y136.933 E0.58061
G1 X208.802 Y136.933 E0.02036
G1 X208.802 Y123.353 E0.58061
G1 X208.326 Y123.353 E0.02036
G1 X208.326 Y136.933 E0.58061
G1 X207.85 Y136.933 E0.02036
G1 X207.85 Y123.353 E0.58061
G1 X207.373 Y123.353 E0.02036
G1 X207.373 Y136.933 E0.58061
G1 X206.897 Y136.933 E0.02036
G1 X206.897 Y123.353 E0.58061
G1 X206.421 Y123.353 E0.02036
G1 X206.421 Y199.524 E3.25673
G1 X206.251 Y199.354 E0.01029
G1 X205.945 Y199.354 E0.01308
G1 X205.945 Y123.353 E3.24945
G1 X205.469 Y123.353 E0.02036
G1 X205.469 Y199.354 E3.24945
G1 X204.993 Y199.354 E0.02036
G1 X204.993 Y123.353 E3.24945
G1 X204.517 Y123.353 E0.02036
G1 X204.517 Y199.354 E3.24945
G1 X204.041 Y199.354 E0.02036
G1 X204.041 Y123.353 E3.24945
G1 X203.565 Y123.353 E0.02036
G1 X203.565 Y199.354 E3.24945
G1 X203.088 Y199.354 E0.02036
G1 X203.088 Y123.353 E3.24945
G1 X202.612 Y123.353 E0.02036
G1 X202.612 Y199.354 E3.24945
G1 X202.136 Y199.354 E0.02036
G1 X202.136 Y123.353 E3.24945
G1 X201.66 Y123.353 E0.02036
G1 X201.66 Y199.354 E3.24945
G1 X201.184 Y199.354 E0.02036
G1 X201.184 Y123.353 E3.24945
G1 X200.708 Y123.353 E0.02036
G1 X200.708 Y199.354 E3.24945
G1 X200.232 Y199.354 E0.02036
G1 X200.232 Y123.353 E3.24945
G1 X199.756 Y123.353 E0.02036
G1 X199.756 Y199.354 E3.24945
G1 X199.28 Y199.354 E0.02036
G1 X199.28 Y123.353 E3.24945
G1 X198.804 Y123.353 E0.02036
G1 X198.804 Y199.354 E3.24945
G1 X198.327 Y199.354 E0.02036
G1 X198.327 Y123.353 E3.24945
M73 P1 R133
G1 X197.851 Y123.353 E0.02036
G1 X197.851 Y199.539 E3.25733
G1 E-0.8 F3000
; acceleration to travel
M204 S3000
G1 X191.595 Y199.539 F9000
; decel to extrusion
M204 S1000
G1 X189.509 Y199.539
; end travel
G1 E0.8 F1800
G1 X189.509 Y199.646 E0.00458
G1 X140.49 Y199.646 E2.09583
G1 X140.49 Y123.062 E3.27437
G1 X189.509 Y123.062 E2.09583
G1 X189.509 Y199.539 E3.26979
G1 X188.805 Y199.539 F9000
G1 F1800
G1 X188.805 Y123.353 E3.25733
G1 X188.329 Y123.353 E0.02036
G1 X188.329 Y199.354 E3.24945
G1 X187.853 Y199.354 E0.02036
G1 X187.853 Y123.353 E3.24945
G1 X187.377 Y123.353 E0.02036
G1 X187.377 Y199.354 E3.24945
M73 P2 R133
G1 X186.901 Y199.354 E0.02036
G1 X186.901 Y123.353 E3.24945
G1 X186.425 Y123.353 E0.02036
G1 X186.425 Y199.354 E3.24945
G1 X185.949 Y199.354 E0.02036
G1 X185.949 Y123.353 E3.24945
G1 X185.473 Y123.353 E0.02036
G1 X185.473 Y199.354 E3.24945
G1 X184.996 Y199.354 E0.02036
G1 X184.996 Y123.353 E3.24945
G1 X184.52 Y123.353 E0.02036
G1 X184.52 Y199.354 E3.24945
G1 X184.044 Y199.354 E0.02036
G1 X184.044 Y123.353 E3.24945
G1 X183.568 Y123.353 E0.02036
G1 X183.568 Y199.354 E3.24945
G1 X183.092 Y199.354 E0.02036
G1 X183.092 Y123.353 E3.24945
G1 X182.616 Y123.353 E0.02036
G1 X182.616 Y199.354 E3.24945
G1 X182.14 Y199.354 E0.02036
G1 X182.14 Y123.353 E3.24945
G1 X181.664 Y123.353 E0.02036
G1 X181.664 Y199.354 E3.24945
G1 X181.188 Y199.354 E0.02036
G1 X181.188 Y123.353 E3.24945
G1 X180.712 Y123.353 E0.02036
G1 X180.711 Y199.354 E3.24945
G1 X180.235 Y199.354 E0.02036
G1 X180.235 Y123.353 E3.24945
M73 P2 R132
G1 X179.759 Y123.353 E0.02036
G1 X179.759 Y199.354 E3.24945
G1 X179.283 Y199.354 E0.02036
G1 X179.283 Y123.353 E3.24945
G1 X178.807 Y123.353 E0.02036
G1 X178.807 Y199.354 E3.24945
G1 X178.331 Y199.354 E0.02036
G1 X178.331 Y123.353 E3.24945
G1 X177.855 Y123.353 E0.02036
G1 X177.855 Y199.354 E3.24945
G1 X177.379 Y199.354 E0.02036
G1 X177.379 Y123.353 E3.24945
G1 X176.903 Y123.353 E0.02036
G1 X176.903 Y199.354 E3.24945
G1 X176.427 Y199.354 E0.02036
G1 X176.427 Y123.353 E3.24945
G1 X175.95 Y123.353 E0.02036
G1 X175.95 Y199.354 E3.24945
G1 X175.474 Y199.354 E0.02036
G1 X175.474 Y123.353 E3.24945
G1 X174.998 Y123.353 E0.02036
G1 X174.998 Y199.354 E3.24945
G1 X174.522 Y199.354 E0.02036
G1 X174.522 Y123.353 E3.24945
G1 X174.046 Y123.353 E0.02036
G1 X174.046 Y199.354 E3.24945
G1 X173.57 Y199.354 E0.02036
G1 X173.57 Y123.353 E3.24945
G1 X173.094 Y123.353 E0.02036
G1 X173.094 Y199.354 E3.24945
G1 X172.618 Y199.354 E0.02036
G1 X172.618 Y123.353 E3.24945
G1 X172.142 Y123.353 E0.02036
G1 X172.142 Y199.354 E3.24945
M73 P3 R132
G1 X171.665 Y199.354 E0.02036
G1 X171.665 Y123.353 E3.24945
G1 X171.189 Y123.353 E0.02036
G1 X171.189 Y199.354 E3.24945
G1 X170.713 Y199.354 E0.02036
G1 X170.713 Y123.353 E3.24945
G1 X170.237 Y123.353 E0.02036
G1 X170.237 Y199.354 E3.24945
G1 X169.761 Y199.354 E0.02036
G1 X169.761 Y123.353 E3.24945
G1 X169.285 Y123.353 E0.02036
G1 X169.285 Y199.354 E3.24945
M73 P3 R131
G1 X168.809 Y199.354 E0.02036
G1 X168.809 Y123.353 E3.24945
G1 X168.333 Y123.353 E0.02036
G1 X168.333 Y199.354 E3.24945
G1 X167.857 Y199.354 E0.02036
G1 X167.857 Y123.353 E3.24945
G1 X167.381 Y123.353 E0.02036
G1 X167.381 Y199.354 E3.24945
G1 X166.904 Y199.354 E0.02036
G1 X166.904 Y123.353 E3.24945
G1 X166.428 Y123.353 E0.02036
G1 X166.428 Y199.354 E3.24945
G1 X165.952 Y199.354 E0.02036
G1 X165.952 Y123.353 E3.24945
G1 X165.476 Y123.353 E0.02036
G1 X165.476 Y199.354 E3.24945
G1 X165 Y199.354 E0.02036
G1 X165 Y123.353 E3.24945
G1 X164.524 Y123.353 E0.02036
G1 X164.524 Y199.354 E3.24945
G1 X164.048 Y199.354 E0.02036
G1 X164.048 Y123.353 E3.24945
G1 X163.572 Y123.353 E0.02036
G1 X163.572 Y199.354 E3.24945
G1 X163.096 Y199.354 E0.02036
G1 X163.096 Y123.353 E3.24945
G1 X162.619 Y123.353 E0.02036
G1 X162.619 Y199.354 E3.24945
G1 X162.143 Y199.354 E0.02036
G1 X162.143 Y123.353 E3.24945
G1 X161.667 Y123.353 E0.02036
G1 X161.667 Y199.354 E3.24945
G1 X161.191 Y199.354 E0.02036
G1 X161.191 Y123.353 E3.24945
G1 X160.715 Y123.353 E0.02036
G1 X160.715 Y199.354 E3.24945
G1 X160.239 Y199.354 E0.02036
G1 X160.239 Y123.353 E3.24945
G1 X159.763 Y123.353 E0.02036
G1 X159.763 Y199.354 E3.24945
G1 X159.287 Y199.354 E0.02036
G1 X159.287 Y123.353 E3.24945
G1 X158.811 Y123.353 E0.02036
G1 X158.811 Y199.354 E3.24945
G1 X158.335 Y199.354 E0.02036
G1 X158.335 Y123.353 E3.24945
M73 P3 R130
G1 X157.858 Y123.353 E0.02036
G1 X157.858 Y199.354 E3.24945
G1 X157.382 Y199.354 E0.02036
G1 X157.382 Y123.353 E3.24945
G1 X156.906 Y123.353 E0.02036
G1 X156.906 Y199.354 E3.24945
M73 P4 R130
G1 X156.43 Y199.354 E0.02036
G1 X156.43 Y123.353 E3.24945
G1 X155.954 Y123.353 E0.02036
G1 X155.954 Y199.354 E3.24945
G1 X155.478 Y199.354 E0.02036
G1 X155.478 Y123.353 E3.24945
G1 X155.002 Y123.353 E0.02036
G1 X155.002 Y199.354 E3.24945
G1 X154.526 Y199.354 E0.02036
G1 X154.526 Y123.353 E3.24945
G1 X154.05 Y123.353 E0.02036
G1 X154.05 Y199.354 E3.24945
G1 X153.573 Y199.354 E0.02036
G1 X153.573 Y123.353 E3.24945
G1 X153.097 Y123.353 E0.02036
G1 X153.097 Y199.354 E3.24945
G1 X152.621 Y199.354 E0.02036
G1 X152.621 Y123.353 E3.24945
G1 X152.145 Y123.353 E0.02036
G1 X152.145 Y199.354 E3.24945
G1 X151.669 Y199.354 E0.02036
G1 X151.669 Y123.353 E3.24945
G1 X151.193 Y123.353 E0.02036
G1 X151.193 Y199.354 E3.24945
G1 X150.717 Y199.354 E0.02036
G1 X150.717 Y123.353 E3.24945
G1 X150.241 Y123.353 E0.02036
G1 X150.241 Y199.354 E3.24945
G1 X149.765 Y199.354 E0.02036
G1 X149.765 Y123.353 E3.24945
G1 X149.289 Y123.353 E0.02036
G1 X149.288 Y199.354 E3.24945
G1 X148.812 Y199.354 E0.02036
G1 X148.812 Y123.353 E3.24945
G1 X148.336 Y123.353 E0.02036
G1 X148.336 Y199.354 E3.24945
G1 X147.86 Y199.354 E0.02036
G1 X147.86 Y123.353 E3.24945
G1 X147.384 Y123.353 E0.02036
G1 X147.384 Y199.354 E3.24945
G1 X146.908 Y199.354 E0.02036
G1 X146.908 Y123.353 E3.24945
M73 P4 R129
G1 X146.432 Y123.353 E0.02036
G1 X146.432 Y199.354 E3.24945
G1 X145.956 Y199.354 E0.02036
G1 X145.956 Y123.353 E3.24945
G1 X145.48 Y123.353 E0.02036
G1 X145.48 Y199.354 E3.24945
G1 X145.004 Y199.354 E0.02036
G1 X145.004 Y123.353 E3.24945
G1 X144.527 Y123.353 E0.02036
G1 X144.527 Y199.354 E3.24945
G1 X144.051 Y199.354 E0.02036
G1 X144.051 Y123.353 E3.24945
G1 X143.575 Y123.353 E0.02036
G1 X143.575 Y199.354 E3.24945
G1 X143.099 Y199.354 E0.02036
G1 X143.099 Y123.353 E3.24945
G1 X142.623 Y123.353 E0.02036
G1 X142.623 Y199.354 E3.24945
G1 X142.147 Y199.354 E0.02036
G1 X142.147 Y123.353 E3.24945
M73 P5 R129
G1 X141.671 Y123.353 E0.02036
G1 X141.671 Y199.354 E3.24945
G1 X141.195 Y199.354 E0.02036
G1 X141.195 Y123.169 E3.25733
G1 E-0.8 F3000
; acceleration to travel
M204 S3000
G1 X128.615 Y181.272 F9000
; decel to extrusion
M204 S1000
G1 X124.422 Y200.64
; end travel
G1 E0.8 F1800
;TYPE:External perimeter
G1 X205.578 Y200.64 E3.46986
G1 X205.578 Y201.36 E0.03078
G1 X124.422 Y201.36 E3.46986
G1 X124.422 Y200.64 E0.03078
;WIPE_START
M204 S4000
G1 X124.768 Y200.84 F9000
;WIPE_END
M204 S1000
G1 X124.619 Y201
;TYPE:Gap fill
;WIDTH:0.37757
G1 F1800
G1 X205.218 Y201 E2.62228
G1 X205.381 Y201 E0.0053
; INIT stop printing object systainer_porte_casque_v3.stl id:0 copy 0
;LAYER_CHANGE
;Z:0.44
;HEIGHT:0.2
; stop printing object systainer_porte_casque_v3.stl id:0 copy 0
M204 S4000
G1 Z0.44 F9000
G92 E0
; INIT printing object systainer_porte_casque_v3.stl id:0 copy 0
; printing object systainer_porte_casque_v3.stl id:0 copy 0
; acceleration to travel
M204 S3000
G1 X205.701 Y201.259
; decel to extrusion
M204 S1500
G1 X205.915 Y201.433
; end travel
;TYPE:External perimeter
;WIDTH:0.4
G1 F4800
G1 X205.871 Y201.433 E0.00131
G1 X124.129 Y201.433 E2.42702
;TYPE:Overhang perimeter
;WIDTH:0.368782
;HEIGHT:0.368782
G1 F4200
M204 S2000
G1 X123.905 Y201.433 E0.00993
G1 X123.905 Y200.567 E0.03849
G1 X124.085 Y200.567 E0.00798
;TYPE:External perimeter
;WIDTH:0.4
;HEIGHT:0.2
G1 F4800
M204 S1500
G1 X124.129 Y200.567 E0.00131
G1 X205.871 Y200.567 E2.42702
;TYPE:Overhang perimeter
;WIDTH:0.368782
;HEIGHT:0.368782
G1 F4200
M204 S2000
G1 X206.095 Y200.567 E0.00993
G1 X206.095 Y201.433 E0.03849
G1 X205.915 Y201.433 E0.00798
G1 X205.931 Y201 F9000
;TYPE:Gap fill
;WIDTH:0.581309
;HEIGHT:0.2
G1 F1800
G1 X205.796 Y201 E0.00603
G1 X205.661 Y201 E0.00603
G1 X124.339 Y201 E3.64059
G1 X124.204 Y201 E0.00603
G1 X124.069 Y201 E0.00603
; INIT stop printing object systainer_porte_casque_v3.stl id:0 copy 0
;LAYER_CHANGE
;Z:0.54223
;HEIGHT:0.10223
; stop printing object systainer_porte_casque_v3.stl id:0 copy 0
M204 S4000
G1 Z0.54223 F9000
G92 E0
; INIT printing object systainer_porte_casque_v3.stl id:0 copy 0
G1 E-0.8 F3000
; printing object systainer_porte_casque_v3.stl id:0 copy 0
M204 S3000
G1 X129.943 Y129.965 F9000
G1 E0.8 F1800
;TYPE:Support material
;WIDTH:0.4
;HEIGHT:0.30223
G1 F3600
G1 X129.943 Y125.986 E0.16754
G1 X121.629 Y125.986 E0.35012
G1 X121.629 Y130.143 E0.17506
G1 X129.943 Y130.143 E0.35012
G1 X129.943 Y134.5 E0.18348
G1 X125.986 Y134.5 E0.16664
G1 X125.986 Y134.3 E0.00842
G1 X121.629 Y134.3 E0.18348
