; generated by SuperSlicer 2.4 on 2022-07-19 at 15:00:52 UTC


;
;

;
;
; 

; external perimeters extrusion width = 0.40mm
; perimeters extrusion width = 0.48mm
; infill extrusion width = 0.72mm
; solid infill extrusion width = 0.56mm
; top infill extrusion width = 0.40mm
; support material extrusion width = 0.42mm
; first layer extrusion width = 0.48mm

; external perimeters extrusion width = 0.40mm
; perimeters extrusion width = 0.48mm
; infill extrusion width = 0.72mm
; solid infill extrusion width = 0.56mm
; top infill extrusion width = 0.40mm
; support material extrusion width = 0.42mm
; first layer extrusion width = 0.48mm

; external perimeters extrusion width = 0.40mm
; perimeters extrusion width = 0.48mm
; infill extrusion width = 0.72mm
; solid infill extrusion width = 0.56mm
; top infill extrusion width = 0.40mm
; support material extrusion width = 0.42mm
; first layer extrusion width = 0.48mm

; external perimeters extrusion width = 0.40mm
; perimeters extrusion width = 0.48mm
; infill extrusion width = 0.72mm
; solid infill extrusion width = 0.56mm
; top infill extrusion width = 0.40mm
; support material extrusion width = 0.42mm
; first layer extrusion width = 0.48mm

; external perimeters extrusion width = 0.40mm
; perimeters extrusion width = 0.48mm
; infill extrusion width = 0.72mm
; solid infill extrusion width = 0.56mm
; top infill extrusion width = 0.40mm
; support material extrusion width = 0.42mm
; first layer extrusion width = 0.48mm

; external perimeters extrusion width = 0.40mm
; perimeters extrusion width = 0.48mm
; infill extrusion width = 0.72mm
; solid infill extrusion width = 0.56mm
; top infill extrusion width = 0.40mm
; support material extrusion width = 0.42mm
; first layer extrusion width = 0.48mm

; external perimeters extrusion width = 0.40mm
; perimeters extrusion width = 0.48mm
; infill extrusion width = 0.72mm
; solid infill extrusion width = 0.56mm
; top infill extrusion width = 0.40mm
; support material extrusion width = 0.42mm
; first layer extrusion width = 0.48mm

; external perimeters extrusion width = 0.40mm
; perimeters extrusion width = 0.48mm
; infill extrusion width = 0.72mm
; solid infill extrusion width = 0.56mm
; top infill extrusion width = 0.40mm
; support material extrusion width = 0.42mm
; first layer extrusion width = 0.48mm

; object:{"name":"Post","id":"Post.stl id:0 copy 0","object_center":[158.576390,171.416124,0.000000],"boundingbox_center":[158.576390,171.416124,10.875000],"boundingbox_size":[86.974500,86.964629,21.750000]}
; object:{"name":"Post","id":"Post.stl id:1 copy 0","object_center":[145.733272,184.257399,0.000000],"boundingbox_center":[145.733272,184.257399,10.875000],"boundingbox_size":[86.974500,86.964629,21.750000]}
; object:{"name":"Post","id":"Post.stl id:2 copy 0","object_center":[171.420354,158.575694,0.000000],"boundingbox_center":[171.420354,158.575694,10.875000],"boundingbox_size":[86.974500,86.964629,21.750000]}
; object:{"name":"Post","id":"Post.stl id:3 copy 0","object_center":[132.888197,197.096717,0.000000],"boundingbox_center":[132.888197,197.096717,10.875000],"boundingbox_size":[86.974500,86.964629,21.750000]}
; object:{"name":"Post","id":"Post.stl id:4 copy 0","object_center":[184.268159,145.739105,0.000000],"boundingbox_center":[184.268159,145.739105,10.875000],"boundingbox_size":[86.974500,86.964629,21.750000]}
; object:{"name":"Post","id":"Post.stl id:5 copy 0","object_center":[120.051156,209.944070,0.000000],"boundingbox_center":[120.051156,209.944070,10.875000],"boundingbox_size":[86.974500,86.964629,21.750000]}
; object:{"name":"Post","id":"Post.stl id:6 copy 0","object_center":[197.109896,132.896448,0.000000],"boundingbox_center":[197.109896,132.896448,10.875000],"boundingbox_size":[86.974500,86.964629,21.750000]}
; object:{"name":"Post","id":"Post.stl id:7 copy 0","object_center":[209.949314,120.051472,0.000000],"boundingbox_center":[209.949314,120.051472,10.875000],"boundingbox_size":[86.974500,86.964629,21.750000]}
; plater:{"center":[165.000235,164.997771,0.000000],"boundingbox_center":[165.000235,164.997771,10.875000],"boundingbox_size":[176.872658,176.857227,21.750000]}

M73 P0 R205
;TYPE:Custom
START_PRINT T_BED=60 T_EXTRUDER=200
M107
G21 ; set units to millimeters
G90 ; use absolute coordinates
M83 ; use relative distances for extrusion
; Filament gcode
M104 S200 ; set temperature
M109 S200 ; set temperature and wait for it to be reached
M190 S60 ; set bed temperature and wait for it to be reached
M107
;LAYER_CHANGE
;Z:0.24
;HEIGHT:0.24
G1 Z0.24 F9000
G92 E0
G1 E-0.8 F3000
M204 S1000
G1 X123.253 Y123.284 F9000
G1 E0.8 F1800
;TYPE:Skirt
;WIDTH:0.52
G1 X74.106 Y172.419 E3.18371
G1 X73.063 Y174.493 E0.10634
G1 X73.211 Y176.195 E0.07828
G1 X74.107 Y177.65 E0.07828
G1 X152.327 Y255.869 E5.06766
G1 X153.357 Y256.597 E0.05779
G1 X155.823 Y256.904 E0.11385
G1 X157.702 Y255.895 E0.09768
G1 X255.891 Y157.715 E6.36116
G1 X256.677 Y156.553 E0.06425
G1 X256.954 Y155.633 E0.04404
G1 X256.812 Y153.855 E0.08169
G1 X255.897 Y152.344 E0.08096
G1 X177.67 Y74.112 E5.06829
G1 X175.599 Y73.069 E0.10623
G1 X173.896 Y73.214 E0.07828
G1 X172.441 Y74.109 E0.07828
G1 X123.253 Y123.284 E3.18634
G1 X123.583 Y123.614 F9000
G1 F1800
G1 X74.436 Y172.749 E3.1837
G1 X73.562 Y174.353 E0.08371
G1 X73.622 Y175.948 E0.07311
G1 X74.437 Y177.32 E0.07311
G1 X152.657 Y255.54 E5.06766
G1 X153.567 Y256.181 E0.05101
G1 X155.722 Y256.449 E0.0995
G1 X157.372 Y255.565 E0.08573
G1 X255.562 Y157.386 E6.36115
G1 X256.277 Y156.303 E0.05945
G1 X256.39 Y154.068 E0.10253
G1 X255.567 Y152.673 E0.07415
G1 X177.34 Y74.442 E5.06829
G1 X175.738 Y73.568 E0.08361
G1 X174.143 Y73.626 E0.07311
G1 X172.77 Y74.439 E0.07311
G1 X123.583 Y123.614 E3.18631
G1 E-0.8 F3000
; printing object Post.stl id:0 copy 0
; acceleration to travel
M204 S3000
G1 X123.656 Y128.136 F9000
; decel to extrusion
M204 S1000
G1 X123.68 Y129.643
; end travel
G1 E0.8 F1800
;TYPE:Internal perimeter
;WIDTH:0.48
G1 X200.424 Y206.391 E4.54765
M73 P0 R205
G1 X193.553 Y213.259 E0.40704
G1 X116.801 Y136.507 E4.54801
G1 X123.68 Y129.643 E0.40716
G1 X123.68 Y129.038 F9000
G1 F1800
G1 X201.03 Y206.391 E4.58354
G1 X193.552 Y213.864 E0.44295
G1 X116.194 Y136.506 E4.58393
G1 X123.68 Y129.038 E0.44307
G1 X123.68 Y128.432 F9000
;TYPE:External perimeter
G1 F1800
G1 X123.792 Y128.544 E0.00662
G1 X201.636 Y206.391 E4.61282
G1 X193.552 Y214.47 E0.47886
G1 X115.588 Y136.506 E4.61986
G1 X123.68 Y128.432 E0.47898
;WIPE_START
M204 S4000
G1 X123.784 Y128.819 F9000
;WIPE_END
; acceleration to travel
M204 S3000
G1 X123.61 Y129.58
; decel to extrusion
M204 S1000
G1 X123.543 Y129.87
; end travel
;TYPE:Solid infill
;WIDTH:0.483169
G1 F3600
G1 X200.068 Y206.395 E4.56449
G1 X199.765 Y206.698 E0.01807
G1 X123.37 Y130.303 E4.55674
G1 X123.067 Y130.606 E0.01807
G1 X199.462 Y207.001 E4.55675
G1 X199.159 Y207.304 E0.01807
G1 X122.763 Y130.909 E4.55677
G1 X122.46 Y131.211 E0.01807
G1 X198.856 Y207.607 E4.55679
G1 X198.553 Y207.91 E0.01807
G1 X122.157 Y131.514 E4.5568
G1 X121.853 Y131.817 E0.01807
G1 X198.25 Y208.213 E4.55682
G1 X197.946 Y208.516 E0.01807
G1 X121.55 Y132.119 E4.55683
G1 X121.247 Y132.422 E0.01807
G1 X197.643 Y208.819 E4.55685
G1 X197.34 Y209.121 E0.01807
G1 X120.943 Y132.725 E4.55687
G1 X120.64 Y133.027 E0.01807
G1 X197.037 Y209.424 E4.55688
G1 X196.734 Y209.727 E0.01807
G1 X120.337 Y133.33 E4.5569
G1 X120.033 Y133.632 E0.01807
G1 X196.431 Y210.03 E4.55691
G1 X196.128 Y210.333 E0.01807
G1 X119.73 Y133.935 E4.55693
G1 X119.427 Y134.238 E0.01807
G1 X195.825 Y210.636 E4.55695
G1 X195.522 Y210.939 E0.01807
G1 X119.123 Y134.54 E4.55696
G1 X118.82 Y134.843 E0.01807
G1 X195.219 Y211.242 E4.55698
G1 X194.916 Y211.545 E0.01807
G1 X118.517 Y135.146 E4.55699
G1 X118.213 Y135.448 E0.01807
G1 X194.613 Y211.848 E4.55701
G1 X194.31 Y212.151 E0.01807
G1 X117.91 Y135.751 E4.55702
G1 X117.607 Y136.054 E0.01807
G1 X194.006 Y212.453 E4.55704
M73 P1 R204
G1 X193.703 Y212.756 E0.01807
G1 X117.173 Y136.226 E4.56483
G1 E-0.8 F3000
; stop printing object Post.stl id:0 copy 0
; printing object Post.stl id:1 copy 0
; acceleration to travel
M204 S3000
G1 X112.267 Y141.071 F9000
; decel to extrusion
M204 S1000
G1 X110.837 Y142.485
; end travel
G1 E0.8 F1800
;TYPE:Internal perimeter
;WIDTH:0.48
G1 X187.58 Y219.232 E4.54765
G1 X180.709 Y226.1 E0.40704
G1 X103.958 Y149.348 E4.54801
G1 X110.837 Y142.485 E0.40716
G1 X110.837 Y141.879 F9000
G1 F1800
G1 X188.187 Y219.232 E4.58354
G1 X180.709 Y226.706 E0.44295
G1 X103.351 Y149.348 E4.58393
G1 X110.837 Y141.879 E0.44307
G1 X110.949 Y141.385 F9000
;TYPE:External perimeter
G1 F1800
G1 X188.793 Y219.233 E4.61282
G1 X180.709 Y227.312 E0.47886
G1 X102.745 Y149.347 E4.61986
G1 X110.837 Y141.273 E0.47898
G1 X110.949 Y141.385 E0.00662
;WIPE_START
M204 S4000
G1 X110.846 Y141.771 F9000
;WIPE_END
; acceleration to travel
M204 S3000
G1 X110.74 Y142.452
; decel to extrusion
M204 S1000
G1 X110.7 Y142.712
; end travel
;TYPE:Solid infill
;WIDTH:0.483169
G1 F3600
G1 X187.225 Y219.236 E4.56449
G1 X186.922 Y219.539 E0.01807
G1 X110.527 Y143.145 E4.55674
G1 X110.224 Y143.447 E0.01807
G1 X186.619 Y219.842 E4.55675
G1 X186.316 Y220.145 E0.01807
G1 X109.92 Y143.75 E4.55677
G1 X109.617 Y144.053 E0.01807
G1 X186.013 Y220.448 E4.55679
G1 X185.709 Y220.751 E0.01807
G1 X109.314 Y144.355 E4.5568
G1 X109.01 Y144.658 E0.01807
G1 X185.406 Y221.054 E4.55682
G1 X185.103 Y221.357 E0.01807
G1 X108.707 Y144.961 E4.55683
G1 X108.404 Y145.263 E0.01807
G1 X184.8 Y221.66 E4.55685
G1 X184.497 Y221.963 E0.01807
G1 X108.1 Y145.566 E4.55687
G1 X107.797 Y145.868 E0.01807
G1 X184.194 Y222.266 E4.55688
G1 X183.891 Y222.569 E0.01807
G1 X107.494 Y146.171 E4.5569
G1 X107.19 Y146.474 E0.01807
G1 X183.588 Y222.871 E4.55691
G1 X183.285 Y223.174 E0.01807
G1 X106.887 Y146.776 E4.55693
G1 X106.584 Y147.079 E0.01807
G1 X182.982 Y223.477 E4.55695
G1 X182.679 Y223.78 E0.01807
G1 X106.28 Y147.382 E4.55696
G1 X105.977 Y147.684 E0.01807
G1 X182.376 Y224.083 E4.55698
G1 X182.073 Y224.386 E0.01807
G1 X105.674 Y147.987 E4.55699
G1 X105.37 Y148.29 E0.01807
G1 X181.77 Y224.689 E4.55701
M73 P1 R203
G1 X181.466 Y224.992 E0.01807
G1 X105.067 Y148.592 E4.55702
G1 X104.764 Y148.895 E0.01807
G1 X181.163 Y225.295 E4.55704
G1 X180.86 Y225.598 E0.01807
G1 X104.33 Y149.067 E4.56483
G1 E-0.8 F3000
; stop printing object Post.stl id:1 copy 0
; printing object Post.stl id:3 copy 0
; acceleration to travel
M204 S3000
G1 X99.423 Y153.911 F9000
; decel to extrusion
M204 S1000
G1 X97.992 Y155.324
; end travel
G1 E0.8 F1800
;TYPE:Internal perimeter
;WIDTH:0.48
G1 X174.735 Y232.072 E4.54765
G1 X167.864 Y238.939 E0.40704
G1 X91.113 Y162.187 E4.54801
G1 X97.992 Y155.324 E0.40716
G1 X97.992 Y154.718 F9000
G1 F1800
G1 X175.341 Y232.072 E4.58354
G1 X167.864 Y239.545 E0.44295
G1 X90.506 Y162.187 E4.58393
G1 X97.992 Y154.718 E0.44307
G1 X98.104 Y154.224 F9000
;TYPE:External perimeter
G1 F1800
G1 X175.947 Y232.072 E4.61282
G1 X167.864 Y240.151 E0.47886
G1 X89.9 Y162.187 E4.61986
G1 X97.992 Y154.113 E0.47898
G1 X98.104 Y154.224 E0.00662
;WIPE_START
M204 S4000
G1 X98 Y154.611 F9000
;WIPE_END
; acceleration to travel
M204 S3000
G1 X97.895 Y155.292
; decel to extrusion
M204 S1000
G1 X97.855 Y155.551
; end travel
;TYPE:Solid infill
;WIDTH:0.483169
G1 F3600
G1 X174.38 Y232.076 E4.56449
G1 X174.077 Y232.379 E0.01807
G1 X97.682 Y155.984 E4.55674
G1 X97.379 Y156.287 E0.01807
G1 X173.774 Y232.682 E4.55675
G1 X173.471 Y232.985 E0.01807
G1 X97.075 Y156.589 E4.55677
G1 X96.772 Y156.892 E0.01807
G1 X173.167 Y233.287 E4.55679
G1 X172.864 Y233.59 E0.01807
G1 X96.469 Y157.195 E4.5568
G1 X96.165 Y157.497 E0.01807
G1 X172.561 Y233.893 E4.55682
G1 X172.258 Y234.196 E0.01807
G1 X95.862 Y157.8 E4.55683
G1 X95.559 Y158.102 E0.01807
G1 X171.955 Y234.499 E4.55685
G1 X171.652 Y234.802 E0.01807
G1 X95.255 Y158.405 E4.55687
G1 X94.952 Y158.708 E0.01807
G1 X171.349 Y235.105 E4.55688
G1 X171.046 Y235.408 E0.01807
G1 X94.649 Y159.01 E4.5569
G1 X94.345 Y159.313 E0.01807
G1 X170.743 Y235.711 E4.55691
G1 X170.44 Y236.014 E0.01807
G1 X94.042 Y159.616 E4.55693
G1 X93.739 Y159.918 E0.01807
G1 X170.137 Y236.317 E4.55695
M73 P2 R202
G1 X169.834 Y236.619 E0.01807
G1 X93.435 Y160.221 E4.55696
M73 P2 R202
G1 X93.132 Y160.524 E0.01807
G1 X169.531 Y236.922 E4.55698
G1 X169.228 Y237.225 E0.01807
G1 X92.829 Y160.826 E4.55699
G1 X92.525 Y161.129 E0.01807
G1 X168.924 Y237.528 E4.55701
G1 X168.621 Y237.831 E0.01807
G1 X92.222 Y161.432 E4.55702
G1 X91.918 Y161.734 E0.01807
G1 X168.318 Y238.134 E4.55704
G1 X168.015 Y238.437 E0.01807
G1 X91.485 Y161.907 E4.56483
G1 E-0.8 F3000
; stop printing object Post.stl id:3 copy 0
; printing object Post.stl id:5 copy 0
; acceleration to travel
M204 S3000
G1 X86.584 Y166.757 F9000
; decel to extrusion
M204 S1000
G1 X85.155 Y168.171
; end travel
G1 E0.8 F1800
;TYPE:Internal perimeter
;WIDTH:0.48
G1 X161.898 Y244.919 E4.54765
G1 X155.027 Y251.786 E0.40704
G1 X78.275 Y175.035 E4.54801
G1 X85.155 Y168.171 E0.40716
G1 X85.155 Y167.566 F9000
G1 F1800
G1 X162.504 Y244.919 E4.58354
G1 X155.027 Y252.392 E0.44295
G1 X77.669 Y175.034 E4.58393
G1 X85.155 Y167.566 E0.44307
G1 X85.267 Y167.072 F9000
;TYPE:External perimeter
G1 F1800
G1 X163.11 Y244.919 E4.61282
G1 X155.027 Y252.998 E0.47886
G1 X77.063 Y175.034 E4.61986
G1 X85.155 Y166.96 E0.47898
G1 X85.267 Y167.072 E0.00662
;WIPE_START
M204 S4000
G1 X85.163 Y167.458 F9000
;WIPE_END
; acceleration to travel
M204 S3000
G1 X85.058 Y168.139
; decel to extrusion
M204 S1000
G1 X85.018 Y168.398
; end travel
;TYPE:Solid infill
;WIDTH:0.483169
G1 F3600
G1 X161.543 Y244.923 E4.56449
G1 X161.24 Y245.226 E0.01807
G1 X84.845 Y168.831 E4.55674
G1 X84.542 Y169.134 E0.01807
G1 X160.937 Y245.529 E4.55675
G1 X160.633 Y245.832 E0.01807
G1 X84.238 Y169.437 E4.55677
G1 X83.935 Y169.739 E0.01807
G1 X160.33 Y246.135 E4.55679
G1 X160.027 Y246.438 E0.01807
G1 X83.632 Y170.042 E4.5568
G1 X83.328 Y170.345 E0.01807
G1 X159.724 Y246.741 E4.55682
G1 X159.421 Y247.044 E0.01807
G1 X83.025 Y170.647 E4.55683
G1 X82.722 Y170.95 E0.01807
G1 X159.118 Y247.346 E4.55685
G1 X158.815 Y247.649 E0.01807
G1 X82.418 Y171.252 E4.55687
G1 X82.115 Y171.555 E0.01807
G1 X158.512 Y247.952 E4.55688
G1 X158.209 Y248.255 E0.01807
G1 X81.812 Y171.858 E4.5569
G1 X81.508 Y172.16 E0.01807
G1 X157.906 Y248.558 E4.55691
M73 P2 R201
G1 X157.603 Y248.861 E0.01807
G1 X81.205 Y172.463 E4.55693
G1 X80.901 Y172.766 E0.01807
G1 X157.3 Y249.164 E4.55695
G1 X156.997 Y249.467 E0.01807
G1 X80.598 Y173.068 E4.55696
G1 X80.295 Y173.371 E0.01807
G1 X156.694 Y249.77 E4.55698
G1 X156.39 Y250.073 E0.01807
G1 X79.991 Y173.674 E4.55699
G1 X79.688 Y173.976 E0.01807
G1 X156.087 Y250.376 E4.55701
G1 X155.784 Y250.678 E0.01807
G1 X79.385 Y174.279 E4.55702
G1 X79.081 Y174.582 E0.01807
G1 X155.481 Y250.981 E4.55704
G1 X155.178 Y251.284 E0.01807
G1 X78.648 Y174.754 E4.56483
G1 E-0.8 F3000
; stop printing object Post.stl id:5 copy 0
; printing object Post.stl id:2 copy 0
; acceleration to travel
M204 S3000
G1 X118.129 Y135.202 F9000
; decel to extrusion
M204 S1000
G1 X129.645 Y123.666
; end travel
G1 E0.8 F1800
;TYPE:Internal perimeter
;WIDTH:0.48
G1 X136.524 Y116.803 E0.40716
G1 X213.268 Y193.551 E4.54765
G1 X206.396 Y200.418 E0.40704
G1 X129.645 Y123.666 E4.54801
G1 X129.038 Y123.666 F9000
G1 F1800
G1 X136.524 Y116.197 E0.44307
G1 X213.874 Y193.551 E4.58354
G1 X206.396 Y201.024 E0.44295
G1 X129.038 Y123.666 E4.58393
G1 X128.432 Y123.666 F9000
;TYPE:External perimeter
G1 F1800
G1 X136.524 Y115.592 E0.47898
G1 X136.636 Y115.703 E0.00662
G1 X214.48 Y193.551 E4.61282
G1 X206.396 Y201.63 E0.47886
G1 X128.432 Y123.666 E4.61986
;WIPE_START
M204 S4000
G1 X128.818 Y123.562 F9000
;WIPE_END
G1 E-0.8 F3000
; acceleration to travel
M204 S3000
G1 X134.299 Y118.832 F9000
; decel to extrusion
M204 S1000
G1 X136.387 Y117.03
; end travel
G1 E0.8 F1800
;TYPE:Solid infill
;WIDTH:0.483169
G1 F3600
G1 X212.912 Y193.555 E4.56449
G1 X212.609 Y193.858 E0.01807
G1 X136.214 Y117.463 E4.55674
G1 X135.911 Y117.766 E0.01807
G1 X212.306 Y194.161 E4.55675
G1 X212.003 Y194.464 E0.01807
G1 X135.607 Y118.068 E4.55677
G1 X135.304 Y118.371 E0.01807
G1 X211.7 Y194.766 E4.55679
