; generated by SuperSlicer 2.4 on 2022-05-16 at 06:05:34 UTC


;
;

;
;
; 

; external perimeters extrusion width = 0.40mm
; perimeters extrusion width = 0.40mm
; infill extrusion width = 0.72mm
; solid infill extrusion width = 0.56mm
; top infill extrusion width = 0.40mm
; support material extrusion width = 0.40mm
; first layer extrusion width = 0.48mm

; external perimeters extrusion width = 0.40mm
; perimeters extrusion width = 0.40mm
; infill extrusion width = 0.72mm
; solid infill extrusion width = 0.56mm
; top infill extrusion width = 0.40mm
; support material extrusion width = 0.40mm
; first layer extrusion width = 0.48mm

; object:{"name":"Post","id":"Post.stl id:0 copy 0","object_center":[165.000712,155.919198,0.000000],"boundingbox_center":[165.000712,155.919198,10.875000],"boundingbox_size":[110.969398,12.161605,21.750000]}
; object:{"name":"Post","id":"Post.stl id:1 copy 0","object_center":[165.000712,174.080803,0.000000],"boundingbox_center":[165.000712,174.080803,10.875000],"boundingbox_size":[110.969398,12.161605,21.750000]}
; plater:{"center":[165.000712,165.000000,0.000000],"boundingbox_center":[165.000712,165.000000,10.875000],"boundingbox_size":[110.969398,30.323210,21.750000]}

M73 P0 R58
;TYPE:Custom
START_PRINT T_BED=60 T_EXTRUDER=200
M107
G21 ; set units to millimeters
G90 ; use absolute coordinates
M83 ; use relative distances for extrusion
; Filament gcode
M104 S200 ; set temperature
M109 S200 ; set temperature and wait for it to be reached
M190 S60 ; set bed temperature and wait for it to be reached
M107
;LAYER_CHANGE
;Z:0.24
;HEIGHT:0.24
G1 Z0.24 F9000
G92 E0
G1 E-0.8 F3000
M204 S1000
G1 X107.428 Y146.991 F9000
M73 P0 R57
G1 E0.8 F1800
;TYPE:Skirt
;WIDTH:0.52
G1 X106.327 Y148.297 E0.07988
G1 X105.93 Y149.959 E0.07988
G1 X105.917 Y180.036 E1.40601
G1 X106.646 Y182.242 E0.10858
G1 X107.954 Y183.341 E0.07988
G1 X109.616 Y183.736 E0.07988
G1 X220.263 Y183.733 E5.17236
G1 X222.046 Y183.276 E0.08608
G1 X222.778 Y182.772 E0.04154
G1 X223.791 Y181.308 E0.08321
G1 X224.057 Y179.93 E0.0656
G1 X224.057 Y150.07 E1.39587
G1 X223.791 Y148.692 E0.0656
G1 X223.336 Y147.845 E0.04494
G1 X221.979 Y146.689 E0.08335
G1 X220.263 Y146.267 E0.0826
G1 X110.029 Y146.264 E5.15307
G1 X109.63 Y146.264 E0.01865
G1 X107.428 Y146.991 E0.1084
G1 X107.797 Y147.334 F9000
G1 F1800
G1 X106.792 Y148.414 E0.06895
G1 X106.397 Y149.96 E0.0746
G1 X106.383 Y180.036 E1.40598
G1 X106.9 Y181.79 E0.08548
G1 X108.07 Y182.876 E0.0746
G1 X109.616 Y183.27 E0.0746
G1 X220.263 Y183.267 E5.17236
M73 P1 R57
G1 X221.83 Y182.863 E0.07566
G1 X223.358 Y181.134 E0.10785
G1 X223.591 Y179.93 E0.05733
G1 X223.591 Y150.07 E1.39587
G1 X223.331 Y148.798 E0.0607
G1 X221.762 Y147.102 E0.10798
G1 X220.263 Y146.733 E0.07219
G1 X110.029 Y146.73 E5.15307
G1 X109.63 Y146.73 E0.01865
G1 X107.879 Y147.245 E0.08531
G1 X107.797 Y147.334 E0.00565
G1 E-0.8 F3000
; printing object Post.stl id:0 copy 0
; acceleration to travel
M204 S3000
G1 X110.314 Y150.45 F9000
; decel to extrusion
M204 S1000
G1 X111.154 Y151.489
; end travel
G1 E0.8 F1800
;TYPE:Internal perimeter
;WIDTH:0.48
G1 X218.832 Y151.492 E4.60385
G1 X218.832 Y160.347 E0.37859
G1 X111.143 Y160.349 E4.60429
G1 X111.154 Y151.489 E0.37883
G1 X110.726 Y151.061 F9000
G1 F1800
G1 X219.261 Y151.063 E4.64047
G1 X219.261 Y160.775 E0.41523
G1 X110.714 Y160.778 E4.64095
G1 X110.726 Y151.061 E0.41547
G1 X110.298 Y150.632 F9000
G1 F1800
G1 X219.689 Y150.635 E4.67709
G1 X219.689 Y161.204 E0.45187
G1 X110.285 Y161.206 E4.67761
G1 X110.298 Y150.632 E0.45211
G1 X109.87 Y150.204 F9000
;TYPE:External perimeter
G1 F1800
G1 X110.029 Y150.204 E0.00681
G1 X220.118 Y150.206 E4.7069
G1 X220.118 Y161.632 E0.48851
G1 X109.856 Y161.635 E4.71427
M73 P2 R57
G1 X109.87 Y150.204 E0.48875
;WIPE_START
M204 S4000
G1 X110.216 Y150.404 F9000
;WIPE_END
; acceleration to travel
M204 S3000
G1 X188.823 Y151.865
; decel to extrusion
M204 S1000
G1 X218.768 Y152.422
; end travel
;TYPE:Solid infill
;WIDTH:0.47158
G1 F3600
G1 X218.086 Y151.74 E0.04051
G1 X217.48 Y151.74 E0.02546
G1 X218.584 Y152.844 E0.06557
G1 X218.584 Y153.45 E0.02545
G1 X216.874 Y151.74 E0.10156
G1 X216.268 Y151.74 E0.02546
G1 X218.584 Y154.056 E0.13756
G1 X218.584 Y154.662 E0.02545
G1 X215.662 Y151.74 E0.17356
G1 X215.056 Y151.74 E0.02546
G1 X218.584 Y155.268 E0.20956
G1 X218.584 Y155.874 E0.02545
G1 X214.45 Y151.74 E0.24556
G1 X213.844 Y151.74 E0.02546
G1 X218.584 Y156.48 E0.28156
G1 X218.584 Y157.086 E0.02545
G1 X213.238 Y151.74 E0.31756
G1 X212.632 Y151.74 E0.02546
G1 X218.584 Y157.692 E0.35356
G1 X218.584 Y158.298 E0.02545
G1 X212.026 Y151.74 E0.38956
G1 X211.42 Y151.74 E0.02546
G1 X218.584 Y158.904 E0.42556
G1 X218.584 Y159.51 E0.02545
G1 X210.814 Y151.74 E0.46156
G1 X210.208 Y151.74 E0.02546
G1 X218.566 Y160.098 E0.4965
G1 X217.96 Y160.098 E0.02545
G1 X209.602 Y151.74 E0.49651
G1 X208.996 Y151.74 E0.02546
G1 X217.354 Y160.098 E0.49651
G1 X216.748 Y160.098 E0.02545
G1 X208.39 Y151.74 E0.49651
G1 X207.784 Y151.74 E0.02546
G1 X216.142 Y160.098 E0.49651
G1 X215.536 Y160.098 E0.02545
G1 X207.178 Y151.74 E0.49651
G1 X206.572 Y151.74 E0.02546
G1 X214.93 Y160.098 E0.49652
G1 X214.324 Y160.098 E0.02545
G1 X205.966 Y151.74 E0.49652
G1 X205.36 Y151.74 E0.02546
G1 X213.718 Y160.098 E0.49652
G1 X213.112 Y160.098 E0.02545
G1 X204.754 Y151.74 E0.49652
G1 X204.148 Y151.74 E0.02546
G1 X212.506 Y160.098 E0.49652
G1 X211.9 Y160.098 E0.02545
G1 X203.542 Y151.74 E0.49652
G1 X202.936 Y151.74 E0.02546
G1 X211.294 Y160.098 E0.49653
G1 X210.688 Y160.098 E0.02545
G1 X202.33 Y151.74 E0.49653
G1 X201.724 Y151.74 E0.02546
G1 X210.082 Y160.098 E0.49653
M73 P2 R56
G1 X209.477 Y160.098 E0.02545
G1 X201.118 Y151.74 E0.49653
G1 X200.512 Y151.74 E0.02546
G1 X208.871 Y160.098 E0.49653
G1 X208.265 Y160.098 E0.02545
G1 X199.906 Y151.74 E0.49654
G1 X199.3 Y151.74 E0.02546
G1 X207.659 Y160.098 E0.49654
G1 X207.053 Y160.098 E0.02545
G1 X198.694 Y151.74 E0.49654
G1 X198.088 Y151.74 E0.02546
G1 X206.447 Y160.098 E0.49654
G1 X205.841 Y160.098 E0.02545
G1 X197.482 Y151.74 E0.49654
G1 X196.876 Y151.74 E0.02546
G1 X205.235 Y160.098 E0.49654
G1 X204.629 Y160.098 E0.02545
G1 X196.27 Y151.74 E0.49655
G1 X195.664 Y151.74 E0.02546
G1 X204.023 Y160.098 E0.49655
G1 X203.417 Y160.098 E0.02545
G1 X195.058 Y151.74 E0.49655
G1 X194.452 Y151.74 E0.02546
G1 X202.811 Y160.098 E0.49655
G1 X202.205 Y160.099 E0.02545
G1 X193.846 Y151.74 E0.49655
G1 X193.24 Y151.74 E0.02546
G1 X201.599 Y160.099 E0.49656
G1 X200.993 Y160.099 E0.02545
G1 X192.634 Y151.74 E0.49656
G1 X192.028 Y151.74 E0.02546
G1 X200.387 Y160.099 E0.49656
G1 X199.781 Y160.099 E0.02545
G1 X191.422 Y151.74 E0.49656
G1 X190.816 Y151.74 E0.02546
G1 X199.175 Y160.099 E0.49656
G1 X198.569 Y160.099 E0.02545
G1 X190.21 Y151.74 E0.49656
G1 X189.604 Y151.74 E0.02546
G1 X197.963 Y160.099 E0.49657
G1 X197.357 Y160.099 E0.02545
G1 X188.998 Y151.74 E0.49657
G1 X188.392 Y151.74 E0.02546
G1 X196.751 Y160.099 E0.49657
G1 X196.145 Y160.099 E0.02545
G1 X187.786 Y151.74 E0.49657
G1 X187.18 Y151.74 E0.02546
G1 X195.539 Y160.099 E0.49657
G1 X194.933 Y160.099 E0.02545
G1 X186.574 Y151.739 E0.49658
G1 X185.968 Y151.739 E0.02546
G1 X194.327 Y160.099 E0.49658
G1 X193.721 Y160.099 E0.02545
G1 X185.362 Y151.739 E0.49658
G1 X184.756 Y151.739 E0.02546
G1 X193.115 Y160.099 E0.49658
G1 X192.509 Y160.099 E0.02545
G1 X184.15 Y151.739 E0.49658
G1 X183.544 Y151.739 E0.02546
G1 X191.903 Y160.099 E0.49659
G1 X191.297 Y160.099 E0.02545
G1 X182.938 Y151.739 E0.49659
G1 X182.332 Y151.739 E0.02546
G1 X190.692 Y160.099 E0.49659
G1 X190.086 Y160.099 E0.02545
G1 X181.726 Y151.739 E0.49659
G1 X181.12 Y151.739 E0.02546
G1 X189.48 Y160.099 E0.49659
G1 X188.874 Y160.099 E0.02545
G1 X180.514 Y151.739 E0.49659
G1 X179.908 Y151.739 E0.02546
G1 X188.268 Y160.099 E0.4966
G1 X187.662 Y160.099 E0.02545
G1 X179.302 Y151.739 E0.4966
G1 X178.696 Y151.739 E0.02546
G1 X187.056 Y160.099 E0.4966
G1 X186.45 Y160.099 E0.02545
G1 X178.09 Y151.739 E0.4966
G1 X177.484 Y151.739 E0.02546
G1 X185.844 Y160.099 E0.4966
G1 X185.238 Y160.099 E0.02545
G1 X176.878 Y151.739 E0.49661
G1 X176.272 Y151.739 E0.02546
G1 X184.632 Y160.099 E0.49661
G1 X184.026 Y160.099 E0.02545
G1 X175.666 Y151.739 E0.49661
G1 X175.06 Y151.739 E0.02546
G1 X183.42 Y160.099 E0.49661
G1 X182.814 Y160.099 E0.02545
G1 X174.454 Y151.739 E0.49661
G1 X173.848 Y151.739 E0.02546
G1 X182.208 Y160.099 E0.49661
G1 X181.602 Y160.099 E0.02545
G1 X173.242 Y151.739 E0.49662
G1 X172.636 Y151.739 E0.02546
G1 X180.996 Y160.099 E0.49662
G1 X180.39 Y160.099 E0.02545
G1 X172.03 Y151.739 E0.49662
G1 X171.424 Y151.739 E0.02546
G1 X179.784 Y160.099 E0.49662
G1 X179.178 Y160.099 E0.02545
G1 X170.818 Y151.739 E0.49662
G1 X170.212 Y151.739 E0.02546
G1 X178.572 Y160.099 E0.49663
G1 X177.966 Y160.099 E0.02545
G1 X169.606 Y151.739 E0.49663
G1 X169 Y151.739 E0.02546
G1 X177.36 Y160.099 E0.49663
G1 X176.754 Y160.099 E0.02545
G1 X168.394 Y151.739 E0.49663
G1 X167.788 Y151.739 E0.02546
G1 X176.148 Y160.099 E0.49663
G1 X175.542 Y160.099 E0.02545
G1 X167.182 Y151.739 E0.49664
G1 X166.576 Y151.739 E0.02546
G1 X174.936 Y160.099 E0.49664
G1 X174.33 Y160.099 E0.02545
G1 X165.97 Y151.739 E0.49664
G1 X165.364 Y151.739 E0.02546
G1 X173.724 Y160.099 E0.49664
G1 X173.118 Y160.099 E0.02545
G1 X164.758 Y151.739 E0.49664
G1 X164.152 Y151.739 E0.02546
G1 X172.512 Y160.099 E0.49664
G1 X171.906 Y160.099 E0.02545
G1 X163.546 Y151.739 E0.49665
G1 X162.94 Y151.739 E0.02546
G1 X171.301 Y160.099 E0.49665
G1 X170.695 Y160.099 E0.02545
G1 X162.334 Y151.739 E0.49665
G1 X161.728 Y151.739 E0.02546
G1 X170.089 Y160.099 E0.49665
G1 X169.483 Y160.099 E0.02545
G1 X161.122 Y151.739 E0.49665
G1 X160.516 Y151.739 E0.02546
G1 X168.877 Y160.099 E0.49666
G1 X168.271 Y160.099 E0.02545
G1 X159.91 Y151.739 E0.49666
G1 X159.304 Y151.739 E0.02546
G1 X167.665 Y160.099 E0.49666
G1 X167.059 Y160.099 E0.02545
G1 X158.698 Y151.739 E0.49666
G1 X158.092 Y151.739 E0.02546
G1 X166.453 Y160.099 E0.49666
G1 X165.847 Y160.099 E0.02545
G1 X157.486 Y151.739 E0.49666
G1 X156.88 Y151.739 E0.02546
G1 X165.241 Y160.099 E0.49667
G1 X164.635 Y160.099 E0.02545
G1 X156.274 Y151.739 E0.49667
G1 X155.668 Y151.739 E0.02546
G1 X164.029 Y160.099 E0.49667
G1 X163.423 Y160.1 E0.02545
G1 X155.062 Y151.739 E0.49667
G1 X154.456 Y151.739 E0.02546
G1 X162.817 Y160.1 E0.49667
G1 X162.211 Y160.1 E0.02545
G1 X153.85 Y151.739 E0.49668
G1 X153.244 Y151.739 E0.02546
G1 X161.605 Y160.1 E0.49668
G1 X160.999 Y160.1 E0.02545
G1 X152.638 Y151.739 E0.49668
G1 X152.032 Y151.739 E0.02546
G1 X160.393 Y160.1 E0.49668
G1 X159.787 Y160.1 E0.02545
G1 X151.426 Y151.739 E0.49668
G1 X150.82 Y151.739 E0.02546
G1 X159.181 Y160.1 E0.49668
G1 X158.575 Y160.1 E0.02545
G1 X150.214 Y151.739 E0.49669
G1 X149.608 Y151.739 E0.02546
G1 X157.969 Y160.1 E0.49669
G1 X157.363 Y160.1 E0.02545
G1 X149.002 Y151.739 E0.49669
G1 X148.396 Y151.739 E0.02546
G1 X156.757 Y160.1 E0.49669
G1 X156.151 Y160.1 E0.02545
G1 X147.79 Y151.738 E0.49669
G1 X147.184 Y151.738 E0.02546
G1 X155.545 Y160.1 E0.4967
G1 X154.939 Y160.1 E0.02545
G1 X146.578 Y151.738 E0.4967
M73 P3 R56
G1 X145.972 Y151.738 E0.02546
G1 X154.333 Y160.1 E0.4967
G1 X153.727 Y160.1 E0.02545
G1 X145.366 Y151.738 E0.4967
G1 X144.76 Y151.738 E0.02546
G1 X153.121 Y160.1 E0.4967
G1 X152.516 Y160.1 E0.02545
G1 X144.154 Y151.738 E0.49671
G1 X143.548 Y151.738 E0.02546
G1 X151.91 Y160.1 E0.49671
G1 X151.304 Y160.1 E0.02545
G1 X142.942 Y151.738 E0.49671
G1 X142.336 Y151.738 E0.02546
G1 X150.698 Y160.1 E0.49671
G1 X150.092 Y160.1 E0.02545
G1 X141.73 Y151.738 E0.49671
G1 X141.124 Y151.738 E0.02546
G1 X149.486 Y160.1 E0.49671
G1 X148.88 Y160.1 E0.02545
G1 X140.518 Y151.738 E0.49672
G1 X139.912 Y151.738 E0.02546
G1 X148.274 Y160.1 E0.49672
G1 X147.668 Y160.1 E0.02545
G1 X139.306 Y151.738 E0.49672
G1 X138.7 Y151.738 E0.02546
G1 X147.062 Y160.1 E0.49672
G1 X146.456 Y160.1 E0.02545
G1 X138.094 Y151.738 E0.49672
G1 X137.488 Y151.738 E0.02546
G1 X145.85 Y160.1 E0.49673
G1 X145.244 Y160.1 E0.02545
G1 X136.882 Y151.738 E0.49673
G1 X136.276 Y151.738 E0.02546
G1 X144.638 Y160.1 E0.49673
G1 X144.032 Y160.1 E0.02545
G1 X135.67 Y151.738 E0.49673
G1 X135.064 Y151.738 E0.02546
G1 X143.426 Y160.1 E0.49673
G1 X142.82 Y160.1 E0.02545
G1 X134.458 Y151.738 E0.49673
G1 X133.852 Y151.738 E0.02546
G1 X142.214 Y160.1 E0.49674
G1 X141.608 Y160.1 E0.02545
G1 X133.246 Y151.738 E0.49674
G1 X132.64 Y151.738 E0.02546
G1 X141.002 Y160.1 E0.49674
G1 X140.396 Y160.1 E0.02545
G1 X132.034 Y151.738 E0.49674
G1 X131.428 Y151.738 E0.02546
G1 X139.79 Y160.1 E0.49674
G1 X139.184 Y160.1 E0.02545
G1 X130.822 Y151.738 E0.49675
G1 X130.216 Y151.738 E0.02546
G1 X138.578 Y160.1 E0.49675
G1 X137.972 Y160.1 E0.02545
G1 X129.61 Y151.738 E0.49675
G1 X129.004 Y151.738 E0.02546
G1 X137.366 Y160.1 E0.49675
G1 X136.76 Y160.1 E0.02545
G1 X128.398 Y151.738 E0.49675
G1 X127.792 Y151.738 E0.02546
G1 X136.154 Y160.1 E0.49676
G1 X135.548 Y160.1 E0.02545
G1 X127.186 Y151.738 E0.49676
G1 X126.58 Y151.738 E0.02546
G1 X134.942 Y160.1 E0.49676
G1 X134.336 Y160.1 E0.02545
G1 X125.974 Y151.738 E0.49676
G1 X125.368 Y151.738 E0.02546
G1 X133.731 Y160.1 E0.49676
G1 X133.125 Y160.1 E0.02545
G1 X124.762 Y151.738 E0.49676
G1 X124.156 Y151.738 E0.02546
G1 X132.519 Y160.1 E0.49677
G1 X131.913 Y160.1 E0.02545
G1 X123.55 Y151.738 E0.49677
G1 X122.944 Y151.738 E0.02546
G1 X131.307 Y160.1 E0.49677
G1 X130.701 Y160.1 E0.02545
G1 X122.338 Y151.738 E0.49677
G1 X121.732 Y151.738 E0.02546
G1 X130.095 Y160.1 E0.49677
G1 X129.489 Y160.1 E0.02545
G1 X121.126 Y151.738 E0.49678
G1 X120.52 Y151.738 E0.02546
G1 X128.883 Y160.1 E0.49678
G1 X128.277 Y160.1 E0.02545
G1 X119.914 Y151.738 E0.49678
G1 X119.308 Y151.738 E0.02546
G1 X127.671 Y160.1 E0.49678
G1 X127.065 Y160.1 E0.02545
G1 X118.702 Y151.738 E0.49678
G1 X118.096 Y151.738 E0.02546
G1 X126.459 Y160.1 E0.49678
G1 X125.853 Y160.1 E0.02545
G1 X117.49 Y151.738 E0.49679
G1 X116.884 Y151.738 E0.02546
G1 X125.247 Y160.1 E0.49679
G1 X124.641 Y160.1 E0.02545
G1 X116.278 Y151.738 E0.49679
G1 X115.672 Y151.738 E0.02546
G1 X124.035 Y160.101 E0.49679
G1 X123.429 Y160.101 E0.02545
G1 X115.066 Y151.738 E0.49679
G1 X114.46 Y151.738 E0.02546
G1 X122.823 Y160.101 E0.4968
G1 X122.217 Y160.101 E0.02545
G1 X113.854 Y151.738 E0.4968
G1 X113.248 Y151.738 E0.02546
G1 X121.611 Y160.101 E0.4968
G1 X121.005 Y160.101 E0.02545
G1 X112.642 Y151.738 E0.4968
G1 X112.036 Y151.738 E0.02546
G1 X120.399 Y160.101 E0.4968
G1 X119.793 Y160.101 E0.02545
G1 X111.43 Y151.738 E0.4968
G1 X111.402 Y151.738 E0.00119
G1 X111.401 Y152.314 E0.02423
G1 X119.187 Y160.101 E0.46254
G1 X118.581 Y160.101 E0.02545
G1 X111.4 Y152.92 E0.42658
G1 X111.4 Y153.525 E0.02543
G1 X117.975 Y160.101 E0.39062
G1 X117.369 Y160.101 E0.02545
G1 X111.399 Y154.13 E0.35467
G1 X111.398 Y154.736 E0.02543
G1 X116.763 Y160.101 E0.31871
G1 X116.157 Y160.101 E0.02545
G1 X111.398 Y155.341 E0.28275
G1 X111.397 Y155.946 E0.02543
G1 X115.551 Y160.101 E0.2468
G1 X114.946 Y160.101 E0.02545
G1 X111.396 Y156.551 E0.21084
G1 X111.396 Y157.157 E0.02543
G1 X114.34 Y160.101 E0.17489
G1 X113.734 Y160.101 E0.02545
G1 X111.395 Y157.762 E0.13893
G1 X111.394 Y158.367 E0.02543
G1 X113.128 Y160.101 E0.10297
G1 X112.522 Y160.101 E0.02545
G1 X111.393 Y158.973 E0.06702
G1 X111.393 Y159.578 E0.02543
G1 X112.1 Y160.285 E0.04201
G1 E-0.8 F3000
; stop printing object Post.stl id:0 copy 0
; printing object Post.stl id:1 copy 0
; acceleration to travel
M204 S3000
G1 X111.367 Y167.536 F9000
; decel to extrusion
M204 S1000
G1 X111.154 Y169.651
; end travel
G1 E0.8 F1800
;TYPE:Internal perimeter
;WIDTH:0.48
G1 X218.832 Y169.653 E4.60385
G1 X218.832 Y178.508 E0.37859
G1 X111.143 Y178.511 E4.60429
G1 X111.154 Y169.651 E0.37883
G1 X110.726 Y169.222 F9000
G1 F1800
G1 X219.261 Y169.225 E4.64047
G1 X219.261 Y178.937 E0.41523
G1 X110.714 Y178.939 E4.64095
G1 X110.726 Y169.222 E0.41547
G1 X110.298 Y168.794 F9000
G1 F1800
G1 X219.689 Y168.796 E4.67709
M73 P4 R55
G1 X219.689 Y179.365 E0.45187
G1 X110.285 Y179.368 E4.67761
G1 X110.298 Y168.794 E0.45211
G1 X110.029 Y168.365 F9000
;TYPE:External perimeter
G1 F1800
G1 X220.118 Y168.368 E4.7069
G1 X220.118 Y179.794 E0.48851
G1 X109.856 Y179.796 E4.71427
