; generated by SuperSlicer 2.3.57 on 2022-04-10 at 19:35:58 UTC


;
;

;
;
; 

; external perimeters extrusion width = 0.40mm
; perimeters extrusion width = 0.45mm
; infill extrusion width = 0.72mm
; solid infill extrusion width = 0.56mm
; top infill extrusion width = 0.40mm
; support material extrusion width = 0.42mm
; first layer extrusion width = 0.48mm

; external perimeters extrusion width = 0.16mm
; perimeters extrusion width = 0.16mm
; infill extrusion width = 0.72mm
; solid infill extrusion width = 0.56mm
; top infill extrusion width = 0.40mm
; support material extrusion width = 0.42mm
; first layer extrusion width = 0.48mm

; external perimeters extrusion width = 0.16mm
; perimeters extrusion width = 0.16mm
; infill extrusion width = 0.72mm
; solid infill extrusion width = 0.56mm
; top infill extrusion width = 0.40mm
; support material extrusion width = 0.42mm
; first layer extrusion width = 0.48mm

; object:{"name":"Post","id":"Post.stl id:0 copy 0","object_center":[165.000000,165.000000,0.000000],"boundingbox_center":[165.000000,165.000000,10.875000],"boundingbox_size":[110.969398,12.161605,21.750000]}
; plater:{"center":[165.000000,165.000000,0.000000],"boundingbox_center":[165.000000,165.000000,10.875000],"boundingbox_size":[110.969398,12.161605,21.750000]}

;TYPE:Custom
START_PRINT T_BED=60 T_EXTRUDER=200
M107
G21 ; set units to millimeters
G90 ; use absolute coordinates
M83 ; use relative distances for extrusion
; Filament gcode
M109 S200 ; set temperature and wait for it to be reached
M190 S60 ; set bed temperature and wait for it to be reached
;LAYER_CHANGE
;Z:0.24
;HEIGHT:0.24
G1 E-0.8 F3000
G1 Z0.24 F9000
G1 X107.665 Y156.027
G1 E0.8 F1800
; External perimeter
;Skirt
SET_VELOCITY_LIMIT ACCEL=300 ACCEL_TO_DECEL=3000 SQUARE_CORNER_VELOCITY=5

; Support material

;TYPE:Skirt
;WIDTH:0.48
G1 X107.121 Y156.402 E0.02826
G1 X106.436 Y157.291 E0.04799
G1 X106.053 Y158.351 E0.04819
G1 X105.986 Y159.031 E0.02919
G1 X106.008 Y171.461 E0.53147
G1 X106.152 Y172.085 E0.02738
G1 X106.401 Y172.67 E0.02718
G1 X106.751 Y173.206 E0.02738
G1 X107.19 Y173.673 E0.02738
G1 X107.699 Y174.054 E0.02718
G1 X108.271 Y174.341 E0.02738
G1 X108.885 Y174.524 E0.02738
G1 X109.517 Y174.597 E0.02718
G1 X220.777 Y174.561 E4.75699
G1 X221.847 Y174.238 E0.04779
G1 X222.83 Y173.575 E0.05068
G1 X223.519 Y172.69 E0.04799
G1 X223.924 Y171.604 E0.04955
G1 X224 Y170.883 E0.031
G1 X223.998 Y159.038 E0.50641
G1 X223.908 Y158.324 E0.03079
G1 X223.674 Y157.622 E0.03161
G1 X223.333 Y157.01 E0.02999
G1 X222.877 Y156.47 E0.03019
G1 X222.318 Y156.023 E0.03059
G1 X221.65 Y155.675 E0.03221
G1 X220.974 Y155.472 E0.03019
G1 X220.271 Y155.403 E0.03019
G1 X109.123 Y155.437 E4.75217
G1 X108.049 Y155.762 E0.04799
G1 X107.715 Y155.993 E0.01737
G1 X107.957 Y156.341 F9000
G1 F1800
G1 X107.403 Y156.725 E0.0288
G1 X106.796 Y157.527 E0.043
G1 X106.465 Y158.481 E0.04319
G1 X106.415 Y159.036 E0.02383
G1 X106.431 Y171.392 E0.5283
G1 X106.557 Y171.944 E0.02421
G1 X106.778 Y172.466 E0.02421
G1 X107.087 Y172.94 E0.02421
G1 X107.474 Y173.353 E0.02421
G1 X107.928 Y173.692 E0.02421
G1 X108.435 Y173.945 E0.02421
G1 X108.978 Y174.106 E0.02421
G1 X109.54 Y174.169 E0.02421
G1 X220.705 Y174.139 E4.75292
G1 X221.668 Y173.848 E0.043
G1 X222.552 Y173.248 E0.04569
G1 X223.165 Y172.445 E0.04319
G1 X223.515 Y171.463 E0.04457
G1 X223.571 Y170.877 E0.02515
G1 X223.57 Y159.059 E0.5053
G1 X223.491 Y158.422 E0.02741
G1 X223.283 Y157.798 E0.02813
G1 X222.983 Y157.257 E0.02647
G1 X222.581 Y156.78 E0.02666
G1 X222.084 Y156.382 E0.02723
G1 X221.493 Y156.073 E0.02851
G1 X220.896 Y155.893 E0.02666
G1 X220.271 Y155.832 E0.02685
G1 X109.196 Y155.859 E4.74905
G1 X108.233 Y156.149 E0.043
G1 X108.006 Y156.307 E0.01182
; INIT printing object Post.stl id:0 copy 0
G1 E-0.8 F3000
; printing object Post.stl id:0 copy 0
G1 X110.725 Y160.141 F9000
G1 E0.8 F1800
; External perimeter
;Perimeter
SET_VELOCITY_LIMIT ACCEL=2000 ACCEL_TO_DECEL=2000 SQUARE_CORNER_VELOCITY=5

; Overhang perimeter

;TYPE:Internal perimeter
G1 X219.26 Y160.143 E4.64047
G1 X219.26 Y169.857 E0.41531
G1 X110.714 Y169.859 E4.64095
G1 X110.725 Y160.201 E0.4129
G1 X110.285 Y170.287 F9000
G1 F1800
G1 X110.297 Y159.713 E0.45211
G1 X219.689 Y159.715 E4.67709
G1 X219.689 Y170.285 E0.45195
G1 X110.345 Y170.287 E4.67504
G1 X109.856 Y170.716 F9000
; External perimeter
;ExternalPerimeter
SET_VELOCITY_LIMIT ACCEL=1000 ACCEL_TO_DECEL=1000 SQUARE_CORNER_VELOCITY=5

; Perimeter

;TYPE:External perimeter
G1 F1800
G1 X109.869 Y159.284 E0.48875
G1 X109.989 Y159.284 E0.0046
G1 X110.229 Y159.284 E0.00973
G1 X220.117 Y159.286 E4.69832
G1 X220.117 Y159.406 E0.0046
G1 X220.117 Y159.646 E0.00973
G1 X220.117 Y170.714 E0.4732
G1 X219.997 Y170.714 E0.0046
G1 X219.757 Y170.714 E0.00973
G1 X109.916 Y170.716 E4.69631
;WIPE_START
G1 X110.056 Y170.369 F9000
;WIPE_END
G1 X218.33 Y160.207
; External perimeter
;SolidInfill
SET_VELOCITY_LIMIT ACCEL=2000 ACCEL_TO_DECEL=2000 SQUARE_CORNER_VELOCITY=5

; Bridge infill

;TYPE:Solid infill
;WIDTH:0.472282
G1 F2400
G1 X219.012 Y160.889 E0.04057
G1 X219.012 Y161.495 E0.02549
G1 X217.908 Y160.392 E0.06566
G1 X217.302 Y160.392 E0.02549
G1 X219.012 Y162.101 E0.10171
G1 X219.012 Y162.707 E0.02549
G1 X216.696 Y160.392 E0.13777
G1 X216.09 Y160.392 E0.02549
G1 X219.012 Y163.313 E0.17382
G1 X219.012 Y163.919 E0.02549
G1 X215.484 Y160.392 E0.20987
G1 X214.878 Y160.392 E0.02549
G1 X219.012 Y164.525 E0.24592
G1 X219.012 Y165.131 E0.02549
G1 X214.272 Y160.392 E0.28198
G1 X213.666 Y160.392 E0.02549
G1 X219.012 Y165.737 E0.31803
G1 X219.012 Y166.343 E0.02549
G1 X213.06 Y160.392 E0.35408
G1 X212.454 Y160.392 E0.02549
G1 X219.012 Y166.949 E0.39013
G1 X219.012 Y167.555 E0.02549
G1 X211.848 Y160.392 E0.42619
G1 X211.242 Y160.392 E0.02549
G1 X219.012 Y168.161 E0.46224
G1 X219.012 Y168.767 E0.02549
G1 X210.636 Y160.392 E0.49829
G1 X210.03 Y160.392 E0.02549
G1 X219.012 Y169.373 E0.53434
G1 X219.012 Y169.608 E0.00989
G1 X218.641 Y169.608 E0.0156
G1 X209.424 Y160.392 E0.54834
G1 X208.818 Y160.392 E0.02549
G1 X218.035 Y169.608 E0.54834
G1 X217.429 Y169.608 E0.02549
G1 X208.212 Y160.392 E0.54834
G1 X207.606 Y160.391 E0.02549
G1 X216.823 Y169.608 E0.54834
G1 X216.217 Y169.608 E0.02549
G1 X207 Y160.391 E0.54834
G1 X206.394 Y160.391 E0.02549
G1 X215.611 Y169.608 E0.54834
G1 X215.005 Y169.608 E0.02549
G1 X205.788 Y160.391 E0.54834
G1 X205.182 Y160.391 E0.02549
G1 X214.399 Y169.608 E0.54834
G1 X213.793 Y169.608 E0.02549
G1 X204.576 Y160.391 E0.54834
G1 X203.97 Y160.391 E0.02549
G1 X213.187 Y169.608 E0.54835
G1 X212.581 Y169.608 E0.02549
G1 X203.364 Y160.391 E0.54835
G1 X202.758 Y160.391 E0.02549
G1 X211.975 Y169.608 E0.54835
G1 X211.369 Y169.608 E0.02549
G1 X202.152 Y160.391 E0.54835
G1 X201.546 Y160.391 E0.02549
G1 X210.763 Y169.608 E0.54835
G1 X210.157 Y169.608 E0.02549
G1 X200.94 Y160.391 E0.54835
G1 X200.334 Y160.391 E0.02549
G1 X209.551 Y169.608 E0.54835
G1 X208.945 Y169.608 E0.02549
G1 X199.728 Y160.391 E0.54835
G1 X199.122 Y160.391 E0.02549
G1 X208.339 Y169.608 E0.54836
G1 X207.733 Y169.609 E0.02549
G1 X198.516 Y160.391 E0.54836
G1 X197.91 Y160.391 E0.02549
G1 X207.127 Y169.609 E0.54836
G1 X206.521 Y169.609 E0.02549
G1 X197.304 Y160.391 E0.54836
G1 X196.698 Y160.391 E0.02549
G1 X205.915 Y169.609 E0.54836
G1 X205.309 Y169.609 E0.02549
G1 X196.092 Y160.391 E0.54836
G1 X195.486 Y160.391 E0.02549
G1 X204.703 Y169.609 E0.54836
G1 X204.097 Y169.609 E0.02549
G1 X194.88 Y160.391 E0.54836
G1 X194.274 Y160.391 E0.02549
G1 X203.491 Y169.609 E0.54837
G1 X202.885 Y169.609 E0.02549
G1 X193.668 Y160.391 E0.54837
G1 X193.062 Y160.391 E0.02549
G1 X202.279 Y169.609 E0.54837
G1 X201.673 Y169.609 E0.02549
G1 X192.456 Y160.391 E0.54837
G1 X191.85 Y160.391 E0.02549
G1 X201.067 Y169.609 E0.54837
G1 X200.461 Y169.609 E0.02549
G1 X191.244 Y160.391 E0.54837
G1 X190.638 Y160.391 E0.02549
G1 X199.856 Y169.609 E0.54837
G1 X199.25 Y169.609 E0.02549
G1 X190.032 Y160.391 E0.54837
G1 X189.426 Y160.391 E0.02549
G1 X198.644 Y169.609 E0.54838
G1 X198.038 Y169.609 E0.02549
G1 X188.82 Y160.391 E0.54838
G1 X188.214 Y160.391 E0.02549
G1 X197.432 Y169.609 E0.54838
G1 X196.826 Y169.609 E0.02549
G1 X187.608 Y160.391 E0.54838
G1 X187.002 Y160.391 E0.02549
G1 X196.22 Y169.609 E0.54838
G1 X195.614 Y169.609 E0.02549
G1 X186.396 Y160.391 E0.54838
G1 X185.79 Y160.391 E0.02549
G1 X195.008 Y169.609 E0.54838
G1 X194.402 Y169.609 E0.02549
G1 X185.184 Y160.391 E0.54838
G1 X184.578 Y160.391 E0.02549
G1 X193.796 Y169.609 E0.54839
G1 X193.19 Y169.609 E0.02549
G1 X183.972 Y160.391 E0.54839
G1 X183.366 Y160.391 E0.02549
G1 X192.584 Y169.609 E0.54839
G1 X191.978 Y169.609 E0.02549
G1 X182.76 Y160.391 E0.54839
G1 X182.154 Y160.391 E0.02549
G1 X191.372 Y169.609 E0.54839
G1 X190.766 Y169.609 E0.02549
G1 X181.548 Y160.391 E0.54839
G1 X180.942 Y160.391 E0.02549
G1 X190.16 Y169.609 E0.54839
G1 X189.554 Y169.609 E0.02549
G1 X180.336 Y160.391 E0.54839
G1 X179.73 Y160.391 E0.02549
G1 X188.948 Y169.609 E0.5484
G1 X188.342 Y169.609 E0.02549
G1 X179.124 Y160.391 E0.5484
G1 X178.518 Y160.391 E0.02549
G1 X187.736 Y169.609 E0.5484
G1 X187.13 Y169.609 E0.02549
G1 X177.912 Y160.391 E0.5484
G1 X177.306 Y160.391 E0.02549
G1 X186.524 Y169.609 E0.5484
G1 X185.918 Y169.609 E0.02549
G1 X176.7 Y160.391 E0.5484
G1 X176.094 Y160.391 E0.02549
G1 X185.312 Y169.609 E0.5484
G1 X184.706 Y169.609 E0.02549
G1 X175.488 Y160.391 E0.5484
G1 X174.882 Y160.391 E0.02549
G1 X184.1 Y169.609 E0.54841
G1 X183.494 Y169.609 E0.02549
G1 X174.276 Y160.391 E0.54841
G1 X173.67 Y160.391 E0.02549
G1 X182.888 Y169.609 E0.54841
G1 X182.282 Y169.609 E0.02549
G1 X173.064 Y160.391 E0.54841
G1 X172.458 Y160.391 E0.02549
G1 X181.676 Y169.609 E0.54841
G1 X181.07 Y169.609 E0.02549
G1 X171.852 Y160.391 E0.54841
G1 X171.246 Y160.391 E0.02549
G1 X180.464 Y169.609 E0.54841
G1 X179.858 Y169.609 E0.02549
G1 X170.64 Y160.391 E0.54841
G1 X170.034 Y160.391 E0.02549
G1 X179.252 Y169.609 E0.54842
G1 X178.646 Y169.609 E0.02549
G1 X169.428 Y160.391 E0.54842
G1 X168.822 Y160.391 E0.02549
G1 X178.04 Y169.609 E0.54842
G1 X177.435 Y169.609 E0.02549
G1 X168.216 Y160.391 E0.54842
G1 X167.61 Y160.391 E0.02549
G1 X176.829 Y169.609 E0.54842
G1 X176.223 Y169.609 E0.02549
G1 X167.004 Y160.391 E0.54842
G1 X166.398 Y160.391 E0.02549
G1 X175.617 Y169.609 E0.54842
G1 X175.011 Y169.609 E0.02549
G1 X165.792 Y160.391 E0.54842
G1 X165.186 Y160.391 E0.02549
G1 X174.405 Y169.609 E0.54842
G1 X173.799 Y169.609 E0.02549
G1 X164.58 Y160.391 E0.54843
G1 X163.974 Y160.391 E0.02549
G1 X173.193 Y169.609 E0.54843
G1 X172.587 Y169.609 E0.02549
G1 X163.368 Y160.391 E0.54843
G1 X162.762 Y160.391 E0.02549
G1 X171.981 Y169.609 E0.54843
G1 X171.375 Y169.609 E0.02549
G1 X162.156 Y160.391 E0.54843
G1 X161.55 Y160.391 E0.02549
G1 X170.769 Y169.609 E0.54843
G1 X170.163 Y169.609 E0.02549
G1 X160.944 Y160.391 E0.54843
G1 X160.338 Y160.391 E0.02549
G1 X169.557 Y169.609 E0.54843
G1 X168.951 Y169.609 E0.02549
G1 X159.732 Y160.391 E0.54844
G1 X159.126 Y160.391 E0.02549
G1 X168.345 Y169.609 E0.54844
G1 X167.739 Y169.609 E0.02549
G1 X158.52 Y160.391 E0.54844
G1 X157.914 Y160.391 E0.02549
G1 X167.133 Y169.609 E0.54844
G1 X166.527 Y169.609 E0.02549
G1 X157.308 Y160.391 E0.54844
G1 X156.702 Y160.391 E0.02549
G1 X165.921 Y169.609 E0.54844
G1 X165.315 Y169.609 E0.02549
G1 X156.096 Y160.391 E0.54844
G1 X155.49 Y160.391 E0.02549
G1 X164.709 Y169.609 E0.54844
G1 X164.103 Y169.609 E0.02549
G1 X154.884 Y160.391 E0.54845
G1 X154.278 Y160.391 E0.02549
G1 X163.497 Y169.609 E0.54845
G1 X162.891 Y169.609 E0.02549
G1 X153.672 Y160.391 E0.54845
G1 X153.066 Y160.391 E0.02549
G1 X162.285 Y169.609 E0.54845
G1 X161.679 Y169.609 E0.02549
G1 X152.46 Y160.391 E0.54845
G1 X151.854 Y160.391 E0.02549
G1 X161.073 Y169.609 E0.54845
G1 X160.467 Y169.609 E0.02549
G1 X151.248 Y160.391 E0.54845
G1 X150.643 Y160.391 E0.02549
G1 X159.861 Y169.609 E0.54845
G1 X159.255 Y169.609 E0.02549
G1 X150.037 Y160.391 E0.54846
G1 X149.431 Y160.391 E0.02549
G1 X158.649 Y169.609 E0.54846
G1 X158.043 Y169.609 E0.02549
G1 X148.825 Y160.39 E0.54846
G1 X148.219 Y160.39 E0.02549
G1 X157.437 Y169.609 E0.54846
G1 X156.831 Y169.609 E0.02549
G1 X147.613 Y160.39 E0.54846
G1 X147.007 Y160.39 E0.02549
G1 X156.225 Y169.609 E0.54846
G1 X155.619 Y169.609 E0.02549
G1 X146.401 Y160.39 E0.54846
G1 X145.795 Y160.39 E0.02549
G1 X155.014 Y169.609 E0.54846
G1 X154.408 Y169.609 E0.02549
G1 X145.189 Y160.39 E0.54847
G1 X144.583 Y160.39 E0.02549
G1 X153.802 Y169.609 E0.54847
G1 X153.196 Y169.609 E0.02549
G1 X143.977 Y160.39 E0.54847
G1 X143.371 Y160.39 E0.02549
G1 X152.59 Y169.609 E0.54847
G1 X151.984 Y169.609 E0.02549
G1 X142.765 Y160.39 E0.54847
G1 X142.159 Y160.39 E0.02549
G1 X151.378 Y169.609 E0.54847
G1 X150.772 Y169.609 E0.02549
G1 X141.553 Y160.39 E0.54847
G1 X140.947 Y160.39 E0.02549
G1 X150.166 Y169.609 E0.54847
G1 X149.56 Y169.609 E0.02549
G1 X140.341 Y160.39 E0.54848
G1 X139.735 Y160.39 E0.02549
G1 X148.954 Y169.61 E0.54848
G1 X148.348 Y169.61 E0.02549
G1 X139.129 Y160.39 E0.54848
G1 X138.523 Y160.39 E0.02549
G1 X147.742 Y169.61 E0.54848
G1 X147.136 Y169.61 E0.02549
G1 X137.917 Y160.39 E0.54848
G1 X137.311 Y160.39 E0.02549
G1 X146.53 Y169.61 E0.54848
G1 X145.924 Y169.61 E0.02549
G1 X136.705 Y160.39 E0.54848
G1 X136.099 Y160.39 E0.02549
G1 X145.318 Y169.61 E0.54848
G1 X144.712 Y169.61 E0.02549
G1 X135.493 Y160.39 E0.54849
G1 X134.887 Y160.39 E0.02549
G1 X144.106 Y169.61 E0.54849
G1 X143.5 Y169.61 E0.02549
G1 X134.281 Y160.39 E0.54849
G1 X133.675 Y160.39 E0.02549
G1 X142.894 Y169.61 E0.54849
G1 X142.288 Y169.61 E0.02549
G1 X133.069 Y160.39 E0.54849
G1 X132.463 Y160.39 E0.02549
G1 X141.682 Y169.61 E0.54849
G1 X141.076 Y169.61 E0.02549
G1 X131.857 Y160.39 E0.54849
G1 X131.251 Y160.39 E0.02549
G1 X140.47 Y169.61 E0.54849
G1 X139.864 Y169.61 E0.02549
G1 X130.645 Y160.39 E0.5485
G1 X130.039 Y160.39 E0.02549
G1 X139.258 Y169.61 E0.5485
G1 X138.652 Y169.61 E0.02549
G1 X129.433 Y160.39 E0.5485
G1 X128.827 Y160.39 E0.02549
G1 X138.046 Y169.61 E0.5485
G1 X137.44 Y169.61 E0.02549
G1 X128.221 Y160.39 E0.5485
G1 X127.615 Y160.39 E0.02549
G1 X136.834 Y169.61 E0.5485
G1 X136.228 Y169.61 E0.02549
G1 X127.009 Y160.39 E0.5485
G1 X126.403 Y160.39 E0.02549
G1 X135.622 Y169.61 E0.5485
G1 X135.016 Y169.61 E0.02549
G1 X125.797 Y160.39 E0.5485
G1 X125.191 Y160.39 E0.02549
G1 X134.41 Y169.61 E0.54851
G1 X133.804 Y169.61 E0.02549
G1 X124.585 Y160.39 E0.54851
G1 X123.979 Y160.39 E0.02549
G1 X133.198 Y169.61 E0.54851
G1 X132.593 Y169.61 E0.02549
G1 X123.373 Y160.39 E0.54851
G1 X122.767 Y160.39 E0.02549
G1 X131.987 Y169.61 E0.54851
G1 X131.381 Y169.61 E0.02549
G1 X122.161 Y160.39 E0.54851
G1 X121.555 Y160.39 E0.02549
G1 X130.775 Y169.61 E0.54851
G1 X130.169 Y169.61 E0.02549
G1 X120.949 Y160.39 E0.54851
G1 X120.343 Y160.39 E0.02549
G1 X129.563 Y169.61 E0.54852
G1 X128.957 Y169.61 E0.02549
G1 X119.737 Y160.39 E0.54852
G1 X119.131 Y160.39 E0.02549
G1 X128.351 Y169.61 E0.54852
G1 X127.745 Y169.61 E0.02549
G1 X118.525 Y160.39 E0.54852
G1 X117.919 Y160.39 E0.02549
G1 X127.139 Y169.61 E0.54852
G1 X126.533 Y169.61 E0.02549
G1 X117.313 Y160.39 E0.54852
G1 X116.707 Y160.39 E0.02549
G1 X125.927 Y169.61 E0.54852
G1 X125.321 Y169.61 E0.02549
G1 X116.101 Y160.39 E0.54852
G1 X115.495 Y160.39 E0.02549
G1 X124.715 Y169.61 E0.54853
G1 X124.109 Y169.61 E0.02549
G1 X114.889 Y160.39 E0.54853
G1 X114.283 Y160.39 E0.02549
G1 X123.503 Y169.61 E0.54853
G1 X122.897 Y169.61 E0.02549
G1 X113.677 Y160.39 E0.54853
G1 X113.071 Y160.39 E0.02549
G1 X122.291 Y169.61 E0.54853
G1 X121.685 Y169.61 E0.02549
G1 X112.465 Y160.39 E0.54853
G1 X111.859 Y160.39 E0.02549
G1 X121.079 Y169.61 E0.54853
G1 X120.473 Y169.61 E0.02549
G1 X111.253 Y160.39 E0.54853
G1 X110.973 Y160.39 E0.01177
G1 X110.973 Y160.716 E0.0137
G1 X119.867 Y169.61 E0.52915
G1 X119.261 Y169.61 E0.02549
G1 X110.972 Y161.321 E0.49314
G1 X110.971 Y161.926 E0.02546
G1 X118.655 Y169.61 E0.45713
G1 X118.049 Y169.61 E0.02549
G1 X110.971 Y162.531 E0.42112
G1 X110.97 Y163.137 E0.02546
G1 X117.443 Y169.61 E0.38511
G1 X116.837 Y169.61 E0.02549
G1 X110.969 Y163.742 E0.3491
G1 X110.969 Y164.347 E0.02546
G1 X116.231 Y169.61 E0.31309
G1 X115.625 Y169.61 E0.02549
