; generated by SuperSlicer 2.3.57 on 2022-03-31 at 20:04:45 UTC


;
;

;
;
; 

; external perimeters extrusion width = 0.25mm
; perimeters extrusion width = 0.28mm
; infill extrusion width = 0.45mm
; solid infill extrusion width = 0.35mm
; top infill extrusion width = 0.25mm
; support material extrusion width = 0.26mm
; first layer extrusion width = 0.30mm

; external perimeters extrusion width = 0.26mm
; perimeters extrusion width = 0.28mm
; infill extrusion width = 0.45mm
; solid infill extrusion width = 0.35mm
; top infill extrusion width = 0.25mm
; support material extrusion width = 0.26mm
; first layer extrusion width = 0.30mm

; object:{"name":"Post","id":"Post.stl id:0 copy 0","object_center":[165.000000,207.926267,0.000000],"boundingbox_center":[165.000000,207.926267,10.875000],"boundingbox_size":[110.969398,12.161605,21.750000]}
; object:{"name":"Post","id":"Post.stl id:1 copy 0","object_center":[165.000000,122.073733,0.000000],"boundingbox_center":[165.000000,122.073733,10.875000],"boundingbox_size":[110.969398,12.161605,21.750000]}
; object:{"name":"Post","id":"Post.stl id:2 copy 0","object_center":[165.000000,226.087871,0.000000],"boundingbox_center":[165.000000,226.087871,10.875000],"boundingbox_size":[110.969398,12.161605,21.750000]}
; object:{"name":"Post","id":"Post.stl id:3 copy 0","object_center":[165.000000,103.912129,0.000000],"boundingbox_center":[165.000000,103.912129,10.875000],"boundingbox_size":[110.969398,12.161605,21.750000]}
; object:{"name":"Base X100","id":"Base X100.5 Y98.5.stl id:4 copy 0","object_center":[165.000000,165.000000,0.000000],"boundingbox_center":[165.000000,165.000000,4.875000],"boundingbox_size":[174.277360,61.690930,9.750000]}
; plater:{"center":[165.000000,165.000000,0.000000],"boundingbox_center":[165.000000,165.000000,10.875000],"boundingbox_size":[174.277360,134.337347,21.750000]}

;TYPE:Custom
START_PRINT T_BED=60 T_EXTRUDER=200
M107
G21 ; set units to millimeters
G90 ; use absolute coordinates
M83 ; use relative distances for extrusion
; Filament gcode
M104 S200 ; set temperature
M109 S200 ; set temperature and wait for it to be reached
M190 S60 ; set bed temperature and wait for it to be reached
M107
;LAYER_CHANGE
;Z:0.18
;HEIGHT:0.18
G1 E-0.8 F3000
G1 Z0.18 F9000
G1 X107.09 Y95.725
G1 E0.8 F1800
; External perimeter
;Skirt
SET_VELOCITY_LIMIT ACCEL=300 ACCEL_TO_DECEL=3000 SQUARE_CORNER_VELOCITY=5

; Support material

;TYPE:Skirt
;WIDTH:0.3
G1 X75.437 Y132.339 E0.94668
G1 X75.116 Y132.814 E0.0112
G1 X74.814 Y133.452 E0.01381
G1 X74.668 Y134.001 E0.01111
G1 X74.591 Y134.704 E0.01383
G1 X74.591 Y195.271 E1.18468
G1 X74.632 Y195.783 E0.01005
G1 X74.771 Y196.42 E0.01277
G1 X75.111 Y197.176 E0.01621
G1 X75.499 Y197.736 E0.01333
G1 X107.051 Y234.246 E0.94384
G1 X107.489 Y234.669 E0.01191
G1 X107.96 Y234.986 E0.01111
G1 X108.478 Y235.221 E0.01111
G1 X109.031 Y235.367 E0.0112
G1 X109.597 Y235.417 E0.01111
G1 X220.27 Y235.416 E2.16473
G1 X221.094 Y235.314 E0.01625
G1 X221.585 Y235.149 E0.01014
G1 X222.072 Y234.901 E0.01068
G1 X222.487 Y234.606 E0.00996
G1 X222.856 Y234.249 E0.01005
G1 X254.563 Y197.661 E0.947
G1 X254.881 Y197.19 E0.01111
G1 X255.186 Y196.548 E0.0139
G1 X255.332 Y195.999 E0.01111
G1 X255.409 Y195.296 E0.01383
G1 X255.409 Y134.729 E1.18468
G1 X255.364 Y134.19 E0.01058
G1 X255.212 Y133.527 E0.01331
G1 X254.929 Y132.897 E0.0135
G1 X254.447 Y132.205 E0.0165
G1 X222.844 Y95.737 E0.94389
G1 X222.303 Y95.251 E0.01421
G1 X221.654 Y94.881 E0.01461
G1 X220.976 Y94.659 E0.01395
G1 X220.267 Y94.584 E0.01395
G1 X109.627 Y94.583 E2.16411
G1 X108.776 Y94.692 E0.01678
G1 X108.298 Y94.855 E0.00987
G1 X107.854 Y95.084 E0.00978
G1 X107.448 Y95.376 E0.00978
G1 X107.117 Y95.699 E0.00905
G1 X107.299 Y95.886 F9000
G1 F1800
G1 X107.284 Y95.901 E0.00042
G1 X75.641 Y132.503 E0.94638
G1 X75.345 Y132.94 E0.01033
G1 X75.059 Y133.543 E0.01306
G1 X74.925 Y134.05 E0.01025
G1 X74.853 Y134.71 E0.01298
G1 X74.852 Y195.266 E1.18448
G1 X74.89 Y195.745 E0.0094
G1 X75.021 Y196.343 E0.01196
G1 X75.339 Y197.05 E0.01516
G1 X75.7 Y197.569 E0.01238
G1 X107.248 Y234.074 E0.94373
G1 X107.65 Y234.463 E0.01093
G1 X108.084 Y234.756 E0.01025
G1 X108.565 Y234.975 E0.01033
G1 X109.076 Y235.109 E0.01033
G1 X109.598 Y235.156 E0.01025
G1 X220.27 Y235.154 E2.16473
G1 X221.032 Y235.06 E0.01501
G1 X221.487 Y234.907 E0.0094
G1 X221.94 Y234.676 E0.00994
G1 X222.324 Y234.402 E0.00923
G1 X222.662 Y234.074 E0.00923
G1 X254.359 Y197.497 E0.94669
G1 X254.655 Y197.06 E0.01033
G1 X254.941 Y196.457 E0.01306
G1 X255.075 Y195.95 E0.01025
G1 X255.147 Y195.29 E0.01298
G1 X255.148 Y134.729 E1.18456
G1 X255.106 Y134.233 E0.00974
G1 X254.963 Y133.608 E0.01254
G1 X254.7 Y133.024 E0.01255
G1 X254.249 Y132.376 E0.01544
G1 X222.651 Y95.914 E0.94372
G1 X222.148 Y95.462 E0.01323
G1 X221.549 Y95.12 E0.0135
G1 X220.923 Y94.915 E0.01289
G1 X220.267 Y94.846 E0.01289
G1 X109.629 Y94.844 E2.16406
G1 X108.84 Y94.945 E0.01556
G1 X108.402 Y95.094 E0.00905
G1 X107.991 Y95.307 E0.00905
G1 X107.615 Y95.578 E0.00905
G1 X107.326 Y95.86 E0.00791
; INIT printing object Post.stl id:0 copy 0
G1 E-0.8 F3000
; printing object Post.stl id:0 copy 0
G1 X110.301 Y202.661 F9000
G1 E0.8 F1800
; External perimeter
;Perimeter
SET_VELOCITY_LIMIT ACCEL=2000 ACCEL_TO_DECEL=2000 SQUARE_CORNER_VELOCITY=5

; Overhang perimeter

;TYPE:Internal perimeter
G1 X219.664 Y202.663 E2.13913
G1 X219.664 Y213.189 E0.20589
G1 X110.289 Y213.191 E2.13936
G1 X110.301 Y202.699 E0.20522
G1 X110.027 Y213.452 F9000
G1 F1800
G1 X110.04 Y202.4 E0.21618
G1 X219.926 Y202.402 E2.14934
G1 X219.926 Y213.451 E0.21612
G1 X110.065 Y213.452 E2.14886
G1 X109.766 Y213.714 F9000
; External perimeter
;ExternalPerimeter
SET_VELOCITY_LIMIT ACCEL=1000 ACCEL_TO_DECEL=1000 SQUARE_CORNER_VELOCITY=5

; Perimeter

;TYPE:External perimeter
G1 F1800
G1 X109.779 Y202.139 E0.22641
G1 X109.854 Y202.139 E0.00132
G1 X110.004 Y202.139 E0.00278
G1 X220.187 Y202.14 E2.15516
G1 X220.187 Y202.215 E0.00132
G1 X220.187 Y202.365 E0.00278
G1 X220.187 Y213.712 E0.22194
G1 X220.112 Y213.712 E0.00132
G1 X219.962 Y213.712 E0.00278
G1 X109.803 Y213.714 E2.15469
;WIPE_START
G1 X109.891 Y213.497 F9000
;WIPE_END
G1 X219.625 Y203.231
; External perimeter
;SolidInfill
SET_VELOCITY_LIMIT ACCEL=2000 ACCEL_TO_DECEL=2000 SQUARE_CORNER_VELOCITY=5

; Bridge infill

;TYPE:Solid infill
;WIDTH:0.299873
G1 F2400
G1 X219.209 Y202.815 E0.0115
G1 X218.839 Y202.815 E0.00723
G1 X219.513 Y203.488 E0.01862
G1 X219.513 Y203.858 E0.00723
G1 X218.47 Y202.815 E0.02884
G1 X218.1 Y202.815 E0.00723
G1 X219.513 Y204.227 E0.03906
G1 X219.513 Y204.597 E0.00723
G1 X217.731 Y202.815 E0.04928
G1 X217.361 Y202.815 E0.00723
G1 X219.513 Y204.966 E0.0595
G1 X219.513 Y205.336 E0.00723
G1 X216.991 Y202.815 E0.06972
G1 X216.622 Y202.815 E0.00723
G1 X219.513 Y205.706 E0.07994
G1 X219.513 Y206.075 E0.00723
G1 X216.252 Y202.815 E0.09016
G1 X215.882 Y202.815 E0.00723
G1 X219.513 Y206.445 E0.10038
G1 X219.513 Y206.815 E0.00723
G1 X215.513 Y202.815 E0.1106
G1 X215.143 Y202.815 E0.00723
G1 X219.513 Y207.184 E0.12082
G1 X219.513 Y207.554 E0.00723
G1 X214.773 Y202.815 E0.13104
G1 X214.404 Y202.815 E0.00723
G1 X219.513 Y207.924 E0.14126
G1 X219.513 Y208.293 E0.00723
G1 X214.034 Y202.815 E0.15148
G1 X213.664 Y202.815 E0.00723
G1 X219.513 Y208.663 E0.1617
G1 X219.513 Y209.032 E0.00723
G1 X213.295 Y202.815 E0.17192
G1 X212.925 Y202.815 E0.00723
G1 X219.513 Y209.402 E0.18214
G1 X219.513 Y209.772 E0.00723
G1 X212.556 Y202.815 E0.19236
G1 X212.186 Y202.815 E0.00723
G1 X219.513 Y210.141 E0.20259
G1 X219.513 Y210.511 E0.00723
G1 X211.816 Y202.815 E0.21281
G1 X211.447 Y202.815 E0.00723
G1 X219.513 Y210.881 E0.22303
G1 X219.513 Y211.25 E0.00723
G1 X211.077 Y202.815 E0.23325
G1 X210.707 Y202.815 E0.00723
G1 X219.513 Y211.62 E0.24347
G1 X219.513 Y211.989 E0.00723
G1 X210.338 Y202.815 E0.25369
G1 X209.968 Y202.815 E0.00723
G1 X219.513 Y212.359 E0.26391
G1 X219.513 Y212.729 E0.00723
G1 X209.598 Y202.815 E0.27413
G1 X209.229 Y202.815 E0.00723
G1 X219.452 Y213.038 E0.28268
G1 X219.083 Y213.038 E0.00723
G1 X208.859 Y202.815 E0.28268
G1 X208.49 Y202.815 E0.00723
G1 X218.713 Y213.038 E0.28268
G1 X218.343 Y213.038 E0.00723
G1 X208.12 Y202.814 E0.28268
G1 X207.75 Y202.814 E0.00723
G1 X217.974 Y213.038 E0.28268
G1 X217.604 Y213.038 E0.00723
G1 X207.381 Y202.814 E0.28268
G1 X207.011 Y202.814 E0.00723
G1 X217.234 Y213.038 E0.28268
G1 X216.865 Y213.038 E0.00723
G1 X206.641 Y202.814 E0.28268
G1 X206.272 Y202.814 E0.00723
G1 X216.495 Y213.038 E0.28268
G1 X216.125 Y213.038 E0.00723
G1 X205.902 Y202.814 E0.28268
G1 X205.532 Y202.814 E0.00723
G1 X215.756 Y213.038 E0.28268
G1 X215.386 Y213.038 E0.00723
G1 X205.163 Y202.814 E0.28268
G1 X204.793 Y202.814 E0.00723
G1 X215.017 Y213.038 E0.28268
G1 X214.647 Y213.038 E0.00723
G1 X204.423 Y202.814 E0.28268
G1 X204.054 Y202.814 E0.00723
G1 X214.277 Y213.038 E0.28268
G1 X213.908 Y213.038 E0.00723
G1 X203.684 Y202.814 E0.28268
G1 X203.315 Y202.814 E0.00723
G1 X213.538 Y213.038 E0.28268
G1 X213.168 Y213.038 E0.00723
G1 X202.945 Y202.814 E0.28268
G1 X202.575 Y202.814 E0.00723
G1 X212.799 Y213.038 E0.28268
G1 X212.429 Y213.038 E0.00723
G1 X202.206 Y202.814 E0.28268
G1 X201.836 Y202.814 E0.00723
G1 X212.06 Y213.038 E0.28268
G1 X211.69 Y213.038 E0.00723
G1 X201.466 Y202.814 E0.28268
G1 X201.097 Y202.814 E0.00723
G1 X211.32 Y213.038 E0.28268
G1 X210.951 Y213.038 E0.00723
G1 X200.727 Y202.814 E0.28268
G1 X200.357 Y202.814 E0.00723
G1 X210.581 Y213.038 E0.28268
G1 X210.211 Y213.038 E0.00723
G1 X199.988 Y202.814 E0.28268
G1 X199.618 Y202.814 E0.00723
G1 X209.842 Y213.038 E0.28268
G1 X209.472 Y213.038 E0.00723
G1 X199.249 Y202.814 E0.28268
G1 X198.879 Y202.814 E0.00723
G1 X209.103 Y213.038 E0.28268
G1 X208.733 Y213.038 E0.00723
G1 X198.509 Y202.814 E0.28268
G1 X198.14 Y202.814 E0.00723
G1 X208.363 Y213.038 E0.28269
G1 X207.994 Y213.038 E0.00723
G1 X197.77 Y202.814 E0.28269
G1 X197.4 Y202.814 E0.00723
G1 X207.624 Y213.038 E0.28269
G1 X207.254 Y213.038 E0.00723
G1 X197.031 Y202.814 E0.28269
G1 X196.661 Y202.814 E0.00723
G1 X206.885 Y213.038 E0.28269
G1 X206.515 Y213.038 E0.00723
G1 X196.291 Y202.814 E0.28269
G1 X195.922 Y202.814 E0.00723
G1 X206.146 Y213.038 E0.28269
G1 X205.776 Y213.038 E0.00723
G1 X195.552 Y202.814 E0.28269
G1 X195.182 Y202.814 E0.00723
G1 X205.406 Y213.038 E0.28269
G1 X205.037 Y213.038 E0.00723
G1 X194.813 Y202.814 E0.28269
G1 X194.443 Y202.814 E0.00723
G1 X204.667 Y213.038 E0.28269
G1 X204.297 Y213.038 E0.00723
G1 X194.074 Y202.814 E0.28269
G1 X193.704 Y202.814 E0.00723
G1 X203.928 Y213.038 E0.28269
G1 X203.558 Y213.038 E0.00723
G1 X193.334 Y202.814 E0.28269
G1 X192.965 Y202.814 E0.00723
G1 X203.188 Y213.038 E0.28269
G1 X202.819 Y213.038 E0.00723
G1 X192.595 Y202.814 E0.28269
G1 X192.225 Y202.814 E0.00723
G1 X202.449 Y213.038 E0.28269
G1 X202.08 Y213.038 E0.00723
G1 X191.856 Y202.814 E0.28269
G1 X191.486 Y202.814 E0.00723
G1 X201.71 Y213.038 E0.28269
G1 X201.34 Y213.038 E0.00723
G1 X191.116 Y202.814 E0.28269
G1 X190.747 Y202.814 E0.00723
G1 X200.971 Y213.038 E0.28269
G1 X200.601 Y213.038 E0.00723
G1 X190.377 Y202.814 E0.28269
G1 X190.008 Y202.814 E0.00723
G1 X200.231 Y213.038 E0.28269
G1 X199.862 Y213.038 E0.00723
G1 X189.638 Y202.814 E0.28269
G1 X189.268 Y202.814 E0.00723
G1 X199.492 Y213.038 E0.28269
G1 X199.123 Y213.038 E0.00723
G1 X188.899 Y202.814 E0.28269
G1 X188.529 Y202.814 E0.00723
G1 X198.753 Y213.038 E0.28269
G1 X198.383 Y213.038 E0.00723
G1 X188.159 Y202.814 E0.28269
G1 X187.79 Y202.814 E0.00723
G1 X198.014 Y213.038 E0.28269
G1 X197.644 Y213.038 E0.00723
G1 X187.42 Y202.814 E0.28269
G1 X187.05 Y202.814 E0.00723
G1 X197.274 Y213.038 E0.28269
G1 X196.905 Y213.038 E0.00723
G1 X186.681 Y202.814 E0.28269
G1 X186.311 Y202.814 E0.00723
G1 X196.535 Y213.038 E0.28269
G1 X196.166 Y213.038 E0.00723
G1 X185.941 Y202.814 E0.28269
G1 X185.572 Y202.814 E0.00723
G1 X195.796 Y213.038 E0.2827
G1 X195.426 Y213.038 E0.00723
G1 X185.202 Y202.814 E0.2827
G1 X184.833 Y202.814 E0.00723
G1 X195.057 Y213.038 E0.2827
G1 X194.687 Y213.038 E0.00723
G1 X184.463 Y202.814 E0.2827
G1 X184.093 Y202.814 E0.00723
G1 X194.317 Y213.038 E0.2827
G1 X193.948 Y213.038 E0.00723
G1 X183.724 Y202.814 E0.2827
G1 X183.354 Y202.814 E0.00723
G1 X193.578 Y213.038 E0.2827
G1 X193.208 Y213.038 E0.00723
G1 X182.984 Y202.814 E0.2827
G1 X182.615 Y202.814 E0.00723
G1 X192.839 Y213.038 E0.2827
G1 X192.469 Y213.038 E0.00723
G1 X182.245 Y202.814 E0.2827
G1 X181.875 Y202.814 E0.00723
G1 X192.1 Y213.038 E0.2827
G1 X191.73 Y213.038 E0.00723
G1 X181.506 Y202.814 E0.2827
G1 X181.136 Y202.814 E0.00723
G1 X191.36 Y213.038 E0.2827
G1 X190.991 Y213.038 E0.00723
G1 X180.767 Y202.814 E0.2827
G1 X180.397 Y202.814 E0.00723
G1 X190.621 Y213.038 E0.2827
G1 X190.251 Y213.038 E0.00723
G1 X180.027 Y202.814 E0.2827
G1 X179.658 Y202.814 E0.00723
G1 X189.882 Y213.038 E0.2827
G1 X189.512 Y213.038 E0.00723
G1 X179.288 Y202.814 E0.2827
G1 X178.918 Y202.814 E0.00723
G1 X189.143 Y213.038 E0.2827
G1 X188.773 Y213.038 E0.00723
G1 X178.549 Y202.814 E0.2827
G1 X178.179 Y202.814 E0.00723
G1 X188.403 Y213.038 E0.2827
G1 X188.034 Y213.038 E0.00723
G1 X177.809 Y202.814 E0.2827
G1 X177.44 Y202.814 E0.00723
G1 X187.664 Y213.038 E0.2827
G1 X187.294 Y213.038 E0.00723
G1 X177.07 Y202.814 E0.2827
G1 X176.7 Y202.814 E0.00723
G1 X186.925 Y213.038 E0.2827
G1 X186.555 Y213.038 E0.00723
G1 X176.331 Y202.814 E0.2827
G1 X175.961 Y202.814 E0.00723
G1 X186.186 Y213.038 E0.2827
G1 X185.816 Y213.038 E0.00723
G1 X175.592 Y202.814 E0.2827
G1 X175.222 Y202.814 E0.00723
G1 X185.446 Y213.038 E0.2827
G1 X185.077 Y213.038 E0.00723
G1 X174.852 Y202.814 E0.2827
G1 X174.483 Y202.814 E0.00723
G1 X184.707 Y213.038 E0.2827
G1 X184.337 Y213.038 E0.00723
G1 X174.113 Y202.814 E0.2827
G1 X173.743 Y202.814 E0.00723
G1 X183.968 Y213.038 E0.2827
G1 X183.598 Y213.038 E0.00723
G1 X173.374 Y202.814 E0.28271
G1 X173.004 Y202.814 E0.00723
G1 X183.229 Y213.038 E0.28271
G1 X182.859 Y213.038 E0.00723
G1 X172.634 Y202.814 E0.28271
G1 X172.265 Y202.814 E0.00723
G1 X182.489 Y213.038 E0.28271
G1 X182.12 Y213.038 E0.00723
G1 X171.895 Y202.814 E0.28271
G1 X171.526 Y202.814 E0.00723
G1 X181.75 Y213.038 E0.28271
G1 X181.38 Y213.038 E0.00723
G1 X171.156 Y202.814 E0.28271
G1 X170.786 Y202.814 E0.00723
G1 X181.011 Y213.038 E0.28271
G1 X180.641 Y213.038 E0.00723
G1 X170.417 Y202.814 E0.28271
G1 X170.047 Y202.814 E0.00723
G1 X180.271 Y213.038 E0.28271
G1 X179.902 Y213.038 E0.00723
G1 X169.677 Y202.814 E0.28271
G1 X169.308 Y202.814 E0.00723
G1 X179.532 Y213.038 E0.28271
G1 X179.163 Y213.038 E0.00723
G1 X168.938 Y202.814 E0.28271
G1 X168.568 Y202.814 E0.00723
G1 X178.793 Y213.038 E0.28271
G1 X178.423 Y213.038 E0.00723
G1 X168.199 Y202.814 E0.28271
G1 X167.829 Y202.814 E0.00723
G1 X178.054 Y213.038 E0.28271
G1 X177.684 Y213.038 E0.00723
G1 X167.459 Y202.814 E0.28271
G1 X167.09 Y202.814 E0.00723
G1 X177.314 Y213.038 E0.28271
G1 X176.945 Y213.038 E0.00723
G1 X166.72 Y202.814 E0.28271
G1 X166.351 Y202.814 E0.00723
G1 X176.575 Y213.038 E0.28271
G1 X176.206 Y213.039 E0.00723
G1 X165.981 Y202.814 E0.28271
G1 X165.611 Y202.814 E0.00723
G1 X175.836 Y213.039 E0.28271
G1 X175.466 Y213.039 E0.00723
G1 X165.242 Y202.814 E0.28271
G1 X164.872 Y202.814 E0.00723
G1 X175.097 Y213.039 E0.28271
G1 X174.727 Y213.039 E0.00723
G1 X164.502 Y202.814 E0.28271
G1 X164.133 Y202.814 E0.00723
G1 X174.357 Y213.039 E0.28271
G1 X173.988 Y213.039 E0.00723
G1 X163.763 Y202.814 E0.28271
G1 X163.393 Y202.814 E0.00723
G1 X173.618 Y213.039 E0.28271
G1 X173.249 Y213.039 E0.00723
G1 X163.024 Y202.814 E0.28271
G1 X162.654 Y202.814 E0.00723
G1 X172.879 Y213.039 E0.28271
G1 X172.509 Y213.039 E0.00723
G1 X162.285 Y202.814 E0.28271
G1 X161.915 Y202.814 E0.00723
G1 X172.14 Y213.039 E0.28271
G1 X171.77 Y213.039 E0.00723
G1 X161.545 Y202.814 E0.28271
G1 X161.176 Y202.814 E0.00723
G1 X171.4 Y213.039 E0.28271
G1 X171.031 Y213.039 E0.00723
G1 X160.806 Y202.814 E0.28272
G1 X160.436 Y202.814 E0.00723
G1 X170.661 Y213.039 E0.28272
G1 X170.291 Y213.039 E0.00723
G1 X160.067 Y202.814 E0.28272
G1 X159.697 Y202.814 E0.00723
G1 X169.922 Y213.039 E0.28272
G1 X169.552 Y213.039 E0.00723
G1 X159.327 Y202.814 E0.28272
