; generated by SuperSlicer 2.4 on 2022-05-05 at 22:51:20 UTC


;
;

;
;
; 

; external perimeters extrusion width = 0.40mm
; perimeters extrusion width = 0.40mm
; infill extrusion width = 0.72mm
; solid infill extrusion width = 0.56mm
; top infill extrusion width = 0.40mm
; first layer extrusion width = 0.48mm

; object:{"name":"KlickyProbe_v2","id":"KlickyProbe_v2.stl id:0 copy 0","object_center":[165.002911,164.997579,0.000000],"boundingbox_center":[165.002911,164.997579,8.612503],"boundingbox_size":[27.054459,10.909866,17.225006]}
; plater:{"center":[165.002911,164.997579,0.000000],"boundingbox_center":[165.002911,164.997579,8.612503],"boundingbox_size":[27.054459,10.909866,17.225006]}

M73 P0 R43
;TYPE:Custom
START_PRINT T_BED=110 T_EXTRUDER=245
M107
G21 ; set units to millimeters
G90 ; use absolute coordinates
M83 ; use relative distances for extrusion
; Filament gcode
M104 S245 ; set temperature
M109 S245 ; set temperature and wait for it to be reached
M190 S110 ; set bed temperature and wait for it to be reached
M107
;LAYER_CHANGE
;Z:0.24
;HEIGHT:0.24
G1 Z0.24 F9000
G92 E0
G1 E-0.5 F3000
M204 S1000
G1 X152.644 Y158.718 F9000
G1 E0.5 F1800
;TYPE:Skirt
;WIDTH:0.52
G1 F1706
G1 X147.03 Y164.117 E0.3532
G1 X146.155 Y165.254 E0.065
G1 X145.525 Y166.944 E0.08181
G1 X145.422 Y167.916 E0.04432
G1 X145.399 Y170.195 E0.10335
G1 X145.702 Y171.977 E0.08197
G1 X146.743 Y173.696 E0.09113
G1 X148.487 Y174.933 E0.09695
G1 X149.679 Y175.312 E0.05669
G1 X150.789 Y175.446 E0.05071
G1 X169.122 Y175.737 E0.83142
G1 X179.109 Y175.741 E0.45285
G1 X179.944 Y175.673 E0.03798
G1 X181.517 Y175.225 E0.07418
G1 X183.021 Y174.222 E0.08196
G1 X184.166 Y172.57 E0.09113
G1 X184.584 Y170.604 E0.09113
G1 X184.609 Y168.325 E0.10335
G1 X184.504 Y167.232 E0.04978
G1 X183.93 Y165.648 E0.07642
G1 X183.081 Y164.495 E0.06493
G1 X176.999 Y158.396 E0.39056
G1 X174.866 Y157.25 E0.10981
G1 X173.672 Y157.047 E0.05491
G1 X171.531 Y156.933 E0.0972
G1 X167.326 Y156.876 E0.19073
G1 X156.759 Y156.866 E0.47912
G1 X155.393 Y157.047 E0.06247
G1 X153.237 Y158.148 E0.1098
G1 X152.644 Y158.718 E0.03731
G1 X152.967 Y159.053 F9000
G1 F1706
G1 X147.356 Y164.45 E0.35301
G1 X146.557 Y165.491 E0.05948
G1 X145.982 Y167.038 E0.07482
G1 X145.888 Y167.921 E0.04027
G1 X145.865 Y170.2 E0.10335
G1 X146.082 Y171.647 E0.06637
G1 X147.026 Y173.313 E0.08682
G1 X148.682 Y174.51 E0.09263
G1 X149.764 Y174.854 E0.05151
G1 X150.796 Y174.98 E0.04714
G1 X169.13 Y175.271 E0.83142
G1 X179.109 Y175.275 E0.45252
G1 X180.122 Y175.171 E0.04618
G1 X181.212 Y174.849 E0.0515
G1 X182.565 Y174.009 E0.07223
G1 X183.701 Y172.468 E0.08682
G1 X184.117 Y170.599 E0.08682
G1 X184.142 Y168.32 E0.10335
G1 X184.045 Y167.316 E0.04572
G1 X183.524 Y165.877 E0.06943
G1 X182.748 Y164.821 E0.05941
G1 X176.687 Y158.742 E0.38922
G1 X174.749 Y157.701 E0.09976
G1 X173.647 Y157.512 E0.05069
G1 X171.507 Y157.399 E0.0972
G1 X167.325 Y157.342 E0.18963
G1 X156.759 Y157.332 E0.47912
G1 X155.501 Y157.501 E0.05755
G1 X153.541 Y158.501 E0.09975
G1 X152.967 Y159.053 E0.03616
G1 X153.289 Y159.389 F9000
G1 F1706
G1 X147.682 Y164.784 E0.35283
G1 X146.958 Y165.728 E0.05395
G1 X146.439 Y167.131 E0.06783
G1 X146.354 Y167.925 E0.03621
G1 X146.332 Y170.204 E0.10335
G1 X146.473 Y171.324 E0.05118
G1 X147.314 Y172.933 E0.08228
G1 X148.877 Y174.086 E0.08808
G1 X149.85 Y174.395 E0.04632
G1 X150.804 Y174.513 E0.04357
G1 X169.137 Y174.805 E0.83142
G1 X179.11 Y174.809 E0.45219
G1 X180.046 Y174.71 E0.04271
G1 X181.026 Y174.421 E0.04631
G1 X182.11 Y173.783 E0.05705
G1 X183.236 Y172.361 E0.08228
G1 X183.651 Y170.594 E0.08228
G1 X183.676 Y168.315 E0.10335
G1 X183.586 Y167.4 E0.04167
G1 X183.118 Y166.106 E0.06244
G1 X182.415 Y165.147 E0.0539
G1 X176.375 Y159.089 E0.38789
G1 X174.632 Y158.153 E0.08972
G1 X173.623 Y157.978 E0.04646
G1 X171.482 Y157.865 E0.0972
G1 X167.325 Y157.809 E0.18854
G1 X156.758 Y157.798 E0.47912
G1 X155.608 Y157.954 E0.05264
G1 X153.846 Y158.854 E0.08971
G1 X153.289 Y159.389 E0.03501
G1 X153.612 Y159.725 F9000
G1 F1706
G1 X148.008 Y165.117 E0.35265
G1 X147.36 Y165.966 E0.04843
G1 X146.896 Y167.225 E0.06085
G1 X146.798 Y170.209 E0.1354
G1 X147.607 Y172.555 E0.1125
G1 X148.953 Y173.607 E0.07748
G1 X149.936 Y173.937 E0.04703
G1 X150.811 Y174.047 E0.04
G1 X169.145 Y174.338 E0.83142
G1 X179.11 Y174.342 E0.45186
G1 X179.97 Y174.25 E0.03923
G1 X180.96 Y173.942 E0.04702
G1 X182.772 Y172.247 E0.1125
G1 X183.185 Y170.589 E0.07748
G1 X183.21 Y168.31 E0.10335
G1 X183.128 Y167.484 E0.03761
G1 X182.712 Y166.334 E0.05545
G1 X182.082 Y165.473 E0.04838
G1 X176.184 Y159.544 E0.37923
G1 X174.516 Y158.604 E0.08681
G1 X173.598 Y158.444 E0.04223
G1 X171.31 Y158.326 E0.10391
G1 X167.324 Y158.275 E0.18074
G1 X156.758 Y158.265 E0.47912
G1 X155.715 Y158.408 E0.04772
G1 X154.15 Y159.207 E0.07967
G1 X153.612 Y159.725 E0.03386
G1 X153.935 Y160.06 F9000
G1 F1706
G1 X148.334 Y165.45 E0.35246
G1 X147.761 Y166.203 E0.04291
G1 X147.353 Y167.318 E0.05386
G1 X147.264 Y170.214 E0.13136
G1 X147.907 Y172.18 E0.0938
G1 X149.147 Y173.184 E0.07236
G1 X150.022 Y173.479 E0.04184
G1 X150.819 Y173.581 E0.03643
G1 X169.152 Y173.872 E0.83142
M73 P0 R42
G1 X179.11 Y173.876 E0.45153
G1 X179.894 Y173.79 E0.03576
G1 X180.774 Y173.514 E0.04183
G1 X182.308 Y172.126 E0.0938
G1 X182.718 Y170.584 E0.07236
G1 X182.743 Y168.305 E0.10335
G1 X182.669 Y167.568 E0.03356
G1 X182.305 Y166.563 E0.04846
G1 X181.749 Y165.8 E0.04286
G1 X175.752 Y159.782 E0.38521
G1 X174.399 Y159.056 E0.06963
G1 X173.574 Y158.909 E0.03801
G1 X171.304 Y158.792 E0.10306
G1 X167.324 Y158.741 E0.18049
G1 X156.757 Y158.731 E0.47912
G1 X155.823 Y158.862 E0.0428
G1 X154.455 Y159.56 E0.06963
G1 X153.935 Y160.06 E0.03271
; INIT printing object KlickyProbe_v2.stl id:0 copy 0
G1 E-0.5 F3000
; printing object KlickyProbe_v2.stl id:0 copy 0
; acceleration to travel
M204 S3000
G1 X167.394 Y162.276 F9000
; decel to extrusion
M204 S1000
G1 X171.88 Y163.014
; end travel
G1 E0.5 F1800
;TYPE:Internal perimeter
;WIDTH:0.48
G1 F1706
G1 X171.962 Y162.782 E0.01023
G1 X172.89 Y162.798 E0.03847
G1 X172.682 Y163.161 E0.01735
G1 X172.471 Y163.581 E0.01951
G1 X172.135 Y163.214 E0.02064
G1 X171.88 Y163.014 E0.01343
G1 X171.234 Y162.648 F9000
;TYPE:Thin wall
;WIDTH:0.1575
G1 F1706
G1 X171.126 Y162.651 E0.00117
;WIDTH:0.352498
G1 X171.042 Y162.654 E0.00249
G1 X170.863 Y162.653 E0.00528
G1 X167.759 Y162.62 E0.09201
G1 X167.58 Y162.618 E0.00528
G1 X167.545 Y162.617 E0.00106
;WIDTH:0.2385
G1 X167.436 Y162.614 E0.00203
;WIDTH:0.079948
G1 X167.405 Y162.613 E0.0001
;WIDTH:0.008883
G1 X167.436 Y162.614 E0.00001
;WIDTH:0.0265
G1 X167.545 Y162.617 E0.00023
;WIDTH:0.039166
G1 X167.58 Y162.618 E0.00012
G1 X167.759 Y162.62 E0.00059
G1 X170.863 Y162.653 E0.01022
G1 X171.042 Y162.654 E0.00059
G1 X171.126 Y162.651 E0.00028
;WIDTH:0.0175
G1 X171.234 Y162.648 E0.00013
G1 X171.274 Y162.651 F9000
;TYPE:External perimeter
;WIDTH:0.48
G1 F1706
G1 X171.299 Y162.38 E0.01131
G1 X171.329 Y162.273 E0.00459
G1 X171.335 Y162.274 E0.00024
G1 X171.514 Y162.293 E0.00747
G1 X172.109 Y162.356 E0.02479
G1 X173.37 Y162.377 E0.05234
G1 X173.473 Y162.404 E0.00437
G1 X173.513 Y162.44 E0.00224
G1 X173.526 Y162.469 E0.00135
G1 X173.53 Y162.504 E0.00144
G1 X173.515 Y162.567 E0.00267
G1 X173.06 Y163.364 E0.03807
G1 X172.825 Y163.83 E0.02163
G1 X172.771 Y164.062 E0.00991
G1 X172.73 Y164.24 E0.00755
G1 X172.588 Y164.521 E0.01309
G1 X172.449 Y164.383 E0.00815
G1 X172.347 Y164.237 E0.00738
G1 X172.26 Y164.112 E0.00631
G1 X172.097 Y163.808 E0.01431
G1 X171.843 Y163.53 E0.01564
G1 X171.608 Y163.346 E0.01237
G1 X171.434 Y163.123 E0.01172
G1 X171.41 Y163.078 E0.00212
G1 X171.296 Y162.861 E0.01013
G1 X171.288 Y162.82 E0.00175
G1 X171.268 Y162.724 E0.00407
G1 X171.274 Y162.651 E0.00302
;WIPE_START
M204 S5000
G1 X171.217 Y162.54 F9000
;WIPE_END
G1 E-0.5 F3000
; acceleration to travel
M204 S3000
G1 X166.526 Y163.316 F9000
; decel to extrusion
M204 S1000
G1 X164.963 Y163.575
; end travel
G1 E0.5 F1800
;TYPE:Internal perimeter
G1 F1706
G1 X164.637 Y164.212 E0.02969
G1 X164.447 Y164.7 E0.02167
G1 X164.309 Y165.203 E0.02167
G1 X164.224 Y165.719 E0.02167
G1 X164.191 Y166.24 E0.02167
G1 X164.213 Y166.763 E0.02167
G1 X164.288 Y167.28 E0.02167
G1 X164.415 Y167.786 E0.02167
G1 X164.594 Y168.277 E0.02167
G1 X164.931 Y168.972 E0.032
G1 X156.753 Y168.885 E0.33917
G1 X156.693 Y168.622 E0.0112
G1 X156.906 Y168.516 E0.00986
G1 X157.589 Y167.98 E0.03599
G1 X158.148 Y167.32 E0.03589
G1 X158.561 Y166.562 E0.03581
G1 X158.802 Y165.776 E0.03407
G1 X158.877 Y165.264 E0.02146
G1 X158.87 Y164.45 E0.03378
G1 X158.681 Y163.51 E0.03977
G1 X164.963 Y163.575 E0.26053
G1 X164.967 Y163.147 F9000
G1 F1706
G1 X165.836 Y163.156 E0.03604
G1 X165.508 Y163.559 E0.02156
G1 X165.246 Y163.962 E0.01994
G1 X165.028 Y164.388 E0.01985
G1 X164.855 Y164.834 E0.01984
G1 X164.728 Y165.296 E0.01984
G1 X164.65 Y165.767 E0.01984
G1 X164.62 Y166.245 E0.01984
G1 X164.64 Y166.723 E0.01984
G1 X164.708 Y167.197 E0.01984
G1 X164.825 Y167.66 E0.01984
G1 X164.989 Y168.11 E0.01985
G1 X165.198 Y168.54 E0.01984
G1 X165.45 Y168.947 E0.01984
G1 X165.807 Y169.409 E0.02423
G1 X151.604 Y169.259 E0.58907
G1 X151.61 Y168.726 E0.0221
G1 X154.699 Y168.738 E0.12812
G1 X155.246 Y168.692 E0.02277
G1 X155.981 Y168.497 E0.03153
G1 X156.676 Y168.152 E0.03219
G1 X157.29 Y167.67 E0.03237
G1 X157.793 Y167.076 E0.03226
G1 X158.164 Y166.395 E0.0322
G1 X158.383 Y165.682 E0.03092
G1 X158.448 Y165.235 E0.01873
G1 X158.442 Y164.494 E0.03072
G1 X158.308 Y163.825 E0.02831
G1 X158.024 Y163.074 E0.03328
G1 X164.967 Y163.147 E0.28796
; acceleration to travel
M204 S3000
G1 X166.243 Y162.818 F9000
; decel to extrusion
M204 S1000
G1 X166.669 Y162.709
; end travel
G1 F1706
G1 X166.749 Y162.95 E0.01052
G1 X166.462 Y163.153 E0.01458
G1 X166.134 Y163.469 E0.01889
G1 X165.855 Y163.812 E0.01832
G1 X165.618 Y164.177 E0.01807
G1 X165.42 Y164.564 E0.01802
G1 X165.262 Y164.969 E0.01801
G1 X165.148 Y165.388 E0.01801
G1 X165.076 Y165.816 E0.01801
G1 X165.049 Y166.249 E0.01801
G1 X165.067 Y166.683 E0.01801
G1 X165.129 Y167.113 E0.01801
G1 X165.235 Y167.535 E0.01801
G1 X165.384 Y167.943 E0.01802
G1 X165.574 Y168.333 E0.01801
G1 X165.803 Y168.702 E0.01801
G1 X166.068 Y169.046 E0.01801
G1 X166.368 Y169.361 E0.01803
G1 X166.94 Y169.85 E0.03122
G1 X151.172 Y169.683 E0.65402
G1 X151.185 Y168.296 E0.05752
G1 X154.682 Y168.31 E0.145
G1 X155.172 Y168.268 E0.02043
G1 X155.829 Y168.094 E0.02817
G1 X156.446 Y167.787 E0.02857
G1 X156.991 Y167.36 E0.02875
G1 X157.437 Y166.833 E0.02863
G1 X157.767 Y166.228 E0.02859
G1 X157.964 Y165.587 E0.02778
G1 X158.02 Y165.206 E0.016
G1 X158.014 Y164.539 E0.02766
G1 X157.894 Y163.944 E0.02517
G1 X157.708 Y163.449 E0.02191
G1 X157.261 Y162.638 E0.03841
G1 X165.882 Y162.728 E0.35753
G1 X166.669 Y162.709 E0.03266
G1 E-0.5 F3000
; acceleration to travel
M204 S3000
G1 X171.746 Y166.953 F9000
; decel to extrusion
M204 S1000
G1 X173.438 Y168.367
; end travel
G1 E0.5 F1800
G1 F1706
G1 X173.765 Y168.556 E0.01565
G1 X174.135 Y168.718 E0.01675
G1 X174.516 Y168.837 E0.01654
G1 X174.908 Y168.916 E0.01659
G1 X175.326 Y168.954 E0.01741
G1 X178.405 Y169.006 E0.12773
G1 X178.399 Y169.539 E0.0221
G1 X172.705 Y169.481 E0.23619
G1 X173.171 Y168.842 E0.03281
G1 X173.438 Y168.367 E0.02259
G1 X173.239 Y167.679 F9000
G1 F1706
G1 X173.643 Y167.991 E0.02116
G1 X173.958 Y168.173 E0.01511
G1 X174.285 Y168.316 E0.0148
G1 X174.622 Y168.421 E0.01466
G1 X174.969 Y168.492 E0.01468
G1 X175.349 Y168.526 E0.01579
G1 X178.838 Y168.584 E0.14475
G1 X178.823 Y169.971 E0.05752
G1 X171.891 Y169.902 E0.28753
G1 X171.815 Y169.665 E0.01028
G1 X171.935 Y169.579 E0.00611
G1 X172.258 Y169.288 E0.01804
G1 X172.55 Y168.965 E0.01806
G1 X172.81 Y168.61 E0.01825
G1 X173.032 Y168.215 E0.01878
G1 X173.239 Y167.679 E0.02382
G1 X172.996 Y166.853 F9000
;TYPE:External perimeter
G1 F1706
G1 X173.018 Y166.791 E0.00271
G1 X173.256 Y166.989 E0.01279
G1 X173.4 Y167.224 E0.01143
G1 X173.637 Y167.445 E0.01346
G1 X173.882 Y167.634 E0.01281
G1 X173.914 Y167.653 E0.00157
G1 X174.151 Y167.79 E0.01135
G1 X174.435 Y167.914 E0.01284
G1 X174.601 Y167.966 E0.00719
G1 X174.729 Y168.006 E0.00559
G1 X174.859 Y168.032 E0.00548
G1 X175.031 Y168.067 E0.00729
G1 X175.279 Y168.089 E0.01032
G1 X175.371 Y168.097 E0.00384
G1 X179.019 Y168.149 E0.15131
G1 X179.133 Y168.15 E0.0047
G1 X179.19 Y168.162 E0.0024
G1 X179.216 Y168.177 E0.00126
G1 X179.245 Y168.207 E0.00173
G1 X179.26 Y168.234 E0.00126
G1 X179.27 Y168.29 E0.00237
G1 X179.247 Y170.377 E0.08656
G1 X179.092 Y170.403 E0.00651
G1 X173.552 Y170.347 E0.22977
G1 X171.186 Y170.323 E0.09814
G1 X170.681 Y170.333 E0.02096
G1 X169.691 Y170.4 E0.04114
G1 X169.659 Y170.4 E0.00134
G1 X169.206 Y170.399 E0.01877
G1 X168.721 Y170.388 E0.02013
G1 X167.732 Y170.301 E0.04117
G1 X167.227 Y170.281 E0.02095
M73 P1 R42
G1 X150.893 Y170.108 E0.67745
G1 X150.739 Y170.079 E0.00651
G1 X150.746 Y169.384 E0.02885
G1 X150.76 Y167.992 E0.05771
G1 X150.771 Y167.936 E0.00237
G1 X150.787 Y167.91 E0.00126
G1 X150.817 Y167.881 E0.00173
G1 X150.843 Y167.866 E0.00126
G1 X150.9 Y167.855 E0.0024
G1 X154.664 Y167.881 E0.15612
G1 X155.099 Y167.845 E0.01809
G1 X155.677 Y167.691 E0.02481
G1 X155.857 Y167.602 E0.00832
G1 X156.216 Y167.423 E0.01663
G1 X156.315 Y167.346 E0.00522
G1 X156.692 Y167.049 E0.01991
G1 X156.859 Y166.853 E0.01069
G1 X157.082 Y166.589 E0.01431
G1 X157.37 Y166.061 E0.02497
G1 X157.544 Y165.493 E0.02463
G1 X157.591 Y165.176 E0.01327
G1 X157.586 Y164.583 E0.0246
G1 X157.481 Y164.062 E0.02204
G1 X157.318 Y163.629 E0.01919
G1 X157.014 Y163.078 E0.02612
G1 X156.627 Y162.374 E0.03331
G1 X156.624 Y162.356 E0.00076
G1 X156.619 Y162.332 E0.00102
G1 X156.624 Y162.293 E0.00163
G1 X156.638 Y162.264 E0.00135
G1 X156.679 Y162.229 E0.00223
G1 X156.745 Y162.213 E0.0028
G1 X156.781 Y162.204 E0.00155
G1 X157.22 Y162.209 E0.01822
G1 X165.879 Y162.299 E0.35911
G1 X166.857 Y162.276 E0.04059
G1 X167.052 Y162.251 E0.00814
G1 X167.295 Y162.22 E0.01016
G1 X167.308 Y162.246 E0.00124
G1 X167.314 Y162.257 E0.00047
G1 X167.316 Y162.274 E0.00073
G1 X167.368 Y162.64 E0.01532
G1 X167.327 Y162.82 E0.00767
G1 X167.184 Y163.078 E0.01221
G1 X167.007 Y163.292 E0.01154
G1 X166.736 Y163.484 E0.01377
G1 X166.45 Y163.76 E0.01649
G1 X166.202 Y164.064 E0.01629
G1 X165.989 Y164.392 E0.0162
G1 X165.893 Y164.579 E0.00871
G1 X165.811 Y164.739 E0.00748
G1 X165.67 Y165.103 E0.01618
G1 X165.567 Y165.48 E0.01619
G1 X165.531 Y165.693 E0.00896
G1 X165.503 Y165.864 E0.00723
G1 X165.478 Y166.254 E0.01618
G1 X165.494 Y166.644 E0.01618
G1 X165.55 Y167.03 E0.01618
G1 X165.599 Y167.224 E0.00828
G1 X165.646 Y167.409 E0.00791
G1 X165.779 Y167.775 E0.01619
G1 X165.95 Y168.126 E0.01618
G1 X165.981 Y168.177 E0.00249
G1 X166.155 Y168.458 E0.0137
G1 X166.394 Y168.767 E0.01618
G1 X166.663 Y169.05 E0.01619
G1 X166.96 Y169.303 E0.0162
G1 X167.284 Y169.525 E0.01627
G1 X167.542 Y169.661 E0.01209
G1 X167.634 Y169.709 E0.00431
G1 X167.733 Y169.745 E0.00439
G1 X168.009 Y169.844 E0.01214
G1 X168.394 Y169.922 E0.01633
G1 X169.135 Y169.989 E0.03081
G1 X169.818 Y169.962 E0.02836
G1 X169.87 Y169.959 E0.00216
G1 X170.253 Y169.916 E0.01598
G1 X170.456 Y169.866 E0.00867
G1 X170.638 Y169.821 E0.00779
G1 X171.006 Y169.67 E0.0165
G1 X171.348 Y169.475 E0.01633
G1 X171.665 Y169.245 E0.01623
G1 X171.955 Y168.984 E0.0162
G1 X172.218 Y168.695 E0.0162
G1 X172.39 Y168.458 E0.01215
G1 X172.449 Y168.378 E0.00412
G1 X172.643 Y168.032 E0.01645
G1 X172.689 Y167.914 E0.00527
G1 X172.789 Y167.653 E0.01159
G1 X172.824 Y167.445 E0.00873
G1 X172.888 Y167.058 E0.01628
G1 X172.996 Y166.853 E0.00963
;WIPE_START
M204 S5000
G1 X173.061 Y166.844 F9000
;WIPE_END
; acceleration to travel
M204 S3000
G1 X173.285 Y168.391
; decel to extrusion
M204 S1000
G1 X173.36 Y168.907
; end travel
;TYPE:Gap fill
;WIDTH:0.612944
G1 F1706
G1 X173.531 Y168.978 E0.01005
G1 X173.621 Y169.014 E0.00527
G1 X173.766 Y169.045 E0.00806
;WIDTH:0.518754
G1 X173.911 Y169.076 E0.00671
;WIDTH:0.462522
G1 X174.006 Y169.095 E0.00383
G1 X174.11 Y169.112 E0.00422
;WIDTH:0.414301
G1 X174.215 Y169.128 E0.00372
;WIDTH:0.372894
G1 X174.32 Y169.145 E0.0033
;WIDTH:0.331283
G1 X174.439 Y169.163 E0.00327
G1 X174.649 Y169.186 E0.00573
;WIDTH:0.247883
