; generated by SuperSlicer 2.4 on 2022-05-06 at 00:46:53 UTC


;
;

;
;
; 

; external perimeters extrusion width = 0.40mm
; perimeters extrusion width = 0.40mm
; infill extrusion width = 0.72mm
; solid infill extrusion width = 0.56mm
; top infill extrusion width = 0.40mm
; first layer extrusion width = 0.48mm

; object:{"name":"KlickyProbe_v2","id":"KlickyProbe_v2.stl id:0 copy 0","object_center":[165.002911,164.997579,0.000000],"boundingbox_center":[165.002911,164.997579,8.612503],"boundingbox_size":[27.054459,10.909866,17.225006]}
; plater:{"center":[165.002911,164.997579,0.000000],"boundingbox_center":[165.002911,164.997579,8.612503],"boundingbox_size":[27.054459,10.909866,17.225006]}

M73 P0 R30
;TYPE:Custom
START_PRINT T_BED=110 T_EXTRUDER=245
M107
G21 ; set units to millimeters
G90 ; use absolute coordinates
M83 ; use relative distances for extrusion
; Filament gcode
M109 S245 ; set temperature and wait for it to be reached
M190 S110 ; set bed temperature and wait for it to be reached
M107
;LAYER_CHANGE
;Z:0.24
;HEIGHT:0.24
G1 Z0.24 F9000
G92 E0
G1 E-0.5 F3000
M204 S1000
G1 X153.092 Y159.204 F9000
M73 P0 R29
G1 E0.5 F1800
;TYPE:Skirt
;WIDTH:0.52
G1 X148.212 Y163.897 E0.30384
G1 X147.343 Y165.024 E0.06386
G1 X146.716 Y166.703 E0.08043
G1 X146.612 Y167.674 E0.04386
G1 X146.591 Y169.762 E0.09367
G1 X146.894 Y171.544 E0.08113
G1 X147.936 Y173.262 E0.09019
G1 X149.664 Y174.493 E0.0952
G1 X150.856 Y174.871 E0.05611
G1 X151.94 Y175.001 E0.04902
G1 X168.4 Y175.273 E0.73875
G1 X177.965 Y175.272 E0.42928
G1 X178.792 Y175.204 E0.0372
G1 X180.327 Y174.766 E0.07165
G1 X181.831 Y173.763 E0.08112
G1 X182.976 Y172.112 E0.09019
G1 X183.393 Y170.146 E0.09019
G1 X183.416 Y168.059 E0.09367
G1 X183.314 Y166.978 E0.04873
G1 X182.74 Y165.393 E0.07563
G1 X181.896 Y164.249 E0.06378
G1 X176.296 Y158.634 E0.35594
G1 X174.163 Y157.487 E0.10864
G1 X173.006 Y157.289 E0.0527
G1 X171.041 Y157.177 E0.08831
G1 X167.132 Y157.123 E0.17544
G1 X157.429 Y157.121 E0.43543
G1 X156.086 Y157.298 E0.0608
G1 X153.929 Y158.399 E0.10866
G1 X153.092 Y159.204 E0.0521
G1 X153.415 Y159.539 F9000
G1 F1800
G1 X148.538 Y164.23 E0.30366
G1 X147.745 Y165.261 E0.05839
G1 X147.172 Y166.796 E0.07352
G1 X147.078 Y167.679 E0.03985
G1 X147.058 Y169.766 E0.09367
G1 X147.275 Y171.214 E0.06569
G1 X148.219 Y172.88 E0.08592
G1 X149.859 Y174.069 E0.09092
G1 X150.941 Y174.413 E0.05098
G1 X151.948 Y174.535 E0.0455
G1 X169.434 Y174.817 E0.78481
G1 X177.965 Y174.806 E0.38285
G1 X178.948 Y174.705 E0.04433
G1 X180.037 Y174.384 E0.05096
G1 X181.374 Y173.55 E0.07073
G1 X182.511 Y172.01 E0.08592
G1 X182.927 Y170.141 E0.08592
G1 X182.95 Y168.054 E0.09367
G1 X182.855 Y167.062 E0.04471
G1 X182.334 Y165.622 E0.06872
G1 X181.563 Y164.576 E0.05832
G1 X175.984 Y158.98 E0.35462
G1 X174.046 Y157.939 E0.0987
G1 X172.979 Y157.755 E0.0486
G1 X171.015 Y157.643 E0.08831
G1 X167.132 Y157.589 E0.17426
G1 X157.429 Y157.588 E0.43543
G1 X156.193 Y157.752 E0.05595
G1 X154.234 Y158.752 E0.09873
G1 X153.415 Y159.539 E0.05097
G1 X153.738 Y159.875 F9000
G1 F1800
G1 X148.865 Y164.563 E0.30347
G1 X148.146 Y165.499 E0.05292
G1 X147.629 Y166.89 E0.0666
G1 X147.545 Y167.684 E0.03584
G1 X147.524 Y169.771 E0.09367
G1 X147.666 Y170.891 E0.05065
G1 X148.506 Y172.499 E0.08143
G1 X150.054 Y173.645 E0.08642
G1 X151.027 Y173.955 E0.04585
G1 X151.956 Y174.068 E0.04198
G1 X169.439 Y174.351 E0.78468
G1 X177.964 Y174.34 E0.3826
G1 X178.871 Y174.245 E0.04093
G1 X179.851 Y173.956 E0.04583
G1 X180.92 Y173.325 E0.05571
G1 X182.046 Y171.902 E0.08143
G1 X182.461 Y170.136 E0.08143
G1 X182.484 Y168.049 E0.09367
G1 X182.396 Y167.146 E0.0407
G1 X181.928 Y165.851 E0.0618
G1 X181.23 Y164.902 E0.05286
G1 X175.672 Y159.327 E0.3533
G1 X173.929 Y158.39 E0.08877
G1 X172.953 Y158.22 E0.04449
G1 X170.988 Y158.108 E0.08831
G1 X167.132 Y158.055 E0.17307
G1 X157.429 Y158.054 E0.43543
G1 X156.301 Y158.206 E0.0511
G1 X154.538 Y159.105 E0.08879
G1 X153.738 Y159.875 E0.04983
G1 X154.061 Y160.211 F9000
G1 F1800
G1 X149.191 Y164.896 E0.30329
G1 X148.548 Y165.736 E0.04745
G1 X148.086 Y166.983 E0.05968
G1 X147.99 Y169.775 E0.12538
G1 X148.799 Y172.121 E0.11134
G1 X150.145 Y173.174 E0.07668
G1 X151.113 Y173.496 E0.04578
G1 X151.963 Y173.602 E0.03846
G1 X169.443 Y173.885 E0.78456
G1 X177.964 Y173.873 E0.38236
G1 X178.795 Y173.785 E0.03753
G1 X179.769 Y173.483 E0.04577
G1 X181.582 Y171.789 E0.11134
G1 X181.994 Y170.13 E0.07668
G1 X182.017 Y168.043 E0.09367
G1 X181.937 Y167.23 E0.03669
G1 X181.521 Y166.08 E0.05488
G1 X180.897 Y165.228 E0.04739
G1 X175.467 Y159.77 E0.34549
G1 X173.812 Y158.842 E0.08516
G1 X172.926 Y158.686 E0.04038
G1 X170.799 Y158.568 E0.09562
G1 X167.132 Y158.522 E0.16457
G1 X157.429 Y158.52 E0.43543
G1 X156.408 Y158.66 E0.04625
G1 X154.843 Y159.458 E0.07885
G1 X154.061 Y160.211 E0.04869
G1 X154.384 Y160.546 F9000
G1 F1800
G1 X149.517 Y165.23 E0.30311
G1 X148.949 Y165.973 E0.04198
G1 X148.543 Y167.077 E0.05277
G1 X148.457 Y169.78 E0.12138
G1 X149.099 Y171.746 E0.09283
G1 X150.34 Y172.75 E0.07161
G1 X151.199 Y173.038 E0.04065
G1 X151.971 Y173.136 E0.03494
G1 X169.448 Y173.418 E0.78443
G1 X177.963 Y173.407 E0.38211
G1 X178.719 Y173.325 E0.03413
G1 X179.584 Y173.055 E0.04064
G1 X181.117 Y171.667 E0.09283
G1 X181.528 Y170.125 E0.07161
G1 X181.551 Y168.038 E0.09367
G1 X181.479 Y167.314 E0.03267
G1 X181.115 Y166.309 E0.04796
G1 X180.564 Y165.554 E0.04193
G1 X175.155 Y160.117 E0.34417
G1 X173.695 Y159.293 E0.07522
G1 X172.9 Y159.151 E0.03627
G1 X170.793 Y159.035 E0.0947
G1 X167.132 Y158.988 E0.16431
G1 X157.429 Y158.987 E0.43543
G1 X156.515 Y159.114 E0.0414
G1 X155.148 Y159.812 E0.06891
G1 X154.384 Y160.546 E0.04755
; INIT printing object KlickyProbe_v2.stl id:0 copy 0
G1 E-0.5 F3000
; printing object KlickyProbe_v2.stl id:0 copy 0
; acceleration to travel
M204 S3000
G1 X167.067 Y162.399 F9000
; decel to extrusion
M204 S1000
G1 X171.295 Y163.016
; end travel
G1 E0.5 F1800
;TYPE:Internal perimeter
;WIDTH:0.48
G1 X172.149 Y163.035 E0.03508
G1 X172.005 Y163.295 E0.01221
G1 X171.855 Y163.607 E0.01418
G1 X171.295 Y163.016 E0.03341
G1 X170.804 Y162.597 F9000
;TYPE:External perimeter
G1 F1800
G1 X170.818 Y162.549 E0.00207
G1 X170.828 Y162.515 E0.00142
G1 X171.726 Y162.597 E0.03704
G1 X172.683 Y162.619 E0.03927
G1 X172.768 Y162.641 E0.00359
G1 X172.795 Y162.666 E0.00153
G1 X172.803 Y162.683 E0.00081
G1 X172.806 Y162.706 E0.00093
G1 X172.798 Y162.737 E0.00132
G1 X172.794 Y162.757 E0.00082
G1 X172.385 Y163.492 E0.03454
G1 X172.194 Y163.891 E0.01816
G1 X172.179 Y163.922 E0.00141
G1 X172.126 Y164.124 E0.00855
G1 X172.083 Y164.29 E0.00707
G1 X171.964 Y164.519 E0.01056
G1 X171.854 Y164.417 E0.00616
G1 X171.684 Y164.175 E0.01212
G1 X171.632 Y164.075 E0.00462
G1 X171.534 Y163.891 E0.00854
G1 X171.292 Y163.636 E0.01443
G1 X171.081 Y163.473 E0.01096
G1 X170.927 Y163.267 E0.01055
G1 X170.801 Y163.029 E0.01105
G1 X170.793 Y162.991 E0.00161
G1 X170.776 Y162.908 E0.00345
G1 X170.804 Y162.597 E0.01283
;WIPE_START
M204 S5000
G1 X170.852 Y162.582 F9000
;WIPE_END
G1 E-0.5 F3000
; acceleration to travel
M204 S3000
G1 X166.276 Y163.511 F9000
; decel to extrusion
M204 S1000
G1 X164.751 Y163.82
; end travel
G1 E0.5 F1800
;TYPE:Internal perimeter
G1 X164.545 Y164.222 E0.01851
G1 X164.367 Y164.682 E0.02027
G1 X164.236 Y165.158 E0.02026
G1 X164.155 Y165.645 E0.02026
G1 X164.125 Y166.138 E0.02026
G1 X164.145 Y166.631 E0.02026
G1 X164.216 Y167.119 E0.02026
G1 X164.336 Y167.598 E0.02025
G1 X164.505 Y168.062 E0.02026
G1 X164.724 Y168.511 E0.02053
G1 X157.884 Y168.439 E0.28073
G1 X157.806 Y168.209 E0.00997
G1 X158.286 Y167.833 E0.02504
G1 X158.818 Y167.206 E0.03373
G1 X159.21 Y166.486 E0.03365
G1 X159.438 Y165.742 E0.03193
G1 X159.51 Y165.252 E0.02034
G1 X159.503 Y164.481 E0.03164
M73 P1 R29
G1 X159.36 Y163.765 E0.02996
G1 X164.751 Y163.82 E0.22131
G1 X165.532 Y163.4 F9000
G1 F1800
G1 X165.143 Y163.996 E0.02924
G1 X164.937 Y164.398 E0.0185
G1 X164.774 Y164.817 E0.01846
G1 X164.655 Y165.25 E0.01845
G1 X164.582 Y165.694 E0.01845
G1 X164.554 Y166.142 E0.01845
G1 X164.572 Y166.591 E0.01845
G1 X164.637 Y167.036 E0.01845
G1 X164.746 Y167.472 E0.01845
G1 X164.9 Y167.894 E0.01845
G1 X165.096 Y168.298 E0.01845
G1 X165.499 Y168.948 E0.03138
G1 X155.705 Y168.845 E0.40202
G1 X155.693 Y168.518 E0.01342
G1 X156.059 Y168.487 E0.01507
G1 X156.752 Y168.304 E0.02942
G1 X157.408 Y167.977 E0.03007
G1 X157.988 Y167.522 E0.03024
G1 X158.462 Y166.962 E0.03014
G1 X158.813 Y166.319 E0.03008
G1 X159.019 Y165.648 E0.02882
G1 X159.081 Y165.222 E0.01764
G1 X159.075 Y164.525 E0.02861
G1 X158.948 Y163.894 E0.02644
G1 X158.736 Y163.33 E0.02471
G1 X165.532 Y163.4 E0.27897
; acceleration to travel
M204 S3000
G1 X166.375 Y163.055 F9000
; decel to extrusion
M204 S1000
G1 X166.656 Y162.94
; end travel
G1 F1800
G1 X166.003 Y163.548 E0.0366
G1 X165.737 Y163.869 E0.01713
G1 X165.514 Y164.212 E0.01679
G1 X165.328 Y164.573 E0.01667
G1 X165.182 Y164.951 E0.01664
G1 X165.074 Y165.342 E0.01664
G1 X165.008 Y165.742 E0.01664
G1 X164.983 Y166.147 E0.01664
G1 X164.999 Y166.552 E0.01664
G1 X165.057 Y166.953 E0.01664
G1 X165.156 Y167.346 E0.01664
G1 X165.295 Y167.727 E0.01664
G1 X165.472 Y168.091 E0.01664
G1 X165.686 Y168.436 E0.01664
G1 X165.934 Y168.757 E0.01665
G1 X166.214 Y169.051 E0.01669
G1 X166.612 Y169.388 E0.02139
G1 X152.364 Y169.238 E0.58483
G1 X152.375 Y168.089 E0.04718
G1 X155.527 Y168.102 E0.12934
G1 X155.986 Y168.063 E0.01891
G1 X156.6 Y167.901 E0.02609
G1 X157.178 Y167.613 E0.02649
G1 X157.689 Y167.212 E0.02666
G1 X158.107 Y166.719 E0.02655
G1 X158.416 Y166.152 E0.0265
G1 X158.6 Y165.553 E0.0257
G1 X158.652 Y165.193 E0.01493
G1 X158.647 Y164.57 E0.02558
G1 X158.535 Y164.012 E0.02333
G1 X158.361 Y163.551 E0.02024
G1 X158.006 Y162.894 E0.03063
G1 X165.681 Y162.973 E0.31505
G1 X166.656 Y162.94 E0.04002
G1 E-0.5 F3000
; acceleration to travel
M204 S3000
G1 X171.254 Y166.898 F9000
; decel to extrusion
M204 S1000
G1 X172.786 Y168.217
; end travel
G1 E0.5 F1800
G1 X172.988 Y168.343 E0.00976
G1 X173.352 Y168.503 E0.0163
G1 X173.712 Y168.618 E0.01554
G1 X174.085 Y168.693 E0.01559
G1 X174.286 Y168.711 E0.0083
G1 X174.27 Y169.04 E0.01352
G1 X172.266 Y169.02 E0.08225
G1 X172.589 Y168.576 E0.02257
G1 X172.786 Y168.217 E0.01679
G1 X172.411 Y168.011 F9000
G1 F1800
G1 X172.43 Y167.976 E0.00161
G1 X172.598 Y167.546 E0.01895
G1 X172.897 Y167.781 E0.0156
G1 X173.189 Y167.963 E0.01412
G1 X173.503 Y168.102 E0.01411
G1 X173.82 Y168.202 E0.01365
G1 X174.147 Y168.269 E0.01367
G1 X174.501 Y168.3 E0.01459
G1 X177.646 Y168.352 E0.1291
G1 X177.633 Y169.502 E0.04719
G1 X171.2 Y169.438 E0.26404
G1 X171.71 Y168.983 E0.02805
G1 X171.983 Y168.68 E0.01674
G1 X172.227 Y168.345 E0.01699
G1 X172.411 Y168.011 E0.01569
G1 E-0.5 F3000
; acceleration to travel
M204 S3000
G1 X171.136 Y164.133 F9000
; decel to extrusion
M204 S1000
G1 X170.711 Y162.84
; end travel
G1 E0.5 F1800
;TYPE:Thin wall
;WIDTH:0.079947
G1 X170.742 Y162.839 E0.0001
;WIDTH:0.008883
G1 X170.711 Y162.84 E0.00001
;WIDTH:0.0265
G1 X170.602 Y162.844 E0.00022
;WIDTH:0.04
G1 X170.549 Y162.846 E0.00018
G1 X170.385 Y162.844 E0.00055
G1 X167.534 Y162.814 E0.00952
G1 X167.452 Y162.813 E0.00027
;WIDTH:0.032723
G1 X167.37 Y162.813 E0.00022
G1 X167.312 Y162.811 E0.00015
;WIDTH:0.015968
G1 X167.192 Y162.807 E0.00012
G1 X167.153 Y162.812 F9000
;TYPE:External perimeter
;WIDTH:0.48
G1 F1800
G1 X167.155 Y162.831 E0.00078
G1 X167.133 Y162.928 E0.00409
G1 X167.119 Y162.991 E0.00262
G1 X166.989 Y163.225 E0.011
G1 X166.832 Y163.422 E0.01032
G1 X166.729 Y163.492 E0.00514
G1 X166.586 Y163.59 E0.00712
G1 X166.316 Y163.842 E0.01516
G1 X166.083 Y164.124 E0.015
G1 X165.885 Y164.427 E0.01488
G1 X165.72 Y164.749 E0.01484
G1 X165.589 Y165.086 E0.01483
G1 X165.493 Y165.434 E0.01483
G1 X165.489 Y165.459 E0.00101
G1 X165.434 Y165.791 E0.01382
G1 X165.412 Y166.151 E0.01483
G1 X165.427 Y166.512 E0.01483
G1 X165.478 Y166.87 E0.01483
G1 X165.567 Y167.22 E0.01483
G1 X165.69 Y167.559 E0.01483
G1 X165.848 Y167.884 E0.01483
G1 X166.038 Y168.191 E0.01483
G1 X166.259 Y168.477 E0.01483
G1 X166.509 Y168.739 E0.01485
G1 X166.786 Y168.974 E0.0149
G1 X167.09 Y169.177 E0.01502
G1 X167.423 Y169.34 E0.01521
G1 X167.774 Y169.447 E0.01508
G1 X167.966 Y169.482 E0.008
G1 X168.446 Y169.569 E0.02
G1 X168.735 Y169.595 E0.01195
G1 X168.793 Y169.6 E0.00239
G1 X168.91 Y169.599 E0.0048
G1 X169.144 Y169.596 E0.0096
G1 X169.273 Y169.581 E0.00532
G1 X169.489 Y169.556 E0.00891
G1 X170.165 Y169.432 E0.02824
G1 X170.515 Y169.306 E0.01527
G1 X170.756 Y169.177 E0.01119
G1 X170.84 Y169.132 E0.00393
G1 X170.988 Y169.026 E0.00749
G1 X171.137 Y168.92 E0.00749
G1 X171.407 Y168.679 E0.01488
G1 X171.65 Y168.41 E0.01486
G1 X171.752 Y168.27 E0.0071
G1 X171.864 Y168.115 E0.00785
G1 X171.998 Y167.872 E0.01139
G1 X172.041 Y167.794 E0.00366
G1 X172.18 Y167.438 E0.01567
G1 X172.195 Y167.304 E0.00556
G1 X172.219 Y167.102 E0.00834
G1 X172.377 Y166.682 E0.01843
G1 X172.592 Y166.844 E0.01105
G1 X172.907 Y167.244 E0.02091
G1 X173.143 Y167.43 E0.01232
G1 X173.389 Y167.583 E0.0119
G1 X173.655 Y167.7 E0.01193
G1 X173.928 Y167.787 E0.01175
G1 X174.209 Y167.844 E0.01175
G1 X174.524 Y167.872 E0.01298
G1 X177.867 Y167.919 E0.13726
G1 X177.976 Y167.921 E0.00447
G1 X178.023 Y167.93 E0.00197
G1 X178.073 Y167.995 E0.00335
G1 X178.078 Y168.023 E0.00118
G1 X178.057 Y169.914 E0.07761
G1 X177.94 Y169.934 E0.00487
G1 X170.975 Y169.865 E0.28589
G1 X169.477 Y169.945 E0.06158
G1 X168.986 Y169.94 E0.02015
G1 X168.556 Y169.934 E0.01766
G1 X168.001 Y169.925 E0.02279
G1 X167.741 Y169.895 E0.01075
G1 X167.507 Y169.867 E0.00967
G1 X166.784 Y169.83 E0.0297
G1 X166.496 Y169.816 E0.01183
G1 X152.746 Y169.671 E0.56441
G1 X152.048 Y169.663 E0.02866
G1 X151.931 Y169.641 E0.00486
G1 X151.949 Y167.884 E0.07213
G1 X151.95 Y167.751 E0.00549
G1 X151.956 Y167.723 E0.00118
G1 X152.006 Y167.659 E0.00335
G1 X152.054 Y167.65 E0.00197
G1 X155.509 Y167.674 E0.14184
G1 X155.912 Y167.64 E0.01659
G1 X156.448 Y167.498 E0.02276
G1 X156.615 Y167.415 E0.00764
G1 X156.948 Y167.249 E0.01527
G1 X157.135 Y167.102 E0.00977
G1 X157.39 Y166.902 E0.0133
G1 X157.752 Y166.475 E0.02296
G1 X158.019 Y165.985 E0.02293
G1 X158.18 Y165.459 E0.02259
G1 X158.195 Y165.358 E0.00416
G1 X158.224 Y165.164 E0.00807
G1 X158.219 Y164.614 E0.02255
G1 X158.122 Y164.131 E0.02023
G1 X157.97 Y163.729 E0.01762
G1 X157.337 Y162.579 E0.0539
G1 X157.332 Y162.549 E0.00125
G1 X157.335 Y162.522 E0.00111
G1 X157.343 Y162.504 E0.0008
G1 X157.372 Y162.48 E0.00152
G1 X157.43 Y162.466 E0.00248
G1 X157.455 Y162.46 E0.00106
G1 X157.9 Y162.465 E0.01824
G1 X158.436 Y162.47 E0.02201
G1 X165.676 Y162.544 E0.29719
G1 X166.661 Y162.511 E0.04047
G1 X166.726 Y162.504 E0.00267
G1 X167.103 Y162.465 E0.01555
G1 X167.106 Y162.486 E0.00087
G1 X167.111 Y162.522 E0.00147
G1 X167.153 Y162.812 E0.01205
G1 X167.192 Y162.807 F9000
;TYPE:Thin wall
;WIDTH:0.143711
G1 F1800
G1 X167.312 Y162.811 E0.00112
;WIDTH:0.294506
G1 X167.37 Y162.813 E0.00138
G1 X167.452 Y162.813 E0.00194
;WIDTH:0.36
G1 X167.534 Y162.814 E0.00246
G1 X170.385 Y162.844 E0.08567
G1 X170.549 Y162.846 E0.00492
G1 X170.602 Y162.844 E0.00162
;WIDTH:0.2385
G1 X170.711 Y162.84 E0.002
G1 E-0.5 F3000
; acceleration to travel
M204 S3000
G1 X172.262 Y167.189 F9000
; decel to extrusion
M204 S1000
G1 X172.779 Y168.638
; end travel
G1 E0.5 F1800
;TYPE:Gap fill
;WIDTH:0.340108
G1 X172.918 Y168.685 E0.00406
G1 X173.085 Y168.721 E0.0047
;WIDTH:0.225391
G1 X173.259 Y168.759 E0.00297
;WIDTH:0.172231
G1 X173.449 Y168.789 E0.00223
;WIDTH:0.137265
G1 X173.495 Y168.796 E0.00038
G1 X174.475 Y168.885 F9000
;WIDTH:0.815969
G1 F1800
G1 X174.668 Y168.888 E0.01418
G1 X174.862 Y168.89 E0.01418
G1 X177.063 Y168.92 E0.16115
G1 X177.252 Y168.922 E0.01391
G1 X177.442 Y168.925 E0.01391
G1 E-0.5 F3000
; acceleration to travel
M204 S3000
G1 X167.562 Y165.268 F9000
; decel to extrusion
M204 S1000
G1 X163.799 Y163.875
; end travel
G1 E0.5 F1800
;TYPE:Solid infill
;WIDTH:0.452606
G1 F3600
G1 X164.334 Y164.411 E0.02932
G1 X164.205 Y164.888 E0.01912
G1 X163.373 Y164.055 E0.04558
G1 X162.76 Y164.049 E0.0237
G1 X164.076 Y165.365 E0.07203
G1 X163.947 Y165.842 E0.01912
G1 X162.148 Y164.042 E0.09848
G1 X161.536 Y164.036 E0.0237
