; generated by SuperSlicer 2.4 on 2022-05-09 at 14:16:21 UTC


;
;

;
;
; 

; external perimeters extrusion width = 0.40mm
; perimeters extrusion width = 0.40mm
; infill extrusion width = 0.72mm
; solid infill extrusion width = 0.56mm
; top infill extrusion width = 0.40mm
; first layer extrusion width = 0.48mm

; object:{"name":"Engineer_PA-09_Crimp_Terminal_Support(1)","id":"Engineer_PA-09_Crimp_Terminal_Support(1).stl id:0 copy 0","object_center":[165.000000,165.000000,0.000000],"boundingbox_center":[165.000000,165.000000,4.000000],"boundingbox_size":[13.300000,22.000000,8.000000]}
; plater:{"center":[165.000000,165.000000,0.000000],"boundingbox_center":[165.000000,165.000000,4.000000],"boundingbox_size":[13.300000,22.000000,8.000000]}

M73 P0 R11
;TYPE:Custom
START_PRINT T_BED=110 T_EXTRUDER=245
M107
G21 ; set units to millimeters
G90 ; use absolute coordinates
M83 ; use relative distances for extrusion
; Filament gcode
M104 S245 ; set temperature
M109 S245 ; set temperature and wait for it to be reached
M190 S110 ; set bed temperature and wait for it to be reached
M107
;LAYER_CHANGE
;Z:0.24
;HEIGHT:0.24
G1 Z0.24 F9000
G92 E0
G1 E-0.5 F3000
M204 S1000
G1 X155.09 Y150.637 F9000
G1 E0.5 F1800
;TYPE:Skirt
;WIDTH:0.52
M73 P0 R10
G1 X153.963 Y152.301 E0.09019
G1 X153.567 Y154.272 E0.09019
G1 X153.567 Y172.922 E0.83698
G1 X153.947 Y174.854 E0.08836
G1 X155.06 Y176.527 E0.09019
G1 X157.866 Y179.334 E0.17809
G1 X159.501 Y180.431 E0.08836
G1 X161.472 Y180.827 E0.09019
G1 X162.951 Y180.827 E0.06636
G1 X165.507 Y180.14 E0.1188
G1 X171.085 Y176.907 E0.28931
G1 X172.134 Y176.101 E0.05937
G1 X174.94 Y173.295 E0.17809
G1 X176.037 Y171.66 E0.08836
G1 X176.433 Y169.69 E0.09019
G1 X176.433 Y154.272 E0.69192
G1 X176.068 Y152.378 E0.08654
G1 X174.969 Y150.696 E0.09019
G1 X173.305 Y149.569 E0.09019
G1 X171.334 Y149.173 E0.09019
G1 X158.666 Y149.173 E0.56853
G1 X156.772 Y149.538 E0.08654
G1 X155.09 Y150.637 E0.09019
G1 X155.49 Y150.926 F9000
G1 F1800
G1 X154.429 Y152.398 E0.08145
G1 X154.033 Y154.272 E0.08592
G1 X154.033 Y172.922 E0.83698
G1 X154.345 Y174.593 E0.07629
G1 X155.39 Y176.198 E0.08592
G1 X158.196 Y179.004 E0.17809
G1 X159.598 Y179.965 E0.07629
G1 X161.472 Y180.361 E0.08592
G1 X162.951 Y180.361 E0.06636
G1 X165.273 Y179.736 E0.10793
G1 X170.851 Y176.504 E0.28931
G1 X171.804 Y175.771 E0.05394
G1 X174.61 Y172.965 E0.17809
G1 X175.571 Y171.563 E0.07629
G1 X175.967 Y169.69 E0.08592
M73 P1 R10
G1 X175.967 Y154.272 E0.69192
G1 X175.729 Y152.807 E0.06661
G1 X174.761 Y151.155 E0.08592
G1 X173.208 Y150.035 E0.08592
G1 X171.334 Y149.639 E0.08592
G1 X158.666 Y149.639 E0.56853
G1 X157.201 Y149.877 E0.06661
G1 X155.549 Y150.845 E0.08592
G1 X155.49 Y150.926 E0.00447
G1 X155.88 Y151.228 F9000
G1 F1800
G1 X154.895 Y152.501 E0.07224
G1 X154.5 Y154.272 E0.08143
G1 X154.5 Y172.922 E0.83698
G1 X154.747 Y174.336 E0.06442
G1 X155.72 Y175.868 E0.08143
G1 X158.526 Y178.674 E0.17809
G1 X159.701 Y179.499 E0.06442
G1 X161.472 Y179.894 E0.08143
G1 X162.951 Y179.894 E0.06636
G1 X165.039 Y179.333 E0.09706
G1 X170.617 Y176.1 E0.28931
G1 X171.474 Y175.442 E0.04851
G1 X174.28 Y172.636 E0.17809
G1 X175.105 Y171.461 E0.06442
G1 X175.5 Y169.69 E0.08143
G1 X175.5 Y154.272 E0.69192
G1 X175.367 Y153.227 E0.04726
G1 X174.54 Y151.612 E0.08143
G1 X173.105 Y150.501 E0.08143
G1 X171.334 Y150.106 E0.08143
G1 X158.666 Y150.106 E0.56853
G1 X157.621 Y150.239 E0.04726
G1 X156.006 Y151.066 E0.08143
G1 X155.88 Y151.228 E0.00919
G1 X156.256 Y151.544 F9000
G1 F1800
G1 X155.361 Y152.609 E0.06246
G1 X154.966 Y154.272 E0.07668
G1 X154.966 Y172.922 E0.83698
G1 X155.153 Y174.084 E0.05279
G1 X156.05 Y175.538 E0.07668
G1 X158.856 Y178.344 E0.17809
G1 X159.809 Y179.033 E0.05279
G1 X161.472 Y179.428 E0.07668
G1 X162.951 Y179.428 E0.06636
G1 X164.805 Y178.929 E0.0862
G1 X170.383 Y175.697 E0.28931
G1 X171.144 Y175.112 E0.04308
G1 X173.95 Y172.306 E0.17809
G1 X174.639 Y171.352 E0.05279
G1 X175.034 Y169.69 E0.07668
G1 X175.034 Y154.272 E0.69192
G1 X174.305 Y152.066 E0.10424
M73 P2 R10
G1 X172.997 Y150.967 E0.07668
G1 X171.334 Y150.572 E0.07668
G1 X158.666 Y150.572 E0.56853
G1 X156.46 Y151.301 E0.10424
G1 X156.256 Y151.544 E0.01422
G1 X156.614 Y151.876 F9000
G1 F1800
G1 X155.826 Y152.725 E0.05199
G1 X155.432 Y154.272 E0.07161
G1 X155.432 Y172.922 E0.83698
G1 X155.564 Y173.836 E0.04145
G1 X156.379 Y175.208 E0.07161
G1 X159.186 Y178.014 E0.17809
G1 X159.925 Y178.568 E0.04145
G1 X161.472 Y178.961 E0.07161
G1 X162.951 Y178.961 E0.06636
G1 X164.572 Y178.526 E0.07533
G1 X170.149 Y175.293 E0.28931
G1 X170.814 Y174.782 E0.03765
G1 X173.621 Y171.976 E0.17809
G1 X174.174 Y171.236 E0.04145
G1 X174.568 Y169.69 E0.07161
G1 X174.568 Y154.272 E0.69192
G1 X174.05 Y152.518 E0.08206
G1 X172.881 Y151.432 E0.07161
G1 X171.334 Y151.039 E0.07161
G1 X158.666 Y151.039 E0.56853
G1 X156.912 Y151.556 E0.08206
G1 X156.614 Y151.876 E0.01962
; INIT printing object Engineer_PA-09_Crimp_Terminal_Support(1).stl id:0 copy 0
G1 E-0.5 F3000
; printing object Engineer_PA-09_Crimp_Terminal_Support(1).stl id:0 copy 0
; acceleration to travel
M204 S3000
G1 X159.297 Y154.817 F9000
; decel to extrusion
M204 S1000
G1 X160.191 Y155.797
; end travel
G1 E0.5 F1800
;TYPE:Internal perimeter
;WIDTH:0.48
G1 X169.809 Y155.797 E0.39476
G1 X169.809 Y169.058 E0.54429
G1 X168.575 Y170.292 E0.07162
G1 X168.575 Y157.031 E0.54429
G1 X161.425 Y157.031 E0.29347
G1 X161.425 Y173.524 E0.67697
G1 X160.191 Y172.29 E0.07162
G1 X160.191 Y155.797 E0.67697
G1 X159.763 Y155.369 F9000
G1 F1800
G1 X170.237 Y155.369 E0.42994
M73 P3 R10
G1 X170.237 Y169.236 E0.56917
G1 X168.146 Y171.326 E0.12137
G1 X168.146 Y157.46 E0.56917
G1 X161.854 Y157.46 E0.2583
G1 X161.854 Y174.559 E0.70184
G1 X159.763 Y172.468 E0.12137
G1 X159.763 Y155.369 E0.70184
G1 X159.334 Y154.94 F9000
G1 F1800
G1 X170.666 Y154.94 E0.46511
G1 X170.666 Y169.413 E0.59404
G1 X168.251 Y171.828 E0.1402
G1 X167.718 Y171.83 E0.02186
G1 X167.718 Y157.888 E0.57224
G1 X162.282 Y157.888 E0.22312
G1 X162.282 Y175.06 E0.70482
G1 X161.749 Y175.06 E0.02189
G1 X159.334 Y172.645 E0.14015
G1 X159.334 Y154.94 E0.72671
G1 X158.906 Y154.512 F9000
;TYPE:External perimeter
G1 F1800
G1 X171.094 Y154.512 E0.50029
G1 X171.094 Y169.59 E0.61891
M73 P4 R10
G1 X168.429 Y172.256 E0.15474
G1 X167.032 Y172.26 E0.05733
G1 X166.92 Y172.071 E0.00902
G1 X166.695 Y171.76 E0.01576
G1 X166.664 Y171.66 E0.00428
G1 X166.608 Y171.479 E0.00778
G1 X166.949 Y171.481 E0.01398
G1 X167.289 Y171.483 E0.01398
G1 X167.289 Y158.317 E0.5404
G1 X162.711 Y158.317 E0.18795
G1 X162.711 Y175.488 E0.70482
G1 X161.571 Y175.488 E0.04677
G1 X158.906 Y172.823 E0.15472
G1 X158.906 Y154.512 E0.75158
;WIPE_START
M204 S5000
G1 X159.252 Y154.712 F9000
;WIPE_END
; acceleration to travel
M204 S3000
G1 X166.223 Y155.544
; decel to extrusion
M204 S1000
G1 X168.878 Y155.861
; end travel
;TYPE:Solid infill
;WIDTH:0.427817
G1 F3600
G1 X169.56 Y156.543 E0.03528
G1 X169.56 Y157.149 E0.02217
G1 X168.457 Y156.046 E0.0571
G1 X167.851 Y156.046 E0.02217
G1 X169.56 Y157.755 E0.08845
G1 X169.56 Y158.361 E0.02217
G1 X168.823 Y157.624 E0.03812
G1 X168.823 Y158.23 E0.02217
G1 X169.56 Y158.967 E0.03812
G1 X169.56 Y159.573 E0.02217
G1 X168.823 Y158.836 E0.03812
G1 X168.823 Y159.442 E0.02217
G1 X169.56 Y160.179 E0.03812
G1 X169.56 Y160.785 E0.02217
G1 X168.823 Y160.048 E0.03812
G1 X168.823 Y160.654 E0.02217
G1 X169.56 Y161.391 E0.03812
G1 X169.56 Y161.997 E0.02217
G1 X168.823 Y161.26 E0.03812
G1 X168.823 Y161.866 E0.02217
G1 X169.56 Y162.603 E0.03812
G1 X169.56 Y163.209 E0.02217
G1 X168.823 Y162.472 E0.03812
G1 X168.823 Y163.078 E0.02217
G1 X169.56 Y163.815 E0.03812
G1 X169.56 Y164.421 E0.02217
G1 X168.823 Y163.684 E0.03812
G1 X168.823 Y164.29 E0.02217
G1 X169.56 Y165.027 E0.03812
G1 X169.56 Y165.633 E0.02217
G1 X168.823 Y164.896 E0.03812
G1 X168.823 Y165.502 E0.02217
G1 X169.56 Y166.239 E0.03812
G1 X169.56 Y166.845 E0.02217
G1 X168.823 Y166.108 E0.03812
G1 X168.823 Y166.714 E0.02217
G1 X169.56 Y167.451 E0.03812
G1 X169.56 Y168.057 E0.02217
G1 X168.823 Y167.32 E0.03812
G1 X168.823 Y167.926 E0.02217
G1 X169.56 Y168.663 E0.03812
G1 X169.56 Y168.955 E0.01068
G1 X169.403 Y169.112 E0.00812
G1 X168.823 Y168.532 E0.03
G1 X168.823 Y169.138 E0.02217
G1 X169.231 Y169.545 E0.02107
; acceleration to travel
M204 S3000
G1 X168.432 Y160.111 F9000
; decel to extrusion
M204 S1000
G1 X168.166 Y156.967
; end travel
G1 F3600
G1 X167.245 Y156.046 E0.04766
G1 X166.639 Y156.046 E0.02217
G1 X167.376 Y156.783 E0.03812
G1 X166.77 Y156.783 E0.02217
G1 X166.033 Y156.046 E0.03812
G1 X165.427 Y156.046 E0.02217
G1 X166.164 Y156.783 E0.03812
G1 X165.558 Y156.783 E0.02217
G1 X164.821 Y156.046 E0.03812
G1 X164.215 Y156.046 E0.02217
G1 X164.952 Y156.783 E0.03812
G1 X164.346 Y156.783 E0.02217
G1 X163.609 Y156.046 E0.03812
G1 X163.003 Y156.046 E0.02217
G1 X163.74 Y156.783 E0.03812
G1 X163.134 Y156.783 E0.02217
G1 X162.397 Y156.046 E0.03812
G1 X161.791 Y156.046 E0.02217
G1 X162.528 Y156.783 E0.03812
G1 X161.922 Y156.783 E0.02217
G1 X161.185 Y156.046 E0.03812
G1 X160.579 Y156.046 E0.02217
G1 X161.316 Y156.783 E0.03812
G1 X161.177 Y156.783 E0.00509
G1 X161.177 Y157.249 E0.01707
G1 X160.44 Y156.512 E0.03812
G1 X160.44 Y157.118 E0.02217
G1 X161.177 Y157.855 E0.03812
G1 X161.177 Y158.461 E0.02217
G1 X160.44 Y157.724 E0.03812
G1 X160.44 Y158.33 E0.02217
G1 X161.177 Y159.067 E0.03812
G1 X161.177 Y159.673 E0.02217
G1 X160.44 Y158.936 E0.03812
G1 X160.44 Y159.542 E0.02217
G1 X161.177 Y160.279 E0.03812
G1 X161.177 Y160.885 E0.02217
G1 X160.44 Y160.148 E0.03812
G1 X160.44 Y160.754 E0.02217
G1 X161.177 Y161.491 E0.03812
G1 X161.177 Y162.097 E0.02217
G1 X160.44 Y161.36 E0.03812
G1 X160.44 Y161.966 E0.02217
G1 X161.177 Y162.703 E0.03812
G1 X161.177 Y163.309 E0.02217
G1 X160.44 Y162.572 E0.03812
G1 X160.44 Y163.178 E0.02217
G1 X161.177 Y163.915 E0.03812
G1 X161.177 Y164.521 E0.02217
G1 X160.44 Y163.784 E0.03812
G1 X160.44 Y164.39 E0.02217
G1 X161.177 Y165.127 E0.03812
G1 X161.177 Y165.733 E0.02217
G1 X160.44 Y164.996 E0.03812
G1 X160.44 Y165.602 E0.02217
G1 X161.177 Y166.339 E0.03812
G1 X161.177 Y166.945 E0.02217
G1 X160.44 Y166.208 E0.03812
G1 X160.44 Y166.814 E0.02217
M73 P5 R10
G1 X161.177 Y167.551 E0.03812
G1 X161.177 Y168.157 E0.02217
G1 X160.44 Y167.42 E0.03812
G1 X160.44 Y168.026 E0.02217
G1 X161.177 Y168.763 E0.03812
G1 X161.177 Y169.369 E0.02217
G1 X160.44 Y168.632 E0.03812
G1 X160.44 Y169.238 E0.02217
G1 X161.177 Y169.975 E0.03812
G1 X161.177 Y170.581 E0.02217
G1 X160.44 Y169.844 E0.03812
G1 X160.44 Y170.45 E0.02217
G1 X161.177 Y171.187 E0.03812
G1 X161.177 Y171.793 E0.02217
G1 X160.44 Y171.056 E0.03812
G1 X160.44 Y171.662 E0.02217
G1 X161.361 Y172.583 E0.04766
G1 X161.211 Y172.885 F9000
;TYPE:Gap fill
;WIDTH:0.238822
G1 F1800
G1 X161.102 Y172.744 E0.00319
;WIDTH:0.269103
G1 X160.514 Y172.157 E0.01733
;WIDTH:0.238821
G1 X160.405 Y172.016 E0.00319
; INIT stop printing object Engineer_PA-09_Crimp_Terminal_Support(1).stl id:0 copy 0
M106 S81.6
;LAYER_CHANGE
;Z:0.44
;HEIGHT:0.2
; stop printing object Engineer_PA-09_Crimp_Terminal_Support(1).stl id:0 copy 0
M204 S5000
G1 Z0.44 F9000
G92 E0
; INIT printing object Engineer_PA-09_Crimp_Terminal_Support(1).stl id:0 copy 0
; printing object Engineer_PA-09_Crimp_Terminal_Support(1).stl id:0 copy 0
; acceleration to travel
M204 S3000
G1 X160.043 Y172.016
; decel to extrusion
M204 S2000
G1 X159.681 Y172.016
; end travel
;TYPE:Internal perimeter
;WIDTH:0.4
G1 F5400
G1 X159.681 Y155.287 E0.47682
G1 X170.319 Y155.287 E0.3032
G1 X170.319 Y169.269 E0.39853
G1 X168.065 Y171.523 E0.09084
G1 X168.065 Y157.541 E0.39853
G1 X161.935 Y157.541 E0.17474
G1 X161.935 Y174.755 E0.49067
G1 X159.681 Y172.502 E0.09084
G1 X159.681 Y172.016 E0.01384
G1 X159.324 Y172.016 F9000
G1 F5400
G1 X159.324 Y154.93 E0.487
G1 X170.676 Y154.93 E0.32356
G1 X170.676 Y169.417 E0.41293
G1 X168.255 Y171.837 E0.09756
G1 X167.708 Y171.837 E0.0156
G1 X167.708 Y157.898 E0.39732
G1 X162.292 Y157.898 E0.15438
G1 X162.292 Y175.07 E0.48946
G1 X161.745 Y175.07 E0.0156
G1 X159.324 Y172.649 E0.09756
G1 X159.324 Y172.016 E0.01806
G1 X158.967 Y172.016 F9000
G1 F5400
G1 X158.967 Y154.573 E0.49718
G1 X171.033 Y154.573 E0.34391
G1 X171.033 Y169.565 E0.42732
G1 X168.403 Y172.194 E0.10599
G1 X167.09 Y172.194 E0.03745
G1 X166.764 Y171.543 E0.02076
G1 X167.351 Y171.543 E0.01674
G1 X167.351 Y158.255 E0.37875
G1 X162.649 Y158.255 E0.13403
G1 X162.649 Y175.427 E0.48946
G1 X161.597 Y175.427 E0.03
G1 X158.967 Y172.797 E0.10599
G1 X158.967 Y172.016 E0.02227
G1 X158.61 Y172.016 F9000
;TYPE:Overhang perimeter
M106 S84.15
G1 F4200
G1 X158.61 Y154.216 E0.50736
G1 X171.39 Y154.216 E0.36427
G1 X171.39 Y169.713 E0.44171
G1 X168.551 Y172.552 E0.11442
G1 X166.869 Y172.552 E0.04795
G1 X166.531 Y171.876 E0.02154
G1 X166.504 Y171.822 E0.00171
G1 X166.186 Y171.186 E0.02027
G1 X166.994 Y171.186 E0.02303
G1 X166.994 Y158.612 E0.3584
G1 X163.006 Y158.612 E0.11367
G1 X163.006 Y175.784 E0.48946
G1 X161.449 Y175.784 E0.04439
G1 X158.61 Y172.945 E0.11442
G1 X158.61 Y172.016 E0.02649
M106 S81.6
; acceleration to travel
M204 S3000
G1 X160.516 Y172.964 F9000
; decel to extrusion
M204 S2000
G1 X161.905 Y173.655
; end travel
;TYPE:Solid infill
;WIDTH:0.519325
G1 F4800
G1 X161.548 Y174.012 E0.01932
M73 P6 R10
G1 X161.183 Y173.647 E0.01979
G1 X161.683 Y173.146 E0.02708
G1 X161.683 Y172.415 E0.02799
G1 X160.817 Y173.281 E0.04687
G1 X160.451 Y172.915 E0.01979
G1 X161.683 Y171.684 E0.06666
G1 X161.683 Y170.953 E0.02799
G1 X160.086 Y172.55 E0.08646
G1 X159.933 Y172.397 E0.00826
G1 X159.933 Y171.971 E0.01631
G1 X161.683 Y170.221 E0.09472
G1 X161.683 Y169.49 E0.02799
G1 X159.933 Y171.24 E0.09472
G1 X159.933 Y170.509 E0.02799
G1 X161.683 Y168.759 E0.09472
G1 X161.683 Y168.028 E0.02799
G1 X159.933 Y169.777 E0.09472
G1 X159.933 Y169.046 E0.02799
G1 X161.683 Y167.296 E0.09472
G1 X161.683 Y166.565 E0.02799
G1 X159.933 Y168.315 E0.09472
G1 X159.933 Y167.584 E0.02799
G1 X161.683 Y165.834 E0.09472
G1 X161.683 Y165.103 E0.02799
G1 X159.933 Y166.852 E0.09472
G1 X159.933 Y166.121 E0.02799
G1 X161.683 Y164.371 E0.09472
G1 X161.683 Y163.64 E0.02799
G1 X159.933 Y165.39 E0.09472
G1 X159.933 Y164.658 E0.02799
G1 X161.683 Y162.909 E0.09472
G1 X161.683 Y162.178 E0.02799
G1 X159.933 Y163.927 E0.09472
G1 X159.933 Y163.196 E0.02799
G1 X161.683 Y161.446 E0.09472
G1 X161.683 Y160.715 E0.02799
G1 X159.933 Y162.465 E0.09472
G1 X159.933 Y161.733 E0.02799
G1 X161.683 Y159.984 E0.09472
G1 X161.683 Y159.253 E0.02799
G1 X159.933 Y161.002 E0.09472
G1 X159.933 Y160.271 E0.02799
G1 X161.905 Y158.299 E0.10675
G1 E-0.5 F3000
; acceleration to travel
M204 S3000
G1 X165.619 Y165.993 F9000
; decel to extrusion
M204 S2000
G1 X168.095 Y171.122
; end travel
G1 E0.5 F1800
G1 F4800
G1 X170.067 Y169.15 E0.10675
G1 X170.067 Y168.419 E0.02799
G1 X168.317 Y170.169 E0.09472
G1 X168.317 Y169.437 E0.02799
G1 X170.067 Y167.688 E0.09472
G1 X170.067 Y166.956 E0.02799
G1 X168.317 Y168.706 E0.09472
G1 X168.317 Y167.975 E0.02799
G1 X170.067 Y166.225 E0.09472
G1 X170.067 Y165.494 E0.02799
G1 X168.317 Y167.244 E0.09472
G1 X168.317 Y166.512 E0.02799
G1 X170.067 Y164.763 E0.09472
G1 X170.067 Y164.031 E0.02799
G1 X168.317 Y165.781 E0.09472
G1 X168.317 Y165.05 E0.02799
G1 X170.067 Y163.3 E0.09472
G1 X170.067 Y162.569 E0.02799
G1 X168.317 Y164.319 E0.09472
G1 X168.317 Y163.587 E0.02799
G1 X170.067 Y161.838 E0.09472
G1 X170.067 Y161.106 E0.02799
G1 X168.317 Y162.856 E0.09472
G1 X168.317 Y162.125 E0.02799
G1 X170.067 Y160.375 E0.09472
G1 X170.067 Y159.644 E0.02799
G1 X168.317 Y161.393 E0.09472
G1 X168.317 Y160.662 E0.02799
G1 X170.067 Y158.913 E0.09472
G1 X170.067 Y158.181 E0.02799
G1 X168.317 Y159.931 E0.09472
G1 X168.317 Y159.2 E0.02799
G1 X170.067 Y157.45 E0.09472
G1 X170.067 Y156.719 E0.02799
G1 X168.317 Y158.468 E0.09472
G1 X168.317 Y157.737 E0.02799
G1 X170.067 Y155.987 E0.09472
G1 X170.067 Y155.539 E0.01716
G1 X169.784 Y155.539 E0.01083
G1 X168.034 Y157.289 E0.09472
G1 X167.303 Y157.289 E0.02799
G1 X169.052 Y155.539 E0.09472
G1 X168.321 Y155.539 E0.02799
G1 X166.571 Y157.289 E0.09472
G1 X165.84 Y157.289 E0.02799
G1 X167.59 Y155.539 E0.09472
G1 X166.859 Y155.539 E0.02799
G1 X165.109 Y157.289 E0.09472
