; generated by SuperSlicer 2.4 on 2022-05-04 at 18:43:32 UTC


;
;

;
;
; 

; external perimeters extrusion width = 0.40mm
; perimeters extrusion width = 0.40mm
; infill extrusion width = 0.72mm
; solid infill extrusion width = 0.56mm
; top infill extrusion width = 0.40mm
; first layer extrusion width = 0.48mm

; object:{"name":"probe","id":"probe.stl id:0 copy 0","object_center":[165.000000,165.000000,0.000000],"boundingbox_center":[165.000000,165.000000,2.500000],"boundingbox_size":[24.000410,35.999999,5.000000]}
; plater:{"center":[165.000000,165.000000,0.000000],"boundingbox_center":[165.000000,165.000000,2.500000],"boundingbox_size":[24.000410,35.999999,5.000000]}

M73 P0 R12
;TYPE:Custom
START_PRINT T_BED=110 T_EXTRUDER=245
M107
G21 ; set units to millimeters
G90 ; use absolute coordinates
M83 ; use relative distances for extrusion
; Filament gcode
M104 S245 ; set temperature
M109 S245 ; set temperature and wait for it to be reached
M190 S110 ; set bed temperature and wait for it to be reached
M107
;LAYER_CHANGE
;Z:0.24
;HEIGHT:0.24
G1 Z0.24 F9000
G92 E0
G1 E-0.5 F3000
M204 S1000
G1 X150.44 Y143.897 F9000
G1 E0.5 F1800
;TYPE:Skirt
;WIDTH:0.52
G1 X149.329 Y145.332 E0.08483
G1 X148.934 Y147.103 E0.08483
G1 X148.934 Y182.9 E1.67339
G1 X149.067 Y183.945 E0.04923
G1 X149.894 Y185.56 E0.08483
G1 X151.329 Y186.671 E0.08483
G1 X153.1 Y187.066 E0.08483
G1 X176.9 Y187.066 E1.11257
G1 X177.945 Y186.933 E0.04924
G1 X179.56 Y186.106 E0.08483
G1 X180.671 Y184.671 E0.08483
G1 X181.066 Y182.9 E0.08483
G1 X181.066 Y147.1 E1.67353
G1 X180.932 Y146.055 E0.04926
G1 X180.105 Y144.44 E0.08483
G1 X178.67 Y143.329 E0.08483
G1 X176.899 Y142.934 E0.08483
G1 X153.099 Y142.937 E1.11257
G1 X152.055 Y143.07 E0.04921
G1 X150.44 Y143.897 E0.08483
G1 X150.822 Y144.219 F9000
G1 F1800
G1 X149.795 Y145.441 E0.07463
G1 X149.4 Y147.103 E0.07988
G1 X149.401 Y182.9 E1.67339
M73 P1 R12
G1 X150.13 Y185.105 E0.10858
G1 X151.438 Y186.205 E0.07988
G1 X153.1 Y186.6 E0.07988
G1 X176.9 Y186.6 E1.11257
G1 X179.106 Y185.87 E0.10858
G1 X180.205 Y184.562 E0.07988
G1 X180.6 Y182.9 E0.07988
G1 X180.599 Y147.1 E1.67353
G1 X179.87 Y144.894 E0.1086
G1 X178.562 Y143.795 E0.07988
G1 X176.899 Y143.4 E0.07988
G1 X153.099 Y143.403 E1.11257
G1 X150.894 Y144.133 E0.10856
G1 X150.822 Y144.219 E0.00525
G1 X151.187 Y144.558 F9000
G1 F1800
G1 X150.26 Y145.557 E0.06371
G1 X149.867 Y147.103 E0.0746
G1 X149.867 Y182.9 E1.67339
G1 X150.384 Y184.654 E0.08547
G1 X151.554 Y185.739 E0.0746
G1 X153.1 Y186.133 E0.0746
G1 X176.9 Y186.133 E1.11257
G1 X178.654 Y185.616 E0.08548
G1 X179.74 Y184.446 E0.0746
G1 X180.133 Y182.9 E0.0746
G1 X180.133 Y147.1 E1.67353
M73 P2 R12
G1 X179.616 Y145.346 E0.08549
G1 X178.446 Y144.26 E0.0746
G1 X176.899 Y143.867 E0.0746
G1 X153.099 Y143.87 E1.11257
G1 X151.346 Y144.387 E0.08546
G1 X151.187 Y144.558 E0.01089
; INIT printing object probe.stl id:0 copy 0
G1 E-0.5 F3000
; printing object probe.stl id:0 copy 0
; acceleration to travel
M204 S3000
G1 X162.524 Y152.134 F9000
; decel to extrusion
M204 S1000
G1 X166.303 Y154.66
; end travel
G1 E0.5 F1800
;TYPE:Internal perimeter
;WIDTH:0.48
G1 X166.303 Y168.197 E0.57878
G1 X168.303 Y168.197 E0.08551
G1 X168.303 Y181.197 E0.55582
G1 X174.197 Y181.197 E0.252
G1 X174.197 Y165.803 E0.65818
G1 X172.197 Y165.803 E0.08551
G1 X172.197 Y153.803 E0.51307
G1 X166.303 Y153.803 E0.252
G1 X166.303 Y154.66 E0.03664
G1 X166.732 Y154.66 F9000
G1 F1800
G1 X166.732 Y167.768 E0.56046
G1 X168.732 Y167.768 E0.08551
G1 X168.732 Y180.768 E0.55582
G1 X173.769 Y180.768 E0.21536
G1 X173.769 Y166.232 E0.62154
G1 X171.769 Y166.232 E0.08551
G1 X171.769 Y154.232 E0.51307
G1 X166.732 Y154.232 E0.21536
G1 X166.732 Y154.66 E0.01832
G1 X167.16 Y154.66 F9000
;TYPE:External perimeter
G1 F1800
G1 X167.16 Y167.34 E0.54214
G1 X169.16 Y167.34 E0.08551
G1 X169.16 Y180.34 E0.55582
G1 X173.34 Y180.34 E0.17872
G1 X173.34 Y166.66 E0.58489
M73 P3 R12
G1 X171.34 Y166.66 E0.08551
G1 X171.34 Y154.66 E0.51307
G1 X167.16 Y154.66 E0.17872
;WIPE_START
M204 S5000
G1 X166.76 Y154.66 F9000
;WIPE_END
; acceleration to travel
M204 S3000
G1 X162.963 Y154.66
; decel to extrusion
M204 S1000
G1 X161.697 Y154.66
; end travel
;TYPE:Internal perimeter
G1 F1800
G1 X161.697 Y153.803 E0.03664
G1 X155.803 Y153.803 E0.252
G1 X155.803 Y168.197 E0.61542
G1 X157.803 Y168.197 E0.08551
G1 X157.803 Y181.197 E0.55582
G1 X163.697 Y181.197 E0.252
G1 X163.697 Y165.803 E0.65818
G1 X161.697 Y165.803 E0.08551
G1 X161.697 Y154.66 E0.47642
G1 X161.269 Y154.66 F9000
G1 F1800
G1 X161.269 Y154.232 E0.01832
G1 X156.232 Y154.232 E0.21536
G1 X156.232 Y167.768 E0.57878
G1 X158.232 Y167.768 E0.08551
G1 X158.232 Y180.768 E0.55582
G1 X163.269 Y180.768 E0.21536
G1 X163.269 Y166.232 E0.62154
M73 P3 R11
G1 X161.269 Y166.232 E0.08551
G1 X161.269 Y154.66 E0.49475
G1 X160.84 Y154.66 F9000
;TYPE:External perimeter
G1 F1800
G1 X156.66 Y154.66 E0.17872
G1 X156.66 Y167.34 E0.54214
G1 X158.66 Y167.34 E0.08551
G1 X158.66 Y180.34 E0.55582
G1 X162.84 Y180.34 E0.17872
G1 X162.84 Y166.66 E0.58489
M73 P4 R11
G1 X160.84 Y166.66 E0.08551
G1 X160.84 Y154.66 E0.51307
;WIPE_START
M204 S5000
G1 X160.84 Y154.26 F9000
;WIPE_END
; acceleration to travel
M204 S3000
G1 X165.58 Y153.596
; decel to extrusion
M204 S1000
G1 X167.16 Y153.375
; end travel
;TYPE:Internal perimeter
G1 F1800
G1 X165.875 Y153.375 E0.05496
G1 X165.875 Y168.625 E0.65206
G1 X167.875 Y168.625 E0.08551
G1 X167.875 Y181.375 E0.54509
G1 X164.126 Y181.375 E0.16029
G1 X164.126 Y165.375 E0.68409
G1 X162.126 Y165.375 E0.08551
G1 X162.126 Y153.375 E0.51307
G1 X155.375 Y153.375 E0.28864
G1 X155.375 Y168.625 E0.65206
G1 X157.375 Y168.625 E0.08551
G1 X157.375 Y181.375 E0.54509
G1 X154.626 Y181.375 E0.11754
G1 X154.625 Y148.628 E1.40008
G1 X175.374 Y148.626 E0.88713
G1 X175.375 Y181.375 E1.40019
G1 X174.626 Y181.375 E0.03202
G1 X174.626 Y165.375 E0.68409
M73 P5 R11
G1 X172.626 Y165.375 E0.08551
G1 X172.626 Y153.375 E0.51307
G1 X167.16 Y153.375 E0.23368
; acceleration to travel
M204 S3000
G1 X157.438 Y149.494 F9000
; decel to extrusion
M204 S1000
G1 X154.197 Y148.2
; end travel
G1 F1800
G1 X175.803 Y148.197 E0.92378
G1 X175.803 Y181.803 E1.43683
G1 X154.197 Y181.803 E0.92378
G1 X154.197 Y148.2 E1.43672
G1 X153.768 Y147.771 F9000
G1 F1800
G1 X176.231 Y147.769 E0.96042
G1 X176.232 Y182.232 E1.47348
G1 X153.769 Y182.232 E0.96042
M73 P6 R11
G1 X153.768 Y147.771 E1.47336
G1 X153.34 Y147.343 F9000
;TYPE:External perimeter
G1 F1800
G1 X176.66 Y147.34 E0.99706
G1 X176.66 Y147.493 E0.00655
G1 X176.66 Y182.66 E1.50357
G1 X153.34 Y182.66 E0.99706
G1 X153.34 Y147.343 E1.51
;WIPE_START
M204 S5000
G1 X153.686 Y147.543 F9000
;WIPE_END
; acceleration to travel
M204 S3000
G1 X154.672 Y151.743
; decel to extrusion
M204 S1000
G1 X155 Y153.143
; end travel
;TYPE:Gap fill
;WIDTH:0.406941
G1 F1800
G1 X155 Y153.321 E0.0063
G1 X155 Y161 E0.27235
G1 X155 Y168.679 E0.27235
G1 X155 Y168.857 E0.0063
; acceleration to travel
M204 S3000
G1 X156.673 Y169.363 F9000
; decel to extrusion
M204 S1000
G1 X157.31 Y169.556
; end travel
;TYPE:Solid infill
;WIDTH:0.451945
G1 F3600
G1 X156.629 Y168.874 E0.03882
G1 X156.023 Y168.874 E0.02439
G1 X157.126 Y169.978 E0.06283
G1 X157.126 Y170.584 E0.02439
G1 X155.417 Y168.874 E0.09733
G1 X155.383 Y168.874 E0.00134
G1 X155.383 Y169.063 E0.0076
G1 X154.999 Y169.063 E0.01546
G1 X157.126 Y171.19 E0.12109
G1 X157.126 Y171.796 E0.02439
G1 X154.874 Y169.543 E0.12822
G1 X154.874 Y170.149 E0.0244
G1 X157.126 Y172.402 E0.12822
G1 X157.126 Y173.008 E0.02439
G1 X154.874 Y170.755 E0.12822
G1 X154.874 Y171.361 E0.0244
G1 X157.126 Y173.614 E0.12822
G1 X157.126 Y174.22 E0.02439
G1 X154.874 Y171.967 E0.12822
G1 X154.874 Y172.573 E0.0244
G1 X157.126 Y174.826 E0.12822
G1 X157.126 Y175.432 E0.02439
G1 X154.874 Y173.179 E0.12822
G1 X154.874 Y173.785 E0.0244
G1 X157.126 Y176.037 E0.12822
M73 P7 R11
G1 X157.126 Y176.643 E0.02439
G1 X154.874 Y174.391 E0.12822
G1 X154.874 Y174.997 E0.0244
G1 X157.126 Y177.249 E0.12822
G1 X157.126 Y177.855 E0.02439
G1 X154.874 Y175.603 E0.12822
G1 X154.874 Y176.209 E0.0244
G1 X157.126 Y178.461 E0.12822
G1 X157.126 Y179.067 E0.02439
G1 X154.874 Y176.815 E0.12822
G1 X154.874 Y177.421 E0.0244
G1 X157.126 Y179.673 E0.12822
G1 X157.126 Y180.279 E0.02439
G1 X154.874 Y178.027 E0.12821
G1 X154.874 Y178.633 E0.0244
G1 X157.126 Y180.885 E0.12821
G1 X157.126 Y181.126 E0.00969
G1 X156.761 Y181.126 E0.01471
G1 X154.874 Y179.239 E0.10742
G1 X154.874 Y179.845 E0.02439
G1 X156.155 Y181.126 E0.07292
G1 X155.549 Y181.126 E0.02439
G1 X154.874 Y180.451 E0.03842
G1 X154.874 Y181.057 E0.0244
G1 X155.127 Y181.31 E0.01441
; acceleration to travel
M204 S3000
G1 X157.02 Y181.457 F9000
; decel to extrusion
M204 S1000
G1 X157.572 Y181.5
; end travel
;TYPE:Gap fill
;WIDTH:0.263591
G1 F1800
G1 X163.823 Y181.5 E0.13228
G1 X163.929 Y181.5 E0.00224
; acceleration to travel
M204 S3000
G1 X167.036 Y181.5 F9000
; decel to extrusion
M204 S1000
G1 X168.072 Y181.5
; end travel
G1 F1800
G1 X168.178 Y181.5 E0.00224
G1 X174.323 Y181.5 E0.13004
G1 X174.429 Y181.5 E0.00224
G1 X175 Y181.178 F9000
;WIDTH:0.406583
G1 F1800
G1 X175 Y181 E0.00629
G1 X175 Y165.32 E0.55553
G1 X175 Y165.143 E0.00629
; acceleration to travel
M204 S3000
G1 X175.225 Y153.856 F9000
; decel to extrusion
M204 S1000
G1 X175.31 Y149.556
; end travel
;TYPE:Solid infill
;WIDTH:0.460075
G1 F3600
G1 X174.628 Y148.874 E0.03952
G1 X174.022 Y148.874 E0.02483
G1 X175.126 Y149.978 E0.06396
G1 X175.126 Y150.584 E0.02483
G1 X173.416 Y148.874 E0.09907
G1 X172.811 Y148.875 E0.02483
G1 X175.126 Y151.19 E0.13419
G1 X175.126 Y151.796 E0.02483
G1 X172.205 Y148.875 E0.1693
G1 X171.599 Y148.875 E0.02483
G1 X175.126 Y152.402 E0.20442
G1 X175.126 Y153.008 E0.02483
G1 X170.993 Y148.875 E0.23954
G1 X170.387 Y148.875 E0.02483
G1 X175.126 Y153.614 E0.27465
G1 X175.126 Y154.22 E0.02483
G1 X169.781 Y148.875 E0.30977
G1 X169.175 Y148.875 E0.02483
G1 X175.126 Y154.826 E0.34488
G1 X175.126 Y155.432 E0.02483
G1 X168.569 Y148.875 E0.38
G1 X167.963 Y148.875 E0.02483
G1 X172.214 Y153.126 E0.24636
G1 X171.608 Y153.126 E0.02483
G1 X167.357 Y148.875 E0.24636
G1 X166.751 Y148.875 E0.02483
G1 X171.002 Y153.126 E0.24635
G1 X170.396 Y153.126 E0.02483
G1 X166.146 Y148.875 E0.24635
G1 X165.54 Y148.875 E0.02483
G1 X169.79 Y153.126 E0.24635
G1 X169.184 Y153.126 E0.02483
G1 X164.934 Y148.875 E0.24634
G1 X164.328 Y148.876 E0.02483
G1 X168.578 Y153.126 E0.24634
G1 X167.972 Y153.126 E0.02483
G1 X163.722 Y148.876 E0.24633
G1 X163.116 Y148.876 E0.02483
G1 X167.366 Y153.126 E0.24633
G1 X166.76 Y153.126 E0.02483
G1 X162.51 Y148.876 E0.24632
G1 X161.904 Y148.876 E0.02483
G1 X166.154 Y153.126 E0.24632
G1 X165.626 Y153.126 E0.02164
G1 X165.626 Y153.204 E0.00319
G1 X161.298 Y148.876 E0.25083
G1 X160.692 Y148.876 E0.02483
G1 X165.626 Y153.81 E0.28594
G1 X165.626 Y154.416 E0.02483
G1 X160.086 Y148.876 E0.32106
G1 X159.481 Y148.876 E0.02483
G1 X165.626 Y155.022 E0.35618
G1 X165.626 Y155.628 E0.02483
G1 X158.875 Y148.876 E0.39129
G1 X158.269 Y148.876 E0.02483
G1 X165.626 Y156.234 E0.42641
G1 X165.626 Y156.84 E0.02483
G1 X162.374 Y153.588 E0.18847
M73 P8 R11
G1 X162.374 Y153.126 E0.01892
G1 X161.912 Y153.126 E0.01892
G1 X157.663 Y148.876 E0.24629
G1 X157.057 Y148.876 E0.02483
G1 X161.306 Y153.126 E0.24628
G1 X160.7 Y153.126 E0.02483
G1 X156.451 Y148.877 E0.24628
G1 X155.845 Y148.877 E0.02483
G1 X160.094 Y153.126 E0.24628
G1 X159.489 Y153.126 E0.02483
G1 X155.239 Y148.877 E0.24627
G1 X154.874 Y148.877 E0.01497
G1 X154.874 Y149.117 E0.00986
G1 X158.883 Y153.126 E0.23233
G1 X158.277 Y153.126 E0.02483
G1 X154.874 Y149.723 E0.19721
G1 X154.874 Y150.329 E0.02483
G1 X157.671 Y153.126 E0.16209
G1 X157.065 Y153.126 E0.02483
G1 X154.874 Y150.935 E0.12697
G1 X154.874 Y151.541 E0.02483
G1 X156.459 Y153.126 E0.09185
G1 X155.853 Y153.126 E0.02483
G1 X154.874 Y152.147 E0.05672
G1 X154.874 Y152.753 E0.02483
G1 X155.431 Y153.31 E0.03228
; acceleration to travel
M204 S3000
G1 X160.5 Y153.835 F9000
; decel to extrusion
M204 S1000
G1 X162.19 Y154.009
; end travel
G1 F3600
G1 X165.626 Y157.446 E0.19915
G1 X165.626 Y158.052 E0.02483
G1 X162.374 Y154.8 E0.18847
G1 X162.374 Y155.406 E0.02483
G1 X165.626 Y158.658 E0.18847
G1 X165.626 Y159.264 E0.02483
G1 X162.374 Y156.012 E0.18847
G1 X162.374 Y156.618 E0.02483
G1 X165.626 Y159.87 E0.18847
G1 X165.626 Y160.476 E0.02483
G1 X162.374 Y157.224 E0.18847
G1 X162.374 Y157.83 E0.02483
G1 X165.626 Y161.082 E0.18847
G1 X165.626 Y161.688 E0.02483
G1 X162.374 Y158.436 E0.18847
G1 X162.374 Y159.042 E0.02483
G1 X165.626 Y162.294 E0.18847
G1 X165.626 Y162.9 E0.02483
G1 X162.374 Y159.648 E0.18847
G1 X162.374 Y160.254 E0.02483
G1 X165.626 Y163.506 E0.18847
G1 X165.626 Y164.112 E0.02483
G1 X162.374 Y160.86 E0.18847
G1 X162.374 Y161.466 E0.02483
G1 X165.626 Y164.718 E0.18847
G1 X165.626 Y165.324 E0.02483
G1 X162.374 Y162.072 E0.18847
G1 X162.374 Y162.678 E0.02483
G1 X165.626 Y165.93 E0.18847
G1 X165.626 Y166.536 E0.02483
G1 X162.374 Y163.284 E0.18847
G1 X162.374 Y163.889 E0.02483
G1 X163.611 Y165.126 E0.07166
G1 X163.005 Y165.126 E0.02483
G1 X162.374 Y164.495 E0.03654
G1 X162.374 Y165.101 E0.02483
G1 X162.583 Y165.31 E0.0121
; acceleration to travel
M204 S3000
G1 X163.788 Y165.606 F9000
; decel to extrusion
M204 S1000
G1 X164.19 Y165.705
; end travel
G1 F3600
G1 X165.626 Y167.142 E0.08324
G1 X165.626 Y167.748 E0.02483
G1 X164.19 Y166.311 E0.08324
; acceleration to travel
M204 S3000
G1 X166.428 Y168.095 F9000
; decel to extrusion
M204 S1000
G1 X167.174 Y168.69
; end travel
G1 F3600
G1 X167.626 Y169.142 E0.02618
G1 X167.626 Y169.748 E0.02483
G1 X166.568 Y168.69 E0.0613
; acceleration to travel
M204 S3000
G1 X167.5 Y170.076 F9000
; decel to extrusion
M204 S1000
G1 X167.81 Y170.538
; end travel
G1 F3600
G1 X166.147 Y168.874 E0.09642
G1 X165.626 Y168.874 E0.02133
G1 X165.626 Y168.353 E0.02133
G1 X164.374 Y167.101 E0.07256
G1 X164.374 Y167.707 E0.02483
G1 X167.626 Y170.959 E0.18847
G1 X167.626 Y171.565 E0.02483
G1 X164.374 Y168.313 E0.18847
G1 X164.374 Y168.919 E0.02483
G1 X167.626 Y172.171 E0.18847
G1 X167.626 Y172.777 E0.02483
G1 X164.374 Y169.525 E0.18847
G1 X164.374 Y170.131 E0.02483
G1 X167.626 Y173.383 E0.18847
G1 X167.626 Y173.989 E0.02483
G1 X164.374 Y170.737 E0.18847
G1 X164.374 Y171.343 E0.02483
G1 X167.626 Y174.595 E0.18847
G1 X167.626 Y175.201 E0.02483
G1 X164.374 Y171.949 E0.18847
G1 X164.374 Y172.555 E0.02483
G1 X167.626 Y175.807 E0.18847
G1 X167.626 Y176.413 E0.02483
G1 X164.374 Y173.161 E0.18847
G1 X164.374 Y173.767 E0.02483
G1 X167.626 Y177.019 E0.18847
G1 X167.626 Y177.625 E0.02483
G1 X164.374 Y174.373 E0.18847
G1 X164.374 Y174.979 E0.02483
G1 X167.626 Y178.231 E0.18847
G1 X167.626 Y178.837 E0.02483
G1 X164.374 Y175.585 E0.18847
G1 X164.374 Y176.191 E0.02483
G1 X167.626 Y179.443 E0.18847
G1 X167.626 Y180.049 E0.02483
G1 X164.374 Y176.797 E0.18847
G1 X164.374 Y177.403 E0.02483
G1 X167.626 Y180.655 E0.18847
M73 P9 R11
G1 X167.626 Y181.126 E0.01929
G1 X167.491 Y181.126 E0.00554
G1 X164.374 Y178.009 E0.18064
G1 X164.374 Y178.615 E0.02483
G1 X166.885 Y181.126 E0.14552
G1 X166.279 Y181.126 E0.02483
G1 X164.374 Y179.221 E0.1104
G1 X164.374 Y179.827 E0.02483
G1 X165.673 Y181.126 E0.07528
G1 X165.067 Y181.126 E0.02483
G1 X164.374 Y180.433 E0.04016
G1 X164.374 Y181.039 E0.02483
G1 X164.645 Y181.31 E0.01572
G1 E-0.5 F3000
; acceleration to travel
M204 S3000
G1 X172.644 Y162.494 F9000
; decel to extrusion
M204 S1000
G1 X175.31 Y156.222
; end travel
G1 E0.5 F1800
G1 F3600
G1 X172.874 Y153.786 E0.14118
G1 X172.874 Y154.392 E0.02483
G1 X175.126 Y156.644 E0.1305
G1 X175.126 Y157.25 E0.02483
G1 X172.874 Y154.998 E0.1305
G1 X172.874 Y155.604 E0.02483
G1 X175.126 Y157.856 E0.1305
G1 X175.126 Y158.462 E0.02483
G1 X172.874 Y156.21 E0.1305
G1 X172.874 Y156.816 E0.02483
G1 X175.126 Y159.068 E0.1305
G1 X175.126 Y159.674 E0.02483
G1 X172.874 Y157.422 E0.1305
G1 X172.874 Y158.028 E0.02483
G1 X175.126 Y160.28 E0.1305
G1 X175.126 Y160.886 E0.02483
G1 X172.874 Y158.634 E0.1305
G1 X172.874 Y159.24 E0.02483
G1 X175.126 Y161.492 E0.1305
G1 X175.126 Y162.098 E0.02483
G1 X172.874 Y159.846 E0.1305
G1 X172.874 Y160.452 E0.02483
G1 X175.126 Y162.704 E0.1305
G1 X175.126 Y163.31 E0.02483
