; generated by SuperSlicer 2.4 on 2022-05-06 at 01:17:34 UTC


;
;

;
;
; 

; external perimeters extrusion width = 0.40mm
; perimeters extrusion width = 0.40mm
; infill extrusion width = 0.72mm
; solid infill extrusion width = 0.56mm
; top infill extrusion width = 0.40mm
; first layer extrusion width = 0.48mm

; external perimeters extrusion width = 0.40mm
; perimeters extrusion width = 0.40mm
; infill extrusion width = 0.72mm
; solid infill extrusion width = 0.56mm
; top infill extrusion width = 0.40mm
; first layer extrusion width = 0.48mm

; external perimeters extrusion width = 0.40mm
; perimeters extrusion width = 0.40mm
; infill extrusion width = 0.72mm
; solid infill extrusion width = 0.56mm
; top infill extrusion width = 0.40mm
; first layer extrusion width = 0.48mm

; external perimeters extrusion width = 0.40mm
; perimeters extrusion width = 0.40mm
; infill extrusion width = 0.72mm
; solid infill extrusion width = 0.56mm
; top infill extrusion width = 0.40mm
; first layer extrusion width = 0.48mm

; external perimeters extrusion width = 0.40mm
; perimeters extrusion width = 0.40mm
; infill extrusion width = 0.72mm
; solid infill extrusion width = 0.56mm
; top infill extrusion width = 0.40mm
; first layer extrusion width = 0.48mm

; object:{"name":"probe","id":"probe.stl id:0 copy 0","object_center":[177.386679,150.636065,0.000000],"boundingbox_center":[177.386679,150.636065,13.517153],"boundingbox_size":[19.224609,27.734489,27.034306]}
; object:{"name":"Probe_magnet_pressfit_helper","id":"Probe_magnet_pressfit_helper.stl id:1 copy 0","object_center":[143.928577,160.995551,0.000000],"boundingbox_center":[143.928577,160.995551,3.000003],"boundingbox_size":[31.403725,21.063652,6.000007]}
; object:{"name":"Probe_pressfit_holder","id":"Probe_pressfit_holder.stl id:2 copy 0","object_center":[144.518286,186.965156,0.000000],"boundingbox_center":[144.518286,186.965156,7.000004],"boundingbox_size":[30.000000,18.875549,14.000007]}
; object:{"name":"Probe_Dock_v2","id":"Probe_Dock_v2.1.stl id:3 copy 0","object_center":[183.645788,179.003329,0.000000],"boundingbox_center":[183.645788,179.003329,5.250023],"boundingbox_size":[36.255005,17.000031,10.500046]}
; object:{"name":"KlickyProbe_v2","id":"KlickyProbe_v2.stl id:4 copy 0","object_center":[148.345113,139.053214,0.000000],"boundingbox_center":[148.345113,139.053214,8.612503],"boundingbox_size":[27.054459,10.909866,17.225006]}
; plater:{"center":[165.000003,165.000606,0.000000],"boundingbox_center":[165.000003,165.000606,13.517153],"boundingbox_size":[73.546576,62.804650,27.034306]}

M73 P0 R69
;TYPE:Custom
START_PRINT T_BED=110 T_EXTRUDER=245
M107
G21 ; set units to millimeters
G90 ; use absolute coordinates
M83 ; use relative distances for extrusion
; Filament gcode
M109 S245 ; set temperature and wait for it to be reached
M190 S110 ; set bed temperature and wait for it to be reached
M107
;LAYER_CHANGE
;Z:0.24
;HEIGHT:0.24
G1 Z0.24 F9000
G92 E0
G1 E-0.5 F3000
M204 S1000
G1 X133.233 Y138.485 F9000
G1 E0.5 F1800
;TYPE:Skirt
;WIDTH:0.52
G1 X132.799 Y138.902 E0.02705
G1 X132.253 Y139.581 E0.03909
G1 X125.743 Y149.964 E0.54997
G1 X125.248 Y151.012 E0.052
G1 X124.992 Y151.99 E0.04537
G1 X124.907 Y152.967 E0.04401
G1 X124.912 Y169.707 E0.75123
G1 X126.203 Y195.806 E1.17267
G1 X126.928 Y197.828 E0.09641
G1 X128.236 Y198.928 E0.07668
G1 X129.898 Y199.322 E0.07668
G1 X159.138 Y199.322 E1.3122
G1 X159.906 Y199.242 E0.03465
G1 X199.96 Y190.742 E1.8375
G1 X201.429 Y190.072 E0.07248
G1 X202.599 Y188.712 E0.08053
G1 X202.993 Y187.049 E0.07668
G1 X202.982 Y170.881 E0.72558
G1 X202.736 Y169.558 E0.06038
G1 X189.827 Y135.917 E1.61703
G1 X188.787 Y134.438 E0.08115
G1 X187.269 Y133.653 E0.07668
G1 X185.904 Y133.45 E0.06195
G1 X150.478 Y132.633 E1.59019
G1 X140.922 Y132.634 E0.42885
G1 X139.906 Y132.772 E0.04603
G1 X138.341 Y133.571 E0.07885
G1 X133.233 Y138.485 E0.31806
G1 X133.557 Y138.821 F9000
G1 F1800
G1 X133.125 Y139.236 E0.02687
G1 X132.648 Y139.829 E0.03416
G1 X126.138 Y150.212 E0.54997
G1 X125.69 Y151.158 E0.04698
G1 X125.45 Y152.079 E0.0427
G1 X125.374 Y152.967 E0.04001
G1 X125.377 Y169.684 E0.7502
G1 X126.669 Y195.783 E1.17267
G1 X127.182 Y197.377 E0.07515
G1 X128.352 Y198.462 E0.07161
G1 X129.898 Y198.856 E0.07161
G1 X159.138 Y198.856 E1.3122
G1 X159.809 Y198.786 E0.03028
G1 X199.863 Y190.286 E1.8375
G1 X201.16 Y189.691 E0.06403
G1 X202.134 Y188.596 E0.06577
G1 X202.526 Y187.049 E0.07161
G1 X202.515 Y170.881 E0.72558
G1 X202.301 Y169.725 E0.05277
G1 X189.392 Y136.084 E1.61703
G1 X188.561 Y134.862 E0.06632
G1 X187.156 Y134.105 E0.07161
G1 X185.892 Y133.917 E0.05735
G1 X150.472 Y133.099 E1.58995
G1 X140.922 Y133.1 E0.42858
G1 X140.013 Y133.226 E0.04118
G1 X138.646 Y133.924 E0.06891
G1 X133.557 Y138.821 E0.31693
; INIT printing object probe.stl id:0 copy 0
G1 E-0.5 F3000
; printing object probe.stl id:0 copy 0
; acceleration to travel
M204 S3000
G1 X167.912 Y152.293 F9000
; decel to extrusion
M204 S1000
G1 X179.364 Y156.784
; end travel
G1 E0.5 F1800
;TYPE:Internal perimeter
;WIDTH:0.48
G1 X179.346 Y157.031 E0.01019
G1 X179.383 Y157.531 E0.02056
G1 X179.492 Y158.019 E0.02055
G1 X179.67 Y158.487 E0.02055
G1 X179.915 Y158.924 E0.02055
G1 X180.221 Y159.32 E0.02055
G1 X180.582 Y159.668 E0.02055
G1 X180.989 Y159.959 E0.02055
G1 X181.434 Y160.188 E0.02055
G1 X181.908 Y160.35 E0.02055
G1 X182.401 Y160.441 E0.02055
G1 X182.901 Y160.459 E0.02055
G1 X183.399 Y160.404 E0.02055
G1 X183.883 Y160.277 E0.02055
G1 X184.112 Y160.18 E0.0102
G1 X184.112 Y162.596 E0.09916
G1 X170.93 Y162.596 E0.54104
G1 X170.93 Y160.188 E0.09883
G1 X171.404 Y160.35 E0.02053
G1 X171.896 Y160.441 E0.02055
G1 X172.397 Y160.459 E0.02055
G1 X172.894 Y160.404 E0.02055
G1 X173.379 Y160.277 E0.02055
G1 X173.84 Y160.082 E0.02055
G1 X174.267 Y159.821 E0.02055
G1 X174.652 Y159.5 E0.02055
G1 X174.986 Y159.127 E0.02056
G1 X175.262 Y158.71 E0.02055
G1 X175.475 Y158.257 E0.02055
G1 X175.619 Y157.777 E0.02055
G1 X175.692 Y157.282 E0.02055
G1 X175.692 Y156.781 E0.02055
G1 X175.619 Y156.286 E0.02055
G1 X175.475 Y155.806 E0.02055
G1 X175.262 Y155.353 E0.02055
G1 X174.986 Y154.935 E0.02055
G1 X174.652 Y154.562 E0.02055
G1 X174.267 Y154.242 E0.02055
G1 X173.84 Y153.981 E0.02055
G1 X173.379 Y153.785 E0.02055
G1 X172.88 Y153.655 E0.02114
G1 X172.326 Y153.606 E0.02284
G1 X171.896 Y153.622 E0.01766
G1 X171.404 Y153.713 E0.02055
G1 X170.93 Y153.874 E0.02052
G1 X170.931 Y138.674 E0.62389
G1 X184.112 Y138.674 E0.54104
G1 X184.112 Y153.882 E0.62422
G1 X183.883 Y153.785 E0.0102
G1 X183.399 Y153.659 E0.02055
G1 X182.901 Y153.604 E0.02055
G1 X182.401 Y153.622 E0.02055
G1 X181.908 Y153.713 E0.02055
G1 X181.434 Y153.875 E0.02055
G1 X180.989 Y154.104 E0.02055
G1 X180.582 Y154.395 E0.02055
G1 X180.221 Y154.743 E0.02055
G1 X179.915 Y155.139 E0.02055
G1 X179.67 Y155.576 E0.02055
G1 X179.492 Y156.043 E0.02055
G1 X179.383 Y156.532 E0.02055
G1 X179.364 Y156.784 E0.01036
G1 X179.792 Y156.815 F9000
G1 F1800
G1 X179.776 Y157.031 E0.0089
G1 X179.808 Y157.468 E0.01798
G1 X179.903 Y157.896 E0.01798
G1 X180.059 Y158.305 E0.01798
G1 X180.274 Y158.687 E0.01798
G1 X180.541 Y159.033 E0.01798
G1 X180.857 Y159.337 E0.01798
G1 X181.213 Y159.592 E0.01798
G1 X181.602 Y159.793 E0.01798
G1 X182.017 Y159.934 E0.01798
G1 X182.448 Y160.014 E0.01798
G1 X182.885 Y160.03 E0.01798
G1 X183.321 Y159.982 E0.01798
G1 X183.745 Y159.871 E0.01798
G1 X184.148 Y159.7 E0.01798
G1 X184.541 Y159.46 E0.01889
G1 X184.541 Y163.025 E0.14632
G1 X170.502 Y163.025 E0.57622
G1 X170.502 Y159.486 E0.14524
G1 X171.098 Y159.793 E0.0275
G1 X171.512 Y159.934 E0.01798
G1 X171.943 Y160.013 E0.01798
G1 X172.381 Y160.029 E0.01798
G1 X172.816 Y159.982 E0.01798
G1 X173.24 Y159.871 E0.01798
G1 X173.643 Y159.699 E0.01798
G1 X174.017 Y159.471 E0.01798
G1 X174.354 Y159.191 E0.01798
G1 X174.646 Y158.865 E0.01798
G1 X174.888 Y158.5 E0.01798
G1 X175.073 Y158.103 E0.01798
G1 X175.2 Y157.684 E0.01798
G1 X175.263 Y157.25 E0.01798
G1 X175.263 Y156.812 E0.01798
G1 X175.2 Y156.379 E0.01798
G1 X175.074 Y155.96 E0.01798
G1 X174.888 Y155.563 E0.01798
G1 X174.646 Y155.198 E0.01798
G1 X174.354 Y154.871 E0.01798
G1 X174.017 Y154.591 E0.01798
G1 X173.643 Y154.363 E0.01798
G1 X173.24 Y154.192 E0.01798
G1 X172.807 Y154.079 E0.01837
G1 X172.315 Y154.036 E0.02026
G1 X171.943 Y154.049 E0.01528
G1 X171.512 Y154.129 E0.01798
G1 X171.098 Y154.27 E0.01798
G1 X170.502 Y154.576 E0.0275
G1 X170.502 Y138.755 E0.64939
G1 X169.5 Y138.742 E0.04114
G1 X169.499 Y138.246 E0.02037
G1 X185.271 Y138.246 E0.64735
G1 X185.267 Y138.744 E0.02043
G1 X184.541 Y138.745 E0.02983
G1 X184.541 Y154.603 E0.65087
G1 X184.148 Y154.363 E0.01889
G1 X183.745 Y154.192 E0.01798
G1 X183.321 Y154.081 E0.01798
G1 X182.885 Y154.033 E0.01798
G1 X182.448 Y154.049 E0.01798
G1 X182.017 Y154.129 E0.01798
G1 X181.603 Y154.27 E0.01798
G1 X181.213 Y154.47 E0.01798
G1 X180.857 Y154.725 E0.01798
G1 X180.541 Y155.029 E0.01798
G1 X180.274 Y155.376 E0.01798
G1 X180.059 Y155.758 E0.01798
G1 X179.903 Y156.167 E0.01798
G1 X179.808 Y156.594 E0.01798
G1 X179.792 Y156.815 E0.00908
G1 X180.219 Y156.846 F9000
G1 F1800
G1 X180.205 Y157.031 E0.00762
G1 X180.233 Y157.406 E0.01541
G1 X180.314 Y157.772 E0.0154
G1 X180.448 Y158.122 E0.0154
G1 X180.632 Y158.45 E0.0154
G1 X180.861 Y158.747 E0.0154
G1 X181.132 Y159.007 E0.0154
G1 X181.437 Y159.226 E0.0154
G1 X181.771 Y159.397 E0.0154
G1 X182.126 Y159.518 E0.0154
G1 X182.495 Y159.586 E0.0154
G1 X182.87 Y159.6 E0.0154
G1 X183.243 Y159.559 E0.0154
G1 X183.606 Y159.464 E0.0154
G1 X183.951 Y159.317 E0.0154
G1 X184.272 Y159.122 E0.0154
G1 X184.56 Y158.882 E0.0154
G1 X184.969 Y158.425 E0.02516
G1 X184.969 Y163.453 E0.20636
G1 X170.073 Y163.453 E0.61139
G1 X170.073 Y158.474 E0.20439
G1 X170.627 Y159.007 E0.03156
G1 X170.932 Y159.226 E0.0154
G1 X171.266 Y159.397 E0.0154
G1 X171.621 Y159.518 E0.0154
G1 X171.99 Y159.586 E0.0154
G1 X172.365 Y159.6 E0.0154
G1 X172.738 Y159.559 E0.0154
G1 X173.101 Y159.464 E0.0154
G1 X173.447 Y159.317 E0.0154
G1 X173.767 Y159.122 E0.0154
G1 X174.055 Y158.882 E0.0154
G1 X174.306 Y158.602 E0.0154
G1 X174.513 Y158.289 E0.0154
G1 X174.672 Y157.95 E0.0154
G1 X174.78 Y157.59 E0.0154
G1 X174.835 Y157.219 E0.0154
G1 X174.835 Y156.844 E0.0154
G1 X174.78 Y156.472 E0.0154
G1 X174.672 Y156.113 E0.0154
G1 X174.513 Y155.773 E0.0154
G1 X174.306 Y155.46 E0.0154
G1 X174.055 Y155.181 E0.0154
G1 X173.767 Y154.941 E0.0154
G1 X173.447 Y154.745 E0.0154
G1 X173.101 Y154.598 E0.0154
G1 X172.734 Y154.502 E0.0156
G1 X172.304 Y154.465 E0.01769
G1 X171.99 Y154.476 E0.0129
G1 X171.621 Y154.544 E0.0154
G1 X171.266 Y154.666 E0.0154
G1 X170.932 Y154.837 E0.0154
G1 X170.627 Y155.055 E0.0154
G1 X170.073 Y155.589 E0.03156
G1 X170.074 Y139.178 E0.67359
G1 X169.072 Y139.165 E0.0411
G1 X169.07 Y137.817 E0.05531
G1 X169.451 Y137.817 E0.01565
G1 X185.702 Y137.817 E0.66702
G1 X185.693 Y139.171 E0.05557
G1 X184.969 Y139.173 E0.02971
G1 X184.969 Y155.637 E0.67578
G1 X184.56 Y155.181 E0.02516
G1 X184.272 Y154.941 E0.0154
G1 X183.951 Y154.745 E0.0154
G1 X183.606 Y154.598 E0.0154
G1 X183.243 Y154.504 E0.0154
G1 X182.87 Y154.462 E0.0154
G1 X182.495 Y154.476 E0.0154
G1 X182.126 Y154.544 E0.0154
G1 X181.771 Y154.666 E0.0154
G1 X181.437 Y154.837 E0.0154
G1 X181.132 Y155.055 E0.0154
G1 X180.861 Y155.316 E0.0154
G1 X180.632 Y155.613 E0.0154
G1 X180.448 Y155.94 E0.0154
G1 X180.314 Y156.291 E0.0154
G1 X180.233 Y156.657 E0.0154
G1 X180.219 Y156.846 E0.00779
; acceleration to travel
M204 S3000
G1 X175.86 Y156.868 F9000
; decel to extrusion
M204 S1000
G1 X174.406 Y156.875
; end travel
;TYPE:External perimeter
G1 F1800
G1 X174.361 Y156.566 E0.01283
G1 X174.271 Y156.267 E0.01283
G1 X174.138 Y155.984 E0.01283
G1 X173.966 Y155.723 E0.01283
G1 X173.841 Y155.584 E0.00766
G1 X173.757 Y155.49 E0.00517
G1 X173.632 Y155.386 E0.0067
G1 X173.517 Y155.29 E0.00613
G1 X173.428 Y155.236 E0.00428
G1 X173.25 Y155.127 E0.00855
G1 X173.079 Y155.054 E0.00765
G1 X172.963 Y155.005 E0.00518
G1 X172.66 Y154.926 E0.01283
G1 X172.349 Y154.892 E0.01283
G1 X172.293 Y154.894 E0.00231
G1 X172.037 Y154.903 E0.01052
G1 X171.73 Y154.96 E0.01283
G1 X171.434 Y155.061 E0.01283
G1 X171.156 Y155.204 E0.01283
G1 X170.902 Y155.386 E0.01283
G1 X170.677 Y155.603 E0.01283
G1 X170.486 Y155.85 E0.01283
G1 X170.333 Y156.123 E0.01283
G1 X170.278 Y156.267 E0.00633
G1 X170.221 Y156.415 E0.0065
G1 X170.187 Y156.566 E0.00636
G1 X170.153 Y156.72 E0.00647
G1 X170.13 Y157.031 E0.01283
G1 X170.153 Y157.343 E0.01283
G1 X170.183 Y157.477 E0.00563
G1 X170.221 Y157.648 E0.0072
G1 X170.333 Y157.94 E0.01283
G1 X170.486 Y158.213 E0.01283
G1 X170.677 Y158.46 E0.01283
G1 X170.902 Y158.677 E0.01283
G1 X171.156 Y158.859 E0.01283
G1 X171.434 Y159.002 E0.01283
G1 X171.73 Y159.103 E0.01283
G1 X172.037 Y159.159 E0.01283
G1 X172.349 Y159.171 E0.01283
G1 X172.66 Y159.137 E0.01283
G1 X172.79 Y159.103 E0.00552
G1 X172.963 Y159.058 E0.00731
G1 X173.188 Y158.962 E0.01006
G1 X173.25 Y158.935 E0.00277
G1 X173.517 Y158.772 E0.01283
G1 X173.757 Y158.573 E0.01283
G1 X173.858 Y158.46 E0.0062
G1 X173.966 Y158.34 E0.00663
G1 X174.138 Y158.079 E0.01283
G1 X174.203 Y157.94 E0.0063
G1 X174.271 Y157.796 E0.00652
G1 X174.361 Y157.497 E0.01283
G1 X174.406 Y157.188 E0.01283
G1 X174.406 Y156.875 E0.01283
;WIPE_START
M204 S5000
G1 X174.661 Y156.693 F9000
;WIPE_END
; acceleration to travel
M204 S3000
G1 X179.141 Y156.947
; decel to extrusion
M204 S1000
G1 X180.635 Y157.031
; end travel
G1 F1800
G1 X180.658 Y157.343 E0.01283
G1 X180.726 Y157.648 E0.01283
G1 X180.837 Y157.94 E0.01283
G1 X180.99 Y158.213 E0.01283
G1 X181.181 Y158.46 E0.01283
G1 X181.406 Y158.677 E0.01283
G1 X181.661 Y158.859 E0.01283
G1 X181.939 Y159.002 E0.01283
G1 X182.102 Y159.058 E0.0071
G1 X182.234 Y159.103 E0.00573
G1 X182.542 Y159.159 E0.01283
G1 X182.854 Y159.171 E0.01283
G1 X183.165 Y159.137 E0.01283
G1 X183.321 Y159.096 E0.00662
G1 X183.467 Y159.058 E0.00621
G1 X183.755 Y158.935 E0.01283
G1 X184.022 Y158.772 E0.01283
G1 X184.136 Y158.677 E0.00613
G1 X184.262 Y158.573 E0.0067
G1 X184.47 Y158.34 E0.01283
G1 X184.643 Y158.079 E0.01283
G1 X184.776 Y157.796 E0.01283
G1 X184.82 Y157.648 E0.00634
G1 X184.866 Y157.497 E0.00648
G1 X184.911 Y157.188 E0.01283
G1 X184.911 Y156.875 E0.01283
G1 X184.866 Y156.566 E0.01283
G1 X184.82 Y156.415 E0.00649
G1 X184.776 Y156.267 E0.00634
G1 X184.643 Y155.984 E0.01283
G1 X184.47 Y155.723 E0.01283
G1 X184.262 Y155.49 E0.01283
G1 X184.022 Y155.29 E0.01283
G1 X183.855 Y155.188 E0.00803
G1 X183.755 Y155.127 E0.0048
G1 X183.693 Y155.101 E0.00277
G1 X183.467 Y155.005 E0.01006
G1 X183.262 Y154.952 E0.00869
G1 X183.165 Y154.926 E0.00414
G1 X182.983 Y154.906 E0.00752
G1 X182.854 Y154.892 E0.00531
G1 X182.542 Y154.903 E0.01283
G1 X182.418 Y154.926 E0.00515
G1 X182.234 Y154.96 E0.00768
G1 X181.939 Y155.061 E0.01283
G1 X181.661 Y155.204 E0.01283
G1 X181.563 Y155.274 E0.00493
G1 X181.406 Y155.386 E0.0079
G1 X181.181 Y155.603 E0.01283
G1 X180.99 Y155.85 E0.01283
G1 X180.915 Y155.984 E0.00628
G1 X180.837 Y156.123 E0.00655
G1 X180.726 Y156.415 E0.01283
G1 X180.658 Y156.72 E0.01283
G1 X180.635 Y157.031 E0.01283
;WIPE_START
M204 S5000
G1 X180.368 Y157.194 F9000
;WIPE_END
; acceleration to travel
M204 S3000
G1 X172.326 Y143.999
; decel to extrusion
M204 S1000
G1 X169.645 Y139.601
; end travel
G1 F1800
G1 X168.801 Y139.599 E0.03462
G1 X168.739 Y139.589 E0.00258
G1 X168.721 Y139.579 E0.00086
G1 X168.7 Y139.568 E0.00097
G1 X168.664 Y139.519 E0.00251
G1 X168.644 Y139.431 E0.0037
G1 X168.64 Y137.43 E0.08214
G1 X168.718 Y137.411 E0.00328
G1 X168.97 Y137.389 E0.01037
G1 X169.451 Y137.389 E0.01976
G1 X185.804 Y137.389 E0.6712
G1 X186.056 Y137.411 E0.01038
G1 X186.133 Y137.43 E0.00327
G1 X186.129 Y139.431 E0.08214
G1 X186.129 Y139.442 E0.00044
G1 X186.119 Y139.504 E0.00257
G1 X186.098 Y139.543 E0.00183
G1 X186.074 Y139.561 E0.00125
G1 X186.049 Y139.579 E0.00125
G1 X186.005 Y139.589 E0.00185
G1 X185.961 Y139.599 E0.00186
G1 X185.679 Y139.6 E0.01157
G1 X185.398 Y139.6 E0.01157
G1 X185.398 Y151.73 E0.49785
G1 X185.398 Y163.859 E0.49785
G1 X185.357 Y163.873 E0.00177
G1 X185.302 Y163.878 E0.00223
G1 X185.256 Y163.882 E0.0019
G1 X176.419 Y163.882 E0.36273
G1 X169.786 Y163.882 E0.27225
