; generated by SuperSlicer 2.3.57 on 2022-02-08 at 19:40:04 UTC


;
;

;
;
; 

; external perimeters extrusion width = 0.40mm
; perimeters extrusion width = 0.40mm
; infill extrusion width = 0.72mm
; solid infill extrusion width = 0.40mm
; top infill extrusion width = 0.40mm
; first layer extrusion width = 0.48mm


;TYPE:Custom
START_PRINT T_BED=110 T_EXTRUDER=245
M107
G21 ; set units to millimeters
G90 ; use absolute coordinates
M83 ; use relative distances for extrusion
; Filament gcode
M104 S245 ; set temperature
M109 S245 ; set temperature and wait for it to be reached
M190 S110 ; set bed temperature and wait for it to be reached
;LAYER_CHANGE
;Z:0.2
;HEIGHT:0.2
G1 E-0.5 F3000
G1 Z0.2 F9000
G1 X152.38 Y152.081
G1 E0.5 F1800
;TYPE:Skirt
;WIDTH:0.48
G1 X151.494 Y153.101 E0.0491
G1 X151.029 Y153.868 E0.0326
G1 X150.677 Y154.683 E0.03228
G1 X150.422 Y155.604 E0.03473
G1 X150.306 Y156.498 E0.03275
G1 X150.305 Y173.524 E0.6188
G1 X150.565 Y174.976 E0.05359
G1 X151.125 Y176.305 E0.05242
G1 X151.957 Y177.479 E0.05229
G1 X153.046 Y178.465 E0.0534
G1 X153.843 Y178.96 E0.03409
G1 X154.669 Y179.327 E0.03285
G1 X155.604 Y179.593 E0.03534
G1 X156.527 Y179.719 E0.03386
G1 X173.471 Y179.719 E0.61578
G1 X174.916 Y179.463 E0.05333
G1 X176.27 Y178.899 E0.05333
G1 X177.521 Y178.006 E0.05585
G1 X178.489 Y176.917 E0.05294
G1 X178.965 Y176.137 E0.03322
G1 X179.348 Y175.243 E0.03534
G1 X179.583 Y174.375 E0.03268
G1 X179.699 Y173.466 E0.03331
G1 X179.708 Y156.88 E0.60278
G1 X179.578 Y155.607 E0.04651
G1 X179.253 Y154.495 E0.04212
G1 X178.747 Y153.469 E0.04158
G1 X178.114 Y152.595 E0.03921
G1 X177.295 Y151.794 E0.04163
G1 X176.351 Y151.148 E0.04156
G1 X175.367 Y150.696 E0.03936
G1 X174.269 Y150.4 E0.04135
G1 X173.105 Y150.296 E0.04247
G1 X156.882 Y150.296 E0.58959
G1 X156.081 Y150.347 E0.02916
G1 X154.799 Y150.638 E0.04778
G1 X153.533 Y151.216 E0.05059
G1 X152.428 Y152.045 E0.05019
G1 X152.753 Y152.342 F9000
G1 F1800
G1 X151.931 Y153.242 E0.0443
G1 X151.457 Y153.993 E0.03228
G1 X151.109 Y154.772 E0.03099
G1 X150.857 Y155.661 E0.0336
G1 X150.742 Y156.52 E0.03151
G1 X150.739 Y173.461 E0.61569
G1 X150.976 Y174.821 E0.05015
G1 X151.488 Y176.058 E0.04868
G1 X152.26 Y177.162 E0.04897
G1 X153.262 Y178.082 E0.04944
G1 X154.025 Y178.562 E0.03275
G1 X154.803 Y178.91 E0.03096
G1 X155.691 Y179.165 E0.03359
G1 X156.562 Y179.283 E0.03195
G1 X173.416 Y179.284 E0.61252
G1 X174.767 Y179.051 E0.04984
G1 X176.03 Y178.533 E0.0496
G1 X177.203 Y177.704 E0.05221
G1 X178.105 Y176.703 E0.04898
G1 X178.563 Y175.961 E0.03168
G1 X178.93 Y175.116 E0.03349
G1 X179.154 Y174.295 E0.03094
G1 X179.263 Y173.439 E0.03136
G1 X179.271 Y156.886 E0.60157
G1 X179.159 Y155.739 E0.04187
G1 X178.857 Y154.68 E0.04003
G1 X178.387 Y153.72 E0.03886
G1 X177.797 Y152.897 E0.0368
G1 X177.031 Y152.142 E0.03907
G1 X176.141 Y151.532 E0.03923
G1 X175.228 Y151.11 E0.03655
G1 X174.2 Y150.832 E0.03869
G1 X173.105 Y150.733 E0.03998
G1 X156.191 Y150.774 E0.61471
G1 X154.995 Y151.033 E0.04445
G1 X153.826 Y151.55 E0.04647
G1 X152.813 Y152.277 E0.0453
G1 X152.794 Y152.297 E0.00103
G1 E-0.5 F3000
G1 X157.605 Y156.656 F9000
G1 E0.5 F1800
;TYPE:Internal perimeter
G1 F1200
G1 X157.681 Y156.935 E0.01048
G1 X157.521 Y157.029 E0.00674
G1 X157.488 Y157.05 E0.00141
G1 X157.386 Y157.125 E0.00461
G1 X157.356 Y157.149 E0.00141
G1 X157.262 Y157.234 E0.00461
G1 X157.234 Y157.262 E0.00142
G1 X157.149 Y157.356 E0.00461
G1 X157.125 Y157.386 E0.00141
G1 X157.05 Y157.488 E0.00461
G1 X157.029 Y157.521 E0.00141
G1 X156.93 Y157.689 E0.00707
G1 X156.624 Y157.605 E0.01151
G1 X156.624 Y157.059 E0.01984
G1 X156.625 Y156.932 E0.00461
G1 X156.627 Y156.883 E0.00178
G1 X156.631 Y156.852 E0.00114
G1 X156.647 Y156.795 E0.00216
G1 X156.672 Y156.747 E0.00197
G1 X156.704 Y156.707 E0.00185
G1 X156.743 Y156.675 E0.00182
G1 X156.787 Y156.651 E0.00185
G1 X156.841 Y156.635 E0.00203
G1 X156.87 Y156.631 E0.00107
G1 X156.917 Y156.629 E0.0017
G1 X157.565 Y156.629 E0.02357
G1 E-0.5 F3000
G1 X157.341 Y172.837 F9000
G1 E0.5 F1800
G1 F1200
G1 X157.387 Y172.875 E0.00215
G1 X157.488 Y172.95 E0.00457
G1 X157.522 Y172.971 E0.00145
G1 X157.732 Y173.096 E0.00887
G1 X157.648 Y173.401 E0.01151
G1 X156.986 Y173.401 E0.02407
G1 X156.935 Y173.399 E0.00186
G1 X156.899 Y173.394 E0.00132
G1 X156.865 Y173.386 E0.00126
G1 X156.832 Y173.374 E0.00128
G1 X156.771 Y173.343 E0.00248
G1 X156.719 Y173.302 E0.00241
G1 X156.677 Y173.253 E0.00233
G1 X156.647 Y173.2 E0.00221
G1 X156.629 Y173.142 E0.00224
G1 X156.624 Y173.112 E0.00109
G1 X156.622 Y173.066 E0.00169
G1 X156.622 Y172.953 E0.00408
G1 X156.622 Y172.391 E0.02043
G1 X156.928 Y172.307 E0.01151
G1 X157.029 Y172.478 E0.00721
G1 X157.05 Y172.512 E0.00145
G1 X157.125 Y172.613 E0.00457
G1 X157.15 Y172.644 E0.00145
G1 X157.234 Y172.738 E0.00458
G1 X157.262 Y172.766 E0.00145
G1 X157.297 Y172.797 E0.00169
G1 E-0.5 F3000
G1 X172.477 Y172.972 F9000
G1 E0.5 F1800
G1 F1200
G1 X172.512 Y172.95 E0.0015
G1 X172.613 Y172.875 E0.00457
G1 X172.644 Y172.85 E0.00145
G1 X172.738 Y172.766 E0.00458
G1 X172.766 Y172.738 E0.00145
G1 X172.85 Y172.644 E0.00458
G1 X172.875 Y172.613 E0.00145
G1 X172.95 Y172.512 E0.00457
G1 X172.971 Y172.478 E0.00145
G1 X173.072 Y172.307 E0.00721
G1 X173.378 Y172.391 E0.01151
G1 X173.378 Y172.818 E0.01552
G1 X173.378 Y173.067 E0.00906
G1 X173.376 Y173.112 E0.00162
G1 X173.371 Y173.142 E0.00112
G1 X173.353 Y173.199 E0.00219
G1 X173.323 Y173.253 E0.00224
G1 X173.281 Y173.302 E0.00233
G1 X173.229 Y173.343 E0.00241
G1 X173.169 Y173.374 E0.00246
G1 X173.135 Y173.385 E0.00129
G1 X173.101 Y173.394 E0.00129
G1 X173.065 Y173.399 E0.0013
G1 X173.014 Y173.401 E0.00188
G1 X172.352 Y173.401 E0.02405
G1 X172.268 Y173.096 E0.01151
G1 X172.425 Y173.003 E0.00663
G1 E-0.5 F3000
G1 X173.03 Y156.629 F9000
G1 E0.5 F1800
G1 F1200
G1 X173.084 Y156.629 E0.00195
G1 X173.13 Y156.631 E0.00168
G1 X173.186 Y156.642 E0.0021
G1 X173.236 Y156.662 E0.00194
G1 X173.277 Y156.69 E0.00182
G1 X173.313 Y156.726 E0.00183
G1 X173.328 Y156.747 E0.00093
G1 X173.352 Y156.794 E0.00194
G1 X173.369 Y156.852 E0.00217
G1 X173.373 Y156.883 E0.00115
G1 X173.375 Y156.932 E0.00179
G1 X173.376 Y157.108 E0.00639
G1 X173.376 Y157.605 E0.01806
G1 X173.07 Y157.689 E0.01151
G1 X172.971 Y157.521 E0.00707
G1 X172.95 Y157.488 E0.00141
G1 X172.875 Y157.386 E0.00461
G1 X172.851 Y157.356 E0.00141
G1 X172.766 Y157.262 E0.00461
G1 X172.738 Y157.234 E0.00142
G1 X172.644 Y157.149 E0.00461
G1 X172.614 Y157.125 E0.00141
G1 X172.512 Y157.05 E0.00461
G1 X172.479 Y157.029 E0.00141
G1 X172.319 Y156.935 E0.00674
G1 X172.403 Y156.629 E0.01151
G1 X172.97 Y156.629 E0.0206
G1 E-0.5 F3000
G1 X171.983 Y172.726 F9000
G1 E0.5 F1800
;TYPE:External perimeter
G1 X172.052 Y172.702 E0.00265
G1 X172.146 Y172.658 E0.00376
G1 X172.162 Y172.651 E0.00065
G1 X172.25 Y172.599 E0.00371
G1 X172.265 Y172.589 E0.00065
G1 X172.347 Y172.529 E0.0037
G1 X172.361 Y172.517 E0.00065
G1 X172.436 Y172.449 E0.0037
G1 X172.449 Y172.436 E0.00065
G1 X172.517 Y172.361 E0.0037
G1 X172.529 Y172.347 E0.00065
G1 X172.589 Y172.265 E0.0037
G1 X172.599 Y172.25 E0.00065
G1 X172.651 Y172.162 E0.00371
G1 X172.658 Y172.146 E0.00065
G1 X172.702 Y172.052 E0.00376
G1 X172.742 Y171.94 E0.00433
G1 X172.77 Y171.823 E0.00435
G1 X172.787 Y171.705 E0.00435
G1 X172.792 Y171.592 E0.00411
G1 X172.792 Y165.26 E0.23012
G1 X168.06 Y165.26 E0.17198
G1 X168.06 Y167.183 E0.06989
G1 X167.26 Y167.183 E0.02907
G1 X167.26 Y172.792 E0.20386
G1 X171.594 Y172.792 E0.15753
G1 X171.705 Y172.787 E0.00402
G1 X171.823 Y172.77 E0.00435
G1 X171.926 Y172.745 E0.00385
;WIPE_START
G1 X172.037 Y172.775 F9000
;WIPE_END
G1 E-0.5 F3000
G1 X171.069 Y164.74 F9000
G1 E0.5 F1800
G1 X172.792 Y164.74 E0.06262
G1 X172.792 Y158.408 E0.23012
G1 X172.787 Y158.295 E0.00412
G1 X172.77 Y158.176 E0.00435
G1 X172.742 Y158.06 E0.00434
G1 X172.702 Y157.948 E0.00433
G1 X172.651 Y157.838 E0.00441
G1 X172.589 Y157.735 E0.00435
G1 X172.518 Y157.639 E0.00435
G1 X172.449 Y157.563 E0.00373
G1 X172.361 Y157.482 E0.00435
G1 X172.265 Y157.411 E0.00435
G1 X172.162 Y157.349 E0.00435
G1 X172.052 Y157.298 E0.00441
G1 X171.94 Y157.258 E0.00433
G1 X171.824 Y157.23 E0.00434
G1 X171.705 Y157.213 E0.00435
G1 X171.592 Y157.208 E0.00412
G1 X167.26 Y157.208 E0.15744
G1 X167.26 Y162.817 E0.20386
G1 X168.06 Y162.817 E0.02907
G1 X168.06 Y164.74 E0.06989
G1 X171.009 Y164.74 E0.10719
;WIPE_START
G1 X171.269 Y165.086 F9000
;WIPE_END
G1 E-0.5 F3000
G1 X166.74 Y162.662 F9000
G1 E0.5 F1800
G1 X166.74 Y157.208 E0.19821
G1 X163.26 Y157.208 E0.12647
G1 X163.26 Y162.817 E0.20386
G1 X163.835 Y162.817 E0.0209
G1 X163.835 Y163.835 E0.037
G1 X162.285 Y163.835 E0.05633
G1 X162.285 Y166.165 E0.08468
G1 X163.835 Y166.165 E0.05633
G1 X163.835 Y167.183 E0.037
G1 X163.26 Y167.183 E0.0209
G1 X163.26 Y172.792 E0.20386
G1 X166.74 Y172.792 E0.12647
G1 X166.74 Y167.183 E0.20386
G1 X166.165 Y167.183 E0.0209
G1 X166.165 Y166.165 E0.037
G1 X167.715 Y166.165 E0.05633
G1 X167.715 Y163.835 E0.08468
G1 X166.165 Y163.835 E0.05633
G1 X166.165 Y162.817 E0.037
G1 X166.74 Y162.817 E0.0209
G1 X166.74 Y162.722 E0.00347
;WIPE_START
G1 X167.086 Y162.462 F9000
;WIPE_END
G1 E-0.5 F3000
G1 X157.208 Y164.227 F9000
G1 E0.5 F1800
G1 X157.208 Y164.74 E0.01863
G1 X161.94 Y164.74 E0.17198
G1 X161.94 Y162.817 E0.06989
G1 X162.74 Y162.817 E0.02907
G1 X162.74 Y157.208 E0.20386
G1 X158.408 Y157.208 E0.15744
G1 X158.295 Y157.213 E0.00412
G1 X158.176 Y157.23 E0.00435
G1 X158.06 Y157.258 E0.00434
G1 X157.948 Y157.298 E0.00433
G1 X157.838 Y157.349 E0.00441
G1 X157.735 Y157.411 E0.00435
G1 X157.639 Y157.482 E0.00435
G1 X157.551 Y157.563 E0.00435
G1 X157.472 Y157.653 E0.00435
G1 X157.411 Y157.735 E0.00374
G1 X157.349 Y157.838 E0.00435
G1 X157.298 Y157.948 E0.00441
G1 X157.258 Y158.06 E0.00433
G1 X157.23 Y158.176 E0.00434
G1 X157.213 Y158.295 E0.00435
G1 X157.208 Y158.408 E0.00412
G1 X157.208 Y164.167 E0.20931
;WIPE_START
G1 X156.861 Y164.427 F9000
;WIPE_END
G1 E-0.5 F3000
G1 X158.152 Y172.764 F9000
G1 E0.5 F1800
G1 X158.177 Y172.77 E0.0009
G1 X158.295 Y172.787 E0.00435
G1 X158.408 Y172.792 E0.00411
G1 X162.74 Y172.792 E0.15744
G1 X162.74 Y167.183 E0.20386
G1 X161.94 Y167.183 E0.02907
G1 X161.94 Y165.26 E0.06989
G1 X157.208 Y165.26 E0.17198
G1 X157.208 Y171.592 E0.23012
G1 X157.213 Y171.705 E0.00411
G1 X157.23 Y171.823 E0.00435
G1 X157.258 Y171.94 E0.00435
G1 X157.298 Y172.052 E0.00433
G1 X157.342 Y172.146 E0.00376
G1 X157.349 Y172.162 E0.00065
G1 X157.401 Y172.25 E0.00371
G1 X157.411 Y172.265 E0.00065
G1 X157.471 Y172.347 E0.0037
G1 X157.483 Y172.361 E0.00065
G1 X157.551 Y172.436 E0.0037
G1 X157.564 Y172.449 E0.00065
G1 X157.639 Y172.517 E0.0037
G1 X157.653 Y172.529 E0.00065
G1 X157.735 Y172.589 E0.0037
G1 X157.75 Y172.599 E0.00065
G1 X157.838 Y172.651 E0.00371
G1 X157.854 Y172.658 E0.00065
G1 X157.948 Y172.702 E0.00376
G1 X158.06 Y172.742 E0.00433
G1 X158.094 Y172.75 E0.00126
;WIPE_START
G1 X158.159 Y172.788 F9000
;WIPE_END
G1 X158.159 Y173.838
G1 F1800
G1 X156.976 Y173.838 E0.04301
G1 X156.894 Y173.835 E0.00299
G1 X156.817 Y173.824 E0.00282
G1 X156.743 Y173.806 E0.00275
G1 X156.671 Y173.781 E0.00279
G1 X156.601 Y173.75 E0.00278
G1 X156.535 Y173.712 E0.00276
G1 X156.473 Y173.668 E0.00276
G1 X156.416 Y173.618 E0.00276
G1 X156.364 Y173.563 E0.00275
G1 X156.318 Y173.504 E0.00273
G1 X156.278 Y173.44 E0.00273
G1 X156.246 Y173.374 E0.00268
G1 X156.219 Y173.303 E0.00276
G1 X156.2 Y173.23 E0.00271
G1 X156.189 Y173.157 E0.00271
G1 X156.185 Y173.076 E0.00293
G1 X156.185 Y172.953 E0.00449
G1 X156.185 Y169.173 E0.13737
G1 X156.186 Y168.907 E0.00968
G1 X156.186 Y165.135 E0.13708
G1 X156.187 Y164.86 E0.00998
G1 X156.187 Y161.096 E0.13678
G1 X156.187 Y160.813 E0.0103
G1 X156.187 Y157.058 E0.13646
G1 X156.188 Y156.922 E0.00497
G1 X156.191 Y156.843 E0.00285
G1 X156.201 Y156.772 E0.00262
G1 X156.217 Y156.702 E0.00261
G1 X156.24 Y156.635 E0.00259
G1 X156.27 Y156.57 E0.00258
G1 X156.305 Y156.509 E0.00255
G1 X156.345 Y156.453 E0.00254
G1 X156.392 Y156.4 E0.00254
G1 X156.443 Y156.353 E0.00254
G1 X156.499 Y156.311 E0.00253
G1 X156.559 Y156.276 E0.00253
G1 X156.622 Y156.246 E0.00254
G1 X156.689 Y156.223 E0.00258
G1 X156.758 Y156.206 E0.00258
G1 X156.829 Y156.196 E0.0026
G1 X156.907 Y156.192 E0.00283
G1 X173.093 Y156.192 E0.58828
G1 X173.171 Y156.196 E0.00281
G1 X173.242 Y156.206 E0.00263
G1 X173.31 Y156.222 E0.00255
G1 X173.377 Y156.246 E0.00257
G1 X173.441 Y156.275 E0.00255
G1 X173.501 Y156.311 E0.00253
G1 X173.557 Y156.353 E0.00253
G1 X173.608 Y156.4 E0.00254
G1 X173.655 Y156.452 E0.00255
G1 X173.695 Y156.509 E0.00254
G1 X173.73 Y156.57 E0.00254
G1 X173.759 Y156.634 E0.00255
G1 X173.782 Y156.702 E0.0026
G1 X173.799 Y156.771 E0.00261
G1 X173.809 Y156.843 E0.00263
G1 X173.812 Y156.922 E0.00286
G1 X173.813 Y157.108 E0.00675
G1 X173.813 Y160.666 E0.12931
G1 X173.813 Y161.24 E0.02089
G1 X173.813 Y164.717 E0.12637
G1 X173.814 Y165.274 E0.02024
G1 X173.814 Y168.768 E0.12698
G1 X173.815 Y169.308 E0.01962
G1 X173.815 Y172.818 E0.12755
G1 X173.815 Y173.078 E0.00946
G1 X173.811 Y173.157 E0.00285
G1 X173.8 Y173.231 E0.00274
G1 X173.781 Y173.303 E0.00269
G1 X173.755 Y173.373 E0.00272
G1 X173.722 Y173.44 E0.00272
G1 X173.682 Y173.503 E0.00272
G1 X173.636 Y173.563 E0.00273
G1 X173.584 Y173.618 E0.00275
G1 X173.527 Y173.668 E0.00275
G1 X173.465 Y173.712 E0.00275
G1 X173.4 Y173.749 E0.00275
G1 X173.331 Y173.781 E0.00276
G1 X173.258 Y173.806 E0.0028
G1 X173.183 Y173.824 E0.0028
G1 X173.107 Y173.834 E0.0028
G1 X173.024 Y173.838 E0.00301
G1 X158.219 Y173.838 E0.53805
;WIPE_START
G1 X157.959 Y173.492 F9000
;WIPE_END
G1 X157.895 Y173.263
;TYPE:Gap fill
;WIDTH:0.706546
G1 F1200
G1 X158.057 Y173.288 E0.00906
G1 X158.221 Y173.31 E0.00913
G1 X158.403 Y173.315 E0.01007
G1 X166.941 Y173.315 E0.47113
G1 X167.059 Y173.315 E0.00648
G1 X169.329 Y173.315 E0.12527
G1 X171.599 Y173.315 E0.12527
G1 X171.739 Y173.312 E0.00773
G1 X171.925 Y173.291 E0.01033
G1 X172.105 Y173.264 E0.01006
G1 E-0.5 F3000
G1 X173.251 Y172.148 F9000
G1 E0.5 F1800
;WIDTH:0.706044
G1 F1200
G1 X173.261 Y172.083 E0.00362
;WIDTH:0.666088
G1 X173.284 Y171.917 E0.00868
G1 X173.3 Y171.739 E0.00927
G1 X173.304 Y171.597 E0.00736
G1 X173.304 Y170.453 E0.05928
G1 X173.304 Y169.309 E0.05928
G1 X173.303 Y169.039 E0.01398
G1 X173.303 Y168.769 E0.01398
G1 X173.303 Y165.275 E0.18105
G1 X173.303 Y165.167 E0.00559
;WIDTH:0.573818
G1 X173.3 Y165 E0.00736
;WIDTH:0.1604
G1 X170.484 Y165 E0.02751
G1 X167.916 Y165 E0.02509
G1 E-0.5 F3000
G1 X167.859 Y166.674 F9000
G1 E0.5 F1800
;WIDTH:0.6584
G1 F1200
G1 X167.551 Y166.674 E0.01575
G1 X167.305 Y166.674 E0.0126
G1 X167.059 Y166.674 E0.0126
;WIDTH:0.770072
G1 X167 Y166.804 E0.00862
;WIDTH:0.297749
G1 X167 Y166.982 E0.00377
;WIDTH:0.160402
G1 X167 Y172.993 E0.05873
;WIDTH:0.248973
G1 X167 Y173.116 E0.0021
;WIDTH:0.536826
G1 X167 Y173.313 E0.00806
G1 E-0.5 F3000
G1 X163 Y173.313 F9000
G1 E0.5 F1800
;WIDTH:0.536831
G1 F1200
G1 X163 Y173.116 E0.00806
;WIDTH:0.248974
G1 X163 Y172.993 E0.0021
;WIDTH:0.160402
G1 X163 Y166.982 E0.05873
;WIDTH:0.297748
G1 X163 Y166.804 E0.00377
;WIDTH:0.770072
G1 X162.941 Y166.674 E0.00862
;WIDTH:0.6584
G1 X162.695 Y166.674 E0.0126
G1 X162.449 Y166.674 E0.0126
G1 X162.141 Y166.674 E0.01575
G1 E-0.5 F3000
G1 X162.084 Y165 F9000
G1 E0.5 F1800
;WIDTH:0.1604
G1 F1200
G1 X156.7 Y165 E0.05259
;WIDTH:0.553477
G1 X156.697 Y165.135 E0.00575
;WIDTH:0.666106
G1 X156.697 Y168.907 E0.19543
G1 X156.697 Y169.041 E0.00694
G1 X156.696 Y169.174 E0.00689
G1 X156.696 Y170.385 E0.06278
G1 X156.696 Y171.597 E0.06278
G1 X156.7 Y171.739 E0.00736
G1 X156.716 Y171.917 E0.00927
G1 X156.739 Y172.083 E0.00868
;WIDTH:0.706067
G1 X156.749 Y172.148 E0.00362
G1 E-0.5 F3000
G1 X156.7 Y165 F9000
G1 E0.5 F1800
;WIDTH:0.663223
G1 F1200
G1 X156.697 Y164.86 E0.00721
G1 X156.697 Y161.097 E0.19409
G1 X156.697 Y160.956 E0.0073
G1 X156.698 Y160.813 E0.00734
G1 X156.698 Y158.403 E0.1243
G1 X156.702 Y158.231 E0.00887
G1 X156.72 Y158.061 E0.00885
G1 X156.741 Y157.911 E0.00778
;WIDTH:0.705286
G1 X156.751 Y157.848 E0.00352
G1 E-0.5 F3000
G1 X157.84 Y156.754 F9000
G1 E0.5 F1800
;WIDTH:0.699802
G1 F1200
G1 X157.919 Y156.741 E0.00435
;WIDTH:0.657309
G1 X158.086 Y156.718 E0.00861
G1 X158.261 Y156.703 E0.00902
