; generated by SuperSlicer 2.3.56 on 2021-12-16 at 23:52:42 UTC


;
;

;
;
; 

; external perimeters extrusion width = 0.40mm
; perimeters extrusion width = 0.40mm
; infill extrusion width = 0.40mm
; solid infill extrusion width = 0.40mm
; top infill extrusion width = 0.40mm
; support material extrusion width = 0.40mm
; first layer extrusion width = 0.48mm


;TYPE:Custom
START_PRINT T_BED=70 T_EXTRUDER=235
M107
G21 ; set units to millimeters
G90 ; use absolute coordinates
M83 ; use relative distances for extrusion
M104 S235 ; set temperature
M109 S235 ; set temperature and wait for it to be reached
M190 S70 ; set bed temperature and wait for it to be reached
M107
;LAYER_CHANGE
;Z:0.24
;HEIGHT:0.24
G1 Z0.240000 F12000.000
G1 E-1.50000 F3000.000
G1 X128.216 Y112.604 F12000.000
G1 E1.50000 F1800.000
;TYPE:Skirt
;WIDTH:0.48
G1 F600.000
G1 X129.135 Y111.831 E0.05133
G1 X129.897 Y111.376 E0.03797
G1 X130.686 Y111.044 E0.03659
G1 X131.453 Y110.832 E0.03402
G1 X132.649 Y110.694 E0.05147
G1 X154.194 Y110.067 E0.92156
G1 X184.385 Y109.456 E1.29110
G1 X206.477 Y109.862 E0.94473
G1 X207.296 Y109.960 E0.03525
G1 X208.082 Y110.151 E0.03458
G1 X209.539 Y110.797 E0.06818
G1 X210.260 Y111.289 E0.03732
G1 X210.946 Y111.909 E0.03954
G1 X219.954 Y121.974 E0.57748
G1 X222.241 Y124.720 E0.15280
G1 X224.335 Y127.893 E0.16255
G1 X225.947 Y131.015 E0.15022
G1 X227.259 Y134.406 E0.15545
G1 X237.255 Y173.063 E1.70717
G1 X237.325 Y174.279 E0.05206
G1 X236.612 Y181.384 E0.30530
G1 X236.379 Y182.154 E0.03442
G1 X236.094 Y182.725 E0.02726
G1 X235.722 Y183.242 E0.02724
G1 X235.151 Y183.805 E0.03426
G1 X214.151 Y199.714 E1.12643
G1 X213.322 Y200.220 E0.04154
G1 X212.405 Y200.619 E0.04274
G1 X211.520 Y200.874 E0.03937
G1 X210.045 Y201.051 E0.06355
G1 X180.057 Y201.544 E1.28231
G1 X178.774 Y201.410 E0.05514
G1 X144.221 Y194.114 E1.50993
G1 X139.166 Y192.781 E0.22353
G1 X96.482 Y178.366 E1.92623
G1 X95.673 Y178.004 E0.03790
G1 X94.863 Y177.502 E0.04072
G1 X93.821 Y176.588 E0.05925
G1 X93.228 Y175.868 E0.03986
G1 X92.771 Y175.135 E0.03695
G1 X92.381 Y174.318 E0.03873
G1 X91.991 Y173.207 E0.05032
G1 X91.774 Y172.234 E0.04262
G1 X91.671 Y171.344 E0.03832
G1 X91.661 Y170.155 E0.05083
G1 X91.798 Y169.026 E0.04861
G1 X92.288 Y167.292 E0.07706
G1 X94.005 Y163.583 E0.17472
G1 X95.613 Y160.964 E0.13140
G1 X120.532 Y122.759 E1.95025
G1 X127.681 Y113.220 E0.50966
G1 X128.177 Y112.649 E0.03232
G1 X128.499 Y112.929 F12000.000
G1 F600.000
G1 X128.513 Y112.913 E0.00090
G1 X129.392 Y112.174 E0.04909
G1 X130.092 Y111.758 E0.03482
G1 X130.821 Y111.450 E0.03385
G1 X131.531 Y111.254 E0.03149
G1 X132.670 Y111.122 E0.04902
G1 X154.205 Y110.495 E0.92112
G1 X184.385 Y109.884 E1.29062
G1 X206.450 Y110.290 E0.94358
G1 X207.957 Y110.561 E0.06544
G1 X209.323 Y111.167 E0.06388
G1 X209.994 Y111.625 E0.03475
G1 X210.630 Y112.198 E0.03662
G1 X219.631 Y122.255 E0.57706
G1 X221.898 Y124.977 E0.15143
G1 X223.955 Y128.090 E0.15954
G1 X225.556 Y131.191 E0.14921
G1 X226.852 Y134.540 E0.15352
G1 X236.834 Y173.144 E1.70482
G1 X236.897 Y174.251 E0.04743
G1 X236.192 Y181.296 E0.30270
G1 X235.980 Y181.997 E0.03134
G1 X235.726 Y182.504 E0.02424
G1 X235.396 Y182.965 E0.02423
G1 X234.873 Y183.479 E0.03135
G1 X213.893 Y199.372 E1.12536
G1 X213.126 Y199.838 E0.03838
G1 X212.269 Y200.212 E0.03997
G1 X210.884 Y200.555 E0.06102
G1 X210.018 Y200.623 E0.03714
G1 X180.051 Y201.116 E1.28142
G1 X178.859 Y200.990 E0.05122
G1 X144.311 Y193.695 E1.50972
G1 X139.289 Y192.370 E0.22205
G1 X96.635 Y177.966 E1.92487
G1 X95.878 Y177.628 E0.03543
G1 X95.123 Y177.161 E0.03796
G1 X94.123 Y176.284 E0.05686
G1 X93.569 Y175.609 E0.03733
G1 X92.768 Y174.133 E0.07182
G1 X92.403 Y173.089 E0.04729
G1 X92.097 Y171.294 E0.07785
G1 X92.090 Y170.173 E0.04792
G1 X92.216 Y169.118 E0.04541
G1 X92.692 Y167.433 E0.07487
G1 X94.381 Y163.789 E0.17171
G1 X95.973 Y161.197 E0.13009
G1 X120.887 Y122.998 E1.94987
G1 X128.018 Y113.484 E0.50837
G1 X128.460 Y112.974 E0.02883
G1 E-1.50000 F3000.000
G1 X164.473 Y127.567 F12000.000
G1 E1.50000 F1800.000
;TYPE:Internal perimeter
G1 F600.000
G1 X164.325 Y128.039 E0.02116
G1 X164.236 Y128.526 E0.02116
G1 X164.206 Y129.020 E0.02116
G1 X164.236 Y129.514 E0.02116
G1 X164.325 Y130.001 E0.02116
G1 X164.473 Y130.474 E0.02116
G1 X164.676 Y130.925 E0.02116
G1 X164.932 Y131.349 E0.02116
G1 X165.237 Y131.738 E0.02116
G1 X165.587 Y132.088 E0.02116
G1 X165.977 Y132.394 E0.02116
G1 X166.400 Y132.650 E0.02116
G1 X166.852 Y132.853 E0.02116
G1 X167.324 Y133.000 E0.02116
G1 X167.811 Y133.089 E0.02116
G1 X168.305 Y133.119 E0.02116
G1 X168.799 Y133.089 E0.02116
G1 X169.286 Y133.000 E0.02116
G1 X169.759 Y132.853 E0.02116
G1 X170.210 Y132.650 E0.02116
G1 X170.634 Y132.394 E0.02116
G1 X171.023 Y132.088 E0.02116
G1 X171.373 Y131.738 E0.02116
G1 X171.679 Y131.349 E0.02116
G1 X171.935 Y130.925 E0.02116
G1 X172.138 Y130.474 E0.02116
G1 X172.285 Y130.001 E0.02116
G1 X172.374 Y129.514 E0.02116
G1 X172.404 Y129.020 E0.02116
G1 X172.374 Y128.526 E0.02116
G1 X172.285 Y128.039 E0.02116
G1 X172.138 Y127.567 E0.02116
G1 X171.935 Y127.115 E0.02116
G1 X171.679 Y126.692 E0.02116
G1 X171.373 Y126.302 E0.02116
G1 X171.023 Y125.952 E0.02116
G1 X170.634 Y125.647 E0.02116
G1 X170.210 Y125.391 E0.02116
G1 X169.759 Y125.187 E0.02116
G1 X169.286 Y125.040 E0.02116
G1 X168.799 Y124.951 E0.02116
G1 X168.305 Y124.921 E0.02116
G1 X167.811 Y124.951 E0.02116
G1 X167.324 Y125.040 E0.02116
G1 X166.852 Y125.187 E0.02116
G1 X166.400 Y125.391 E0.02116
G1 X165.977 Y125.647 E0.02116
G1 X165.587 Y125.952 E0.02116
G1 X165.237 Y126.302 E0.02116
G1 X164.932 Y126.692 E0.02116
G1 X164.676 Y127.115 E0.02116
G1 X164.497 Y127.512 E0.01860
G1 X164.888 Y127.688 F12000.000
G1 F600.000
G1 X164.874 Y127.719 E0.00146
G1 X164.742 Y128.142 E0.01895
G1 X164.662 Y128.578 E0.01895
G1 X164.636 Y129.020 E0.01895
G1 X164.662 Y129.462 E0.01895
G1 X164.742 Y129.898 E0.01895
G1 X164.874 Y130.321 E0.01895
G1 X165.056 Y130.726 E0.01895
G1 X165.285 Y131.105 E0.01895
G1 X165.559 Y131.454 E0.01895
G1 X165.872 Y131.767 E0.01895
G1 X166.221 Y132.040 E0.01895
G1 X166.600 Y132.269 E0.01895
G1 X167.004 Y132.451 E0.01895
G1 X167.427 Y132.583 E0.01895
G1 X167.863 Y132.663 E0.01895
G1 X168.305 Y132.690 E0.01895
G1 X168.748 Y132.663 E0.01895
G1 X169.184 Y132.583 E0.01895
G1 X169.607 Y132.451 E0.01895
G1 X170.011 Y132.269 E0.01895
G1 X170.390 Y132.040 E0.01895
G1 X170.739 Y131.767 E0.01895
G1 X171.052 Y131.454 E0.01895
G1 X171.325 Y131.105 E0.01895
G1 X171.555 Y130.726 E0.01895
G1 X171.737 Y130.321 E0.01895
G1 X171.868 Y129.898 E0.01895
G1 X171.948 Y129.462 E0.01895
G1 X171.975 Y129.020 E0.01895
G1 X171.948 Y128.578 E0.01895
G1 X171.868 Y128.142 E0.01895
G1 X171.737 Y127.719 E0.01895
G1 X171.555 Y127.315 E0.01895
G1 X171.325 Y126.935 E0.01895
G1 X171.052 Y126.587 E0.01895
G1 X170.739 Y126.273 E0.01895
G1 X170.390 Y126.000 E0.01895
G1 X170.011 Y125.771 E0.01895
G1 X169.607 Y125.589 E0.01895
G1 X169.184 Y125.457 E0.01895
G1 X168.748 Y125.377 E0.01895
G1 X168.305 Y125.350 E0.01895
G1 X167.863 Y125.377 E0.01895
G1 X167.427 Y125.457 E0.01895
G1 X167.004 Y125.589 E0.01895
G1 X166.600 Y125.771 E0.01895
G1 X166.221 Y126.000 E0.01895
G1 X165.872 Y126.273 E0.01895
G1 X165.559 Y126.587 E0.01895
G1 X165.285 Y126.935 E0.01895
G1 X165.056 Y127.315 E0.01895
G1 X164.913 Y127.633 E0.01492
G1 X165.303 Y127.809 F12000.000
;TYPE:External perimeter
G1 F600.000
G1 X165.275 Y127.871 E0.00291
G1 X165.159 Y128.245 E0.01673
G1 X165.089 Y128.630 E0.01673
G1 X165.065 Y129.020 E0.01673
G1 X165.089 Y129.411 E0.01673
G1 X165.159 Y129.796 E0.01673
G1 X165.275 Y130.169 E0.01673
G1 X165.436 Y130.526 E0.01673
G1 X165.638 Y130.861 E0.01673
G1 X165.880 Y131.169 E0.01673
G1 X166.157 Y131.446 E0.01673
G1 X166.465 Y131.687 E0.01673
G1 X166.799 Y131.889 E0.01673
G1 X167.156 Y132.050 E0.01673
G1 X167.530 Y132.166 E0.01673
G1 X167.915 Y132.237 E0.01673
G1 X168.305 Y132.261 E0.01673
G1 X168.696 Y132.237 E0.01673
G1 X169.081 Y132.166 E0.01673
G1 X169.454 Y132.050 E0.01673
G1 X169.811 Y131.889 E0.01673
G1 X170.146 Y131.687 E0.01673
G1 X170.454 Y131.446 E0.01673
G1 X170.731 Y131.169 E0.01673
G1 X170.972 Y130.861 E0.01673
G1 X171.175 Y130.526 E0.01673
G1 X171.335 Y130.169 E0.01673
G1 X171.452 Y129.796 E0.01673
G1 X171.522 Y129.411 E0.01673
G1 X171.546 Y129.020 E0.01673
G1 X171.522 Y128.630 E0.01673
G1 X171.452 Y128.245 E0.01673
G1 X171.335 Y127.871 E0.01673
G1 X171.175 Y127.514 E0.01673
G1 X170.972 Y127.179 E0.01673
G1 X170.731 Y126.871 E0.01673
G1 X170.454 Y126.595 E0.01673
G1 X170.146 Y126.353 E0.01673
G1 X169.811 Y126.151 E0.01673
G1 X169.454 Y125.990 E0.01673
G1 X169.081 Y125.874 E0.01673
G1 X168.696 Y125.803 E0.01673
G1 X168.305 Y125.780 E0.01673
G1 X167.915 Y125.803 E0.01673
G1 X167.530 Y125.874 E0.01673
G1 X167.156 Y125.990 E0.01673
G1 X166.799 Y126.151 E0.01673
G1 X166.465 Y126.353 E0.01673
G1 X166.157 Y126.595 E0.01673
G1 X165.880 Y126.871 E0.01673
G1 X165.638 Y127.179 E0.01673
G1 X165.436 Y127.514 E0.01673
G1 X165.328 Y127.754 E0.01125
G1 X165.236 Y127.816 F12000.000
G1 E-1.50000 F3000.000
G1 X200.237 Y161.302 F12000.000
G1 E1.50000 F1800.000
;TYPE:Internal perimeter
G1 F600.000
G1 X199.932 Y161.692 E0.02116
G1 X199.676 Y162.115 E0.02116
G1 X199.473 Y162.567 E0.02116
G1 X199.325 Y163.039 E0.02116
G1 X199.236 Y163.526 E0.02116
G1 X199.206 Y164.020 E0.02116
G1 X199.236 Y164.514 E0.02116
G1 X199.325 Y165.001 E0.02116
G1 X199.473 Y165.474 E0.02116
G1 X199.676 Y165.925 E0.02116
G1 X199.932 Y166.349 E0.02116
G1 X200.237 Y166.738 E0.02116
G1 X200.587 Y167.088 E0.02116
G1 X200.977 Y167.394 E0.02116
G1 X201.400 Y167.650 E0.02116
G1 X201.852 Y167.853 E0.02116
G1 X202.324 Y168.000 E0.02116
G1 X202.811 Y168.089 E0.02116
G1 X203.305 Y168.119 E0.02116
G1 X203.799 Y168.089 E0.02116
G1 X204.286 Y168.000 E0.02116
G1 X204.759 Y167.853 E0.02116
G1 X205.210 Y167.650 E0.02116
G1 X205.634 Y167.394 E0.02116
G1 X206.023 Y167.088 E0.02116
G1 X206.373 Y166.738 E0.02116
G1 X206.679 Y166.349 E0.02116
G1 X206.935 Y165.925 E0.02116
G1 X207.138 Y165.474 E0.02116
G1 X207.285 Y165.001 E0.02116
G1 X207.374 Y164.514 E0.02116
G1 X207.404 Y164.020 E0.02116
G1 X207.374 Y163.526 E0.02116
G1 X207.285 Y163.039 E0.02116
G1 X207.138 Y162.567 E0.02116
G1 X206.935 Y162.115 E0.02116
G1 X206.679 Y161.692 E0.02116
G1 X206.373 Y161.302 E0.02116
G1 X206.023 Y160.952 E0.02116
G1 X205.634 Y160.647 E0.02116
G1 X205.210 Y160.391 E0.02116
G1 X204.759 Y160.187 E0.02116
G1 X204.286 Y160.040 E0.02116
G1 X203.799 Y159.951 E0.02116
G1 X203.305 Y159.921 E0.02116
G1 X202.811 Y159.951 E0.02116
G1 X202.324 Y160.040 E0.02116
G1 X201.852 Y160.187 E0.02116
G1 X201.400 Y160.391 E0.02116
G1 X200.977 Y160.647 E0.02116
G1 X200.587 Y160.952 E0.02116
G1 X200.280 Y161.260 E0.01860
G1 X200.583 Y161.563 F12000.000
G1 F600.000
G1 X200.559 Y161.587 E0.00146
G1 X200.285 Y161.935 E0.01895
G1 X200.056 Y162.315 E0.01895
G1 X199.874 Y162.719 E0.01895
G1 X199.742 Y163.142 E0.01895
G1 X199.662 Y163.578 E0.01895
G1 X199.636 Y164.020 E0.01895
G1 X199.662 Y164.462 E0.01895
G1 X199.742 Y164.898 E0.01895
G1 X199.874 Y165.321 E0.01895
G1 X200.056 Y165.726 E0.01895
G1 X200.285 Y166.105 E0.01895
G1 X200.559 Y166.454 E0.01895
G1 X200.872 Y166.767 E0.01895
G1 X201.221 Y167.040 E0.01895
G1 X201.600 Y167.269 E0.01895
G1 X202.004 Y167.451 E0.01895
G1 X202.427 Y167.583 E0.01895
G1 X202.863 Y167.663 E0.01895
G1 X203.305 Y167.690 E0.01895
G1 X203.748 Y167.663 E0.01895
G1 X204.184 Y167.583 E0.01895
G1 X204.607 Y167.451 E0.01895
G1 X205.011 Y167.269 E0.01895
G1 X205.390 Y167.040 E0.01895
G1 X205.739 Y166.767 E0.01895
G1 X206.052 Y166.454 E0.01895
G1 X206.325 Y166.105 E0.01895
G1 X206.555 Y165.726 E0.01895
G1 X206.737 Y165.321 E0.01895
G1 X206.868 Y164.898 E0.01895
G1 X206.948 Y164.462 E0.01895
G1 X206.975 Y164.020 E0.01895
G1 X206.948 Y163.578 E0.01895
G1 X206.868 Y163.142 E0.01895
G1 X206.737 Y162.719 E0.01895
G1 X206.555 Y162.315 E0.01895
G1 X206.325 Y161.935 E0.01895
G1 X206.052 Y161.587 E0.01895
G1 X205.739 Y161.273 E0.01895
G1 X205.390 Y161.000 E0.01895
G1 X205.011 Y160.771 E0.01895
G1 X204.607 Y160.589 E0.01895
G1 X204.184 Y160.457 E0.01895
G1 X203.748 Y160.377 E0.01895
G1 X203.305 Y160.350 E0.01895
G1 X202.863 Y160.377 E0.01895
G1 X202.427 Y160.457 E0.01895
G1 X202.004 Y160.589 E0.01895
G1 X201.600 Y160.771 E0.01895
G1 X201.221 Y161.000 E0.01895
G1 X200.872 Y161.273 E0.01895
G1 X200.625 Y161.520 E0.01492
G1 X200.928 Y161.823 F12000.000
;TYPE:External perimeter
G1 F600.000
G1 X200.880 Y161.871 E0.00291
G1 X200.638 Y162.179 E0.01673
G1 X200.436 Y162.514 E0.01673
G1 X200.275 Y162.871 E0.01673
G1 X200.159 Y163.245 E0.01673
G1 X200.089 Y163.630 E0.01673
G1 X200.065 Y164.020 E0.01673
G1 X200.089 Y164.411 E0.01673
G1 X200.159 Y164.796 E0.01673
G1 X200.275 Y165.169 E0.01673
G1 X200.436 Y165.526 E0.01673
G1 X200.638 Y165.861 E0.01673
G1 X200.880 Y166.169 E0.01673
G1 X201.157 Y166.446 E0.01673
G1 X201.465 Y166.687 E0.01673
G1 X201.799 Y166.889 E0.01673
G1 X202.156 Y167.050 E0.01673
G1 X202.530 Y167.166 E0.01673
G1 X202.915 Y167.237 E0.01673
G1 X203.305 Y167.261 E0.01673
G1 X203.696 Y167.237 E0.01673
G1 X204.081 Y167.166 E0.01673
G1 X204.454 Y167.050 E0.01673
G1 X204.811 Y166.889 E0.01673
G1 X205.146 Y166.687 E0.01673
G1 X205.454 Y166.446 E0.01673
G1 X205.731 Y166.169 E0.01673
G1 X205.972 Y165.861 E0.01673
G1 X206.175 Y165.526 E0.01673
G1 X206.335 Y165.169 E0.01673
G1 X206.452 Y164.796 E0.01673
G1 X206.522 Y164.411 E0.01673
G1 X206.546 Y164.020 E0.01673
G1 X206.522 Y163.630 E0.01673
G1 X206.452 Y163.245 E0.01673
G1 X206.335 Y162.871 E0.01673
G1 X206.175 Y162.514 E0.01673
G1 X205.972 Y162.179 E0.01673
G1 X205.731 Y161.871 E0.01673
G1 X205.454 Y161.595 E0.01673
G1 X205.146 Y161.353 E0.01673
G1 X204.811 Y161.151 E0.01673
G1 X204.454 Y160.990 E0.01673
G1 X204.081 Y160.874 E0.01673
G1 X203.696 Y160.803 E0.01673
G1 X203.305 Y160.780 E0.01673
G1 X202.915 Y160.803 E0.01673
G1 X202.530 Y160.874 E0.01673
G1 X202.156 Y160.990 E0.01673
G1 X201.799 Y161.151 E0.01673
G1 X201.465 Y161.353 E0.01673
G1 X201.157 Y161.595 E0.01673
G1 X200.970 Y161.781 E0.01125
G1 X200.862 Y161.805 F12000.000
G1 E-1.50000 F3000.000
G1 X137.404 Y164.020 F12000.000
G1 E1.50000 F1800.000
;TYPE:Internal perimeter
G1 F600.000
G1 X137.374 Y163.526 E0.02116
G1 X137.285 Y163.039 E0.02116
G1 X137.138 Y162.567 E0.02116
G1 X136.935 Y162.115 E0.02116
G1 X136.679 Y161.692 E0.02116
G1 X136.373 Y161.302 E0.02116
G1 X136.023 Y160.952 E0.02116
G1 X135.634 Y160.647 E0.02116
G1 X135.210 Y160.391 E0.02116
G1 X134.759 Y160.187 E0.02116
G1 X134.286 Y160.040 E0.02116
G1 X133.799 Y159.951 E0.02116
G1 X133.305 Y159.921 E0.02116
G1 X132.811 Y159.951 E0.02116
G1 X132.324 Y160.040 E0.02116
G1 X131.852 Y160.187 E0.02116
G1 X131.400 Y160.391 E0.02116
G1 X130.977 Y160.647 E0.02116
G1 X130.587 Y160.952 E0.02116
G1 X130.237 Y161.302 E0.02116
G1 X129.932 Y161.692 E0.02116
G1 X129.676 Y162.115 E0.02116
G1 X129.473 Y162.567 E0.02116
G1 X129.325 Y163.039 E0.02116
G1 X129.236 Y163.526 E0.02116
G1 X129.206 Y164.020 E0.02116
G1 X129.236 Y164.514 E0.02116
G1 X129.325 Y165.001 E0.02116
G1 X129.473 Y165.474 E0.02116
G1 X129.676 Y165.925 E0.02116
G1 X129.932 Y166.349 E0.02116
G1 X130.237 Y166.738 E0.02116
G1 X130.587 Y167.088 E0.02116
G1 X130.977 Y167.394 E0.02116
G1 X131.400 Y167.650 E0.02116
G1 X131.852 Y167.853 E0.02116
G1 X132.324 Y168.000 E0.02116
G1 X132.811 Y168.089 E0.02116
G1 X133.305 Y168.119 E0.02116
G1 X133.799 Y168.089 E0.02116
G1 X134.286 Y168.000 E0.02116
G1 X134.759 Y167.853 E0.02116
G1 X135.210 Y167.650 E0.02116
G1 X135.634 Y167.394 E0.02116
G1 X136.023 Y167.088 E0.02116
G1 X136.373 Y166.738 E0.02116
G1 X136.679 Y166.349 E0.02116
G1 X136.935 Y165.925 E0.02116
G1 X137.138 Y165.474 E0.02116
G1 X137.285 Y165.001 E0.02116
G1 X137.374 Y164.514 E0.02116
G1 X137.401 Y164.080 E0.01860
G1 X136.973 Y164.054 F12000.000
G1 F600.000
G1 X136.975 Y164.020 E0.00146
G1 X136.948 Y163.578 E0.01895
G1 X136.868 Y163.142 E0.01895
G1 X136.737 Y162.719 E0.01895
G1 X136.555 Y162.315 E0.01895
G1 X136.325 Y161.935 E0.01895
G1 X136.052 Y161.587 E0.01895
G1 X135.739 Y161.273 E0.01895
G1 X135.390 Y161.000 E0.01895
G1 X135.011 Y160.771 E0.01895
G1 X134.607 Y160.589 E0.01895
G1 X134.184 Y160.457 E0.01895
