; generated by SuperSlicer 2.3.56 on 2021-12-17 at 02:18:05 UTC


;
;

;
;
; 

; external perimeters extrusion width = 0.40mm
; perimeters extrusion width = 0.40mm
; infill extrusion width = 0.40mm
; solid infill extrusion width = 0.40mm
; top infill extrusion width = 0.40mm
; support material extrusion width = 0.40mm
; first layer extrusion width = 0.48mm


;TYPE:Custom
START_PRINT T_BED=110 T_EXTRUDER=235
M107
G21 ; set units to millimeters
G90 ; use absolute coordinates
M83 ; use relative distances for extrusion
M104 S235 ; set temperature
M109 S235 ; set temperature and wait for it to be reached
M190 S110 ; set bed temperature and wait for it to be reached
M107
;LAYER_CHANGE
;Z:0.24
;HEIGHT:0.24
G1 Z0.240000 F12000.000
G1 E-0.80000 F3000.000
G1 X133.188 Y114.244 F12000.000
G1 E0.80000 F1500.000
;TYPE:Skirt
;WIDTH:0.48
G1 F600.000
G1 X133.674 Y113.708 E0.03092
G1 X134.138 Y113.338 E0.02535
G1 X135.115 Y112.854 E0.04664
G1 X136.285 Y112.649 E0.05077
G1 X188.655 Y111.539 E2.23961
G1 X210.495 Y111.887 E0.93391
G1 X211.495 Y112.027 E0.04317
G1 X212.509 Y112.435 E0.04675
G1 X213.174 Y112.891 E0.03446
G1 X213.645 Y113.345 E0.02796
G1 X224.693 Y126.201 E0.72474
G1 X226.572 Y129.007 E0.14439
G1 X228.078 Y131.899 E0.13941
G1 X229.361 Y135.195 E0.15123
G1 X230.252 Y138.643 E0.15226
G1 X231.226 Y145.524 E0.29715
G1 X231.466 Y149.507 E0.17059
G1 X231.397 Y153.428 E0.16767
G1 X230.986 Y159.937 E0.27885
G1 X230.017 Y166.571 E0.28667
G1 X228.540 Y172.947 E0.27980
G1 X226.937 Y179.185 E0.27537
G1 X224.770 Y185.506 E0.28574
G1 X222.203 Y191.428 E0.27596
G1 X221.287 Y193.189 E0.08486
G1 X220.242 Y194.760 E0.08065
G1 X219.057 Y196.191 E0.07945
G1 X217.523 Y197.690 E0.09173
G1 X217.051 Y198.063 E0.02570
G1 X215.970 Y198.603 E0.05164
G1 X215.204 Y198.790 E0.03372
G1 X214.630 Y198.841 E0.02467
G1 X184.352 Y199.459 E1.29480
G1 X183.424 Y199.383 E0.03981
G1 X148.392 Y191.951 E1.53115
G1 X101.121 Y176.285 E2.12918
G1 X100.170 Y175.824 E0.04520
G1 X99.546 Y175.391 E0.03245
G1 X98.981 Y174.873 E0.03279
G1 X98.330 Y174.057 E0.04462
G1 X97.868 Y173.203 E0.04151
G1 X97.626 Y172.234 E0.04270
G1 X97.533 Y171.310 E0.03971
G1 X97.609 Y169.974 E0.05724
G1 X97.790 Y169.132 E0.03680
G1 X98.260 Y167.667 E0.06578
G1 X98.837 Y166.301 E0.06341
G1 X99.550 Y164.955 E0.06513
G1 X125.499 Y124.731 E2.04660
G1 X133.153 Y114.293 E0.55342
G1 X133.498 Y114.546 F12000.000
G1 F600.000
G1 X133.530 Y114.503 E0.00226
G1 X134.385 Y113.688 E0.05054
G1 X135.250 Y113.261 E0.04123
G1 X136.300 Y113.077 E0.04559
G1 X188.654 Y111.967 E2.23892
G1 X210.476 Y112.315 E0.93311
G1 X211.378 Y112.439 E0.03893
G1 X212.294 Y112.805 E0.04217
G1 X212.903 Y113.222 E0.03155
G1 X213.325 Y113.631 E0.02513
G1 X224.348 Y126.454 E0.72299
G1 X226.204 Y129.226 E0.14260
G1 X227.698 Y132.096 E0.13836
G1 X228.953 Y135.328 E0.14824
G1 X229.828 Y138.706 E0.14919
G1 X230.800 Y145.574 E0.29657
G1 X231.038 Y149.516 E0.16887
G1 X230.969 Y153.410 E0.16652
G1 X230.559 Y159.901 E0.27808
G1 X229.596 Y166.488 E0.28460
G1 X228.124 Y172.844 E0.27894
G1 X226.524 Y179.070 E0.27488
G1 X224.376 Y185.338 E0.28326
G1 X221.813 Y191.251 E0.27556
G1 X220.923 Y192.961 E0.08243
G1 X219.898 Y194.504 E0.07919
G1 X218.735 Y195.908 E0.07793
G1 X216.802 Y197.714 E0.11311
G1 X215.837 Y198.196 E0.04614
G1 X214.609 Y198.413 E0.05333
G1 X184.344 Y199.030 E1.29425
G1 X183.510 Y198.963 E0.03579
G1 X148.513 Y191.540 E1.52957
G1 X101.268 Y175.882 E2.12804
G1 X100.380 Y175.450 E0.04220
G1 X99.808 Y175.052 E0.02983
G1 X99.296 Y174.582 E0.02967
G1 X98.678 Y173.808 E0.04235
G1 X98.264 Y173.039 E0.03734
G1 X98.045 Y172.144 E0.03940
G1 X97.962 Y171.301 E0.03621
G1 X98.037 Y170.007 E0.05542
G1 X98.204 Y169.240 E0.03355
G1 X98.662 Y167.817 E0.06391
G1 X99.225 Y166.483 E0.06193
G1 X99.924 Y165.164 E0.06381
G1 X125.855 Y124.970 E2.04514
G1 X133.463 Y114.594 E0.55008
G1 E-0.80000 F3000.000
G1 X171.940 Y177.508 F12000.000
G1 E0.80000 F1500.000
;TYPE:Internal perimeter
G1 F600.000
G1 X171.996 Y177.859 E0.01517
G1 X170.540 Y178.303 E0.06509
G1 X167.177 Y178.986 E0.14672
G1 X163.708 Y179.349 E0.14914
G1 X163.454 Y179.394 E0.01102
G1 X163.193 Y179.474 E0.01168
G1 X162.943 Y179.584 E0.01168
G1 X162.708 Y179.723 E0.01168
G1 X162.491 Y179.889 E0.01168
G1 X162.296 Y180.080 E0.01168
G1 X162.124 Y180.293 E0.01168
G1 X161.979 Y180.524 E0.01168
G1 X161.862 Y180.771 E0.01168
G1 X161.776 Y181.030 E0.01168
G1 X161.721 Y181.298 E0.01168
G1 X161.698 Y181.570 E0.01168
G1 X161.707 Y181.843 E0.01168
G1 X161.749 Y182.113 E0.01168
G1 X161.823 Y182.376 E0.01168
G1 X161.928 Y182.628 E0.01168
G1 X162.061 Y182.867 E0.01168
G1 X162.222 Y183.087 E0.01168
G1 X162.409 Y183.287 E0.01168
G1 X162.617 Y183.464 E0.01168
G1 X162.845 Y183.614 E0.01168
G1 X163.090 Y183.736 E0.01168
G1 X163.347 Y183.828 E0.01168
G1 X163.613 Y183.890 E0.01168
G1 X163.884 Y183.919 E0.01168
G1 X164.158 Y183.915 E0.01171
G1 X167.892 Y183.413 E0.16107
G1 X171.564 Y182.649 E0.16035
G1 X175.156 Y181.628 E0.15968
G1 X175.386 Y181.557 E0.01027
G1 X175.635 Y181.446 E0.01165
G1 X175.868 Y181.305 E0.01165
G1 X176.083 Y181.138 E0.01165
G1 X176.276 Y180.946 E0.01165
G1 X176.445 Y180.732 E0.01165
G1 X176.587 Y180.500 E0.01164
G1 X176.674 Y180.310 E0.00896
G1 X176.701 Y180.251 E0.00275
G1 X176.764 Y180.052 E0.00890
G1 X176.783 Y179.991 E0.00275
G1 X176.823 Y179.787 E0.00890
G1 X176.834 Y179.723 E0.00275
G1 X176.849 Y179.515 E0.00891
G1 X176.852 Y179.451 E0.00275
G1 X176.842 Y179.243 E0.00890
G1 X176.838 Y179.179 E0.00275
G1 X176.802 Y178.974 E0.00890
G1 X176.791 Y178.911 E0.00275
G1 X176.731 Y178.711 E0.00890
G1 X176.712 Y178.650 E0.00275
G1 X176.629 Y178.459 E0.00891
G1 X176.602 Y178.400 E0.00275
G1 X176.497 Y178.221 E0.00891
G1 X176.463 Y178.166 E0.00275
G1 X176.337 Y178.000 E0.00891
G1 X176.297 Y177.949 E0.00275
G1 X176.152 Y177.800 E0.00890
G1 X176.107 Y177.755 E0.00275
G1 X175.944 Y177.624 E0.00890
G1 X175.894 Y177.584 E0.00275
G1 X175.717 Y177.474 E0.00890
G1 X175.662 Y177.441 E0.00275
G1 X175.161 Y177.206 E0.02368
G1 X175.476 Y176.977 E0.01664
G1 X175.674 Y176.793 E0.01157
G1 X175.849 Y176.586 E0.01157
G1 X175.997 Y176.360 E0.01157
G1 X176.118 Y176.118 E0.01157
G1 X176.208 Y175.863 E0.01157
G1 X176.267 Y175.598 E0.01157
G1 X176.293 Y175.329 E0.01157
G1 X176.287 Y175.059 E0.01157
G1 X176.249 Y174.791 E0.01157
G1 X176.178 Y174.530 E0.01157
G1 X176.077 Y174.279 E0.01157
G1 X175.946 Y174.042 E0.01157
G1 X175.788 Y173.822 E0.01157
G1 X175.604 Y173.624 E0.01157
G1 X175.398 Y173.449 E0.01157
G1 X175.172 Y173.300 E0.01157
G1 X174.930 Y173.179 E0.01157
G1 X174.675 Y173.088 E0.01157
G1 X174.411 Y173.029 E0.01157
G1 X174.140 Y173.001 E0.01163
G1 X170.695 Y173.083 E0.14734
G1 X167.336 Y172.817 E0.14408
G1 X163.953 Y172.193 E0.14710
G1 X163.690 Y172.173 E0.01124
G1 X163.424 Y172.185 E0.01139
G1 X163.161 Y172.228 E0.01139
G1 X162.905 Y172.302 E0.01139
G1 X162.660 Y172.406 E0.01139
G1 X162.428 Y172.537 E0.01139
G1 X162.214 Y172.695 E0.01139
G1 X162.020 Y172.878 E0.01139
G1 X161.849 Y173.082 E0.01139
G1 X161.703 Y173.305 E0.01139
G1 X161.584 Y173.543 E0.01139
G1 X161.494 Y173.794 E0.01139
G1 X161.435 Y174.054 E0.01139
G1 X161.406 Y174.319 E0.01139
G1 X161.410 Y174.585 E0.01139
G1 X161.444 Y174.849 E0.01139
G1 X161.510 Y175.107 E0.01139
G1 X161.605 Y175.356 E0.01139
G1 X161.729 Y175.592 E0.01139
G1 X161.881 Y175.811 E0.01139
G1 X162.057 Y176.011 E0.01139
G1 X162.255 Y176.189 E0.01139
G1 X162.473 Y176.342 E0.01139
G1 X162.707 Y176.468 E0.01139
G1 X162.981 Y176.576 E0.01258
G1 X166.782 Y177.248 E0.16501
G1 X170.596 Y177.539 E0.16355
G1 X171.880 Y177.510 E0.05492
G1 X171.870 Y177.081 F12000.000
;TYPE:External perimeter
G1 F600.000
G1 X174.407 Y177.024 E0.10847
G1 X174.632 Y176.963 E0.00999
G1 X174.835 Y176.880 E0.00936
G1 X175.026 Y176.774 E0.00936
G1 X175.203 Y176.645 E0.00936
G1 X175.364 Y176.496 E0.00936
G1 X175.505 Y176.329 E0.00936
G1 X175.625 Y176.146 E0.00936
G1 X175.722 Y175.950 E0.00936
G1 X175.795 Y175.744 E0.00936
G1 X175.843 Y175.531 E0.00936
G1 X175.864 Y175.313 E0.00936
G1 X175.859 Y175.094 E0.00936
G1 X175.828 Y174.877 E0.00936
G1 X175.771 Y174.666 E0.00936
G1 X175.689 Y174.463 E0.00936
G1 X175.583 Y174.272 E0.00936
G1 X175.455 Y174.094 E0.00936
G1 X175.307 Y173.934 E0.00936
G1 X175.140 Y173.792 E0.00936
G1 X174.957 Y173.671 E0.00936
G1 X174.762 Y173.574 E0.00936
G1 X174.555 Y173.500 E0.00936
G1 X174.342 Y173.452 E0.00936
G1 X174.124 Y173.430 E0.00938
G1 X170.683 Y173.512 E0.14714
G1 X167.280 Y173.242 E0.14597
G1 X163.898 Y172.618 E0.14705
G1 X163.684 Y172.603 E0.00917
G1 X163.468 Y172.612 E0.00922
G1 X163.256 Y172.647 E0.00922
G1 X163.048 Y172.707 E0.00922
G1 X162.850 Y172.790 E0.00922
G1 X162.662 Y172.897 E0.00922
G1 X162.489 Y173.025 E0.00922
G1 X162.332 Y173.173 E0.00922
G1 X162.193 Y173.338 E0.00922
G1 X162.075 Y173.518 E0.00922
G1 X161.979 Y173.711 E0.00922
G1 X161.906 Y173.914 E0.00922
G1 X161.858 Y174.125 E0.00922
G1 X161.835 Y174.339 E0.00922
G1 X161.838 Y174.555 E0.00922
G1 X161.866 Y174.768 E0.00922
G1 X161.919 Y174.978 E0.00922
G1 X161.996 Y175.179 E0.00922
G1 X162.097 Y175.370 E0.00922
G1 X162.219 Y175.547 E0.00922
G1 X162.361 Y175.709 E0.00922
G1 X162.522 Y175.853 E0.00922
G1 X162.698 Y175.977 E0.00922
G1 X162.888 Y176.079 E0.00922
G1 X163.098 Y176.162 E0.00965
G1 X166.835 Y176.822 E0.16226
G1 X170.607 Y177.110 E0.16174
G1 X171.810 Y177.083 E0.05145
G1 X172.078 Y177.423 F12000.000
G1 X172.168 Y178.254
G1 F600.000
G1 X170.646 Y178.719 E0.06806
G1 X167.242 Y179.410 E0.14848
G1 X163.768 Y179.773 E0.14935
G1 X163.555 Y179.812 E0.00926
G1 X163.343 Y179.876 E0.00950
G1 X163.139 Y179.966 E0.00950
G1 X162.948 Y180.079 E0.00950
G1 X162.772 Y180.214 E0.00950
G1 X162.613 Y180.369 E0.00950
G1 X162.473 Y180.542 E0.00950
G1 X162.355 Y180.730 E0.00950
G1 X162.261 Y180.931 E0.00950
G1 X162.190 Y181.141 E0.00950
G1 X162.145 Y181.359 E0.00950
G1 X162.127 Y181.580 E0.00950
G1 X162.135 Y181.802 E0.00950
G1 X162.169 Y182.022 E0.00950
G1 X162.229 Y182.236 E0.00950
G1 X162.314 Y182.441 E0.00950
G1 X162.422 Y182.635 E0.00950
G1 X162.553 Y182.814 E0.00950
G1 X162.705 Y182.976 E0.00950
G1 X162.874 Y183.120 E0.00950
G1 X163.060 Y183.242 E0.00950
G1 X163.258 Y183.341 E0.00950
G1 X163.467 Y183.417 E0.00950
G1 X163.684 Y183.466 E0.00950
G1 X163.905 Y183.490 E0.00950
G1 X164.127 Y183.487 E0.00951
G1 X167.820 Y182.990 E0.15930
G1 X171.461 Y182.232 E0.15904
G1 X175.034 Y181.218 E0.15880
G1 X175.234 Y181.156 E0.00895
G1 X175.436 Y181.065 E0.00944
G1 X175.625 Y180.952 E0.00944
G1 X175.799 Y180.816 E0.00944
G1 X175.956 Y180.660 E0.00944
G1 X176.093 Y180.487 E0.00944
G1 X176.208 Y180.299 E0.00944
G1 X176.284 Y180.132 E0.00782
G1 X176.300 Y180.097 E0.00165
G1 X176.356 Y179.923 E0.00780
G1 X176.367 Y179.887 E0.00165
G1 X176.401 Y179.708 E0.00780
G1 X176.408 Y179.670 E0.00165
G1 X176.421 Y179.488 E0.00780
G1 X176.423 Y179.449 E0.00165
G1 X176.414 Y179.267 E0.00780
G1 X176.412 Y179.229 E0.00165
G1 X176.380 Y179.049 E0.00780
G1 X176.374 Y179.011 E0.00165
G1 X176.321 Y178.836 E0.00780
G1 X176.310 Y178.799 E0.00165
G1 X176.237 Y178.632 E0.00780
G1 X176.221 Y178.597 E0.00165
G1 X176.128 Y178.440 E0.00780
G1 X176.109 Y178.407 E0.00165
G1 X175.998 Y178.262 E0.00780
G1 X175.974 Y178.232 E0.00165
G1 X175.847 Y178.101 E0.00780
G1 X175.820 Y178.074 E0.00165
G1 X175.678 Y177.959 E0.00780
G1 X175.647 Y177.935 E0.00165
G1 X175.493 Y177.839 E0.00780
G1 X175.460 Y177.819 E0.00165
G1 X175.295 Y177.741 E0.00780
G1 X175.259 Y177.726 E0.00165
G1 X175.086 Y177.669 E0.00780
G1 X175.049 Y177.657 E0.00165
G1 X174.871 Y177.621 E0.00780
G1 X174.833 Y177.614 E0.00165
G1 X174.651 Y177.600 E0.00780
G1 X174.612 Y177.598 E0.00165
G1 X174.430 Y177.605 E0.00780
G1 X174.392 Y177.608 E0.00165
G1 X174.212 Y177.637 E0.00780
G1 X174.174 Y177.644 E0.00165
G1 X173.999 Y177.695 E0.00777
G1 X172.226 Y178.237 E0.07929
G1 X171.876 Y177.981 F12000.000
G1 E-0.80000 F3000.000
G1 X182.018 Y176.840 F12000.000
G1 E0.80000 F1500.000
;TYPE:Internal perimeter
G1 F600.000
G1 X182.110 Y177.343 E0.02189
G1 X182.262 Y177.832 E0.02189
G1 X182.472 Y178.299 E0.02190
G1 X182.737 Y178.737 E0.02189
G1 X183.053 Y179.141 E0.02190
G1 X183.415 Y179.503 E0.02190
G1 X183.818 Y179.818 E0.02189
G1 X184.257 Y180.083 E0.02189
G1 X184.724 Y180.294 E0.02190
G1 X185.213 Y180.446 E0.02190
G1 X185.716 Y180.538 E0.02189
G1 X186.227 Y180.569 E0.02189
G1 X186.739 Y180.538 E0.02190
G1 X187.242 Y180.446 E0.02189
G1 X187.731 Y180.294 E0.02190
G1 X188.198 Y180.083 E0.02190
G1 X188.636 Y179.818 E0.02189
G1 X189.040 Y179.503 E0.02189
G1 X189.402 Y179.141 E0.02190
G1 X189.717 Y178.737 E0.02190
G1 X189.982 Y178.299 E0.02189
G1 X190.193 Y177.832 E0.02190
G1 X190.345 Y177.343 E0.02189
G1 X190.437 Y176.840 E0.02190
G1 X190.468 Y176.328 E0.02189
G1 X190.437 Y175.817 E0.02190
G1 X190.345 Y175.314 E0.02190
G1 X190.193 Y174.825 E0.02189
G1 X189.982 Y174.358 E0.02189
G1 X189.717 Y173.919 E0.02190
G1 X189.402 Y173.516 E0.02189
G1 X189.040 Y173.154 E0.02190
G1 X188.636 Y172.838 E0.02190
G1 X188.198 Y172.573 E0.02189
G1 X187.731 Y172.363 E0.02189
G1 X187.242 Y172.211 E0.02190
G1 X186.739 Y172.119 E0.02189
G1 X186.227 Y172.088 E0.02190
G1 X185.716 Y172.119 E0.02190
G1 X185.213 Y172.211 E0.02189
G1 X184.724 Y172.363 E0.02190
G1 X184.257 Y172.573 E0.02190
G1 X183.818 Y172.838 E0.02189
G1 X183.415 Y173.154 E0.02190
G1 X183.053 Y173.516 E0.02190
G1 X182.737 Y173.919 E0.02190
G1 X182.472 Y174.358 E0.02190
G1 X182.262 Y174.825 E0.02189
G1 X182.110 Y175.314 E0.02189
G1 X182.018 Y175.817 E0.02189
G1 X181.987 Y176.328 E0.02190
G1 X182.014 Y176.780 E0.01933
G1 X182.442 Y176.754 F12000.000
G1 F600.000
G1 X182.444 Y176.788 E0.00146
G1 X182.527 Y177.241 E0.01968
G1 X182.664 Y177.680 E0.01968
G1 X182.853 Y178.100 E0.01968
G1 X183.091 Y178.494 E0.01968
G1 X183.375 Y178.856 E0.01968
G1 X183.700 Y179.181 E0.01968
G1 X184.062 Y179.465 E0.01968
G1 X184.456 Y179.703 E0.01968
G1 X184.876 Y179.892 E0.01968
G1 X185.315 Y180.029 E0.01968
G1 X185.768 Y180.112 E0.01968
G1 X186.227 Y180.140 E0.01968
G1 X186.687 Y180.112 E0.01968
G1 X187.140 Y180.029 E0.01968
G1 X187.579 Y179.892 E0.01968
G1 X187.999 Y179.703 E0.01968
G1 X188.393 Y179.465 E0.01968
G1 X188.755 Y179.181 E0.01968
G1 X189.080 Y178.856 E0.01968
G1 X189.364 Y178.494 E0.01968
G1 X189.602 Y178.100 E0.01968
G1 X189.791 Y177.680 E0.01968
G1 X189.928 Y177.241 E0.01968
G1 X190.011 Y176.788 E0.01968
G1 X190.039 Y176.328 E0.01968
G1 X190.011 Y175.869 E0.01968
G1 X189.928 Y175.416 E0.01968
G1 X189.791 Y174.977 E0.01968
G1 X189.602 Y174.557 E0.01968
G1 X189.364 Y174.163 E0.01968
G1 X189.080 Y173.801 E0.01968
G1 X188.755 Y173.475 E0.01968
G1 X188.393 Y173.192 E0.01968
G1 X187.999 Y172.954 E0.01968
G1 X187.579 Y172.765 E0.01968
G1 X187.140 Y172.628 E0.01968
G1 X186.687 Y172.545 E0.01968
G1 X186.227 Y172.517 E0.01968
G1 X185.768 Y172.545 E0.01968
G1 X185.315 Y172.628 E0.01968
G1 X184.876 Y172.765 E0.01968
G1 X184.456 Y172.954 E0.01968
G1 X184.062 Y173.192 E0.01968
G1 X183.700 Y173.475 E0.01968
G1 X183.375 Y173.801 E0.01968
G1 X183.091 Y174.163 E0.01968
G1 X182.853 Y174.557 E0.01968
G1 X182.664 Y174.977 E0.01968
G1 X182.527 Y175.416 E0.01968
G1 X182.444 Y175.869 E0.01968
G1 X182.416 Y176.328 E0.01968
G1 X182.438 Y176.694 E0.01566
G1 X182.866 Y176.668 F12000.000
;TYPE:External perimeter
G1 F600.000
G1 X182.870 Y176.736 E0.00291
G1 X182.944 Y177.138 E0.01746
G1 X183.065 Y177.528 E0.01746
G1 X183.233 Y177.900 E0.01746
G1 X183.444 Y178.250 E0.01746
G1 X183.696 Y178.571 E0.01746
G1 X183.985 Y178.860 E0.01746
G1 X184.306 Y179.112 E0.01746
G1 X184.656 Y179.323 E0.01746
G1 X185.028 Y179.491 E0.01746
G1 X185.418 Y179.612 E0.01746
G1 X185.820 Y179.686 E0.01746
G1 X186.227 Y179.711 E0.01746
G1 X186.635 Y179.686 E0.01746
G1 X187.037 Y179.612 E0.01746
G1 X187.427 Y179.491 E0.01746
G1 X187.799 Y179.323 E0.01746
G1 X188.149 Y179.112 E0.01746
G1 X188.470 Y178.860 E0.01746
G1 X188.759 Y178.571 E0.01746
G1 X189.011 Y178.250 E0.01746
G1 X189.222 Y177.900 E0.01746
G1 X189.390 Y177.528 E0.01746
G1 X189.511 Y177.138 E0.01746
G1 X189.585 Y176.736 E0.01746
G1 X189.610 Y176.328 E0.01746
G1 X189.585 Y175.921 E0.01746
G1 X189.511 Y175.519 E0.01746
G1 X189.390 Y175.129 E0.01746
G1 X189.222 Y174.757 E0.01746
