; generated by SuperSlicer 2.4 on 2022-05-29 at 21:29:46 UTC


;
;

;
;
; 

; external perimeters extrusion width = 0.40mm
; perimeters extrusion width = 0.40mm
; infill extrusion width = 0.72mm
; solid infill extrusion width = 0.56mm
; top infill extrusion width = 0.40mm
; support material extrusion width = 0.40mm
; first layer extrusion width = 0.48mm

; external perimeters extrusion width = 0.40mm
; perimeters extrusion width = 0.40mm
; infill extrusion width = 0.72mm
; solid infill extrusion width = 0.56mm
; top infill extrusion width = 0.40mm
; support material extrusion width = 0.40mm
; first layer extrusion width = 0.48mm

; object:{"name":"RileyPark","id":"RileyPark.stl id:0 copy 0","object_center":[165.000001,165.000005,0.000000],"boundingbox_center":[165.000001,165.000005,8.818001],"boundingbox_size":[109.951996,60.043999,17.636002]}
; plater:{"center":[165.000001,165.000005,0.000000],"boundingbox_center":[165.000001,165.000005,8.818001],"boundingbox_size":[109.951996,60.043999,17.636002]}

M73 P0 R79
M73 C71
;TYPE:Custom
START_PRINT T_BED=60 T_EXTRUDER=200
M107
G21 ; set units to millimeters
G90 ; use absolute coordinates
M83 ; use relative distances for extrusion
; Filament gcode
M109 S200 ; set temperature and wait for it to be reached
M190 S60 ; set bed temperature and wait for it to be reached
M107
;LAYER_CHANGE
;Z:0.24
;HEIGHT:0.24
G1 Z0.24 F9000
G92 E0
M73 C1
G1 E-0.8 F3000
M204 S1000
G1 X108.509 Y132.593 F9000
G1 E0.8 F1800
;TYPE:Skirt
;WIDTH:0.52
G1 X107.51 Y133.618 E0.06556
G1 X106.804 Y134.954 E0.06922
G1 X106.588 Y135.774 E0.03885
G1 X106.497 Y136.589 E0.03758
G1 X106.497 Y179.821 E1.98053
G1 X106.702 Y181.207 E0.06417
G1 X107.097 Y182.168 E0.04761
G1 X107.772 Y183.122 E0.05351
G1 X108.157 Y183.526 E0.02558
G1 X109.025 Y184.212 E0.0507
G1 X109.823 Y184.613 E0.04091
G1 X148.665 Y198.372 E1.88775
G1 X149.9 Y198.585 E0.05742
G1 X180.099 Y198.585 E1.38348
G1 X181.334 Y198.373 E0.05739
G1 X220.084 Y184.653 E1.88321
G1 X221.109 Y184.119 E0.05293
G1 X221.844 Y183.524 E0.04333
G1 X222.736 Y182.452 E0.06387
G1 X223.304 Y181.19 E0.0634
G1 X223.486 Y180.159 E0.04799
G1 X223.502 Y136.589 E1.99601
G1 X223.315 Y135.346 E0.05759
G1 X222.955 Y134.384 E0.04703
G1 X222.45 Y133.569 E0.04393
G1 X222.084 Y133.151 E0.02548
G1 X221.667 Y132.739 E0.02683
G1 X220.614 Y132.011 E0.05866
G1 X219.675 Y131.655 E0.04599
G1 X218.426 Y131.46 E0.05793
G1 X111.637 Y131.451 E4.8922
G1 X110.729 Y131.564 E0.04191
G1 X109.371 Y132.023 E0.06569
G1 X108.509 Y132.593 E0.04734
G1 X108.788 Y132.966 F9000
G1 F1800
G1 X107.871 Y133.913 E0.06039
G1 X107.242 Y135.114 E0.0621
G1 X107.043 Y135.877 E0.03613
G1 X106.964 Y136.589 E0.03284
G1 X106.964 Y179.821 E1.98053
G1 X107.082 Y180.81 E0.04563
G1 X107.499 Y181.932 E0.05482
G1 X108.109 Y182.8 E0.04858
G1 X108.494 Y183.203 E0.02558
G1 X109.284 Y183.824 E0.04598
G1 X109.981 Y184.174 E0.03575
G1 X148.82 Y197.933 E1.88765
G1 X149.9 Y198.118 E0.05018
G1 X180.099 Y198.118 E1.38348
G1 X181.178 Y197.933 E0.05016
G1 X219.929 Y184.214 E1.88321
G1 X220.864 Y183.722 E0.04841
G1 X221.507 Y183.202 E0.03787
G1 X222.334 Y182.215 E0.05903
G1 X222.851 Y181.077 E0.05723
G1 X223.022 Y180.116 E0.04472
G1 X223.035 Y136.589 E1.99406
G1 X222.86 Y135.447 E0.05292
G1 X222.545 Y134.607 E0.0411
G1 X222.085 Y133.859 E0.04025
G1 X221.756 Y133.483 E0.02288
G1 X221.34 Y133.071 E0.02683
G1 X220.419 Y132.434 E0.05127
G1 X219.566 Y132.109 E0.04184
G1 X218.426 Y131.926 E0.05289
G1 X111.637 Y131.918 E4.8922
G1 X110.843 Y132.016 E0.03662
G1 X109.592 Y132.434 E0.06045
G1 X108.788 Y132.966 E0.04415
G1 E-0.8 F3000
; printing object RileyPark.stl id:0 copy 0
; acceleration to travel
M204 S3000
G1 X139.078 Y172.282 F9000
; decel to extrusion
M204 S1000
G1 X149.175 Y185.387
; end travel
G1 E0.8 F1800
;TYPE:Internal perimeter
;WIDTH:0.48
G1 X141.941 Y184.824 E0.30401
G1 X134.295 Y184.005 E0.32222
G1 X126.676 Y182.951 E0.32227
G1 X119.093 Y181.664 E0.32226
G1 X111.623 Y180.163 E0.31928
G1 X111.555 Y180.139 E0.00299
G1 X111.321 Y179.893 E0.01425
G1 X111.294 Y179.749 E0.00613
G1 X111.294 Y136.72 E1.80293
G1 X111.35 Y136.509 E0.00916
G1 X111.48 Y136.36 E0.00827
G1 X111.557 Y136.303 E0.00402
G1 X111.773 Y136.248 E0.00935
G1 X112.123 Y136.248 E0.01467
G1 X218.295 Y136.256 E4.44865
M73 P1 R79
G1 X218.43 Y136.289 E0.00582
G1 X218.665 Y136.53 E0.01408
G1 X218.705 Y136.71 E0.00773
G1 X218.705 Y179.753 E1.80352
G1 X218.68 Y179.892 E0.00594
G1 X218.481 Y180.101 E0.01207
G1 X218.358 Y180.167 E0.00584
G1 X210.906 Y181.664 E0.31852
G1 X203.325 Y182.951 E0.32216
G1 X195.705 Y184.005 E0.32235
G1 X188.058 Y184.824 E0.32222
G1 X180.476 Y185.415 E0.31866
G1 X179.689 Y186.325 E0.05043
G1 X179.688 Y193.788 E0.3127
G1 X150.313 Y193.788 E1.23085
G1 X150.311 Y186.328 E0.3126
G1 X149.528 Y185.415 E0.05041
G1 X149.175 Y185.387 E0.01484
G1 X149.141 Y185.814 F9000
G1 F1800
G1 X141.902 Y185.251 E0.30427
G1 X134.242 Y184.43 E0.32276
G1 X126.611 Y183.375 E0.32282
G1 X119.015 Y182.085 E0.3228
G1 X111.507 Y180.577 E0.32087
M73 P1 R78
G1 X111.378 Y180.53 E0.00577
G1 X111.265 Y180.455 E0.00566
G1 X110.985 Y180.161 E0.01703
G1 X110.912 Y180.037 E0.00603
G1 X110.876 Y179.897 E0.00607
G1 X110.865 Y179.789 E0.00456
G1 X110.865 Y136.664 E1.80695
G1 X110.923 Y136.41 E0.0109
G1 X110.962 Y136.302 E0.00481
G1 X111.187 Y136.045 E0.01432
G1 X111.368 Y135.908 E0.00952
G1 X111.72 Y135.819 E0.01519
G1 X112.123 Y135.819 E0.0169
G1 X218.346 Y135.828 E4.45078
G1 X218.587 Y135.886 E0.01038
G1 X218.676 Y135.927 E0.00409
G1 X219.007 Y136.266 E0.01988
G1 X219.072 Y136.387 E0.00572
G1 X219.134 Y136.663 E0.01185
G1 X219.134 Y179.791 E1.80709
G1 X219.123 Y179.901 E0.00463
G1 X219.089 Y180.037 E0.0059
G1 X219.016 Y180.16 E0.00599
G1 X218.744 Y180.446 E0.01652
G1 X218.568 Y180.554 E0.00868
G1 X218.506 Y180.574 E0.00274
G1 X210.984 Y182.085 E0.32147
G1 X203.391 Y183.375 E0.3227
G1 X195.757 Y184.43 E0.3229
G1 X188.098 Y185.251 E0.32276
G1 X180.685 Y185.828 E0.31153
G1 X180.118 Y186.485 E0.03636
G1 X180.117 Y194.058 E0.31734
G1 X180.071 Y194.163 E0.00477
G1 X179.954 Y194.217 E0.00538
G1 X149.959 Y194.217 E1.25682
G1 X149.884 Y194.058 E0.00735
G1 X149.883 Y186.486 E0.31725
G1 X149.318 Y185.828 E0.03634
G1 X149.141 Y185.814 E0.00742
G1 X149.108 Y186.242 F9000
;TYPE:External perimeter
G1 F1800
G1 X141.862 Y185.677 E0.30452
G1 X134.19 Y184.856 E0.32329
G1 X126.545 Y183.798 E0.32337
G1 X118.937 Y182.507 E0.32335
G1 X111.392 Y180.991 E0.32247
G1 X111.184 Y180.916 E0.00927
G1 X110.988 Y180.786 E0.00984
G1 X110.64 Y180.421 E0.02111
G1 X110.511 Y180.202 E0.01066
G1 X110.453 Y179.971 E0.00998
G1 X110.437 Y179.809 E0.0068
G1 X110.437 Y136.616 E1.80982
G1 X110.511 Y136.289 E0.01405
G1 X110.587 Y136.081 E0.00929
G1 X110.893 Y135.729 E0.01955
G1 X111.136 Y135.547 E0.01271
G1 X111.212 Y135.506 E0.00364
G1 X111.666 Y135.391 E0.01962
G1 X112.123 Y135.391 E0.01914
G1 X218.397 Y135.399 E4.45292
G1 X218.728 Y135.479 E0.01427
G1 X218.927 Y135.571 E0.00917
G1 X219.355 Y136.01 E0.0257
G1 X219.477 Y136.235 E0.01073
G1 X219.562 Y136.615 E0.01634
G1 X219.562 Y179.81 E1.80989
G1 X219.547 Y179.973 E0.00683
G1 X219.49 Y180.202 E0.0099
G1 X219.36 Y180.421 E0.01066
G1 X219.016 Y180.781 E0.02089
G1 X218.748 Y180.946 E0.01317
G1 X218.614 Y180.99 E0.00593
G1 X211.062 Y182.507 E0.32276
G1 X203.456 Y183.798 E0.32325
G1 X195.809 Y184.856 E0.32345
G1 X188.137 Y185.677 E0.3233
G1 X180.894 Y186.242 E0.30441
G1 X180.546 Y186.644 E0.0223
G1 X180.545 Y194.149 E0.31443
G1 X180.432 Y194.406 E0.0118
G1 X180.348 Y194.507 E0.00549
G1 X180.049 Y194.645 E0.01381
G1 X149.948 Y194.645 E1.26125
G1 X149.775 Y194.573 E0.00785
G1 X149.587 Y194.438 E0.00969
G1 X149.456 Y194.149 E0.01329
G1 X149.454 Y186.645 E0.31443
G1 X149.108 Y186.242 E0.02228
;WIPE_START
M204 S4000
G1 X149.035 Y185.848 F9000
;WIPE_END
; acceleration to travel
M204 S3000
G1 X199.439 Y150.819
; decel to extrusion
M204 S1000
G1 X218.64 Y137.474
; end travel
;TYPE:Solid infill
;WIDTH:0.477962
G1 F3600
G1 X217.703 Y136.537 E0.05528
G1 X217.097 Y136.537 E0.02529
G1 X218.456 Y137.896 E0.08016
G1 X218.455 Y138.501 E0.02527
G1 X216.491 Y136.537 E0.11591
G1 X215.885 Y136.537 E0.02529
G1 X218.455 Y139.107 E0.15166
G1 X218.455 Y139.712 E0.02527
G1 X215.279 Y136.536 E0.18741
G1 X214.672 Y136.536 E0.02529
G1 X218.454 Y140.318 E0.22316
G1 X218.454 Y140.924 E0.02527
G1 X214.066 Y136.536 E0.25891
G1 X213.46 Y136.536 E0.02529
G1 X218.454 Y141.529 E0.29466
G1 X218.453 Y142.135 E0.02527
G1 X212.854 Y136.535 E0.33041
G1 X212.247 Y136.535 E0.02529
G1 X218.453 Y142.741 E0.36616
G1 X218.453 Y143.346 E0.02527
G1 X211.641 Y136.535 E0.4019
G1 X211.035 Y136.535 E0.02529
G1 X218.452 Y143.952 E0.43765
G1 X218.452 Y144.558 E0.02527
G1 X210.429 Y136.534 E0.4734
G1 X209.823 Y136.534 E0.02529
G1 X218.452 Y145.163 E0.50915
G1 X218.451 Y145.769 E0.02527
G1 X209.216 Y136.534 E0.5449
G1 X208.61 Y136.534 E0.02529
G1 X218.451 Y146.374 E0.58065
G1 X218.451 Y146.98 E0.02527
G1 X208.004 Y136.533 E0.6164
G1 X207.398 Y136.533 E0.02529
G1 X218.45 Y147.586 E0.65215
G1 X218.45 Y148.191 E0.02527
G1 X206.791 Y136.533 E0.6879
G1 X206.185 Y136.533 E0.02529
G1 X218.45 Y148.797 E0.72364
G1 X218.449 Y149.403 E0.02527
G1 X205.579 Y136.533 E0.75939
G1 X204.973 Y136.532 E0.02529
G1 X218.449 Y150.008 E0.79514
G1 X218.448 Y150.614 E0.02527
G1 X204.367 Y136.532 E0.83089
G1 X203.76 Y136.532 E0.02529
G1 X218.448 Y151.22 E0.86664
G1 X218.448 Y151.825 E0.02527
G1 X203.154 Y136.532 E0.90239
G1 X202.548 Y136.531 E0.02529
G1 X218.447 Y152.431 E0.93814
G1 X218.447 Y153.036 E0.02527
G1 X201.942 Y136.531 E0.97389
G1 X201.336 Y136.531 E0.02529
G1 X218.447 Y153.642 E1.00964
G1 X218.446 Y154.248 E0.02527
G1 X200.729 Y136.531 E1.04538
G1 X200.123 Y136.53 E0.02529
G1 X218.446 Y154.853 E1.08113
G1 X218.446 Y155.459 E0.02527
G1 X199.517 Y136.53 E1.11688
G1 X198.911 Y136.53 E0.02529
G1 X218.445 Y156.065 E1.15263
G1 X218.445 Y156.67 E0.02527
G1 X198.304 Y136.53 E1.18838
G1 X197.698 Y136.529 E0.02529
G1 X218.445 Y157.276 E1.22413
G1 X218.444 Y157.881 E0.02527
G1 X197.092 Y136.529 E1.25988
G1 X196.486 Y136.529 E0.02529
G1 X218.444 Y158.487 E1.29563
G1 X218.444 Y159.093 E0.02527
G1 X195.88 Y136.529 E1.33138
G1 X195.273 Y136.529 E0.02529
G1 X218.443 Y159.698 E1.36712
G1 X218.443 Y160.304 E0.02527
G1 X194.667 Y136.528 E1.40287
G1 X194.061 Y136.528 E0.02529
G1 X218.442 Y160.91 E1.43862
G1 X218.442 Y161.515 E0.02527
G1 X193.455 Y136.528 E1.47437
G1 X192.848 Y136.528 E0.02529
G1 X218.442 Y162.121 E1.51012
G1 X218.441 Y162.727 E0.02527
G1 X192.242 Y136.527 E1.54587
G1 X191.636 Y136.527 E0.02529
G1 X218.441 Y163.332 E1.58162
G1 X218.441 Y163.938 E0.02527
G1 X191.03 Y136.527 E1.61737
G1 X190.424 Y136.527 E0.02529
G1 X218.44 Y164.543 E1.65312
M73 P2 R78
G1 X218.44 Y165.149 E0.02527
G1 X189.817 Y136.526 E1.68887
G1 X189.211 Y136.526 E0.02529
G1 X218.44 Y165.755 E1.72461
G1 X218.439 Y166.36 E0.02527
G1 X188.605 Y136.526 E1.76036
G1 X187.999 Y136.526 E0.02529
G1 X218.439 Y166.966 E1.79611
G1 X218.439 Y167.572 E0.02527
G1 X187.393 Y136.525 E1.83186
G1 X186.786 Y136.525 E0.02529
G1 X218.438 Y168.177 E1.86761
G1 X218.438 Y168.783 E0.02527
G1 X186.18 Y136.525 E1.90336
G1 X185.574 Y136.525 E0.02529
G1 X218.438 Y169.389 E1.93911
G1 X218.437 Y169.994 E0.02527
G1 X184.968 Y136.525 E1.97486
G1 X184.361 Y136.524 E0.02529
G1 X218.437 Y170.6 E2.01061
G1 X218.437 Y171.205 E0.02527
G1 X183.755 Y136.524 E2.04635
G1 X183.149 Y136.524 E0.02529
G1 X218.436 Y171.811 E2.0821
G1 X218.436 Y172.417 E0.02527
G1 X182.543 Y136.524 E2.11785
G1 X181.937 Y136.523 E0.02529
G1 X218.435 Y173.022 E2.1536
G1 X218.435 Y173.628 E0.02527
G1 X181.33 Y136.523 E2.18935
G1 X180.724 Y136.523 E0.02529
G1 X218.435 Y174.234 E2.2251
G1 X218.434 Y174.839 E0.02527
G1 X180.118 Y136.523 E2.26085
G1 X179.512 Y136.522 E0.02529
G1 X218.434 Y175.445 E2.2966
G1 X218.434 Y176.05 E0.02527
G1 X178.905 Y136.522 E2.33235
G1 X178.299 Y136.522 E0.02529
G1 X218.433 Y176.656 E2.36809
G1 X218.433 Y177.262 E0.02527
G1 X177.693 Y136.522 E2.40384
G1 X177.087 Y136.521 E0.02529
G1 X218.433 Y177.867 E2.43959
G1 X218.432 Y178.473 E0.02527
G1 X176.481 Y136.521 E2.47534
M73 P2 R77
G1 X175.874 Y136.521 E0.02529
G1 X218.432 Y179.079 E2.51109
G1 X218.432 Y179.684 E0.02527
G1 X175.268 Y136.521 E2.54684
G1 X174.662 Y136.521 E0.02529
G1 X217.946 Y179.805 E2.55396
G1 X217.453 Y179.917 E0.02112
G1 X174.056 Y136.52 E2.56061
G1 X173.45 Y136.52 E0.02529
G1 X216.959 Y180.03 E2.56726
G1 X216.466 Y180.142 E0.02112
G1 X172.843 Y136.52 E2.57391
G1 X172.237 Y136.52 E0.02529
G1 X215.972 Y180.255 E2.58056
G1 X215.479 Y180.367 E0.02112
G1 X171.631 Y136.519 E2.58721
G1 X171.025 Y136.519 E0.02529
G1 X214.985 Y180.48 E2.59386
G1 X214.491 Y180.592 E0.02112
G1 X170.418 Y136.519 E2.60051
G1 X169.812 Y136.519 E0.02529
G1 X213.998 Y180.704 E2.60716
G1 X213.504 Y180.817 E0.02112
G1 X169.206 Y136.518 E2.61381
G1 X168.6 Y136.518 E0.02529
G1 X213.011 Y180.929 E2.62046
G1 X212.517 Y181.042 E0.02112
G1 X167.994 Y136.518 E2.62711
G1 X167.387 Y136.518 E0.02529
G1 X212.024 Y181.154 E2.63376
G1 X211.53 Y181.267 E0.02112
G1 X166.781 Y136.518 E2.64041
G1 X166.175 Y136.517 E0.02529
G1 X211.037 Y181.379 E2.64706
G1 X210.857 Y181.42 E0.0077
G1 X210.528 Y181.476 E0.01393
G1 X165.569 Y136.517 E2.65279
G1 X164.962 Y136.517 E0.02529
G1 X210.01 Y181.564 E2.658
G1 X209.492 Y181.652 E0.02192
G1 X164.356 Y136.517 E2.6632
G1 X163.75 Y136.516 E0.02529
G1 X208.974 Y181.74 E2.6684
G1 X208.456 Y181.828 E0.02192
G1 X163.144 Y136.516 E2.67361
G1 X162.538 Y136.516 E0.02529
G1 X207.938 Y181.916 E2.67881
G1 X207.42 Y182.004 E0.02192
G1 X161.931 Y136.516 E2.68402
G1 X161.325 Y136.515 E0.02529
G1 X206.902 Y182.092 E2.68922
M73 P3 R77
G1 X206.384 Y182.18 E0.02192
G1 X160.719 Y136.515 E2.69442
G1 X160.113 Y136.515 E0.02529
G1 X205.866 Y182.268 E2.69963
G1 X205.348 Y182.356 E0.02192
G1 X159.506 Y136.515 E2.70483
G1 X158.9 Y136.514 E0.02529
G1 X204.83 Y182.444 E2.71003
G1 X204.312 Y182.532 E0.02192
G1 X158.294 Y136.514 E2.71524
G1 X157.688 Y136.514 E0.02529
G1 X203.794 Y182.62 E2.72044
G1 X203.275 Y182.707 E0.02193
G1 X157.082 Y136.514 E2.72563
G1 X156.475 Y136.514 E0.02529
G1 X202.743 Y182.781 E2.72998
G1 X202.21 Y182.855 E0.02242
G1 X155.869 Y136.513 E2.73434
G1 X155.263 Y136.513 E0.02529
G1 X201.678 Y182.928 E2.7387
G1 X201.146 Y183.002 E0.02242
G1 X154.657 Y136.513 E2.74306
G1 X154.051 Y136.513 E0.02529
G1 X200.613 Y183.075 E2.74741
G1 X200.081 Y183.149 E0.02242
G1 X153.444 Y136.512 E2.75177
G1 X152.838 Y136.512 E0.02529
G1 X199.549 Y183.223 E2.75613
G1 X199.016 Y183.296 E0.02242
G1 X152.232 Y136.512 E2.76049
G1 X151.626 Y136.512 E0.02529
G1 X198.484 Y183.37 E2.76484
G1 X197.951 Y183.443 E0.02242
G1 X151.019 Y136.511 E2.7692
G1 X150.413 Y136.511 E0.02529
G1 X197.419 Y183.517 E2.77356
G1 X196.887 Y183.591 E0.02242
G1 X149.807 Y136.511 E2.77792
G1 X149.201 Y136.511 E0.02529
G1 X196.354 Y183.664 E2.78227
G1 X195.822 Y183.738 E0.02242
G1 X148.595 Y136.51 E2.78663
G1 X147.988 Y136.51 E0.02529
G1 X195.273 Y183.795 E2.79003
G1 X194.719 Y183.847 E0.02324
G1 X147.382 Y136.51 E2.79308
G1 X146.776 Y136.51 E0.02529
G1 X194.164 Y183.898 E2.79612
G1 X193.609 Y183.949 E0.02324
G1 X146.17 Y136.51 E2.79916
G1 X145.563 Y136.509 E0.02529
G1 X193.055 Y184.001 E2.80221
G1 X192.5 Y184.052 E0.02324
G1 X144.957 Y136.509 E2.80525
M73 P3 R76
G1 X144.351 Y136.509 E0.02529
G1 X191.946 Y184.103 E2.80829
G1 X191.391 Y184.155 E0.02324
G1 X143.745 Y136.509 E2.81133
G1 X143.139 Y136.508 E0.02529
G1 X190.836 Y184.206 E2.81438
G1 X190.282 Y184.257 E0.02324
G1 X142.532 Y136.508 E2.81742
G1 X141.926 Y136.508 E0.02529
G1 X189.727 Y184.309 E2.82046
G1 X189.172 Y184.36 E0.02324
G1 X141.32 Y136.508 E2.82351
G1 X140.714 Y136.507 E0.02529
G1 X188.618 Y184.411 E2.82655
G1 X188.063 Y184.463 E0.02324
G1 X140.108 Y136.507 E2.82959
G1 X139.501 Y136.507 E0.02529
G1 X187.508 Y184.514 E2.83264
G1 X186.954 Y184.565 E0.02324
G1 X138.895 Y136.507 E2.83568
G1 X138.289 Y136.506 E0.02529
G1 X186.399 Y184.617 E2.83872
G1 X185.844 Y184.668 E0.02324
G1 X137.683 Y136.506 E2.84176
G1 X137.076 Y136.506 E0.02529
G1 X185.29 Y184.719 E2.84481
M73 P4 R76
G1 X184.735 Y184.771 E0.02324
G1 X136.47 Y136.506 E2.84785
G1 X135.864 Y136.506 E0.02529
