; generated by SuperSlicer 2.3.57 on 2022-02-03 at 00:43:53 UTC


;
;

;
;
; 

; external perimeters extrusion width = 0.40mm
; perimeters extrusion width = 0.40mm
; infill extrusion width = 0.40mm
; solid infill extrusion width = 0.40mm
; top infill extrusion width = 0.40mm
; first layer extrusion width = 0.48mm


;TYPE:Custom
START_PRINT T_BED=60 T_EXTRUDER=200
M107
G21 ; set units to millimeters
G90 ; use absolute coordinates
M83 ; use relative distances for extrusion
; Filament gcode
M109 S200 ; set temperature and wait for it to be reached
M190 S60 ; set bed temperature and wait for it to be reached
;LAYER_CHANGE
;Z:0.24
;HEIGHT:0.24
G1 E-0.6 F3000
G1 Z0.24 F9000
M204 S1500
G1 X132.516 Y142.077
G1 E0.6 F1800
;TYPE:Skirt
;WIDTH:0.48
G1 F600
G1 X130.252 Y144.617 E0.14549
G1 X128.512 Y147.46 E0.1425
G1 X128.082 Y148.397 E0.0441
G1 X127.07 Y151.756 E0.14999
G1 X126.597 Y155.21 E0.14906
G1 X126.58 Y156.242 E0.0441
G1 X126.905 Y159.282 E0.13072
G1 X127.146 Y160.404 E0.04909
G1 X128.074 Y163.182 E0.12522
G1 X128.426 Y163.969 E0.03685
G1 X130.28 Y167.046 E0.15361
G1 X132.474 Y169.518 E0.14128
G1 X165.56 Y200.969 E1.95175
G1 X168.807 Y203.278 E0.17039
G1 X172.371 Y204.821 E0.16601
G1 X176.23 Y205.688 E0.16911
G1 X180.256 Y205.65 E0.17215
G1 X184.01 Y204.932 E0.1634
G1 X186.815 Y203.68 E0.13136
G1 X187.6 Y203.209 E0.0391
G1 X188.297 Y202.618 E0.0391
G1 X188.891 Y201.922 E0.0391
G1 X189.364 Y201.14 E0.0391
G1 X201.95 Y170.587 E1.41277
G1 X202.931 Y167.317 E0.14598
G1 X203.404 Y163.857 E0.14931
G1 X203.419 Y162.831 E0.04385
G1 X203.095 Y159.797 E0.13046
G1 X202.88 Y158.759 E0.04535
G1 X201.792 Y155.559 E0.14451
G1 X199.738 Y152.057 E0.17358
G1 X181.113 Y129.307 E1.25708
G1 X178.863 Y127.038 E0.13661
G1 X178.243 Y126.615 E0.03209
G1 X176.291 Y125.522 E0.09566
G1 X175.312 Y125.131 E0.0451
G1 X172.662 Y124.454 E0.11692
G1 X171.314 Y124.288 E0.05807
G1 X169.128 Y124.399 E0.09359
G1 X167.214 Y124.651 E0.08252
G1 X166.41 Y124.889 E0.03585
G1 X163.948 Y125.89 E0.11367
G1 X136.342 Y139.223 E1.31075
G1 X135.624 Y139.657 E0.03585
G1 X133.158 Y141.485 E0.13124
G1 X132.56 Y142.036 E0.03478
G1 X132.705 Y142.193 F9000
M204 S500
G1 X132.85 Y142.351
G1 F600
G1 X132.828 Y142.371 E0.00127
G1 X130.598 Y144.869 E0.14316
G1 X128.885 Y147.671 E0.14046
G1 X128.484 Y148.547 E0.04119
G1 X127.489 Y151.847 E0.14735
G1 X127.023 Y155.257 E0.14714
G1 X127.008 Y156.22 E0.04119
G1 X127.331 Y159.235 E0.12968
G1 X127.555 Y160.276 E0.04551
G1 X128.475 Y163.031 E0.1242
G1 X128.81 Y163.777 E0.03494
G1 X130.626 Y166.794 E0.15059
G1 X132.794 Y169.233 E0.13951
G1 X165.838 Y200.643 E1.94924
G1 X169.018 Y202.905 E0.16685
G1 X172.501 Y204.412 E0.16224
G1 X176.273 Y205.261 E0.16531
G1 X180.21 Y205.224 E0.16838
G1 X183.884 Y204.523 E0.1599
G1 X186.601 Y203.308 E0.12725
G1 X187.337 Y202.87 E0.03662
G1 X187.992 Y202.318 E0.03662
G1 X188.544 Y201.67 E0.03638
G1 X188.986 Y200.937 E0.03662
G1 X201.542 Y170.457 E1.4094
G1 X202.512 Y167.227 E0.14421
G1 X202.978 Y163.811 E0.14738
G1 X202.991 Y162.854 E0.04095
G1 X202.669 Y159.844 E0.12943
G1 X202.469 Y158.878 E0.04215
G1 X201.396 Y155.723 E0.14251
G1 X199.388 Y152.304 E0.1695
G1 X180.799 Y129.598 E1.25467
G1 X178.602 Y127.377 E0.13354
G1 X176.103 Y125.906 E0.124
G1 X175.182 Y125.539 E0.04239
G1 X172.564 Y124.871 E0.1155
G1 X171.313 Y124.717 E0.0539
G1 X169.166 Y124.825 E0.09191
G1 X167.305 Y125.069 E0.08028
G1 X166.554 Y125.293 E0.0335
G1 X164.118 Y126.283 E0.11241
G1 X136.537 Y139.605 E1.3096
G1 X135.867 Y140.01 E0.0335
G1 X133.433 Y141.813 E0.1295
G1 X132.894 Y142.31 E0.03134
G1 E-0.6 F3000
M204 S1500
G1 X159.242 Y146.72 F9000
M204 S500
G1 X185.59 Y151.13
G1 E0.6 F1800
;TYPE:Internal perimeter
G1 F600
G1 X185.712 Y151.129 E0.00522
G1 X186.034 Y151.203 E0.0141
G1 X188.221 Y151.708 E0.096
G1 X188.542 Y151.847 E0.01495
G1 X190.522 Y152.701 E0.09219
G1 X190.812 Y152.907 E0.01522
G1 X192.654 Y154.221 E0.09673
G1 X192.869 Y154.459 E0.01372
G1 X194.274 Y156.013 E0.08955
G1 X194.46 Y156.325 E0.01553
G1 X195.613 Y158.264 E0.09645
G1 X195.72 Y158.587 E0.01456
G1 X196.408 Y160.649 E0.09295
G1 X196.688 Y163.248 E0.11175
G1 X196.34 Y165.89 E0.11393
G1 X195.585 Y168.359 E0.11038
G1 X194.315 Y170.466 E0.10521
G1 X192.609 Y172.345 E0.10851
G1 X190.549 Y173.871 E0.10962
G1 X188.203 Y174.935 E0.11012
G1 X185.85 Y175.431 E0.10282
G1 X184.382 Y175.574 E0.06306
G1 X181.322 Y175.574 E0.13084
G1 X179.001 Y175.578 E0.09924
G1 X176.973 Y175.651 E0.08677
G1 X174.689 Y176.065 E0.09923
G1 X172.316 Y177.058 E0.10998
G1 X170.49 Y178.454 E0.09828
G1 X168.956 Y180.187 E0.09896
G1 X167.761 Y182.218 E0.10073
G1 X166.986 Y184.462 E0.1015
G1 X166.783 Y186.951 E0.10677
G1 X167.045 Y189.08 E0.09169
G1 X167.759 Y191.44 E0.10545
G1 X168.965 Y193.531 E0.1032
G1 X170.387 Y195.159 E0.09241
G1 X172.306 Y196.518 E0.10055
G1 X174.302 Y197.489 E0.09492
G1 X174.647 Y197.614 E0.01567
G1 X174.888 Y197.667 E0.01057
G1 X176.678 Y198.051 E0.07825
G1 X177.12 Y198.055 E0.01893
G1 X179.196 Y198.072 E0.08873
G1 X179.613 Y197.981 E0.01828
G1 X181.482 Y197.571 E0.08181
G1 X181.852 Y197.418 E0.0171
G1 X182.287 Y197.235 E0.02019
G1 X182.856 Y198.096 E0.04414
G1 X182.048 Y198.476 E0.03816
G1 X181.739 Y198.534 E0.01345
G1 X179.531 Y198.945 E0.096
G1 X179.164 Y198.95 E0.01569
G1 X176.936 Y198.977 E0.0953
G1 X176.614 Y198.903 E0.0141
G1 X174.426 Y198.397 E0.096
G1 X174.105 Y198.259 E0.01495
G1 X172.126 Y197.405 E0.09219
G1 X171.836 Y197.198 E0.01522
G1 X169.994 Y195.885 E0.09673
G1 X169.778 Y195.647 E0.01372
G1 X168.373 Y194.093 E0.08955
G1 X168.188 Y193.781 E0.01553
G1 X167.035 Y191.842 E0.09645
G1 X166.927 Y191.519 E0.01456
G1 X166.24 Y189.457 E0.09295
G1 X165.959 Y186.858 E0.11175
G1 X166.307 Y184.216 E0.11393
G1 X167.062 Y181.747 E0.11038
G1 X168.333 Y179.64 E0.10521
G1 X170.038 Y177.761 E0.10851
G1 X172.099 Y176.235 E0.10962
G1 X174.444 Y175.171 E0.11012
G1 X176.798 Y174.675 E0.10282
G1 X178.266 Y174.532 E0.06306
G1 X181.325 Y174.531 E0.1308
G1 X183.647 Y174.528 E0.09929
G1 X185.675 Y174.455 E0.08677
G1 X187.959 Y174.041 E0.09923
G1 X190.331 Y173.047 E0.10998
G1 X192.158 Y171.652 E0.09828
G1 X193.692 Y169.919 E0.09896
G1 X194.887 Y167.888 E0.10073
G1 X195.662 Y165.644 E0.1015
G1 X195.864 Y163.155 E0.10677
G1 X195.603 Y161.026 E0.09169
G1 X194.889 Y158.666 E0.10545
G1 X193.683 Y156.575 E0.1032
G1 X192.261 Y154.947 E0.09241
G1 X190.342 Y153.588 E0.10055
G1 X188.346 Y152.617 E0.09492
G1 X188.001 Y152.492 E0.01567
G1 X187.759 Y152.439 E0.01057
G1 X185.97 Y152.055 E0.07825
G1 X185.527 Y152.051 E0.01893
G1 X183.452 Y152.034 E0.08873
G1 X183.034 Y152.125 E0.01828
G1 X181.165 Y152.535 E0.08181
G1 X180.796 Y152.688 E0.0171
G1 X180.361 Y152.871 E0.02019
G1 X179.792 Y152.01 E0.04414
G1 X180.6 Y151.63 E0.03816
G1 X180.909 Y151.572 E0.01345
G1 X183.116 Y151.161 E0.096
G1 X183.483 Y151.156 E0.01569
G1 X185.53 Y151.131 E0.08752
M204 S1500
G1 X185.527 Y150.917 F9000
M204 S500
G1 X185.525 Y150.702
G1 F600
G1 X185.758 Y150.7 E0.00998
G1 X186.13 Y150.785 E0.01631
G1 X188.355 Y151.3 E0.09766
G1 X188.712 Y151.453 E0.01661
G1 X190.734 Y152.326 E0.09414
G1 X191.061 Y152.559 E0.01717
G1 X192.941 Y153.899 E0.09872
G1 X193.187 Y154.172 E0.0157
G1 X194.621 Y155.757 E0.09138
G1 X194.828 Y156.106 E0.01735
G1 X196.005 Y158.085 E0.09843
G1 X196.127 Y158.451 E0.01654
G1 X196.829 Y160.558 E0.09492
G1 X197.12 Y163.253 E0.11592
G1 X196.76 Y165.981 E0.11765
G1 X195.98 Y168.535 E0.11417
G1 X194.66 Y170.723 E0.10926
G1 X192.898 Y172.665 E0.1121
G1 X190.767 Y174.243 E0.11337
G1 X188.337 Y175.344 E0.11407
G1 X185.915 Y175.855 E0.10584
G1 X184.403 Y176.003 E0.06497
G1 X181.322 Y176.003 E0.13172
G1 X179.009 Y176.006 E0.09891
G1 X177.019 Y176.078 E0.08514
G1 X174.811 Y176.478 E0.09592
G1 X172.533 Y177.432 E0.10562
G1 X170.783 Y178.769 E0.09415
G1 X169.304 Y180.44 E0.09541
G1 X168.152 Y182.398 E0.09713
G1 X167.409 Y184.551 E0.09736
G1 X167.214 Y186.942 E0.10259
G1 X167.465 Y188.991 E0.08825
G1 X168.155 Y191.269 E0.10176
G1 X169.315 Y193.281 E0.0993
G1 X170.676 Y194.839 E0.08844
G1 X172.525 Y196.148 E0.09686
G1 X174.47 Y197.094 E0.09247
G1 X174.766 Y197.202 E0.01347
G1 X174.979 Y197.248 E0.00931
G1 X176.725 Y197.623 E0.07638
G1 X177.124 Y197.627 E0.01705
G1 X179.151 Y197.643 E0.08668
G1 X179.522 Y197.563 E0.01622
G1 X181.353 Y197.161 E0.08015
G1 X181.686 Y197.022 E0.01542
G1 X182.448 Y196.702 E0.03535
G1 X183.486 Y198.273 E0.08052
G1 X182.181 Y198.887 E0.06167
G1 X181.818 Y198.955 E0.0158
G1 X179.574 Y199.373 E0.09758
G1 X179.17 Y199.379 E0.01727
G1 X176.889 Y199.406 E0.09751
G1 X176.518 Y199.321 E0.01631
G1 X174.292 Y198.806 E0.09766
G1 X173.936 Y198.653 E0.01661
G1 X171.914 Y197.78 E0.09414
G1 X171.587 Y197.547 E0.01717
G1 X169.707 Y196.207 E0.09872
G1 X169.461 Y195.934 E0.0157
G1 X168.027 Y194.349 E0.09138
G1 X167.819 Y194 E0.01735
G1 X166.643 Y192.021 E0.09843
G1 X166.521 Y191.654 E0.01654
G1 X165.819 Y189.548 E0.09492
G1 X165.528 Y186.853 E0.11592
G1 X165.887 Y184.125 E0.11765
G1 X166.668 Y181.571 E0.11417
G1 X167.987 Y179.383 E0.10926
G1 X169.749 Y177.441 E0.1121
G1 X171.88 Y175.863 E0.11337
G1 X174.31 Y174.762 E0.11407
G1 X176.732 Y174.251 E0.10584
G1 X178.245 Y174.103 E0.06497
G1 X181.324 Y174.103 E0.13168
G1 X183.639 Y174.1 E0.09895
G1 X185.629 Y174.027 E0.08514
G1 X187.836 Y173.628 E0.09592
G1 X190.115 Y172.674 E0.10562
G1 X191.865 Y171.337 E0.09415
G1 X193.344 Y169.666 E0.09541
G1 X194.496 Y167.707 E0.09713
G1 X195.239 Y165.555 E0.09736
G1 X195.433 Y163.164 E0.10259
G1 X195.182 Y161.115 E0.08825
G1 X194.493 Y158.837 E0.10176
G1 X193.333 Y156.825 E0.0993
G1 X191.972 Y155.267 E0.08844
G1 X190.123 Y153.958 E0.09686
G1 X188.178 Y153.012 E0.09247
G1 X187.882 Y152.904 E0.01347
G1 X187.669 Y152.858 E0.00931
G1 X185.922 Y152.483 E0.07638
G1 X185.524 Y152.479 E0.01705
G1 X183.496 Y152.463 E0.08668
G1 X183.126 Y152.543 E0.01622
G1 X181.294 Y152.945 E0.08015
G1 X180.961 Y153.084 E0.01542
G1 X180.199 Y153.404 E0.03535
G1 X179.161 Y151.833 E0.08052
G1 X180.467 Y151.219 E0.06167
G1 X180.83 Y151.151 E0.0158
G1 X183.074 Y150.733 E0.09758
G1 X183.478 Y150.727 E0.01727
G1 X185.465 Y150.703 E0.08497
M204 S1500
G1 X185.462 Y150.489 F9000
M204 S500
G1 X185.46 Y150.275
;TYPE:External perimeter
G1 F600
G1 X185.804 Y150.271 E0.01473
G1 X186.226 Y150.368 E0.01851
G1 X188.489 Y150.891 E0.09932
G1 X188.882 Y151.06 E0.01826
G1 X190.945 Y151.95 E0.09609
G1 X191.309 Y152.21 E0.01912
G1 X193.227 Y153.577 E0.10071
G1 X193.505 Y153.884 E0.01769
G1 X194.967 Y155.501 E0.09321
G1 X195.197 Y155.887 E0.01918
G1 X196.396 Y157.905 E0.1004
G1 X196.533 Y158.316 E0.01851
G1 X197.25 Y160.466 E0.0969
G1 X197.551 Y163.258 E0.12008
G1 X197.181 Y166.072 E0.12136
G1 X196.374 Y168.711 E0.11795
G1 X195.006 Y170.98 E0.11331
G1 X193.187 Y172.984 E0.11569
G1 X190.986 Y174.614 E0.11712
G1 X188.472 Y175.754 E0.11802
G1 X185.981 Y176.279 E0.10885
G1 X184.424 Y176.431 E0.06687
G1 X181.322 Y176.431 E0.1326
G1 X179.017 Y176.435 E0.09858
G1 X177.065 Y176.506 E0.08351
G1 X174.934 Y176.891 E0.09261
G1 X172.749 Y177.806 E0.10126
G1 X171.076 Y179.084 E0.09001
G1 X169.652 Y180.693 E0.09186
G1 X168.543 Y182.579 E0.09353
G1 X167.831 Y184.639 E0.09321
G1 X167.645 Y186.933 E0.09841
G1 X167.886 Y188.902 E0.0848
G1 X168.55 Y191.098 E0.09807
G1 X169.665 Y193.03 E0.0954
G1 X170.965 Y194.518 E0.08448
G1 X172.744 Y195.778 E0.09318
G1 X174.637 Y196.699 E0.09002
G1 X174.885 Y196.789 E0.01127
G1 X175.069 Y196.829 E0.00805
G1 X176.773 Y197.195 E0.07452
G1 X177.128 Y197.198 E0.01518
G1 X179.107 Y197.214 E0.08464
G1 X179.431 Y197.144 E0.01416
G1 X181.224 Y196.751 E0.07848
G1 X181.521 Y196.627 E0.01375
G1 X182.558 Y196.191 E0.0481
G1 X182.649 Y196.215 E0.00404
G1 X182.883 Y196.582 E0.01858
G1 X184.109 Y198.438 E0.09509
G1 X184.105 Y198.455 E0.00077
G1 X183.803 Y198.598 E0.01429
G1 X182.314 Y199.298 E0.07033
G1 X181.897 Y199.376 E0.01815
G1 X179.616 Y199.801 E0.09917
G1 X179.176 Y199.807 E0.01886
G1 X176.843 Y199.835 E0.09972
G1 X176.422 Y199.738 E0.01851
G1 X174.158 Y199.215 E0.09932
G1 X173.766 Y199.046 E0.01826
G1 X171.702 Y198.156 E0.09609
G1 X171.338 Y197.896 E0.01912
G1 X169.42 Y196.529 E0.10071
G1 X169.143 Y196.222 E0.01769
G1 X167.68 Y194.605 E0.09321
G1 X167.451 Y194.219 E0.01918
G1 X166.251 Y192.201 E0.1004
G1 X166.114 Y191.79 E0.01851
G1 X165.398 Y189.64 E0.0969
G1 X165.096 Y186.848 E0.12008
G1 X165.467 Y184.033 E0.12136
G1 X166.274 Y181.395 E0.11795
G1 X167.642 Y179.126 E0.11331
G1 X169.46 Y177.122 E0.11569
G1 X171.662 Y175.492 E0.11712
G1 X174.176 Y174.352 E0.11802
G1 X176.667 Y173.827 E0.10885
G1 X178.224 Y173.675 E0.06687
G1 X181.324 Y173.674 E0.13256
G1 X183.631 Y173.671 E0.09862
G1 X185.583 Y173.6 E0.08351
G1 X187.714 Y173.214 E0.09261
G1 X189.899 Y172.3 E0.10126
G1 X191.571 Y171.021 E0.09001
G1 X192.995 Y169.413 E0.09186
G1 X194.105 Y167.527 E0.09353
G1 X194.816 Y165.466 E0.09321
G1 X195.003 Y163.172 E0.09841
G1 X194.761 Y161.204 E0.0848
G1 X194.097 Y159.008 E0.09807
G1 X192.982 Y157.076 E0.0954
G1 X191.683 Y155.588 E0.08448
G1 X189.904 Y154.328 E0.09318
G1 X188.011 Y153.407 E0.09002
G1 X187.763 Y153.317 E0.01127
G1 X187.579 Y153.277 E0.00805
G1 X185.875 Y152.911 E0.07452
G1 X185.52 Y152.908 E0.01518
G1 X183.54 Y152.892 E0.08464
G1 X183.217 Y152.962 E0.01416
G1 X181.424 Y153.355 E0.07848
G1 X181.127 Y153.479 E0.01375
G1 X180.09 Y153.915 E0.0481
G1 X179.999 Y153.891 E0.00404
G1 X179.765 Y153.524 E0.01858
G1 X178.539 Y151.668 E0.09509
G1 X178.543 Y151.651 E0.00077
G1 X178.845 Y151.508 E0.01429
G1 X180.334 Y150.808 E0.07033
G1 X180.751 Y150.73 E0.01815
G1 X183.031 Y150.305 E0.09917
G1 X183.472 Y150.299 E0.01886
G1 X185.4 Y150.275 E0.08242
;WIPE_START
G1 X185.636 Y150.571 F9000
;WIPE_END
G1 E-0.6 F3000
M204 S1500
G1 X184.015 Y174.163 F9000
M204 S500
G1 X182.394 Y197.754
G1 E0.6 F1800
;TYPE:Gap fill
;WIDTH:0.627386
G1 F600
G1 X182.242 Y197.818 E0.00944
;WIDTH:0.697407
G1 X182.091 Y197.881 E0.01059
G1 X182.052 Y197.898 E0.00273
G1 X181.885 Y197.972 E0.01176
G1 X181.772 Y198.006 E0.00763
;WIDTH:0.65718
G1 X181.606 Y198.053 E0.01041
G1 X180.66 Y198.245 E0.05837
;WIDTH:0.590504
G1 X179.712 Y198.437 E0.05198
G1 X179.599 Y198.46 E0.00622
G1 X179.486 Y198.483 E0.00622
G1 X179.377 Y198.495 E0.0059
;WIDTH:0.53938
G1 X179.214 Y198.511 E0.00795
G1 X179.159 Y198.511 E0.00269
G1 X178.138 Y198.513 E0.04971
;WIDTH:0.57737
G1 X177.117 Y198.515 E0.05358
G1 X176.985 Y198.515 E0.0069
G1 X176.848 Y198.499 E0.00724
;WIDTH:0.518608
G1 X176.654 Y198.476 E0.00912
G1 X176.608 Y198.468 E0.00214
G1 X175.705 Y198.267 E0.04312
;WIDTH:0.473803
G1 X174.802 Y198.065 E0.03899
G1 X174.678 Y198.038 E0.00537
G1 X174.521 Y197.998 E0.00682
G1 X174.391 Y197.947 E0.00587
;WIDTH:0.449392
G1 X174.262 Y197.896 E0.00553
G1 X174.14 Y197.846 E0.00523
G1 X173.24 Y197.434 E0.03927
;WIDTH:0.532206
G1 X172.341 Y197.022 E0.04744
G1 X172.226 Y196.953 E0.00646
;WIDTH:0.487142
G1 X172.076 Y196.862 E0.00763
G1 X171.172 Y196.219 E0.04821
G1 X170.268 Y195.577 E0.04821
;WIDTH:0.458769
G1 X170.141 Y195.465 E0.00686
G1 X170.067 Y195.385 E0.00441
G1 X168.703 Y193.85 E0.08347
G1 X168.63 Y193.746 E0.00515
G1 X168.531 Y193.577 E0.00797
G1 X167.972 Y192.623 E0.04493
;WIDTH:0.484628
G1 X167.413 Y191.669 E0.04779
G1 X167.376 Y191.58 E0.00418
G1 X167.024 Y190.471 E0.05028
;WIDTH:0.535905
G1 X166.671 Y189.362 E0.05623
G1 X166.635 Y189.186 E0.00871
;WIDTH:0.500413
G1 X166.629 Y189.148 E0.00173
G1 X166.504 Y188.064 E0.04886
;WIDTH:0.466569
G1 X166.38 Y186.98 E0.04518
G1 X166.376 Y186.863 E0.00488
G1 X166.441 Y186.249 E0.02555
G1 X166.506 Y185.636 E0.02555
;WIDTH:0.402479
G1 X166.572 Y185.022 E0.02161
;WIDTH:0.361487
G1 X166.637 Y184.409 E0.01908
G1 X166.662 Y184.293 E0.00366
G1 X167.024 Y183.18 E0.03619
;WIDTH:0.46453
G1 X167.386 Y182.068 E0.04822
G1 X167.449 Y181.92 E0.00663
;WIDTH:0.498186
G1 X168.031 Y180.942 E0.05072
;WIDTH:0.473525
G1 X168.614 Y179.964 E0.04792
G1 X168.667 Y179.888 E0.0039
G1 X170.203 Y178.175 E0.09691
G1 X170.316 Y178.068 E0.00656
G1 X171.206 Y177.398 E0.0469
;WIDTH:0.448631
G1 X172.096 Y176.729 E0.04413
G1 X172.139 Y176.701 E0.00203
G1 X172.227 Y176.651 E0.00399
;WIDTH:0.50281
G1 X172.314 Y176.601 E0.00454
G1 X173.423 Y176.118 E0.05447
;WIDTH:0.573015
G1 X174.532 Y175.634 E0.06295
