; generated by SuperSlicer 2.3.57 on 2022-01-15 at 23:21:42 UTC


;
;

;
;
; 

; external perimeters extrusion width = 0.40mm
; perimeters extrusion width = 0.40mm
; infill extrusion width = 0.40mm
; solid infill extrusion width = 0.40mm
; top infill extrusion width = 0.40mm
; first layer extrusion width = 0.48mm


;TYPE:Custom
START_PRINT T_BED=70 T_EXTRUDER=230
M107
G21 ; set units to millimeters
G90 ; use absolute coordinates
M83 ; use relative distances for extrusion
; Filament gcode
M104 S230 ; set temperature
M109 S230 ; set temperature and wait for it to be reached
M190 S70 ; set bed temperature and wait for it to be reached
;LAYER_CHANGE
;Z:0.24
;HEIGHT:0.24
G1 E-1.2 F3000
G1 Z0.24 F9000
M204 S1500
G1 X112.878 Y110.945
G1 E1.2 F1800
;TYPE:Skirt
;WIDTH:0.48
G1 F600
G1 X110.613 Y113.385 E0.14234
G1 X108.599 Y115.83 E0.13543
G1 X106.531 Y118.664 E0.14999
G1 X104.748 Y121.455 E0.14159
G1 X103.199 Y124.228 E0.13582
G1 X101.613 Y127.523 E0.15638
G1 X100.415 Y130.453 E0.13532
G1 X99.341 Y133.598 E0.14209
G1 X98.457 Y136.801 E0.14209
G1 X97.793 Y139.908 E0.13582
G1 X97.25 Y143.513 E0.15587
G1 X96.968 Y146.677 E0.13582
G1 X96.868 Y149.999 E0.14209
G1 X96.968 Y153.32 E0.14209
G1 X97.25 Y156.484 E0.13582
G1 X97.794 Y160.095 E0.15613
G1 X98.456 Y163.196 E0.13557
G1 X99.34 Y166.4 E0.14209
G1 X100.414 Y169.545 E0.14209
G1 X101.613 Y172.477 E0.13543
G1 X103.198 Y175.77 E0.15626
G1 X104.747 Y178.543 E0.13582
G1 X106.533 Y181.339 E0.14184
G1 X108.599 Y184.17 E0.14986
G1 X110.611 Y186.613 E0.13531
G1 X112.876 Y189.053 E0.14234
G1 X115.274 Y191.346 E0.14184
G1 X117.695 Y193.402 E0.13582
G1 X120.617 Y195.592 E0.15613
G1 X123.265 Y197.337 E0.13557
G1 X126.143 Y198.998 E0.14209
G1 X129.115 Y200.485 E0.14209
G1 X132.029 Y201.734 E0.13557
G1 X135.467 Y202.966 E0.15613
G1 X138.517 Y203.854 E0.13582
G1 X141.757 Y204.594 E0.14209
G1 X145.035 Y205.138 E0.14209
G1 X148.188 Y205.472 E0.13557
G1 X151.765 Y205.637 E0.15312
G1 X155.006 Y205.587 E0.13858
G1 X158.174 Y205.352 E0.13582
G1 X161.787 Y204.862 E0.15588
G1 X164.897 Y204.247 E0.13557
G1 X168.114 Y203.41 E0.14209
G1 X171.274 Y202.384 E0.14209
G1 X174.227 Y201.228 E0.13557
G1 X177.54 Y199.693 E0.15613
G1 X180.336 Y198.186 E0.13582
G1 X183.159 Y196.442 E0.14184
G1 X185.881 Y194.526 E0.14234
G1 X188.359 Y192.553 E0.13543
G1 X190.971 Y190.211 E0.14999
G1 X193.295 Y187.852 E0.14159
G1 X195.387 Y185.462 E0.13582
G1 X197.621 Y182.573 E0.15613
G1 X199.405 Y179.952 E0.13557
G1 X201.109 Y177.099 E0.14209
G1 X202.64 Y174.149 E0.14209
G1 X203.935 Y171.248 E0.13582
G1 X205.216 Y167.835 E0.15588
G1 X206.15 Y164.799 E0.13582
G1 X206.938 Y161.57 E0.14209
G1 X207.531 Y158.3 E0.14209
G1 X207.913 Y155.147 E0.13582
G1 X208.132 Y151.496 E0.15638
G1 X208.129 Y148.331 E0.13532
G1 X207.93 Y145.014 E0.14209
G1 X207.534 Y141.714 E0.14209
G1 X206.969 Y138.588 E0.13582
G1 X206.105 Y135.046 E0.15588
G1 X205.166 Y132.011 E0.13582
G1 X203.998 Y128.9 E0.14209
G1 X202.647 Y125.864 E0.14209
G1 X201.186 Y123.043 E0.13582
G1 X199.313 Y119.909 E0.15613
G1 X197.524 Y117.29 E0.13557
G1 X195.491 Y114.661 E0.14209
G1 X193.305 Y112.159 E0.14209
G1 X191.082 Y109.898 E0.13557
G1 X188.369 Y107.454 E0.15613
G1 X185.883 Y105.476 E0.13582
G1 X183.166 Y103.563 E0.14209
G1 X180.339 Y101.816 E0.14209
G1 X177.543 Y100.308 E0.13582
G1 X174.235 Y98.775 E0.15588
G1 X171.277 Y97.617 E0.13582
G1 X168.116 Y96.59 E0.14209
G1 X164.9 Y95.754 E0.14209
G1 X161.789 Y95.138 E0.13557
G1 X158.171 Y94.648 E0.15613
G1 X155.003 Y94.413 E0.13582
G1 X151.768 Y94.363 E0.13833
G1 X148.191 Y94.527 E0.15312
G1 X145.038 Y94.861 E0.13557
G1 X141.753 Y95.407 E0.14234
G1 X138.519 Y96.145 E0.14184
G1 X135.469 Y97.033 E0.13582
G1 X132.032 Y98.265 E0.15613
G1 X129.117 Y99.514 E0.13557
G1 X126.145 Y101.001 E0.14209
G1 X123.267 Y102.662 E0.14209
G1 X120.614 Y104.41 E0.13582
G1 X117.697 Y106.596 E0.15588
G1 X115.276 Y108.652 E0.13582
G1 X112.921 Y110.903 E0.13927
G1 X113.069 Y111.058 F9000
M204 S500
G1 X113.217 Y111.213
G1 F600
G1 X113.179 Y111.249 E0.00224
G1 X110.936 Y113.667 E0.141
G1 X108.93 Y116.102 E0.1349
G1 X106.886 Y118.904 E0.14831
G1 X105.116 Y121.674 E0.14052
G1 X103.574 Y124.435 E0.13521
G1 X102.009 Y127.686 E0.15425
G1 X100.816 Y130.603 E0.13473
G1 X99.751 Y133.723 E0.141
G1 X98.873 Y136.902 E0.141
G1 X98.213 Y139.995 E0.13521
G1 X97.676 Y143.557 E0.15401
G1 X97.396 Y146.702 E0.13497
G1 X97.297 Y149.998 E0.141
G1 X97.395 Y153.294 E0.141
G1 X97.676 Y156.444 E0.13521
G1 X98.213 Y160.006 E0.15401
G1 X98.872 Y163.094 E0.13497
G1 X99.749 Y166.273 E0.141
G1 X100.815 Y169.394 E0.141
G1 X102.009 Y172.314 E0.1349
G1 X103.572 Y175.562 E0.15409
G1 X105.114 Y178.323 E0.13521
G1 X106.887 Y181.097 E0.14076
G1 X108.93 Y183.898 E0.14823
G1 X110.933 Y186.33 E0.13473
G1 X113.18 Y188.752 E0.14124
G1 X115.56 Y191.027 E0.14076
G1 X117.971 Y193.074 E0.13521
G1 X120.853 Y195.235 E0.15401
G1 X123.489 Y196.972 E0.13497
G1 X126.345 Y198.62 E0.141
G1 X129.295 Y200.096 E0.141
G1 X132.202 Y201.341 E0.13521
G1 X135.587 Y202.555 E0.15377
G1 X138.624 Y203.439 E0.13521
G1 X141.839 Y204.173 E0.141
G1 X145.092 Y204.714 E0.141
G1 X148.237 Y205.047 E0.13521
G1 X151.762 Y205.209 E0.15088
G1 X154.986 Y205.159 E0.13787
G1 X158.14 Y204.925 E0.13521
G1 X161.704 Y204.442 E0.15377
G1 X164.801 Y203.829 E0.13497
G1 X167.993 Y202.999 E0.141
G1 X171.129 Y201.98 E0.141
G1 X174.074 Y200.827 E0.13521
G1 X177.343 Y199.313 E0.15401
G1 X180.122 Y197.815 E0.13497
G1 X182.922 Y196.085 E0.14076
G1 X185.624 Y194.183 E0.14124
G1 X188.092 Y192.218 E0.1349
G1 X190.674 Y189.902 E0.14831
G1 X192.981 Y187.561 E0.14052
G1 X195.064 Y185.181 E0.13521
G1 X197.267 Y182.331 E0.15401
G1 X199.043 Y179.722 E0.13497
G1 X200.735 Y176.89 E0.141
G1 X202.254 Y173.963 E0.141
G1 X203.543 Y171.075 E0.13521
G1 X204.808 Y167.703 E0.15401
G1 X205.737 Y164.685 E0.13497
G1 X206.518 Y161.482 E0.141
G1 X207.108 Y158.237 E0.141
G1 X207.488 Y155.097 E0.13521
G1 X207.703 Y151.496 E0.15426
G1 X207.701 Y148.345 E0.13473
G1 X207.503 Y145.053 E0.141
G1 X207.11 Y141.778 E0.141
G1 X206.548 Y138.666 E0.13521
G1 X205.694 Y135.167 E0.15401
G1 X204.761 Y132.151 E0.13497
G1 X203.602 Y129.063 E0.141
G1 X202.261 Y126.05 E0.141
G1 X200.806 Y123.242 E0.13521
G1 X198.959 Y120.15 E0.15401
G1 X197.178 Y117.543 E0.13497
G1 X195.161 Y114.934 E0.141
G1 X192.991 Y112.45 E0.141
G1 X190.779 Y110.201 E0.1349
G1 X188.101 Y107.789 E0.15409
G1 X185.627 Y105.819 E0.13521
G1 X182.93 Y103.921 E0.141
G1 X180.125 Y102.187 E0.141
G1 X177.341 Y100.686 E0.13521
G1 X174.078 Y99.174 E0.15377
G1 X171.133 Y98.021 E0.13521
G1 X167.997 Y97.002 E0.141
G1 X164.805 Y96.172 E0.141
G1 X161.71 Y95.56 E0.1349
G1 X158.139 Y95.075 E0.15409
G1 X154.985 Y94.841 E0.13521
G1 X151.766 Y94.791 E0.13763
G1 X148.235 Y94.954 E0.15112
G1 X145.096 Y95.286 E0.13497
G1 X141.837 Y95.827 E0.14124
G1 X138.627 Y96.56 E0.14076
G1 X135.591 Y97.444 E0.13521
G1 X132.2 Y98.659 E0.15401
G1 X129.298 Y99.902 E0.13497
G1 X126.349 Y101.378 E0.141
G1 X123.492 Y103.026 E0.141
G1 X120.852 Y104.766 E0.13521
G1 X117.974 Y106.924 E0.15377
G1 X115.563 Y108.97 E0.13521
G1 X113.261 Y111.172 E0.13619
G1 E-1.2 F3000
M204 S1500
G1 X122.054 Y139.894 F9000
M204 S500
G1 X130.848 Y168.616
G1 E1.2 F1800
;TYPE:Internal perimeter
G1 F600
G1 X130.653 Y168.592 E0.00839
G1 X129.209 Y168.245 E0.06348
G1 X128.34 Y168.094 E0.03771
G1 X127.364 Y168.16 E0.04184
G1 X126.431 Y168.455 E0.04184
G1 X125.594 Y168.962 E0.04184
G1 X124.93 Y169.624 E0.0401
G1 X123.754 Y171.266 E0.08635
G1 X122.755 Y172.974 E0.08461
G1 X121.916 Y174.766 E0.08461
G1 X121.244 Y176.628 E0.08461
G1 X120.746 Y178.543 E0.08461
G1 X120.588 Y179.506 E0.04171
G1 X120.271 Y179.532 E0.0136
G1 X119.431 Y177.048 E0.11211
G1 X119.404 Y176.965 E0.00375
G1 X119.38 Y176.885 E0.00359
G1 X118.522 Y173.877 E0.1337
G1 X118.461 Y173.652 E0.00999
G1 X117.725 Y170.497 E0.13848
G1 X117.694 Y170.355 E0.00621
G1 X117.112 Y167.168 E0.13853
G1 X117.088 Y167.025 E0.00621
G1 X116.662 Y163.813 E0.13853
G1 X116.645 Y163.669 E0.00621
G1 X116.375 Y160.44 E0.13853
G1 X116.365 Y160.295 E0.00621
G1 X116.252 Y157.057 E0.13853
G1 X116.249 Y156.911 E0.00621
G1 X116.293 Y153.672 E0.13853
G1 X116.297 Y153.526 E0.00621
G1 X116.499 Y150.292 E0.13853
G1 X116.51 Y150.148 E0.00621
G1 X116.868 Y146.927 E0.13853
G1 X116.886 Y146.783 E0.00621
G1 X117.4 Y143.584 E0.13853
G1 X117.425 Y143.441 E0.00621
G1 X118.094 Y140.271 E0.13853
G1 X118.128 Y140.12 E0.00662
G1 X118.957 Y136.958 E0.13977
G1 X118.987 Y136.854 E0.00459
G1 X119.021 Y136.743 E0.00498
G1 X119.962 Y133.756 E0.13392
G1 X119.995 Y133.655 E0.00454
G1 X120.017 Y133.596 E0.0027
G1 X121.144 Y130.543 E0.13912
G1 X121.167 Y130.481 E0.00284
G1 X121.191 Y130.422 E0.00272
G1 X121.219 Y130.356 E0.00306
G1 X122.447 Y127.47 E0.13411
G1 X122.475 Y127.405 E0.00301
G1 X122.545 Y127.259 E0.0069
G1 X123.956 Y124.343 E0.1385
G1 X124.027 Y124.212 E0.0064
G1 X125.578 Y121.368 E0.1385
G1 X125.655 Y121.24 E0.0064
G1 X127.342 Y118.474 E0.1385
G1 X127.426 Y118.35 E0.0064
G1 X129.246 Y115.67 E0.1385
G1 X129.335 Y115.55 E0.0064
G1 X131.283 Y112.962 E0.1385
G1 X131.41 Y112.809 E0.00849
G1 X131.705 Y112.974 E0.01446
G1 X130.747 Y115.827 E0.12869
G1 X130.675 Y116.045 E0.00984
G1 X129.599 Y119.734 E0.16427
G1 X129.535 Y119.955 E0.00984
G1 X128.608 Y123.683 E0.16427
G1 X128.555 Y123.9 E0.00952
G1 X128.538 Y123.976 E0.00334
G1 X128.528 Y124.024 E0.00211
G1 X127.774 Y127.673 E0.15932
G1 X127.746 Y127.815 E0.00616
G1 X127.732 Y127.888 E0.00321
G1 X127.708 Y128.025 E0.00594
G1 X127.101 Y131.701 E0.15928
G1 X127.093 Y131.747 E0.00201
G1 X127.086 Y131.794 E0.00203
G1 X127.08 Y131.831 E0.00159
G1 X127.057 Y132.003 E0.00741
G1 X126.583 Y135.81 E0.16405
G1 X126.564 Y135.991 E0.00779
G1 X126.243 Y139.815 E0.16404
G1 X126.23 Y139.997 E0.00779
G1 X126.062 Y143.83 E0.16405
G1 X126.057 Y143.96 E0.00556
G1 X126.055 Y143.98 E0.00089
G1 X125.966 Y145.24 E0.05399
G1 X125.964 Y145.348 E0.00462
G1 X125.971 Y145.467 E0.00511
G1 X126.053 Y146.691 E0.05243
G1 X126.077 Y146.847 E0.00674
G1 X126.326 Y148.05 E0.05254
G1 X126.367 Y148.202 E0.00674
G1 X126.779 Y149.36 E0.05254
G1 X126.835 Y149.507 E0.00674
G1 X127.405 Y150.603 E0.05281
G1 X127.478 Y150.746 E0.00684
G1 X127.551 Y150.856 E0.00567
G1 X128.294 Y151.902 E0.05484
G1 X128.368 Y151.989 E0.00488
G1 X128.403 Y152.028 E0.00226
G1 X129.232 Y152.91 E0.05175
G1 X129.305 Y152.981 E0.00434
G1 X129.381 Y153.048 E0.00432
G1 X130.319 Y153.804 E0.05152
G1 X130.382 Y153.853 E0.00341
G1 X130.427 Y153.885 E0.00235
G1 X130.51 Y153.938 E0.0042
G1 X131.61 Y154.598 E0.05487
G1 X131.728 Y154.655 E0.00559
G1 X132.908 Y155.159 E0.05487
G1 X133.032 Y155.202 E0.00559
G1 X134.27 Y155.539 E0.05487
G1 X134.398 Y155.566 E0.00559
G1 X135.671 Y155.73 E0.05487
G1 X135.77 Y155.74 E0.00427
G1 X135.822 Y155.742 E0.0022
G1 X135.884 Y155.743 E0.00267
G1 X137.078 Y155.732 E0.05105
G1 X137.139 Y155.73 E0.0026
G1 X137.237 Y155.724 E0.00423
G1 X138.489 Y155.539 E0.05408
G1 X138.626 Y155.518 E0.00595
G1 X139.868 Y155.155 E0.05529
G1 X140.001 Y155.115 E0.00595
G1 X141.181 Y154.586 E0.05529
G1 X141.308 Y154.528 E0.00595
G1 X142.489 Y153.788 E0.05961
G1 X145.529 Y151.579 E0.16066
G1 X145.57 Y151.548 E0.0022
G1 X145.61 Y151.518 E0.00215
G1 X146.788 Y150.599 E0.06385
G1 X146.828 Y150.567 E0.0022
G1 X146.856 Y150.544 E0.00157
G1 X146.938 Y150.472 E0.00467
G1 X148.117 Y149.418 E0.06761
G1 X148.204 Y149.33 E0.0053
G1 X149.308 Y148.198 E0.06761
G1 X149.389 Y148.104 E0.0053
G1 X150.576 Y146.711 E0.07825
G1 X150.688 Y147.097 E0.0172
G1 X154.334 Y147.097 E0.15587
G1 X154.447 Y146.711 E0.0172
G1 X155.634 Y148.104 E0.07825
G1 X155.714 Y148.198 E0.0053
G1 X156.819 Y149.33 E0.06761
G1 X156.906 Y149.418 E0.0053
G1 X158.084 Y150.472 E0.06761
G1 X158.166 Y150.544 E0.00467
G1 X158.195 Y150.567 E0.00157
G1 X158.235 Y150.599 E0.0022
G1 X159.412 Y151.518 E0.06385
G1 X159.452 Y151.548 E0.00215
G1 X159.494 Y151.579 E0.0022
G1 X162.533 Y153.788 E0.16066
G1 X163.715 Y154.528 E0.05961
G1 X163.842 Y154.586 E0.00595
G1 X165.021 Y155.115 E0.05529
G1 X165.155 Y155.155 E0.00595
G1 X166.396 Y155.518 E0.05531
G1 X166.578 Y155.545 E0.00784
G1 X167.785 Y155.724 E0.05217
G1 X167.884 Y155.73 E0.00423
G1 X167.944 Y155.732 E0.0026
G1 X169.138 Y155.743 E0.05105
G1 X169.201 Y155.742 E0.00267
G1 X169.252 Y155.74 E0.0022
G1 X169.351 Y155.73 E0.00427
G1 X170.624 Y155.566 E0.05487
G1 X170.752 Y155.539 E0.00559
G1 X171.991 Y155.202 E0.05487
G1 X172.114 Y155.159 E0.00559
G1 X173.295 Y154.655 E0.05487
G1 X173.412 Y154.598 E0.00559
G1 X174.513 Y153.938 E0.05487
G1 X174.595 Y153.885 E0.0042
G1 X174.64 Y153.853 E0.00235
G1 X174.703 Y153.804 E0.00341
G1 X175.642 Y153.048 E0.05152
G1 X175.718 Y152.981 E0.00432
G1 X175.79 Y152.91 E0.00434
G1 X176.619 Y152.028 E0.05175
G1 X176.654 Y151.989 E0.00226
G1 X176.729 Y151.902 E0.00488
G1 X177.471 Y150.856 E0.05484
G1 X177.543 Y150.748 E0.00557
G1 X178.135 Y149.61 E0.05483
G1 X178.189 Y149.503 E0.00511
G1 X178.243 Y149.36 E0.00655
G1 X178.656 Y148.202 E0.05254
G1 X178.696 Y148.05 E0.00674
G1 X178.945 Y146.847 E0.05254
G1 X178.97 Y146.691 E0.00674
G1 X179.052 Y145.467 E0.05243
G1 X179.059 Y145.348 E0.00511
G1 X179.057 Y145.24 E0.00462
G1 X178.968 Y143.98 E0.05399
G1 X178.966 Y143.96 E0.00089
G1 X178.96 Y143.83 E0.00556
G1 X178.792 Y139.997 E0.16405
G1 X178.779 Y139.815 E0.00779
G1 X178.458 Y135.991 E0.16405
G1 X178.439 Y135.81 E0.00779
G1 X177.965 Y132.003 E0.16405
G1 X177.942 Y131.831 E0.00741
G1 X177.936 Y131.794 E0.00159
G1 X177.929 Y131.747 E0.00203
G1 X177.922 Y131.701 E0.00201
G1 X177.314 Y128.025 E0.15928
G1 X177.29 Y127.888 E0.00594
G1 X177.276 Y127.815 E0.00321
G1 X177.249 Y127.673 E0.00616
G1 X176.494 Y124.024 E0.15932
G1 X176.484 Y123.976 E0.00211
G1 X176.467 Y123.9 E0.00334
G1 X176.414 Y123.683 E0.00952
G1 X175.487 Y119.955 E0.16427
G1 X175.423 Y119.734 E0.00984
G1 X174.348 Y116.045 E0.16427
G1 X174.275 Y115.827 E0.00984
G1 X173.317 Y112.973 E0.12869
G1 X173.613 Y112.809 E0.01446
G1 X173.74 Y112.962 E0.00849
G1 X175.687 Y115.55 E0.1385
G1 X175.777 Y115.67 E0.0064
G1 X177.596 Y118.35 E0.1385
G1 X177.68 Y118.474 E0.0064
G1 X179.367 Y121.24 E0.1385
G1 X179.445 Y121.368 E0.0064
G1 X180.996 Y124.212 E0.1385
G1 X181.067 Y124.343 E0.0064
G1 X182.478 Y127.259 E0.1385
G1 X182.547 Y127.405 E0.0069
G1 X182.575 Y127.47 E0.00301
G1 X183.803 Y130.356 E0.13411
G1 X183.831 Y130.422 E0.00306
G1 X183.855 Y130.481 E0.00272
G1 X183.879 Y130.543 E0.00284
G1 X185.006 Y133.596 E0.13913
G1 X185.027 Y133.655 E0.0027
G1 X185.061 Y133.756 E0.00454
G1 X186.001 Y136.743 E0.13392
G1 X186.036 Y136.854 E0.00498
G1 X186.065 Y136.958 E0.00459
G1 X186.894 Y140.12 E0.13977
G1 X186.928 Y140.271 E0.00662
G1 X187.597 Y143.441 E0.13853
G1 X187.622 Y143.584 E0.00621
G1 X188.136 Y146.783 E0.13853
G1 X188.154 Y146.927 E0.00621
G1 X188.513 Y150.148 E0.13853
G1 X188.524 Y150.292 E0.00621
G1 X188.725 Y153.526 E0.13853
G1 X188.729 Y153.672 E0.00621
G1 X188.774 Y156.911 E0.13853
G1 X188.771 Y157.057 E0.00621
G1 X188.658 Y160.295 E0.13853
G1 X188.648 Y160.44 E0.00621
G1 X188.378 Y163.669 E0.13853
G1 X188.361 Y163.813 E0.00621
G1 X187.934 Y167.025 E0.13853
G1 X187.91 Y167.168 E0.00621
G1 X187.328 Y170.355 E0.13853
G1 X187.297 Y170.497 E0.00621
G1 X186.561 Y173.653 E0.13853
G1 X186.522 Y173.797 E0.00637
G1 X186.501 Y173.875 E0.00346
G1 X185.643 Y176.885 E0.13381
G1 X185.618 Y176.965 E0.00359
G1 X185.591 Y177.048 E0.00375
G1 X184.751 Y179.532 E0.11211
G1 X184.434 Y179.506 E0.0136
G1 X184.276 Y178.543 E0.04171
G1 X183.778 Y176.628 E0.08461
G1 X183.107 Y174.766 E0.08461
G1 X182.268 Y172.974 E0.08461
G1 X181.268 Y171.266 E0.08461
G1 X180.092 Y169.624 E0.08635
G1 X179.428 Y168.962 E0.0401
G1 X178.591 Y168.455 E0.04184
G1 X177.658 Y168.16 E0.04184
G1 X176.682 Y168.094 E0.04184
G1 X175.813 Y168.245 E0.03771
G1 X174.369 Y168.592 E0.06348
G1 X172.991 Y168.765 E0.05937
G1 X171.603 Y168.784 E0.05937
G1 X170.221 Y168.649 E0.05937
G1 X168.862 Y168.363 E0.05937
G1 X167.543 Y167.927 E0.05937
G1 X166.281 Y167.348 E0.05937
G1 X165.046 Y166.606 E0.06163
G1 X163.845 Y165.859 E0.06044
G1 X162.541 Y165.189 E0.06269
G1 X161.187 Y164.626 E0.06269
G1 X159.813 Y164.182 E0.06174
G1 X152.511 Y162.142 E0.32416
G1 X145.209 Y164.182 E0.32416
