; generated by SuperSlicer 2.4 on 2022-06-06 at 22:57:25 UTC


;
;

;
;
; 

; external perimeters extrusion width = 0.40mm
; perimeters extrusion width = 0.48mm
; infill extrusion width = 0.72mm
; solid infill extrusion width = 0.56mm
; top infill extrusion width = 0.40mm
; support material extrusion width = 0.40mm
; first layer extrusion width = 0.48mm

; object:{"name":"SexBolt_EndstopHousingBlank","id":"SexBolt_EndstopHousingBlank.stl id:0 copy 0","object_center":[165.000001,165.000001,0.000000],"boundingbox_center":[165.000001,165.000001,13.975000],"boundingbox_size":[44.500000,30.400003,27.950001]}
; plater:{"center":[165.000001,165.000001,0.000000],"boundingbox_center":[165.000001,165.000001,13.975000],"boundingbox_size":[44.500000,30.400003,27.950001]}

M73 P0 R44
;TYPE:Custom
START_PRINT T_BED=110 T_EXTRUDER=245
M107
G21 ; set units to millimeters
G90 ; use absolute coordinates
M83 ; use relative distances for extrusion
; Filament gcode
M104 S245 ; set temperature
M109 S245 ; set temperature and wait for it to be reached
M190 S110 ; set bed temperature and wait for it to be reached
M107
;LAYER_CHANGE
;Z:0.24
;HEIGHT:0.24
G1 Z0.24 F9000
G92 E0
M73 P0 R43
G1 E-0.5 F3000
M204 S1000
G1 X139.675 Y147.523 F9000
G1 E0.5 F1800
;TYPE:Skirt
;WIDTH:0.52
G1 X136.623 Y150.412 E0.19251
G1 X135.745 Y151.639 E0.0691
G1 X135.35 Y153.41 E0.08313
G1 X135.373 Y179.177 E1.18046
G1 X135.641 Y180.857 E0.07792
G1 X136.294 Y182.571 E0.08404
G1 X137.289 Y184.113 E0.08405
G1 X138.583 Y185.413 E0.08404
G1 X139.868 Y186.283 E0.0711
G1 X141.021 Y186.813 E0.05813
G1 X142.728 Y187.272 E0.08096
G1 X143.99 Y187.382 E0.05807
G1 X185.628 Y187.377 E1.90749
G1 X186.739 Y187.277 E0.0511
G1 X187.664 Y187.093 E0.04323
G1 X189.376 Y186.47 E0.08344
G1 X190.933 Y185.526 E0.08343
G1 X191.565 Y185.008 E0.03742
G1 X192.795 Y183.665 E0.08343
G1 X193.621 Y182.347 E0.07128
G1 X194.11 Y181.207 E0.05681
G1 X194.5 Y179.766 E0.0684
G1 X194.637 Y178.533 E0.05682
G1 X194.637 Y170.373 E0.37384
G1 X194.557 Y169.56 E0.03742
G1 X194.124 Y167.791 E0.08343
G1 X193.762 Y166.919 E0.04326
G1 X193.164 Y165.832 E0.05683
G1 X191.872 Y164.235 E0.0941
G1 X173.776 Y146.936 E1.1469
G1 X172.897 Y146.273 E0.0504
G1 X171.695 Y145.688 E0.06126
M73 P1 R43
G1 X170.913 Y145.451 E0.03741
G1 X169.626 Y145.276 E0.0595
G1 X144.644 Y145.264 E1.1445
G1 X143.586 Y145.356 E0.04863
G1 X141.875 Y145.875 E0.08191
G1 X140.622 Y146.626 E0.06692
G1 X139.675 Y147.523 E0.05978
G1 X139.995 Y147.861 F9000
G1 F1800
G1 X136.947 Y150.748 E0.19231
G1 X136.211 Y151.747 E0.05686
G1 X135.817 Y153.41 E0.07828
G1 X135.837 Y179.129 E1.17822
G1 X136.085 Y180.713 E0.07346
G1 X136.698 Y182.338 E0.07958
G1 X137.636 Y183.801 E0.07959
G1 X138.857 Y185.036 E0.07958
G1 X140.08 Y185.868 E0.06775
G1 X141.165 Y186.37 E0.05478
G1 X142.776 Y186.808 E0.0765
G1 X143.99 Y186.915 E0.05583
G1 X185.605 Y186.911 E1.90644
G1 X186.648 Y186.82 E0.04796
G1 X187.573 Y186.635 E0.04323
G1 X189.198 Y186.04 E0.07926
G1 X190.674 Y185.138 E0.07925
G1 X191.235 Y184.678 E0.03323
G1 X192.407 Y183.406 E0.07925
G1 X193.199 Y182.147 E0.06814
G1 X193.664 Y181.072 E0.05367
G1 X194.039 Y179.697 E0.06526
G1 X194.171 Y178.533 E0.05367
G1 X194.171 Y170.373 E0.37384
G1 X194.1 Y169.651 E0.03323
G1 X193.693 Y167.97 E0.07925
G1 X193.332 Y167.097 E0.04326
G1 X192.764 Y166.072 E0.05369
G1 X191.55 Y164.572 E0.0884
G1 X173.48 Y147.296 E1.14527
G1 X172.658 Y146.673 E0.04726
G1 X171.516 Y146.119 E0.05812
G1 X170.822 Y145.909 E0.03322
G1 X169.626 Y145.743 E0.05532
G1 X144.643 Y145.73 E1.1445
G1 X143.677 Y145.813 E0.04443
G1 X142.054 Y146.306 E0.07772
G1 X140.918 Y146.986 E0.06065
G1 X139.995 Y147.861 E0.05826
G1 X140.315 Y148.199 F9000
G1 F1800
G1 X137.271 Y151.083 E0.19212
G1 X136.677 Y151.863 E0.04492
G1 X136.283 Y153.41 E0.07311
G1 X136.301 Y179.08 E1.17599
G1 X136.528 Y180.569 E0.069
G1 X137.102 Y182.105 E0.07512
G1 X137.982 Y183.488 E0.07513
G1 X139.131 Y184.659 E0.07512
G1 X140.291 Y185.452 E0.0644
G1 X141.309 Y185.926 E0.05144
G1 X142.825 Y186.344 E0.07204
G1 X143.99 Y186.449 E0.0536
G1 X185.582 Y186.445 E1.90539
G1 X186.557 Y186.362 E0.04482
G1 X187.482 Y186.178 E0.04323
G1 X189.019 Y185.609 E0.07508
G1 X190.415 Y184.751 E0.07507
G1 X190.905 Y184.348 E0.02904
G1 X192.019 Y183.147 E0.07507
G1 X192.778 Y181.948 E0.065
G1 X193.218 Y180.936 E0.05053
G1 X193.578 Y179.629 E0.06212
G1 X193.705 Y178.533 E0.05053
G1 X193.705 Y170.373 E0.37384
G1 X193.642 Y169.742 E0.02904
G1 X193.262 Y168.148 E0.07507
G1 X192.901 Y167.276 E0.04326
G1 X192.364 Y166.312 E0.05055
G1 X191.227 Y164.909 E0.08271
G1 X173.184 Y147.657 E1.14365
G1 X172.418 Y147.073 E0.04412
G1 X171.338 Y146.55 E0.05498
G1 X170.731 Y146.366 E0.02904
G1 X169.626 Y146.209 E0.05115
G1 X144.643 Y146.197 E1.1445
G1 X143.768 Y146.271 E0.04024
G1 X142.232 Y146.737 E0.07353
G1 X141.214 Y147.347 E0.05438
G1 X140.315 Y148.199 E0.05674
G1 E-0.5 F3000
; printing object SexBolt_EndstopHousingBlank.stl id:0 copy 0
; acceleration to travel
M204 S3000
G1 X140.315 Y152.107 F9000
; decel to extrusion
M204 S1000
G1 X140.315 Y153.41
; end travel
G1 E0.5 F1800
;TYPE:Support material
;WIDTH:0.48
G1 X141.408 Y153.41 E0.04579
G1 X141.408 Y155.935 E0.10579
G1 X141.849 Y156.376 E0.02618
G1 X145.456 Y156.376 E0.15113
G1 X145.456 Y163.565 E0.30122
G1 X141.849 Y163.565 E0.15115
G1 X141.407 Y164.009 E0.02624
G1 X141.411 Y165.176 E0.0489
G1 X141.412 Y165.653 E0.01999
G1 X141.415 Y166.607 E0.03998
G1 X141.417 Y167.084 E0.01999
G1 X141.418 Y167.561 E0.01999
G1 X141.42 Y168.065 E0.02111
G1 X141.427 Y168.138 E0.00305
G1 X141.535 Y168.679 E0.02315
G1 X141.55 Y168.733 E0.00233
G1 X141.603 Y168.881 E0.00659
G1 X141.649 Y169.009 E0.00572
G1 X141.671 Y169.06 E0.00233
G1 X141.721 Y169.153 E0.00442
G1 X141.8 Y169.301 E0.00702
G1 X141.929 Y169.542 E0.01144
G1 X141.959 Y169.589 E0.00233
G1 X142.134 Y169.825 E0.01231
G1 X142.17 Y169.867 E0.00233
G1 X142.561 Y170.258 E0.02317
G1 X142.598 Y170.288 E0.00202
G1 X142.618 Y170.305 E0.00109
G1 X142.876 Y170.477 E0.01301
G1 X143.083 Y170.616 E0.01044
G1 X143.125 Y170.638 E0.00197
G1 X143.149 Y170.651 E0.00113
G1 X143.407 Y170.758 E0.01172
G1 X143.659 Y170.862 E0.01144
G1 X143.712 Y170.88 E0.00233
G1 X143.794 Y170.9 E0.00353
G1 X143.997 Y170.951 E0.00878
G1 X144.052 Y170.96 E0.00233
G1 X144.324 Y170.987 E0.01144
G1 X144.456 Y171 E0.00558
G1 X144.589 Y171.013 E0.00558
G1 X144.626 Y171.015 E0.00155
G1 X145.032 Y171.015 E0.01704
G1 X147.164 Y171.015 E0.08933
G1 X147.169 Y175.561 E0.19049
G1 X165.026 Y175.562 E0.74824
G1 X165.176 Y174.941 E0.02677
G1 X165.641 Y173.015 E0.08304
G1 X165.788 Y172.406 E0.02624
G1 X166.274 Y171.535 E0.0418
G1 X166.701 Y171.102 E0.02547
G1 X166.787 Y171.015 E0.00513
G1 X169.395 Y171.015 E0.10927
G1 X169.432 Y171.013 E0.00155
G1 X169.697 Y170.987 E0.01115
G1 X169.902 Y170.967 E0.00862
G1 X169.969 Y170.96 E0.00282
G1 X170.023 Y170.951 E0.00233
G1 X170.308 Y170.88 E0.01231
G1 X170.361 Y170.862 E0.00233
G1 X170.866 Y170.653 E0.02288
G1 X170.915 Y170.628 E0.00233
G1 X171.167 Y170.477 E0.01231
G1 X171.213 Y170.445 E0.00233
G1 X171.64 Y170.094 E0.02316
G1 X171.692 Y170.042 E0.00311
G1 X171.87 Y169.826 E0.01172
G1 X172.043 Y169.615 E0.01144
G1 X172.075 Y169.569 E0.00233
G1 X172.144 Y169.455 E0.00559
G1 X172.226 Y169.317 E0.00672
G1 X172.251 Y169.268 E0.00233
G1 X172.356 Y169.015 E0.01144
G1 X172.463 Y168.757 E0.01172
G1 X172.476 Y168.714 E0.00186
G1 X172.484 Y168.686 E0.00124
G1 X172.539 Y168.412 E0.01172
G1 X172.593 Y168.137 E0.01172
G1 X172.601 Y168.063 E0.00311
G1 X172.601 Y167.54 E0.02194
G1 X172.601 Y165.753 E0.07485
G1 X185.423 Y165.753 E0.53728
G1 X185.79 Y165.771 E0.01539
G1 X185.926 Y165.778 E0.00567
G1 X186.271 Y165.847 E0.01476
G1 X186.851 Y165.962 E0.0248
G1 X187.236 Y166.121 E0.01743
G1 X187.723 Y166.323 E0.02211
G1 X188.262 Y166.646 E0.02633
G1 X188.992 Y167.245 E0.03955
G1 X189.591 Y167.974 E0.03954
G1 X189.645 Y168.065 E0.00443
G1 X189.914 Y168.513 E0.0219
G1 X190.066 Y168.881 E0.01667
G1 X190.275 Y169.385 E0.02288
G1 X190.471 Y170.373 E0.04218
G1 X190.471 Y178.533 E0.34192
G1 X190.379 Y179.155 E0.02632
G1 X190.27 Y179.516 E0.01584
G1 X190.124 Y179.998 E0.02108
G1 X189.855 Y180.566 E0.02633
G1 X189.331 Y181.35 E0.03955
G1 X188.619 Y182.062 E0.04218
G1 X188.336 Y182.251 E0.01425
G1 X187.782 Y182.622 E0.02793
G1 X187.228 Y182.851 E0.02513
G1 X186.852 Y183.007 E0.01706
G1 X185.926 Y183.191 E0.03954
G1 X185.423 Y183.216 E0.02109
G1 X143.99 Y183.216 E1.73606
G1 X143.163 Y183.129 E0.03486
G1 X142.308 Y182.851 E0.03766
G1 X141.759 Y182.571 E0.02583
G1 X141.031 Y182.043 E0.03767
G1 X140.385 Y181.325 E0.04049
G1 X139.902 Y180.488 E0.04048
G1 X139.603 Y179.569 E0.04048
G1 X139.56 Y179.155 E0.01748
G1 X139.549 Y179.058 E0.00408
G1 X139.54 Y178.972 E0.00363
G1 X139.516 Y178.742 E0.00968
G1 X139.516 Y166.556 E0.51058
G1 X139.516 Y153.41 E0.55084
G1 X140.315 Y153.41 E0.03347
G1 E-0.5 F3000
; acceleration to travel
M204 S3000
G1 X177.397 Y173.742 F9000
; decel to extrusion
M204 S1000
G1 X189.758 Y180.519
; end travel
G1 E0.5 F1800
G1 X189.758 Y168.897 E0.48694
G1 X189.653 Y168.645 E0.01147
G1 X189.395 Y168.215 E0.021
G1 X189.352 Y168.143 E0.00353
G1 X189.281 Y168.057 E0.00465
G1 X189.281 Y180.9 E0.53812
G1 X189.104 Y181.165 E0.01336
G1 X188.805 Y181.464 E0.01772
G1 X188.805 Y167.477 E0.58606
G1 X188.785 Y167.452 E0.00134
G1 X188.329 Y167.078 E0.02471
G1 X188.329 Y181.905 E0.62128
G1 X188.174 Y182.009 E0.00782
G1 X187.853 Y182.224 E0.01618
G1 X187.853 Y166.741 E0.64874
G1 X187.592 Y166.584 E0.01276
G1 X187.377 Y166.495 E0.00975
G1 X187.377 Y182.474 E0.66952
G1 X187.116 Y182.582 E0.01182
G1 X186.901 Y182.671 E0.00977
G1 X186.901 Y166.298 E0.68605
G1 X186.766 Y166.242 E0.0061
G1 X186.425 Y166.174 E0.0146
G1 X186.425 Y182.795 E0.69641
G1 X185.949 Y182.89 E0.02034
G1 X185.949 Y166.08 E0.70434
G1 X185.89 Y166.068 E0.00251
G1 X185.776 Y166.062 E0.00477
G1 X185.473 Y166.047 E0.01273
G1 X185.473 Y182.922 E0.70704
G1 X185.416 Y182.924 E0.00237
G1 X184.996 Y182.924 E0.01759
G1 X184.996 Y166.045 E0.70727
G1 X184.52 Y166.045 E0.01995
G1 X184.52 Y182.924 E0.70727
G1 X184.044 Y182.924 E0.01995
G1 X184.044 Y166.045 E0.70727
M73 P2 R43
G1 X183.568 Y166.045 E0.01995
G1 X183.568 Y182.924 E0.70727
G1 X183.092 Y182.924 E0.01995
G1 X183.092 Y166.045 E0.70727
G1 X182.616 Y166.045 E0.01995
G1 X182.616 Y182.924 E0.70727
G1 X182.14 Y182.924 E0.01995
G1 X182.14 Y166.045 E0.70727
G1 X181.664 Y166.045 E0.01995
G1 X181.664 Y182.924 E0.70727
G1 X181.188 Y182.924 E0.01995
G1 X181.188 Y166.045 E0.70727
G1 X180.711 Y166.045 E0.01995
G1 X180.711 Y182.924 E0.70727
G1 X180.235 Y182.924 E0.01995
G1 X180.235 Y166.045 E0.70727
G1 X179.759 Y166.045 E0.01995
G1 X179.759 Y182.924 E0.70727
G1 X179.283 Y182.924 E0.01995
G1 X179.283 Y166.045 E0.70727
G1 X178.807 Y166.045 E0.01995
G1 X178.807 Y182.924 E0.70727
G1 X178.331 Y182.924 E0.01995
G1 X178.331 Y166.045 E0.70727
G1 X177.855 Y166.045 E0.01995
G1 X177.855 Y182.924 E0.70727
G1 X177.379 Y182.924 E0.01995
G1 X177.379 Y166.045 E0.70727
G1 X176.903 Y166.045 E0.01995
G1 X176.903 Y182.924 E0.70727
G1 X176.427 Y182.924 E0.01995
G1 X176.427 Y166.045 E0.70727
M73 P2 R42
G1 X175.95 Y166.045 E0.01995
G1 X175.95 Y182.924 E0.70727
G1 X175.474 Y182.924 E0.01995
G1 X175.474 Y166.045 E0.70727
G1 X174.998 Y166.045 E0.01995
G1 X174.998 Y182.924 E0.70727
G1 X174.522 Y182.924 E0.01995
G1 X174.522 Y166.045 E0.70727
G1 X174.046 Y166.045 E0.01995
G1 X174.046 Y182.924 E0.70727
G1 X173.57 Y182.924 E0.01995
G1 X173.57 Y166.045 E0.70727
G1 X173.094 Y166.045 E0.01995
G1 X173.094 Y182.924 E0.70727
G1 X172.618 Y182.924 E0.01995
G1 X172.618 Y169.144 E0.57741
G1 X172.516 Y169.389 E0.01112
G1 X172.482 Y169.458 E0.00323
G1 X172.394 Y169.605 E0.00717
G1 X172.319 Y169.728 E0.00604
G1 X172.275 Y169.791 E0.00323
G1 X172.142 Y169.954 E0.00882
G1 X172.142 Y182.924 E0.54347
G1 X171.665 Y182.924 E0.01995
G1 X171.665 Y170.45 E0.52267
G1 X171.389 Y170.677 E0.01498
G1 X171.326 Y170.722 E0.00323
G1 X171.189 Y170.804 E0.00668
G1 X171.189 Y182.924 E0.50787
G1 X170.713 Y182.924 E0.01995
G1 X170.713 Y171.032 E0.49831
G1 X170.463 Y171.135 E0.01136
G1 X170.39 Y171.16 E0.00323
G1 X170.237 Y171.198 E0.00658
G1 X170.237 Y182.924 E0.49135
G1 X169.761 Y182.924 E0.01995
G1 X169.761 Y171.274 E0.48817
G1 X169.726 Y171.277 E0.0015
G1 X169.453 Y171.304 E0.01145
G1 X169.402 Y171.306 E0.00215
G1 X169.285 Y171.306 E0.00491
G1 X169.285 Y182.924 E0.4868
G1 X168.809 Y182.924 E0.01995
G1 X168.809 Y171.306 E0.4868
G1 X168.333 Y171.306 E0.01995
G1 X168.333 Y182.924 E0.4868
G1 X167.857 Y182.924 E0.01995
G1 X167.857 Y171.306 E0.4868
G1 X167.381 Y171.306 E0.01995
G1 X167.381 Y182.924 E0.4868
G1 X166.904 Y182.924 E0.01995
G1 X166.904 Y171.311 E0.48661
G1 X166.509 Y171.711 E0.02357
G1 X166.428 Y171.856 E0.00694
G1 X166.428 Y182.924 E0.46378
G1 X165.952 Y182.924 E0.01995
G1 X165.952 Y172.967 E0.41721
G1 X165.924 Y173.083 E0.00499
G1 X165.476 Y174.939 E0.08001
G1 X165.476 Y182.924 E0.33458
G1 X165 Y182.924 E0.01995
G1 X165 Y175.854 E0.29626
G1 X164.524 Y175.854 E0.01995
G1 X164.524 Y182.924 E0.29626
G1 X164.048 Y182.924 E0.01995
G1 X164.048 Y175.854 E0.29626
G1 X163.572 Y175.854 E0.01995
G1 X163.572 Y182.924 E0.29627
G1 X163.096 Y182.924 E0.01995
G1 X163.096 Y175.854 E0.29627
G1 X162.619 Y175.854 E0.01995
G1 X162.619 Y182.924 E0.29627
G1 X162.143 Y182.924 E0.01995
G1 X162.143 Y175.854 E0.29627
G1 X161.667 Y175.854 E0.01995
G1 X161.667 Y182.924 E0.29627
G1 X161.191 Y182.924 E0.01995
G1 X161.191 Y175.854 E0.29627
G1 X160.715 Y175.854 E0.01995
G1 X160.715 Y182.924 E0.29627
G1 X160.239 Y182.924 E0.01995
G1 X160.239 Y175.854 E0.29627
G1 X159.763 Y175.854 E0.01995
G1 X159.763 Y182.924 E0.29628
G1 X159.287 Y182.924 E0.01995
G1 X159.287 Y175.853 E0.29628
G1 X158.811 Y175.853 E0.01995
G1 X158.811 Y182.924 E0.29628
G1 X158.335 Y182.924 E0.01995
G1 X158.335 Y175.853 E0.29628
G1 X157.858 Y175.853 E0.01995
G1 X157.858 Y182.924 E0.29628
G1 X157.382 Y182.924 E0.01995
G1 X157.382 Y175.853 E0.29628
G1 X156.906 Y175.853 E0.01995
G1 X156.906 Y182.924 E0.29628
G1 X156.43 Y182.924 E0.01995
G1 X156.43 Y175.853 E0.29628
G1 X155.954 Y175.853 E0.01995
G1 X155.954 Y182.924 E0.29629
M73 P3 R42
G1 X155.478 Y182.924 E0.01995
G1 X155.478 Y175.853 E0.29629
G1 X155.002 Y175.853 E0.01995
G1 X155.002 Y182.924 E0.29629
G1 X154.526 Y182.924 E0.01995
G1 X154.526 Y175.853 E0.29629
G1 X154.05 Y175.853 E0.01995
G1 X154.05 Y182.924 E0.29629
G1 X153.573 Y182.924 E0.01995
G1 X153.573 Y175.853 E0.29629
G1 X153.097 Y175.853 E0.01995
G1 X153.097 Y182.924 E0.29629
G1 X152.621 Y182.924 E0.01995
G1 X152.621 Y175.853 E0.29629
G1 X152.145 Y175.853 E0.01995
G1 X152.145 Y182.924 E0.2963
G1 X151.669 Y182.924 E0.01995
G1 X151.669 Y175.853 E0.2963
G1 X151.193 Y175.853 E0.01995
G1 X151.193 Y182.924 E0.2963
G1 X150.717 Y182.924 E0.01995
G1 X150.717 Y175.853 E0.2963
G1 X150.241 Y175.853 E0.01995
G1 X150.241 Y182.924 E0.2963
G1 X149.765 Y182.924 E0.01995
G1 X149.765 Y175.853 E0.2963
G1 X149.289 Y175.853 E0.01995
G1 X149.289 Y182.924 E0.2963
G1 X148.812 Y182.924 E0.01995
G1 X148.812 Y175.853 E0.2963
G1 X148.336 Y175.853 E0.01995
G1 X148.336 Y182.924 E0.29631
G1 X147.86 Y182.924 E0.01995
G1 X147.86 Y175.853 E0.29631
G1 X147.384 Y175.853 E0.01995
G1 X147.384 Y182.924 E0.29631
G1 X146.908 Y182.924 E0.01995
G1 X146.908 Y175.853 E0.29631
G1 X146.878 Y175.853 E0.00127
G1 X146.873 Y171.306 E0.19049
G1 X146.432 Y171.306 E0.01849
G1 X146.432 Y182.924 E0.4868
G1 X145.956 Y182.924 E0.01995
G1 X145.956 Y171.306 E0.4868
G1 X145.48 Y171.306 E0.01995
G1 X145.48 Y182.924 E0.4868
G1 X145.004 Y182.924 E0.01995
G1 X145.004 Y171.306 E0.4868
G1 X144.618 Y171.306 E0.01614
G1 X144.582 Y171.305 E0.00154
G1 X144.567 Y171.304 E0.00061
G1 X144.527 Y171.3 E0.00167
G1 X144.527 Y182.924 E0.48707
G1 X144.051 Y182.924 E0.01995
G1 X144.051 Y171.253 E0.48903
G1 X144.013 Y171.249 E0.00163
G1 X143.937 Y171.236 E0.00323
G1 X143.723 Y171.183 E0.00922
G1 X143.631 Y171.16 E0.00398
G1 X143.575 Y171.141 E0.00246
G1 X143.575 Y182.879 E0.49183
G1 X143.224 Y182.842 E0.0148
G1 X143.099 Y182.802 E0.0055
G1 X143.099 Y170.945 E0.49679
G1 X143.024 Y170.914 E0.00341
G1 X142.988 Y170.895 E0.00173
G1 X142.933 Y170.866 E0.00257
