; generated by SuperSlicer 2.3.57 on 2022-04-17 at 03:23:50 UTC


;
;

;
;
; 

; external perimeters extrusion width = 0.40mm
; perimeters extrusion width = 0.45mm
; infill extrusion width = 0.72mm
; solid infill extrusion width = 0.56mm
; top infill extrusion width = 0.40mm
; support material extrusion width = 0.42mm
; first layer extrusion width = 0.48mm

; object:{"name":"Holder-for-razor-v02","id":"Holder-for-razor-v02.stl id:0 copy 0","object_center":[165.000000,165.000000,0.000000],"boundingbox_center":[165.000000,165.000000,19.643500],"boundingbox_size":[50.000000,50.000000,39.287001]}
; plater:{"center":[165.000000,165.000000,0.000000],"boundingbox_center":[165.000000,165.000000,19.643500],"boundingbox_size":[50.000000,50.000000,39.287001]}

;TYPE:Custom
START_PRINT T_BED=60 T_EXTRUDER=200
M107
G21 ; set units to millimeters
G90 ; use absolute coordinates
M83 ; use relative distances for extrusion
; Filament gcode
M104 S200 ; set temperature
M109 S200 ; set temperature and wait for it to be reached
M190 S60 ; set bed temperature and wait for it to be reached
M107
;LAYER_CHANGE
;Z:0.24
;HEIGHT:0.24
G1 E-0.6 F3000
G1 Z0.24 F9000
G1 X138.939 Y138.466
G1 E0.6 F1800
; External perimeter
;Skirt
SET_VELOCITY_LIMIT ACCEL=300 ACCEL_TO_DECEL=3000 SQUARE_CORNER_VELOCITY=5

; Support material

;TYPE:Skirt
;WIDTH:0.48
G1 X138.406 Y139.01 E0.03256
G1 X137.412 Y140.347 E0.07124
G1 X136.628 Y142.062 E0.08062
G1 X136.172 Y143.971 E0.08389
G1 X136.034 Y145.789 E0.07797
G1 X136.029 Y184.044 E1.63561
G1 X136.174 Y186.042 E0.08563
G1 X136.683 Y188.086 E0.09006
G1 X137.538 Y189.856 E0.08404
G1 X138.466 Y191.061 E0.06504
G1 X139.01 Y191.594 E0.03256
G1 X140.347 Y192.588 E0.07124
G1 X142.062 Y193.372 E0.08062
G1 X143.971 Y193.828 E0.08389
G1 X145.789 Y193.966 E0.07797
G1 X184.044 Y193.971 E1.63561
G1 X186.042 Y193.826 E0.08563
G1 X188.086 Y193.317 E0.09006
G1 X189.856 Y192.462 E0.08404
G1 X191.061 Y191.534 E0.06504
G1 X191.594 Y190.99 E0.03256
G1 X192.588 Y189.653 E0.07124
G1 X193.374 Y187.933 E0.08083
G1 X193.828 Y186.029 E0.08368
G1 X193.967 Y184.191 E0.07882
G1 X193.971 Y145.991 E1.63327
G1 X193.84 Y144.052 E0.08309
G1 X193.402 Y142.149 E0.0835
G1 X192.707 Y140.567 E0.07387
G1 X191.62 Y139.043 E0.08004
G1 X191.001 Y138.416 E0.03765
G1 X189.648 Y137.409 E0.07209
G1 X187.905 Y136.616 E0.08189
G1 X185.995 Y136.167 E0.0839
G1 X184.002 Y136.029 E0.08543
G1 X145.737 Y136.038 E1.63603
G1 X143.924 Y136.18 E0.07775
G1 X141.877 Y136.697 E0.09026
G1 X140.136 Y137.544 E0.08277
G1 X138.986 Y138.429 E0.06205
G1 X139.246 Y138.768 F9000
G1 F1800
G1 X139.231 Y138.78 E0.00085
G1 X138.751 Y139.266 E0.02919
G1 X137.786 Y140.557 E0.06894
G1 X137.032 Y142.204 E0.07744
G1 X136.595 Y144.042 E0.08079
G1 X136.462 Y145.815 E0.07599
G1 X136.457 Y184.032 E1.63401
G1 X136.596 Y185.964 E0.08281
G1 X137.076 Y187.914 E0.08586
G1 X137.884 Y189.602 E0.08
G1 X138.78 Y190.769 E0.06293
G1 X139.266 Y191.249 E0.02919
G1 X140.557 Y192.214 E0.06894
G1 X142.204 Y192.968 E0.07744
G1 X144.042 Y193.405 E0.08079
G1 X145.815 Y193.538 E0.07599
G1 X184.032 Y193.543 E1.63401
G1 X185.964 Y193.404 E0.08281
G1 X187.914 Y192.924 E0.08586
G1 X189.606 Y192.113 E0.0802
G1 X190.769 Y191.22 E0.06273
G1 X191.249 Y190.734 E0.02919
G1 X192.214 Y189.443 E0.06893
G1 X192.97 Y187.791 E0.07765
G1 X193.405 Y185.958 E0.08059
G1 X193.539 Y184.166 E0.0768
G1 X193.543 Y145.991 E1.6322
G1 X193.417 Y144.124 E0.08
G1 X192.994 Y142.281 E0.08086
G1 X192.327 Y140.766 E0.07077
G1 X191.286 Y139.311 E0.07651
G1 X190.727 Y138.745 E0.034
G1 X189.435 Y137.781 E0.06893
G1 X187.765 Y137.021 E0.07845
G1 X185.93 Y136.59 E0.08059
G1 X184.001 Y136.457 E0.08264
G1 X145.779 Y136.464 E1.63421
G1 X144.008 Y136.6 E0.07596
G1 X142.059 Y137.086 E0.08585
G1 X140.391 Y137.889 E0.07919
G1 X139.294 Y138.731 E0.05911
G1 X139.554 Y139.071 F9000
G1 F1800
G1 X139.516 Y139.1 E0.00206
G1 X139.089 Y139.53 E0.02591
G1 X138.157 Y140.77 E0.06634
G1 X137.435 Y142.349 E0.07423
G1 X137.018 Y144.113 E0.07748
G1 X136.89 Y145.844 E0.07423
G1 X136.886 Y184.025 E1.63246
G1 X137.017 Y185.887 E0.07981
G1 X137.469 Y187.744 E0.0817
G1 X138.236 Y189.356 E0.07633
G1 X139.1 Y190.484 E0.06074
G1 X139.53 Y190.911 E0.02591
G1 X140.77 Y191.843 E0.06634
G1 X142.349 Y192.565 E0.07423
G1 X144.113 Y192.982 E0.07748
G1 X145.844 Y193.11 E0.07423
G1 X184.025 Y193.114 E1.63246
G1 X185.892 Y192.982 E0.08
G1 X187.744 Y192.531 E0.08151
G1 X189.356 Y191.764 E0.07633
G1 X190.484 Y190.9 E0.06074
G1 X190.911 Y190.47 E0.02591
G1 X191.843 Y189.23 E0.06634
G1 X192.566 Y187.647 E0.07442
G1 X192.983 Y185.883 E0.07748
G1 X193.111 Y184.143 E0.07461
G1 X193.114 Y145.993 E1.63113
G1 X192.994 Y144.196 E0.07698
G1 X192.588 Y142.419 E0.07794
G1 X191.949 Y140.967 E0.06785
G1 X190.95 Y139.578 E0.07312
G1 X190.457 Y139.078 E0.03005
G1 X189.222 Y138.153 E0.06596
G1 X187.626 Y137.426 E0.07498
G1 X185.865 Y137.014 E0.07729
G1 X184.001 Y136.886 E0.0799
G1 X145.815 Y136.891 E1.63264
G1 X144.091 Y137.021 E0.07394
G1 X142.235 Y137.477 E0.08169
G1 X140.64 Y138.238 E0.07558
G1 X139.602 Y139.034 E0.05593
; INIT printing object Holder-for-razor-v02.stl id:0 copy 0
G1 E-0.6 F3000
; printing object Holder-for-razor-v02.stl id:0 copy 0
G1 X157.345 Y161.99 F9000
G1 E0.6 F1800
; External perimeter
;Perimeter
SET_VELOCITY_LIMIT ACCEL=2000 ACCEL_TO_DECEL=2000 SQUARE_CORNER_VELOCITY=5

; Overhang perimeter

;TYPE:Internal perimeter
G1 X156.513 Y162.811 E0.04995
G1 X155.977 Y163.848 E0.04991
G1 X155.792 Y165 E0.04991
G1 X155.977 Y166.152 E0.04991
G1 X156.513 Y167.189 E0.04991
G1 X157.345 Y168.01 E0.04995
G1 X158.389 Y168.534 E0.04996
G1 X159.544 Y168.715 E0.04996
G1 X160.698 Y168.534 E0.04996
G1 X161.742 Y168.01 E0.04993
G1 X162.574 Y167.19 E0.04997
G1 X163.11 Y166.152 E0.04992
G1 X163.296 Y165 E0.0499
G1 X163.11 Y163.848 E0.0499
G1 X162.574 Y162.811 E0.0499
G1 X161.742 Y161.99 E0.04998
G1 X160.698 Y161.466 E0.04993
G1 X159.544 Y161.285 E0.04996
G1 X158.966 Y161.376 E0.025
G1 X158.389 Y161.466 E0.02495
G1 X157.398 Y161.963 E0.04739
G1 X157.597 Y162.343 F9000
G1 F1800
G1 X156.863 Y163.068 E0.04414
G1 X156.389 Y163.983 E0.04407
G1 X156.226 Y165 E0.04402
G1 X156.389 Y166.017 E0.04403
G1 X156.863 Y166.932 E0.04407
G1 X157.597 Y167.657 E0.04414
G1 X158.522 Y168.121 E0.0442
G1 X159.544 Y168.281 E0.04423
G1 X160.566 Y168.121 E0.04423
G1 X161.489 Y167.658 E0.04418
G1 X162.225 Y166.932 E0.04416
G1 X162.417 Y166.561 E0.0179
G1 X162.698 Y166.016 E0.02618
G1 X162.862 Y165 E0.04402
G1 X162.698 Y163.983 E0.04402
G1 X162.225 Y163.068 E0.04406
G1 X161.489 Y162.342 E0.04417
G1 X160.566 Y161.879 E0.04418
G1 X159.544 Y161.719 E0.04423
G1 X159.032 Y161.799 E0.02213
G1 X158.522 Y161.879 E0.0221
G1 X157.651 Y162.316 E0.04163
G1 X157.85 Y162.695 F9000
; External perimeter
;ExternalPerimeter
SET_VELOCITY_LIMIT ACCEL=1000 ACCEL_TO_DECEL=1000 SQUARE_CORNER_VELOCITY=5

; Perimeter

;TYPE:External perimeter
G1 F1800
G1 X157.212 Y163.325 E0.03833
G1 X156.801 Y164.119 E0.03823
G1 X156.66 Y165 E0.03814
G1 X156.801 Y165.881 E0.03815
G1 X157.212 Y166.675 E0.03823
G1 X157.85 Y167.305 E0.03833
G1 X158.654 Y167.708 E0.03844
G1 X159.544 Y167.847 E0.0385
G1 X160.433 Y167.708 E0.0385
G1 X161.237 Y167.305 E0.03843
G1 X161.875 Y166.675 E0.03835
G1 X162.036 Y166.364 E0.01498
G1 X162.286 Y165.881 E0.02325
G1 X162.428 Y165 E0.03814
G1 X162.286 Y164.119 E0.03814
G1 X161.876 Y163.325 E0.03822
G1 X161.237 Y162.695 E0.03835
G1 X160.433 Y162.292 E0.03843
G1 X159.544 Y162.153 E0.0385
G1 X159.099 Y162.223 E0.01926
G1 X158.654 Y162.292 E0.01924
G1 X157.904 Y162.668 E0.03588
;WIPE_START
G1 X157.478 Y162.549 F9000
;WIPE_END
G1 E-0.6 F3000
G1 X175.058 Y165 F9000
G1 E0.6 F1800
; External perimeter
;Perimeter
SET_VELOCITY_LIMIT ACCEL=2000 ACCEL_TO_DECEL=2000 SQUARE_CORNER_VELOCITY=5

; Overhang perimeter

;TYPE:Internal perimeter
G1 X175.242 Y166.152 E0.04988
G1 X175.779 Y167.19 E0.04993
G1 X176.611 Y168.01 E0.04995
G1 X177.654 Y168.534 E0.04993
G1 X178.809 Y168.715 E0.04999
G1 X179.964 Y168.534 E0.04996
G1 X181.007 Y168.01 E0.04992
G1 X181.839 Y167.19 E0.04996
G1 X182.376 Y166.152 E0.04995
G1 X182.561 Y165 E0.04988
G1 X182.376 Y163.848 E0.04988
G1 X181.839 Y162.81 E0.04995
G1 X181.007 Y161.99 E0.04996
G1 X179.964 Y161.466 E0.04992
G1 X178.809 Y161.285 E0.04996
G1 X178.231 Y161.376 E0.02501
G1 X177.654 Y161.466 E0.02498
G1 X176.61 Y161.99 E0.04993
G1 X175.779 Y162.81 E0.04994
G1 X175.243 Y163.847 E0.04991
G1 X175.164 Y164.335 E0.02113
G1 X175.067 Y164.941 E0.02623
G1 X175.492 Y165 F9000
G1 F1800
G1 X175.655 Y166.016 E0.04401
G1 X176.128 Y166.932 E0.04408
G1 X176.863 Y167.657 E0.04414
G1 X177.787 Y168.121 E0.04417
G1 X178.809 Y168.281 E0.04426
G1 X179.831 Y168.121 E0.04423
G1 X180.755 Y167.657 E0.04417
G1 X181.49 Y166.932 E0.04415
G1 X181.964 Y166.016 E0.0441
G1 X182.127 Y165 E0.04401
G1 X181.964 Y163.984 E0.04401
G1 X181.49 Y163.068 E0.0441
G1 X180.755 Y162.342 E0.04415
G1 X179.831 Y161.879 E0.04417
G1 X178.809 Y161.719 E0.04423
G1 X178.298 Y161.799 E0.02214
G1 X177.787 Y161.879 E0.02212
G1 X176.863 Y162.343 E0.04418
G1 X176.128 Y163.068 E0.04414
G1 X175.655 Y163.983 E0.04407
G1 X175.587 Y164.403 E0.01819
G1 X175.501 Y164.941 E0.02328
G1 X175.925 Y165 F9000
; External perimeter
;ExternalPerimeter
SET_VELOCITY_LIMIT ACCEL=1000 ACCEL_TO_DECEL=1000 SQUARE_CORNER_VELOCITY=5

; Perimeter

;TYPE:External perimeter
G1 F1800
G1 X176.067 Y165.881 E0.03813
G1 X176.478 Y166.675 E0.03824
G1 X177.116 Y167.305 E0.03834
G1 X177.919 Y167.708 E0.03842
G1 X178.809 Y167.847 E0.03853
G1 X179.699 Y167.708 E0.0385
G1 X180.502 Y167.305 E0.03842
G1 X181.141 Y166.675 E0.03835
G1 X181.552 Y165.881 E0.03824
G1 X181.693 Y165 E0.03813
G1 X181.552 Y164.119 E0.03813
G1 X181.141 Y163.325 E0.03824
G1 X180.502 Y162.695 E0.03835
G1 X179.699 Y162.292 E0.03841
G1 X178.809 Y162.153 E0.0385
G1 X178.364 Y162.223 E0.01927
G1 X177.919 Y162.292 E0.01926
G1 X177.116 Y162.695 E0.03842
G1 X176.478 Y163.325 E0.03833
G1 X176.067 Y164.119 E0.03823
G1 X176.01 Y164.471 E0.01525
G1 X175.935 Y164.941 E0.02034
;WIPE_START
G1 X175.59 Y165.218 F9000
;WIPE_END
G1 X187.647 Y142.353
; External perimeter
;Perimeter
SET_VELOCITY_LIMIT ACCEL=2000 ACCEL_TO_DECEL=2000 SQUARE_CORNER_VELOCITY=5

; Overhang perimeter

;TYPE:Internal perimeter
G1 F1800
G1 X188.125 Y142.968 E0.03328
G1 X188.486 Y143.761 E0.03727
G1 X188.718 Y144.769 E0.04424
G1 X188.803 Y146.04 E0.05444
G1 X188.803 Y183.96 E1.62129
G1 X188.718 Y185.231 E0.05444
G1 X188.486 Y186.239 E0.04424
G1 X188.125 Y187.032 E0.03727
G1 X187.647 Y187.647 E0.03328
G1 X187.032 Y188.125 E0.03328
G1 X186.239 Y188.486 E0.03727
G1 X185.231 Y188.718 E0.04424
G1 X183.96 Y188.803 E0.05444
G1 X146.04 Y188.803 E1.62129
G1 X144.769 Y188.718 E0.05444
G1 X143.761 Y188.486 E0.04424
G1 X142.968 Y188.125 E0.03727
G1 X142.353 Y187.647 E0.03328
G1 X141.875 Y187.032 E0.03328
G1 X141.514 Y186.239 E0.03727
G1 X141.282 Y185.231 E0.04424
G1 X141.197 Y183.96 E0.05444
G1 X141.197 Y146.04 E1.62129
G1 X141.282 Y144.769 E0.05444
G1 X141.514 Y143.761 E0.04424
G1 X141.875 Y142.968 E0.03727
G1 X142.353 Y142.353 E0.03328
G1 X142.968 Y141.875 E0.03328
G1 X143.761 Y141.514 E0.03727
G1 X144.769 Y141.282 E0.04424
G1 X146.04 Y141.197 E0.05444
G1 X183.96 Y141.197 E1.62129
G1 X184.389 Y141.226 E0.01837
G1 X185.231 Y141.282 E0.03607
G1 X186.239 Y141.514 E0.04424
G1 X187.032 Y141.875 E0.03727
G1 X187.6 Y142.316 E0.03071
G1 X187.863 Y141.978 F9000
G1 F1800
G1 X187.952 Y142.048 E0.00486
G1 X188.494 Y142.744 E0.03773
G1 X188.893 Y143.623 E0.04127
G1 X189.143 Y144.707 E0.04755
G1 X189.232 Y146.026 E0.05652
G1 X189.232 Y183.974 E1.62251
G1 X189.143 Y185.293 E0.05652
G1 X188.893 Y186.377 E0.04755
G1 X188.494 Y187.256 E0.04127
G1 X187.952 Y187.952 E0.03773
G1 X187.256 Y188.494 E0.03773
G1 X186.377 Y188.893 E0.04127
G1 X185.293 Y189.143 E0.04755
G1 X183.974 Y189.232 E0.05652
G1 X146.026 Y189.232 E1.62251
G1 X144.707 Y189.143 E0.05652
G1 X143.623 Y188.893 E0.04755
G1 X142.744 Y188.494 E0.04127
G1 X142.048 Y187.952 E0.03773
G1 X141.506 Y187.256 E0.03773
G1 X141.107 Y186.377 E0.04127
G1 X140.857 Y185.293 E0.04755
G1 X140.768 Y183.974 E0.05652
G1 X140.768 Y146.026 E1.62251
G1 X140.857 Y144.707 E0.05652
G1 X141.107 Y143.623 E0.04755
G1 X141.506 Y142.744 E0.04127
G1 X142.048 Y142.048 E0.03773
G1 X142.744 Y141.506 E0.03773
G1 X143.623 Y141.107 E0.04127
G1 X144.707 Y140.857 E0.04755
G1 X146.026 Y140.768 E0.05652
G1 X183.974 Y140.768 E1.62251
G1 X184.417 Y140.798 E0.01899
G1 X185.293 Y140.857 E0.03753
G1 X186.377 Y141.107 E0.04755
G1 X187.256 Y141.506 E0.04127
G1 X187.815 Y141.941 E0.0303
G1 X188.258 Y141.742 F9000
; External perimeter
;ExternalPerimeter
SET_VELOCITY_LIMIT ACCEL=1000 ACCEL_TO_DECEL=1000 SQUARE_CORNER_VELOCITY=5

; Perimeter

;TYPE:External perimeter
G1 F1800
G1 X188.863 Y142.521 E0.04217
G1 X189.301 Y143.485 E0.04526
G1 X189.569 Y144.644 E0.05086
G1 X189.66 Y146.011 E0.0586
G1 X189.66 Y183.989 E1.62374
G1 X189.569 Y185.356 E0.0586
G1 X189.301 Y186.515 E0.05086
G1 X188.863 Y187.479 E0.04526
G1 X188.258 Y188.258 E0.04217
G1 X187.479 Y188.863 E0.04217
G1 X186.515 Y189.301 E0.04526
G1 X185.356 Y189.569 E0.05086
G1 X183.989 Y189.66 E0.0586
G1 X146.011 Y189.66 E1.62374
G1 X144.644 Y189.569 E0.0586
G1 X143.485 Y189.301 E0.05086
G1 X142.521 Y188.863 E0.04526
G1 X141.742 Y188.258 E0.04217
G1 X141.137 Y187.479 E0.04217
G1 X140.699 Y186.515 E0.04526
G1 X140.431 Y185.356 E0.05086
G1 X140.34 Y183.989 E0.0586
G1 X140.34 Y146.011 E1.62374
G1 X140.431 Y144.644 E0.0586
G1 X140.699 Y143.485 E0.05086
G1 X141.137 Y142.521 E0.04526
G1 X141.742 Y141.742 E0.04217
G1 X142.521 Y141.137 E0.04217
G1 X143.485 Y140.699 E0.04526
G1 X144.644 Y140.431 E0.05086
G1 X146.011 Y140.34 E0.0586
G1 X183.989 Y140.34 E1.62374
G1 X184.446 Y140.371 E0.0196
G1 X185.356 Y140.431 E0.039
G1 X186.515 Y140.699 E0.05086
G1 X187.479 Y141.137 E0.04526
G1 X188.21 Y141.705 E0.03961
;WIPE_START
G1 X188.138 Y142.124 F9000
;WIPE_END
G1 X188.185 Y143.255
; External perimeter
;SolidInfill
SET_VELOCITY_LIMIT ACCEL=2000 ACCEL_TO_DECEL=2000 SQUARE_CORNER_VELOCITY=5

; Bridge infill

;TYPE:Solid infill
;WIDTH:0.476044
G1 F2400
G1 X187.425 Y142.496 E0.04554
G1 X186.903 Y142.089 E0.02806
G1 X186.159 Y141.751 E0.03467
G1 X186.05 Y141.726 E0.00475
G1 X188.274 Y143.95 E0.1334
G1 X188.456 Y144.738 E0.03427
G1 X185.262 Y141.544 E0.19151
G1 X185.194 Y141.529 E0.00296
G1 X184.601 Y141.489 E0.02521
G1 X188.511 Y145.399 E0.23449
G1 X188.555 Y146.049 E0.0276
G1 X183.951 Y141.445 E0.27603
G1 X183.345 Y141.445 E0.0257
G1 X188.555 Y146.655 E0.31237
G1 X188.555 Y147.261 E0.0257
G1 X182.739 Y141.445 E0.34871
G1 X182.133 Y141.445 E0.0257
G1 X188.555 Y147.867 E0.38505
G1 X188.555 Y148.473 E0.0257
G1 X181.527 Y141.445 E0.42139
G1 X180.921 Y141.445 E0.0257
G1 X188.555 Y149.079 E0.45773
G1 X188.555 Y149.684 E0.0257
G1 X180.316 Y141.445 E0.49407
G1 X179.71 Y141.445 E0.0257
G1 X188.555 Y150.29 E0.53041
G1 X188.555 Y150.896 E0.0257
G1 X179.104 Y141.445 E0.56675
G1 X178.498 Y141.445 E0.0257
G1 X188.555 Y151.502 E0.60308
G1 X188.555 Y152.108 E0.0257
G1 X177.892 Y141.445 E0.63942
G1 X177.286 Y141.445 E0.0257
G1 X188.555 Y152.714 E0.67576
G1 X188.555 Y153.32 E0.0257
G1 X176.68 Y141.445 E0.7121
G1 X176.074 Y141.445 E0.0257
G1 X188.555 Y153.926 E0.74844
G1 X188.555 Y154.532 E0.0257
G1 X175.468 Y141.445 E0.78478
G1 X174.862 Y141.445 E0.0257
G1 X188.555 Y155.138 E0.82112
G1 X188.555 Y155.744 E0.0257
G1 X174.256 Y141.445 E0.85746
G1 X173.65 Y141.445 E0.0257
G1 X188.555 Y156.35 E0.8938
G1 X188.555 Y156.956 E0.0257
G1 X173.044 Y141.445 E0.93014
G1 X172.438 Y141.445 E0.0257
G1 X188.555 Y157.562 E0.96647
G1 X188.555 Y158.168 E0.0257
G1 X171.832 Y141.445 E1.00281
G1 X171.226 Y141.445 E0.0257
G1 X188.555 Y158.774 E1.03915
G1 X188.555 Y159.38 E0.0257
G1 X170.62 Y141.445 E1.07549
G1 X170.014 Y141.445 E0.0257
G1 X188.555 Y159.986 E1.11183
G1 X188.555 Y160.592 E0.0257
G1 X169.408 Y141.445 E1.14817
G1 X168.802 Y141.445 E0.0257
G1 X188.555 Y161.198 E1.18451
G1 X188.555 Y161.804 E0.0257
G1 X168.196 Y141.445 E1.22085
G1 X167.59 Y141.445 E0.0257
G1 X188.555 Y162.41 E1.25719
G1 X188.555 Y163.016 E0.0257
G1 X166.984 Y141.445 E1.29353
G1 X166.378 Y141.445 E0.0257
G1 X188.555 Y163.622 E1.32986
