; generated by SuperSlicer 2.4 on 2022-06-16 at 17:51:02 UTC


;
;

;
;
; 

; external perimeters extrusion width = 0.40mm
; perimeters extrusion width = 0.48mm
; infill extrusion width = 0.72mm
; solid infill extrusion width = 0.56mm
; top infill extrusion width = 0.40mm
; support material extrusion width = 0.40mm
; first layer extrusion width = 0.48mm

; object:{"name":"shroud","id":"shroud.stl id:0 copy 0","object_center":[165.000000,165.000000,0.000000],"boundingbox_center":[165.000000,165.000000,17.968271],"boundingbox_size":[254.122009,132.531998,35.933998]}
; plater:{"center":[165.000000,165.000000,0.000000],"boundingbox_center":[165.000000,165.000000,17.968271],"boundingbox_size":[254.122009,132.531998,35.933998]}

M73 P0 R193
;TYPE:Custom
START_PRINT T_BED=60 T_EXTRUDER=200
M107
G21 ; set units to millimeters
G90 ; use absolute coordinates
M83 ; use relative distances for extrusion
; Filament gcode
M104 S200 ; set temperature
M109 S200 ; set temperature and wait for it to be reached
M190 S60 ; set bed temperature and wait for it to be reached
M107
;LAYER_CHANGE
;Z:0.24
;HEIGHT:0.24
G1 Z0.24 F9000
G92 E0
G1 E-0.8 F3000
M204 S1000
G1 X45.732 Y95.726 F9000
G1 E0.8 F1800
;TYPE:Skirt
;WIDTH:0.52
G1 X44.549 Y96.959 E0.07828
G1 X34.852 Y113.45 E0.87642
G1 X34.341 Y115.325 E0.08903
G1 X34.342 Y214.672 E4.55126
G1 X34.808 Y216.47 E0.08507
G1 X43.976 Y232.963 E0.86451
G1 X45.547 Y234.471 E0.09974
G1 X47.21 Y234.866 E0.07828
G1 X291.961 Y234.866 E11.21246
G1 X293.847 Y234.349 E0.08959
G1 X295.076 Y233.162 E0.07828
G1 X295.64 Y231.549 E0.07828
G1 X299.356 Y195.847 E1.64442
G1 X299.376 Y138.893 E2.60914
G1 X295.617 Y98.49 E1.85895
G1 X294.903 Y96.629 E0.0913
G1 X293.596 Y95.529 E0.07828
G1 X291.933 Y95.134 E0.07828
G1 X47.738 Y95.134 E11.187
M73 P0 R192
G1 X45.732 Y95.726 E0.09582
G1 X46.073 Y96.063 F9000
G1 F1800
G1 X44.951 Y97.195 E0.073
G1 X35.254 Y113.686 E0.87642
G1 X34.808 Y115.325 E0.07781
G1 X34.808 Y214.672 E4.55126
G1 X35.215 Y216.243 E0.07434
G1 X44.384 Y232.737 E0.86451
G1 X45.663 Y234.005 E0.08254
G1 X47.21 Y234.399 E0.07311
G1 X291.961 Y234.399 E11.21246
G1 X293.424 Y234.049 E0.06893
G1 X294.625 Y232.998 E0.07311
G1 X295.177 Y231.501 E0.07311
G1 X298.91 Y195.464 E1.65975
G1 X298.896 Y138.592 E2.60538
G1 X295.152 Y98.533 E1.84318
G1 X294.649 Y97.08 E0.07044
G1 X293.48 Y95.995 E0.07311
G1 X291.933 Y95.601 E0.07311
G1 X47.738 Y95.601 E11.187
G1 X46.073 Y96.063 E0.07919
G1 E-0.8 F3000
; printing object shroud.stl id:0 copy 0
; acceleration to travel
M204 S3000
G1 X220.616 Y186.41 F9000
; decel to extrusion
M204 S1000
G1 X278.797 Y216.526
; end travel
G1 E0.8 F1800
;TYPE:Support material interface
;WIDTH:0.48

G1 X279.156 Y215.979 E0.02742
G1 X279.595 Y215.5 E0.02721
G1 X279.74 Y215.387 E0.0077
G1 X279.852 Y215.3 E0.00596
G1 X280.111 Y215.1 E0.01371
G1 X280.682 Y214.789 E0.02724
G1 X281.297 Y214.58 E0.0272
G1 X281.942 Y214.472 E0.0274
G1 X282.594 Y214.472 E0.02733
G1 X283.012 Y214.543 E0.01777
G1 X283.235 Y214.58 E0.00947
G1 X283.851 Y214.789 E0.02724
G1 X284.221 Y214.99 E0.01765
G1 X284.425 Y215.1 E0.0097
G1 X284.682 Y215.3 E0.01365
G1 X284.938 Y215.5 E0.0136
G1 X285.38 Y215.979 E0.02731
G1 X285.735 Y216.526 E0.02734
G1 X285.883 Y216.861 E0.01534
G1 X285.999 Y217.122 E0.01196
G1 X286.156 Y217.751 E0.02717
G1 X286.171 Y217.926 E0.00736
G1 X286.211 Y218.4 E0.01995
G1 X286.178 Y218.796 E0.01663
G1 X286.156 Y219.054 E0.01085
G1 X286.059 Y219.443 E0.01681
G1 X285.999 Y219.682 E0.01035
G1 X285.735 Y220.278 E0.0273
G1 X285.38 Y220.825 E0.02734
G1 X284.938 Y221.304 E0.02731
G1 X284.481 Y221.66 E0.02425
G1 X284.425 Y221.704 E0.00301
G1 X284.221 Y221.814 E0.0097
G1 X283.851 Y222.015 E0.01765
G1 X283.235 Y222.224 E0.02724
G1 X282.595 Y222.332 E0.0272
G1 X282.259 Y222.331 E0.01405
G1 X281.93 Y222.33 E0.01381
G1 X281.74 Y222.298 E0.00806
G1 X281.297 Y222.224 E0.01883
G1 X281.091 Y222.154 E0.00911
G1 X280.985 Y222.118 E0.0047
G1 X280.682 Y222.015 E0.01338
G1 X280.111 Y221.704 E0.02724
G1 X279.616 Y221.321 E0.02625
G1 X279.605 Y221.312 E0.00058
G1 X279.595 Y221.304 E0.00053
G1 X279.438 Y221.133 E0.00973
G1 X279.156 Y220.825 E0.01748
G1 X278.797 Y220.278 E0.02742
G1 X278.537 Y219.682 E0.02724
G1 X278.376 Y219.053 E0.02723
G1 X278.323 Y218.4 E0.02744
G1 X278.376 Y217.751 E0.02728
G1 X278.537 Y217.122 E0.02723
G1 X278.781 Y216.563 E0.02555
G1 X278.797 Y216.526 E0.00169
G1 E-0.8 F3000
; acceleration to travel
M204 S3000
G1 X282.698 Y215.375 F9000
; decel to extrusion
M204 S1000
G1 X283.999 Y214.991
; end travel
G1 E0.8 F1800

G1 X280.993 Y214.991 E0.12596
G1 X280.799 Y215.057 E0.00855
G1 X280.271 Y215.345 E0.02521
G1 X280.113 Y215.467 E0.0084
G1 X284.422 Y215.467 E0.18057
G1 X284.502 Y215.53 E0.00428
G1 X284.74 Y215.715 E0.0126
G1 X284.951 Y215.943 E0.01303
G1 X279.584 Y215.943 E0.22488
G1 X279.387 Y216.158 E0.01221
G1 X279.215 Y216.419 E0.01309
G1 X285.319 Y216.419 E0.25573
G1 X285.478 Y216.665 E0.01227
G1 X285.58 Y216.896 E0.01056
G1 X278.953 Y216.896 E0.27767
G1 X278.813 Y217.216 E0.01467
G1 X278.774 Y217.372 E0.00671
G1 X285.761 Y217.372 E0.29277
G1 X285.868 Y217.798 E0.01843
G1 X285.872 Y217.848 E0.00207
G1 X278.66 Y217.848 E0.30216
G1 X278.622 Y218.324 E0.02002
G1 X285.912 Y218.324 E0.30548
G1 X285.919 Y218.4 E0.00321
G1 X285.887 Y218.771 E0.0156
G1 X285.885 Y218.8 E0.00121
G1 X278.648 Y218.8 E0.30324
G1 X278.664 Y219.005 E0.0086
G1 X278.734 Y219.276 E0.01174
G1 X285.8 Y219.276 E0.29608
G1 X285.776 Y219.372 E0.00414
G1 X285.722 Y219.587 E0.00931
G1 X285.649 Y219.752 E0.00755
G1 X278.885 Y219.752 E0.28342
G1 X279.054 Y220.139 E0.01768
G1 X279.113 Y220.228 E0.00448
G1 X285.42 Y220.228 E0.26429
G1 X285.149 Y220.646 E0.02087
G1 X285.095 Y220.704 E0.00334
G1 X279.441 Y220.704 E0.23691
G1 X279.653 Y220.936 E0.01318
G1 X279.793 Y221.09 E0.00872
G1 X279.911 Y221.181 E0.00621
G1 X284.623 Y221.181 E0.19743
G1 X284.302 Y221.43 E0.01702
G1 X284.265 Y221.459 E0.00199
G1 X284.082 Y221.558 E0.00869
G1 X283.9 Y221.657 E0.00866
G1 X280.248 Y221.657 E0.15305
G1 E-0.8 F3000
; acceleration to travel
M204 S3000
G1 X112.09 Y218.676 F9000
; decel to extrusion
M204 S1000
G1 X56.037 Y217.682
; end travel
G1 E0.8 F1800

G1 X55.98 Y218.329 E0.02722
G1 X55.872 Y218.762 E0.01869
G1 X55.823 Y218.961 E0.0086
G1 X55.625 Y219.408 E0.02049
G1 X55.589 Y219.492 E0.00384
G1 X55.559 Y219.558 E0.00303
G1 X55.317 Y219.929 E0.01857
G1 X55.204 Y220.103 E0.00868
G1 X54.96 Y220.368 E0.01511
G1 X54.764 Y220.582 E0.01217
G1 X54.248 Y220.982 E0.02733
G1 X53.678 Y221.293 E0.02721
G1 X53.059 Y221.502 E0.02737
G1 X52.418 Y221.61 E0.02725
G1 X51.766 Y221.61 E0.02732
G1 X51.123 Y221.502 E0.02733
G1 X50.506 Y221.293 E0.02728
G1 X49.936 Y220.983 E0.0272
G1 X49.422 Y220.582 E0.02728
G1 X48.98 Y220.103 E0.02735
G1 X48.623 Y219.558 E0.02728
G1 X48.361 Y218.96 E0.02735
G1 X48.2 Y218.329 E0.0273
G1 X48.147 Y217.682 E0.0272
G1 X48.164 Y217.468 E0.009
G1 X48.2 Y217.029 E0.01844
G1 X48.264 Y216.779 E0.01082
G1 X48.361 Y216.4 E0.01638
G1 X48.623 Y215.804 E0.0273
G1 X48.98 Y215.258 E0.02734
G1 X49.422 Y214.78 E0.0273
G1 X49.936 Y214.378 E0.02733
G1 X50.506 Y214.069 E0.02716
G1 X50.793 Y213.971 E0.01269
G1 X51.123 Y213.858 E0.01465
G1 X51.766 Y213.75 E0.0273
G1 X52.418 Y213.75 E0.02732
G1 X53.059 Y213.858 E0.02723
G1 X53.678 Y214.069 E0.02741
G1 X54.248 Y214.378 E0.02718
G1 X54.764 Y214.78 E0.02737
G1 X54.946 Y214.978 E0.01129
G1 X55.139 Y215.186 E0.0119
G1 X55.204 Y215.257 E0.00401
G1 X55.308 Y215.418 E0.00806
G1 X55.335 Y215.458 E0.00202
G1 X55.559 Y215.804 E0.01727
G1 X55.823 Y216.4 E0.0273
G1 X55.918 Y216.779 E0.01638
G1 X55.98 Y217.029 E0.01081
G1 X56.037 Y217.682 E0.02745
G1 E-0.8 F3000
; acceleration to travel
M204 S3000
G1 X54.697 Y215.307 F9000
; decel to extrusion
M204 S1000
G1 X54.25 Y214.515
; end travel
G1 E0.8 F1800

G1 X50.294 Y214.515 E0.16577
G1 X50.096 Y214.622 E0.00942
G1 X49.625 Y214.991 E0.02509
G1 X54.561 Y214.991 E0.20683
G1 X54.732 Y215.175 E0.01052
G1 X54.924 Y215.384 E0.0119
G1 X54.973 Y215.436 E0.00298
G1 X54.993 Y215.467 E0.00155
G1 X49.191 Y215.467 E0.24311
G1 X48.88 Y215.943 E0.02382
G1 X55.303 Y215.943 E0.26912
G1 X55.513 Y216.419 E0.02181
G1 X48.671 Y216.419 E0.2867
G1 X48.637 Y216.495 E0.00348
G1 X48.546 Y216.851 E0.01537
G1 X48.535 Y216.896 E0.00193
G1 X55.647 Y216.896 E0.29798
G1 X55.692 Y217.077 E0.00785
G1 X55.717 Y217.372 E0.01238
G1 X48.464 Y217.372 E0.3039
G1 X48.455 Y217.491 E0.00503
G1 X48.439 Y217.682 E0.008
G1 X48.453 Y217.848 E0.00698
G1 X55.73 Y217.848 E0.30491
G1 X55.692 Y218.281 E0.01821
G1 X55.681 Y218.324 E0.00187
G1 X48.499 Y218.324 E0.30092
G1 X48.621 Y218.8 E0.02059
G1 X55.563 Y218.8 E0.29086
G1 X55.546 Y218.866 E0.00283
G1 X55.365 Y219.276 E0.0188
G1 X48.817 Y219.276 E0.27437
G1 X48.88 Y219.419 E0.00653
G1 X49.098 Y219.752 E0.0167
G1 X55.085 Y219.752 E0.25083
G1 X55.073 Y219.77 E0.0009
G1 X54.973 Y219.923 E0.00768
G1 X54.745 Y220.171 E0.0141
G1 X54.693 Y220.228 E0.00324
G1 X49.492 Y220.228 E0.21792
G1 X49.62 Y220.367 E0.00792
G1 X50.053 Y220.704 E0.02299
G1 X54.131 Y220.704 E0.17088
G1 X54.088 Y220.738 E0.00228
G1 X53.561 Y221.025 E0.02516
G1 X53.1 Y221.181 E0.02039
G1 X50.523 Y221.181 E0.10798
G1 E-0.8 F3000
; acceleration to travel
M204 S3000
G1 X232.008 Y201.893 F9000
; decel to extrusion
M204 S1000
G1 X292.503 Y195.464
; end travel
G1 E0.8 F1800

G1 X292.505 Y195.099 E0.01528
G1 X292.514 Y194.616 E0.02025
G1 X292.537 Y194.131 E0.02035
G1 X292.569 Y193.636 E0.02078
G1 X292.57 Y193.62 E0.00066
G1 X292.569 Y193.581 E0.00164
G1 X292.557 Y193.444 E0.00575
G1 X292.549 Y193.356 E0.00373
G1 X292.523 Y193.071 E0.01197
G1 X292.521 Y142.046 E2.13796
G1 X292.521 Y141.178 E0.03638
G1 X292.536 Y141.178 E0.00065
G1 X292.536 Y139.757 E0.05953
G1 X292.293 Y139.757 E0.01018
G1 X292.332 Y138.893 E0.03624
G1 X295.677 Y138.893 E0.14016
G1 X295.677 Y195.464 E2.37033
G1 X292.503 Y195.464 E0.13296
G1 E-0.8 F3000
; acceleration to travel
M204 S3000
G1 X294.803 Y153.334 F9000
; decel to extrusion
M204 S1000
G1 X295.57 Y139.29
; end travel
G1 E0.8 F1800

G1 X292.606 Y139.29 E0.12418
G1 X292.598 Y139.466 E0.00737
G1 X292.828 Y139.466 E0.00963
G1 X292.828 Y139.766 E0.01259
G1 X295.385 Y139.766 E0.10716
G1 X295.385 Y140.242 E0.01995
G1 X292.828 Y140.242 E0.10716
G1 X292.828 Y140.719 E0.01995
G1 X295.385 Y140.719 E0.10716
G1 X295.385 Y141.195 E0.01995
G1 X292.828 Y141.195 E0.10716
G1 X292.828 Y141.469 E0.01151
G1 X292.812 Y141.469 E0.00065
G1 X292.812 Y141.671 E0.00844
G1 X295.385 Y141.671 E0.10781
G1 X295.385 Y142.147 E0.01995
G1 X292.812 Y142.147 E0.10781
G1 X292.812 Y142.623 E0.01995
G1 X295.385 Y142.623 E0.10781
G1 X295.385 Y143.099 E0.01995
G1 X292.812 Y143.099 E0.10781
G1 X292.812 Y143.575 E0.01995
G1 X295.385 Y143.575 E0.10781
G1 X295.385 Y144.051 E0.01995
G1 X292.812 Y144.051 E0.10781
G1 X292.812 Y144.527 E0.01995
G1 X295.385 Y144.527 E0.10781
G1 X295.385 Y145.004 E0.01995
G1 X292.812 Y145.004 E0.1078
G1 X292.812 Y145.48 E0.01995
G1 X295.385 Y145.48 E0.1078
G1 X295.385 Y145.956 E0.01995
G1 X292.812 Y145.956 E0.1078
G1 X292.812 Y146.432 E0.01995
G1 X295.385 Y146.432 E0.1078
G1 X295.385 Y146.908 E0.01995
G1 X292.813 Y146.908 E0.1078
G1 X292.813 Y147.384 E0.01995
G1 X295.385 Y147.384 E0.1078
G1 X295.385 Y147.86 E0.01995
G1 X292.813 Y147.86 E0.1078
G1 X292.813 Y148.336 E0.01995
G1 X295.385 Y148.336 E0.1078
G1 X295.385 Y148.812 E0.01995
G1 X292.813 Y148.812 E0.1078
G1 X292.813 Y149.289 E0.01995
G1 X295.385 Y149.289 E0.1078
G1 X295.385 Y149.765 E0.01995
G1 X292.813 Y149.765 E0.1078
G1 X292.813 Y150.241 E0.01995
G1 X295.385 Y150.241 E0.10779
G1 X295.385 Y150.717 E0.01995
G1 X292.813 Y150.717 E0.10779
G1 X292.813 Y151.193 E0.01995
G1 X295.385 Y151.193 E0.10779
G1 X295.385 Y151.669 E0.01995
G1 X292.813 Y151.669 E0.10779
G1 X292.813 Y152.145 E0.01995
G1 X295.385 Y152.145 E0.10779
G1 X295.385 Y152.621 E0.01995
G1 X292.813 Y152.621 E0.10779
G1 X292.813 Y153.097 E0.01995
G1 X295.385 Y153.097 E0.10779
G1 X295.385 Y153.573 E0.01995
G1 X292.813 Y153.573 E0.10779
G1 X292.813 Y154.05 E0.01995
G1 X295.385 Y154.05 E0.10779
G1 X295.385 Y154.526 E0.01995
G1 X292.813 Y154.526 E0.10779
G1 X292.813 Y155.002 E0.01995
G1 X295.385 Y155.002 E0.10779
G1 X295.385 Y155.478 E0.01995
G1 X292.813 Y155.478 E0.10778
G1 X292.813 Y155.954 E0.01995
G1 X295.385 Y155.954 E0.10778
G1 X295.385 Y156.43 E0.01995
G1 X292.813 Y156.43 E0.10778
G1 X292.813 Y156.906 E0.01995
G1 X295.385 Y156.906 E0.10778
G1 X295.385 Y157.382 E0.01995
G1 X292.813 Y157.382 E0.10778
G1 X292.813 Y157.858 E0.01995
G1 X295.385 Y157.858 E0.10778
G1 X295.385 Y158.335 E0.01995
G1 X292.813 Y158.335 E0.10778
G1 X292.813 Y158.811 E0.01995
G1 X295.385 Y158.811 E0.10778
G1 X295.385 Y159.287 E0.01995
G1 X292.813 Y159.287 E0.10778
G1 X292.813 Y159.763 E0.01995
G1 X295.385 Y159.763 E0.10778
G1 X295.385 Y160.239 E0.01995
G1 X292.813 Y160.239 E0.10778
G1 X292.813 Y160.715 E0.01995
G1 X295.385 Y160.715 E0.10777
G1 X295.385 Y161.191 E0.01995
G1 X292.813 Y161.191 E0.10777
G1 X292.813 Y161.667 E0.01995
G1 X295.385 Y161.667 E0.10777
G1 X295.385 Y162.143 E0.01995
G1 X292.813 Y162.143 E0.10777
G1 X292.813 Y162.619 E0.01995
G1 X295.385 Y162.619 E0.10777
G1 X295.385 Y163.096 E0.01995
G1 X292.813 Y163.096 E0.10777
G1 X292.813 Y163.572 E0.01995
G1 X295.385 Y163.572 E0.10777
G1 X295.385 Y164.048 E0.01995
G1 X292.813 Y164.048 E0.10777
G1 X292.813 Y164.524 E0.01995
G1 X295.385 Y164.524 E0.10777
G1 X295.385 Y165 E0.01995
G1 X292.813 Y165 E0.10777
G1 X292.813 Y165.476 E0.01995
G1 X295.385 Y165.476 E0.10777
G1 X295.385 Y165.952 E0.01995
G1 X292.813 Y165.952 E0.10776
G1 X292.813 Y166.428 E0.01995
G1 X295.385 Y166.428 E0.10776
G1 X295.385 Y166.904 E0.01995
G1 X292.813 Y166.904 E0.10776
G1 X292.813 Y167.381 E0.01995
G1 X295.385 Y167.381 E0.10776
G1 X295.385 Y167.857 E0.01995
G1 X292.813 Y167.857 E0.10776
G1 X292.813 Y168.333 E0.01995
G1 X295.385 Y168.333 E0.10776
G1 X295.385 Y168.809 E0.01995
G1 X292.814 Y168.809 E0.10776
G1 X292.814 Y169.285 E0.01995
G1 X295.385 Y169.285 E0.10776
G1 X295.385 Y169.761 E0.01995
G1 X292.814 Y169.761 E0.10776
G1 X292.814 Y170.237 E0.01995
G1 X295.385 Y170.237 E0.10776
G1 X295.385 Y170.713 E0.01995
G1 X292.814 Y170.713 E0.10775
G1 X292.814 Y171.189 E0.01995
G1 X295.385 Y171.189 E0.10775
G1 X295.385 Y171.665 E0.01995
G1 X292.814 Y171.665 E0.10775
G1 X292.814 Y172.142 E0.01995
G1 X295.385 Y172.142 E0.10775
G1 X295.385 Y172.618 E0.01995
G1 X292.814 Y172.618 E0.10775
G1 X292.814 Y173.094 E0.01995
G1 X295.385 Y173.094 E0.10775
G1 X295.385 Y173.57 E0.01995
G1 X292.814 Y173.57 E0.10775
M73 P0 R191
G1 X292.814 Y174.046 E0.01995
G1 X295.385 Y174.046 E0.10775
G1 X295.385 Y174.522 E0.01995
G1 X292.814 Y174.522 E0.10775
G1 X292.814 Y174.998 E0.01995
G1 X295.385 Y174.998 E0.10775
G1 X295.385 Y175.474 E0.01995
G1 X292.814 Y175.474 E0.10775
G1 X292.814 Y175.95 E0.01995
G1 X295.385 Y175.95 E0.10774
G1 X295.385 Y176.427 E0.01995
G1 X292.814 Y176.427 E0.10774
G1 X292.814 Y176.903 E0.01995
G1 X295.385 Y176.903 E0.10774
G1 X295.385 Y177.379 E0.01995
G1 X292.814 Y177.379 E0.10774
G1 X292.814 Y177.855 E0.01995
G1 X295.385 Y177.855 E0.10774
G1 X295.385 Y178.331 E0.01995
G1 X292.814 Y178.331 E0.10774
G1 X292.814 Y178.807 E0.01995
G1 X295.385 Y178.807 E0.10774
G1 X295.385 Y179.283 E0.01995
G1 X292.814 Y179.283 E0.10774
G1 X292.814 Y179.759 E0.01995
G1 X295.385 Y179.759 E0.10774
G1 X295.385 Y180.235 E0.01995
G1 X292.814 Y180.235 E0.10774
G1 X292.814 Y180.712 E0.01995
G1 X295.385 Y180.712 E0.10774
G1 X295.385 Y181.188 E0.01995
G1 X292.814 Y181.188 E0.10773
G1 X292.814 Y181.664 E0.01995
G1 X295.385 Y181.664 E0.10773
G1 X295.385 Y182.14 E0.01995
G1 X292.814 Y182.14 E0.10773
G1 X292.814 Y182.616 E0.01995
G1 X295.385 Y182.616 E0.10773
G1 X295.385 Y183.092 E0.01995
G1 X292.814 Y183.092 E0.10773
G1 X292.814 Y183.568 E0.01995
G1 X295.385 Y183.568 E0.10773
G1 X295.385 Y184.044 E0.01995
G1 X292.814 Y184.044 E0.10773
G1 X292.814 Y184.52 E0.01995
G1 X295.385 Y184.52 E0.10773
G1 X295.385 Y184.996 E0.01995
G1 X292.814 Y184.996 E0.10773
G1 X292.814 Y185.473 E0.01995
G1 X295.385 Y185.473 E0.10773
G1 X295.385 Y185.949 E0.01995
G1 X292.814 Y185.949 E0.10773
G1 X292.814 Y186.425 E0.01995
G1 X295.385 Y186.425 E0.10772
G1 X295.385 Y186.901 E0.01995
