; generated by SuperSlicer 2.4 on 2022-08-23 at 20:45:48 UTC


;
;

;
;
; 

; external perimeters extrusion width = 0.18mm
; perimeters extrusion width = 0.18mm
; infill extrusion width = 0.27mm
; solid infill extrusion width = 0.21mm
; top infill extrusion width = 0.15mm
; support material extrusion width = 0.16mm
; first layer extrusion width = 0.18mm

; object:{"name":"smallpieces","id":"smallpieces.stl id:0 copy 0","object_center":[164.973995,164.999414,0.000000],"boundingbox_center":[164.973995,164.999414,0.830613],"boundingbox_size":[41.119630,36.500795,1.661227]}
; plater:{"center":[164.973995,164.999414,0.000000],"boundingbox_center":[164.973995,164.999414,0.830613],"boundingbox_size":[41.119630,36.500795,1.661227]}

M73 P0 R13
;TYPE:Custom
START_PRINT T_BED=110 T_EXTRUDER=245
M107
G21 ; set units to millimeters
G90 ; use absolute coordinates
M83 ; use relative distances for extrusion
; Filament gcode
M104 S245 ; set temperature
M109 S245 ; set temperature and wait for it to be reached
M190 S110 ; set bed temperature and wait for it to be reached
M107
;LAYER_CHANGE
;Z:0.12
;HEIGHT:0.12
G1 Z0.12 F9000
G92 E0
M73 P0 R13
G1 E-0.5 F3000
M204 S1000
G1 X139.794 Y135.102 F9000
M73 P0 R13
G1 E0.5 F1800
;TYPE:Skirt
;WIDTH:0.195
G1 X138.169 Y136.924 E0.02062
G1 X135.881 Y140.434 E0.03538
G1 X127.574 Y156.308 E0.15128
G1 X126.274 Y159.321 E0.02771
G1 X123.737 Y166.66 E0.06557
G1 X122.677 Y171.311 E0.04027
G1 X122.593 Y175.5 E0.03538
G1 X123.305 Y179.629 E0.03538
G1 X124.127 Y182.648 E0.02642
G1 X125.404 Y186.138 E0.03138
G1 X127.524 Y189.752 E0.03538
G1 X130.292 Y192.898 E0.03538
G1 X133.605 Y195.462 E0.03538
G1 X137.345 Y197.352 E0.03538
G1 X151.325 Y202.813 E0.12673
G1 X153.617 Y203.567 E0.02037
G1 X156.64 Y204.379 E0.02643
G1 X161.748 Y205.126 E0.04359
G1 X165.929 Y204.841 E0.03538
G1 X173.493 Y203.594 E0.06473
G1 X178.588 Y202.105 E0.04482
G1 X182.264 Y200.094 E0.03538
G1 X185.491 Y197.422 E0.03538
G1 X187.69 Y195.217 E0.0263
G1 X190.416 Y191.888 E0.03633
G1 X203.723 Y171.928 E0.20256
G1 X206.386 Y166.384 E0.05193
G1 X207.268 Y162.288 E0.03538
G1 X207.358 Y158.099 E0.03538
G1 X206.651 Y153.969 E0.03538
G1 X206.452 Y153.236 E0.00641
G1 X205.192 Y149.77 E0.03114
G1 X203.08 Y146.151 E0.03538
G1 X199.267 Y140.849 E0.05515
G1 X196.385 Y137.581 E0.03679
G1 X193.058 Y135.033 E0.03538
G1 X182.431 Y128.399 E0.10579
M73 P1 R13
G1 X180.422 Y127.286 E0.01939
G1 X176.498 Y125.817 E0.03538
G1 X175.767 Y125.621 E0.00639
G1 X170.236 Y124.866 E0.04714
G1 X166.061 Y125.23 E0.03538
G1 X157.27 Y126.852 E0.07548
G1 X154.912 Y127.423 E0.02049
G1 X149.553 Y129.039 E0.04726
G1 X147.23 Y129.885 E0.02087
G1 X143.554 Y131.896 E0.03538
G1 X140.327 Y134.568 E0.03538
G1 X139.794 Y135.102 E0.00637
G1 X139.917 Y135.224 F9000
G1 F1800
G1 X138.315 Y137.019 E0.02031
G1 X136.035 Y140.515 E0.03524
G1 X127.728 Y156.388 E0.15128
G1 X126.438 Y159.378 E0.0275
G1 X123.901 Y166.717 E0.06557
G1 X122.853 Y171.298 E0.03968
G1 X122.765 Y175.471 E0.03524
G1 X123.472 Y179.584 E0.03524
G1 X124.295 Y182.602 E0.02642
G1 X125.533 Y186.005 E0.03058
G1 X127.636 Y189.61 E0.03524
G1 X130.386 Y192.749 E0.03524
G1 X133.684 Y195.307 E0.03524
G1 X137.408 Y197.19 E0.03524
G1 X151.389 Y202.652 E0.12673
G1 X153.662 Y203.399 E0.02021
G1 X156.685 Y204.212 E0.02643
G1 X161.737 Y204.952 E0.04311
G1 X165.901 Y204.67 E0.03524
G1 X173.465 Y203.423 E0.06473
G1 X178.489 Y201.959 E0.04419
G1 X182.152 Y199.96 E0.03524
G1 X185.368 Y197.3 E0.03524
G1 X187.567 Y195.095 E0.0263
G1 X190.271 Y191.792 E0.03604
G1 X203.579 Y171.832 E0.20256
G1 X206.206 Y166.379 E0.05111
G1 X207.092 Y162.301 E0.03524
M73 P2 R12
G1 X207.186 Y158.128 E0.03524
G1 X206.483 Y154.014 E0.03524
G1 X206.285 Y153.282 E0.00641
G1 X205.041 Y149.858 E0.03076
G1 X202.939 Y146.252 E0.03524
G1 X199.126 Y140.95 E0.05515
G1 X196.279 Y137.719 E0.03636
G1 X192.966 Y135.181 E0.03524
G1 X182.339 Y128.546 E0.10579
G1 X180.36 Y127.449 E0.0191
G1 X176.452 Y125.985 E0.03524
G1 X175.722 Y125.788 E0.00639
G1 X170.251 Y125.04 E0.04663
G1 X166.093 Y125.401 E0.03524
G1 X157.302 Y127.023 E0.07548
G1 X154.962 Y127.59 E0.02033
G1 X149.603 Y129.205 E0.04726
G1 X147.329 Y130.031 E0.02043
G1 X143.665 Y132.03 E0.03524
G1 X140.449 Y134.69 E0.03524
G1 X139.917 Y135.224 E0.00637
G1 X140.04 Y135.347 F9000
G1 F1800
G1 X138.461 Y137.114 E0.02001
G1 X136.189 Y140.595 E0.0351
G1 X127.882 Y156.469 E0.15128
G1 X126.602 Y159.435 E0.02728
G1 X124.065 Y166.774 E0.06557
G1 X123.029 Y171.285 E0.03908
G1 X122.936 Y175.441 E0.0351
G1 X123.639 Y179.538 E0.0351
G1 X124.462 Y182.557 E0.02642
G1 X125.663 Y185.872 E0.02977
G1 X127.748 Y189.468 E0.0351
G1 X130.481 Y192.6 E0.0351
G1 X133.763 Y195.151 E0.0351
G1 X137.471 Y197.029 E0.0351
G1 X151.452 Y202.49 E0.12673
G1 X153.708 Y203.231 E0.02005
G1 X156.73 Y204.044 E0.02643
G1 X161.725 Y204.778 E0.04263
G1 X165.872 Y204.499 E0.0351
G1 X173.437 Y203.252 E0.06473
G1 X178.39 Y201.812 E0.04356
G1 X182.041 Y199.825 E0.0351
G1 X185.245 Y197.177 E0.0351
M73 P3 R12
G1 X187.444 Y194.972 E0.0263
G1 X190.127 Y191.695 E0.03576
G1 X203.434 Y171.736 E0.20256
G1 X206.025 Y166.373 E0.05029
G1 X206.916 Y162.313 E0.0351
G1 X207.014 Y158.157 E0.0351
G1 X206.316 Y154.06 E0.0351
G1 X206.117 Y153.327 E0.00641
G1 X204.89 Y149.946 E0.03037
G1 X202.799 Y146.354 E0.0351
G1 X198.985 Y141.052 E0.05515
G1 X196.173 Y137.858 E0.03593
G1 X192.874 Y135.328 E0.0351
G1 X182.247 Y128.693 E0.10579
G1 X180.299 Y127.613 E0.01881
G1 X176.407 Y126.152 E0.0351
G1 X175.677 Y125.956 E0.00639
G1 X170.266 Y125.213 E0.04612
G1 X166.124 Y125.572 E0.0351
G1 X157.333 Y127.194 E0.07548
G1 X155.012 Y127.756 E0.02017
G1 X149.653 Y129.371 E0.04726
G1 X147.428 Y130.178 E0.01999
G1 X143.776 Y132.164 E0.0351
G1 X140.572 Y134.813 E0.0351
G1 X140.04 Y135.347 E0.00637
G1 X140.163 Y135.469 F9000
G1 F1800
G1 X138.607 Y137.21 E0.01971
G1 X136.342 Y140.676 E0.03496
G1 X128.035 Y156.549 E0.15128
G1 X126.766 Y159.491 E0.02706
G1 X124.229 Y166.831 E0.06557
G1 X123.206 Y171.273 E0.03849
G1 X123.108 Y175.412 E0.03496
G1 X123.807 Y179.492 E0.03496
G1 X124.629 Y182.511 E0.02642
G1 X125.793 Y185.739 E0.02897
G1 X127.86 Y189.326 E0.03496
G1 X130.576 Y192.451 E0.03496
G1 X133.842 Y194.996 E0.03496
G1 X137.535 Y196.867 E0.03496
G1 X151.515 Y202.328 E0.12673
M73 P4 R12
G1 X153.753 Y203.064 E0.01989
G1 X156.775 Y203.877 E0.02643
G1 X161.713 Y204.604 E0.04215
G1 X165.844 Y204.327 E0.03496
G1 X173.408 Y203.081 E0.06473
G1 X178.292 Y201.666 E0.04293
G1 X181.93 Y199.691 E0.03496
G1 X185.123 Y197.055 E0.03496
G1 X187.322 Y194.85 E0.0263
G1 X189.982 Y191.599 E0.03547
G1 X203.29 Y171.639 E0.20256
M73 P4 R12
G1 X205.845 Y166.368 E0.04946
G1 X206.739 Y162.325 E0.03496
G1 X206.842 Y158.187 E0.03496
G1 X206.148 Y154.105 E0.03496
G1 X205.95 Y153.372 E0.00641
G1 X204.74 Y150.033 E0.02999
G1 X202.658 Y146.455 E0.03496
G1 X198.844 Y141.153 E0.05515
G1 X196.067 Y137.996 E0.03551
G1 X192.782 Y135.475 E0.03496
G1 X182.155 Y128.841 E0.10579
G1 X180.238 Y127.776 E0.01852
G1 X176.362 Y126.32 E0.03496
G1 X175.632 Y126.123 E0.00639
G1 X170.281 Y125.387 E0.04561
G1 X166.156 Y125.742 E0.03496
G1 X157.365 Y127.364 E0.07548
G1 X155.062 Y127.922 E0.02
G1 X149.703 Y129.538 E0.04726
G1 X147.526 Y130.324 E0.01955
G1 X143.887 Y132.299 E0.03496
G1 X140.695 Y134.935 E0.03496
G1 X140.163 Y135.469 E0.00637
G1 X140.285 Y135.592 F9000
G1 F1800
G1 X138.752 Y137.305 E0.01941
G1 X136.496 Y140.756 E0.03482
G1 X128.189 Y156.63 E0.15128
G1 X126.93 Y159.548 E0.02684
G1 X124.393 Y166.887 E0.06557
G1 X123.382 Y171.26 E0.0379
G1 X123.28 Y175.382 E0.03482
M73 P5 R12
G1 X123.974 Y179.447 E0.03482
G1 X124.797 Y182.465 E0.02642
G1 X125.924 Y185.606 E0.02818
G1 X127.972 Y189.185 E0.03482
G1 X130.671 Y192.302 E0.03482
G1 X133.92 Y194.84 E0.03482
G1 X137.598 Y196.705 E0.03482
G1 X151.578 Y202.167 E0.12673
G1 X153.798 Y202.896 E0.01973
G1 X156.82 Y203.709 E0.02643
G1 X161.702 Y204.43 E0.04167
G1 X165.816 Y204.156 E0.03482
G1 X173.38 Y202.909 E0.06473
G1 X178.193 Y201.519 E0.0423
G1 X181.819 Y199.556 E0.03482
G1 X185 Y196.932 E0.03482
G1 X187.199 Y194.727 E0.0263
G1 X189.838 Y191.503 E0.03518
G1 X203.146 Y171.543 E0.20256
G1 X205.664 Y166.362 E0.04865
G1 X206.563 Y162.338 E0.03482
G1 X206.67 Y158.216 E0.03482
G1 X205.981 Y154.151 E0.03482
G1 X205.782 Y153.418 E0.00641
G1 X204.589 Y150.121 E0.02961
G1 X202.517 Y146.556 E0.03482
G1 X198.703 Y141.254 E0.05515
G1 X195.96 Y138.134 E0.03508
G1 X192.691 Y135.622 E0.03482
G1 X182.063 Y128.988 E0.10579
G1 X180.176 Y127.939 E0.01823
G1 X176.317 Y126.487 E0.03482
G1 X175.587 Y126.291 E0.00639
G1 X170.296 Y125.561 E0.0451
G1 X166.187 Y125.913 E0.03482
G1 X157.396 Y127.535 E0.07548
G1 X155.112 Y128.088 E0.01984
G1 X149.753 Y129.704 E0.04726
G1 X147.625 Y130.471 E0.01911
G1 X143.998 Y132.433 E0.03482
G1 X140.818 Y135.058 E0.03482
G1 X140.285 Y135.592 E0.00637
G1 X140.408 Y135.714 F9000
G1 F1800
G1 X138.898 Y137.4 E0.01911
G1 X136.65 Y140.836 E0.03467
M73 P6 R12
G1 X128.343 Y156.71 E0.15128
G1 X127.094 Y159.605 E0.02662
G1 X124.557 Y166.944 E0.06557
G1 X123.558 Y171.248 E0.03731
G1 X123.452 Y175.353 E0.03467
G1 X124.142 Y179.401 E0.03467
G1 X124.964 Y182.42 E0.02642
G1 X126.055 Y185.474 E0.02738
G1 X128.084 Y189.043 E0.03467
G1 X130.766 Y192.153 E0.03467
G1 X133.999 Y194.685 E0.03467
G1 X137.661 Y196.544 E0.03467
G1 X151.641 Y202.005 E0.12673
G1 X153.843 Y202.729 E0.01957
G1 X156.865 Y203.541 E0.02643
G1 X161.69 Y204.256 E0.04119
G1 X165.788 Y203.985 E0.03467
G1 X173.352 Y202.738 E0.06473
G1 X178.095 Y201.372 E0.04168
G1 X181.708 Y199.422 E0.03467
G1 X184.877 Y196.81 E0.03467
G1 X187.076 Y194.604 E0.0263
G1 X189.694 Y191.407 E0.0349
G1 X203.001 Y171.447 E0.20256
G1 X205.483 Y166.356 E0.04783
G1 X206.387 Y162.35 E0.03467
G1 X206.498 Y158.245 E0.03467
G1 X205.813 Y154.196 E0.03467
G1 X205.615 Y153.463 E0.00641
G1 X204.438 Y150.209 E0.02922
G1 X202.376 Y146.658 E0.03467
G1 X198.563 Y141.356 E0.05515
G1 X195.854 Y138.272 E0.03465
G1 X192.599 Y135.77 E0.03467
G1 X181.971 Y129.135 E0.10579
G1 X180.115 Y128.102 E0.01794
G1 X176.272 Y126.655 E0.03467
G1 X175.542 Y126.458 E0.00639
G1 X170.31 Y125.734 E0.04459
M73 P7 R12
G1 X166.219 Y126.084 E0.03467
G1 X157.428 Y127.706 E0.07548
G1 X155.162 Y128.254 E0.01968
G1 X149.803 Y129.87 E0.04726
G1 X147.723 Y130.618 E0.01867
G1 X144.109 Y132.568 E0.03467
G1 X140.941 Y135.18 E0.03467
G1 X140.408 Y135.714 E0.00637
G1 X140.531 Y135.837 F9000
G1 F1800
G1 X139.044 Y137.496 E0.01881
G1 X136.804 Y140.917 E0.03453
G1 X128.497 Y156.791 E0.15128
G1 X127.258 Y159.661 E0.0264
G1 X124.721 Y167.001 E0.06557
G1 X123.735 Y171.236 E0.03672
G1 X123.624 Y175.324 E0.03453
G1 X124.309 Y179.355 E0.03453
G1 X125.132 Y182.374 E0.02642
G1 X126.186 Y185.341 E0.02659
G1 X128.197 Y188.902 E0.03453
G1 X130.862 Y192.004 E0.03453
G1 X134.078 Y194.529 E0.03453
G1 X137.724 Y196.382 E0.03453
G1 X151.704 Y201.843 E0.12673
G1 X153.888 Y202.561 E0.01941
G1 X156.91 Y203.374 E0.02643
G1 X161.679 Y204.082 E0.04071
G1 X165.759 Y203.814 E0.03453
G1 X173.324 Y202.567 E0.06473
G1 X177.996 Y201.225 E0.04105
G1 X181.598 Y199.287 E0.03453
G1 X184.754 Y196.687 E0.03453
G1 X186.953 Y194.482 E0.0263
G1 X189.549 Y191.31 E0.03461
G1 X202.857 Y171.351 E0.20256
G1 X205.303 Y166.349 E0.04701
G1 X206.21 Y162.362 E0.03453
G1 X206.326 Y158.274 E0.03453
G1 X205.646 Y154.241 E0.03453
G1 X205.447 Y153.509 E0.00641
G1 X204.287 Y150.296 E0.02884
G1 X202.235 Y146.759 E0.03453
G1 X198.422 Y141.457 E0.05515
M73 P8 R12
G1 X195.748 Y138.411 E0.03423
G1 X192.507 Y135.917 E0.03453
G1 X181.88 Y129.282 E0.10579
G1 X180.054 Y128.265 E0.01765
G1 X176.227 Y126.823 E0.03453
G1 X175.497 Y126.626 E0.00639
G1 X170.325 Y125.908 E0.04408
G1 X166.25 Y126.254 E0.03453
G1 X157.459 Y127.876 E0.07548
G1 X155.212 Y128.42 E0.01952
G1 X149.853 Y130.036 E0.04726
G1 X147.821 Y130.765 E0.01823
G1 X144.22 Y132.703 E0.03453
G1 X141.064 Y135.303 E0.03453
G1 X140.531 Y135.837 E0.00637
G1 X140.654 Y135.959 F9000
G1 F1800
G1 X139.19 Y137.592 E0.01851
G1 X136.957 Y140.997 E0.03439
G1 X128.65 Y156.871 E0.15128
G1 X127.422 Y159.718 E0.02618
G1 X124.885 Y167.057 E0.06557
G1 X123.911 Y171.224 E0.03613
G1 X123.796 Y175.295 E0.03439
G1 X124.477 Y179.31 E0.03439
G1 X125.299 Y182.328 E0.02642
G1 X126.317 Y185.209 E0.0258
G1 X128.31 Y188.761 E0.03439
G1 X130.957 Y191.855 E0.03439
G1 X134.157 Y194.374 E0.03439
G1 X137.787 Y196.22 E0.03439
G1 X151.768 Y201.682 E0.12673
G1 X153.933 Y202.394 E0.01925
G1 X156.955 Y203.206 E0.02643
G1 X161.667 Y203.908 E0.04023
G1 X165.731 Y203.642 E0.03439
G1 X173.295 Y202.396 E0.06473
G1 X177.898 Y201.078 E0.04043
G1 X181.487 Y199.153 E0.03439
G1 X184.631 Y196.565 E0.03439
G1 X186.83 Y194.359 E0.0263
G1 X189.405 Y191.214 E0.03432
G1 X202.712 Y171.254 E0.20256
M73 P9 R12
G1 X205.122 Y166.342 E0.0462
G1 X206.034 Y162.373 E0.03439
G1 X206.154 Y158.303 E0.03439
G1 X205.478 Y154.287 E0.03439
G1 X205.28 Y153.554 E0.00641
G1 X204.137 Y150.384 E0.02846
G1 X202.094 Y146.86 E0.03439
G1 X198.281 Y141.558 E0.05515
G1 X195.641 Y138.549 E0.0338
G1 X192.415 Y136.064 E0.03439
G1 X181.788 Y129.43 E0.10579
G1 X179.992 Y128.428 E0.01736
G1 X176.182 Y126.99 E0.03439
G1 X175.451 Y126.794 E0.00639
G1 X170.34 Y126.082 E0.04358
G1 X166.282 Y126.425 E0.03439
G1 X157.491 Y128.047 E0.07548
G1 X155.263 Y128.587 E0.01936
G1 X149.904 Y130.202 E0.04726
G1 X147.92 Y130.912 E0.01779
G1 X144.331 Y132.837 E0.03439
G1 X141.187 Y135.425 E0.03439
G1 X140.654 Y135.959 E0.00637
G1 X140.777 Y136.082 F9000
G1 F1800
G1 X139.336 Y137.687 E0.01822
G1 X137.111 Y141.078 E0.03424
G1 X128.804 Y156.951 E0.15128
G1 X127.586 Y159.775 E0.02597
G1 X125.049 Y167.114 E0.06557
G1 X124.088 Y171.212 E0.03554
G1 X123.968 Y175.266 E0.03424
G1 X124.644 Y179.264 E0.03424
G1 X125.467 Y182.283 E0.02642
G1 X126.449 Y185.077 E0.02501
G1 X128.423 Y188.619 E0.03424
G1 X131.053 Y191.706 E0.03424
G1 X134.237 Y194.219 E0.03424
G1 X137.85 Y196.059 E0.03424
G1 X151.831 Y201.52 E0.12673
G1 X153.978 Y202.226 E0.01909
G1 X157 Y203.039 E0.02643
G1 X161.656 Y203.734 E0.03975
G1 X165.703 Y203.471 E0.03424
G1 X173.267 Y202.224 E0.06473
G1 X177.8 Y200.931 E0.0398
M73 P10 R12
G1 X181.376 Y199.018 E0.03424
G1 X184.508 Y196.442 E0.03424
G1 X186.707 Y194.237 E0.0263
G1 X189.261 Y191.118 E0.03404
G1 X202.568 Y171.158 E0.20256
G1 X204.941 Y166.336 E0.04538
G1 X205.857 Y162.385 E0.03424
G1 X205.982 Y158.332 E0.03424
G1 X205.311 Y154.332 E0.03424
G1 X205.112 Y153.6 E0.00641
G1 X203.986 Y150.471 E0.02808
G1 X201.953 Y146.962 E0.03424
G1 X198.14 Y141.659 E0.05515
G1 X195.535 Y138.687 E0.03337
G1 X192.323 Y136.211 E0.03424
G1 X181.696 Y129.577 E0.10579
G1 X176.137 Y127.158 E0.05119
G1 X175.406 Y126.961 E0.00639
G1 X170.354 Y126.256 E0.04307
G1 X166.313 Y126.596 E0.03424
G1 X157.522 Y128.218 E0.07548
G1 X155.313 Y128.753 E0.0192
G1 X149.954 Y130.368 E0.04726
G1 X148.018 Y131.059 E0.01736
G1 X144.442 Y132.972 E0.03424
G1 X141.31 Y135.548 E0.03424
G1 X140.777 Y136.082 E0.00637
G1 X140.9 Y136.204 F9000
G1 F1800
G1 X139.482 Y137.783 E0.01792
G1 X137.265 Y141.158 E0.0341
G1 X128.958 Y157.032 E0.15128
G1 X127.75 Y159.832 E0.02575
G1 X125.213 Y167.171 E0.06557
G1 X124.264 Y171.2 E0.03496
G1 X124.14 Y175.237 E0.0341
G1 X124.811 Y179.219 E0.0341
G1 X125.634 Y182.237 E0.02642
G1 X126.581 Y184.945 E0.02422
G1 X128.537 Y188.478 E0.0341
G1 X131.149 Y191.558 E0.0341
G1 X134.316 Y194.063 E0.0341
G1 X137.913 Y195.897 E0.0341
G1 X151.894 Y201.359 E0.12673
M73 P11 R11
G1 X154.023 Y202.058 E0.01892
G1 X157.045 Y202.871 E0.02643
G1 X161.645 Y203.56 E0.03927
G1 X165.675 Y203.3 E0.0341
G1 X173.239 Y202.053 E0.06473
G1 X177.702 Y200.784 E0.03918
G1 X181.265 Y198.883 E0.0341
G1 X184.385 Y196.32 E0.0341
G1 X186.584 Y194.114 E0.0263
G1 X189.116 Y191.021 E0.03375
G1 X202.424 Y171.062 E0.20256
G1 X204.76 Y166.328 E0.04457
G1 X205.681 Y162.397 E0.0341
G1 X205.81 Y158.36 E0.0341
G1 X205.143 Y154.378 E0.0341
G1 X204.945 Y153.645 E0.00641
G1 X203.835 Y150.558 E0.0277
G1 X201.812 Y147.063 E0.0341
G1 X197.999 Y141.761 E0.05515
G1 X195.428 Y138.825 E0.03295
G1 X192.231 Y136.358 E0.0341
G1 X181.604 Y129.724 E0.10579
G1 X176.092 Y127.325 E0.05076
G1 X175.361 Y127.129 E0.00639
G1 X170.369 Y126.429 E0.04257
G1 X166.345 Y126.766 E0.0341
G1 X157.554 Y128.388 E0.07548
