; generated by SuperSlicer 2.3.57 on 2022-04-01 at 17:18:39 UTC


;
;

;
;
; 

; external perimeters extrusion width = 0.40mm
; perimeters extrusion width = 0.45mm
; infill extrusion width = 0.72mm
; solid infill extrusion width = 0.56mm
; top infill extrusion width = 0.40mm
; support material extrusion width = 0.42mm
; first layer extrusion width = 0.48mm

; object:{"name":"Untitled","id":"Untitled.stl id:0 copy 0","object_center":[165.000000,165.000000,0.000000],"boundingbox_center":[165.000000,165.000000,2.000000],"boundingbox_size":[53.990265,53.990295,4.000000]}
; plater:{"center":[165.000000,165.000000,0.000000],"boundingbox_center":[165.000000,165.000000,2.000000],"boundingbox_size":[53.990265,53.990295,4.000000]}

;TYPE:Custom
START_PRINT T_BED=60 T_EXTRUDER=200
M107
G21 ; set units to millimeters
G90 ; use absolute coordinates
M83 ; use relative distances for extrusion
; Filament gcode
M104 S200 ; set temperature
M109 S200 ; set temperature and wait for it to be reached
M190 S60 ; set bed temperature and wait for it to be reached
M107
;LAYER_CHANGE
;Z:0.24
;HEIGHT:0.24
G1 E-0.8 F3000
G1 Z0.24 F9000
G1 X143.216 Y143.594
G1 E0.8 F1800
; External perimeter
;Skirt
SET_VELOCITY_LIMIT ACCEL=300 ACCEL_TO_DECEL=3000 SQUARE_CORNER_VELOCITY=5

; Support material

;TYPE:Skirt
;WIDTH:0.48
G1 X141.773 Y145.168 E0.0913
G1 X140.632 Y146.586 E0.0778
G1 X139.532 Y148.141 E0.08143
G1 X138.464 Y149.88 E0.08727
G1 X137.614 Y151.478 E0.0774
G1 X136.824 Y153.212 E0.08143
G1 X136.101 Y155.12 E0.08727
G1 X135.565 Y156.85 E0.0774
G1 X135.112 Y158.709 E0.08183
G1 X134.777 Y160.594 E0.08184
G1 X134.571 Y162.39 E0.07729
G1 X134.463 Y164.426 E0.08718
G1 X134.487 Y166.335 E0.08163
G1 X134.621 Y168.138 E0.07729
G1 X134.896 Y170.158 E0.08718
G1 X135.277 Y172.029 E0.08163
G1 X135.748 Y173.782 E0.0776
G1 X136.434 Y175.804 E0.0913
G1 X137.123 Y177.478 E0.0774
G1 X137.914 Y179.112 E0.07761
G1 X138.967 Y180.97 E0.09129
G1 X139.957 Y182.485 E0.0774
G1 X141.102 Y184.019 E0.08183
G1 X142.34 Y185.479 E0.08184
G1 X143.594 Y186.784 E0.0774
G1 X145.168 Y188.227 E0.0913
G1 X146.586 Y189.368 E0.07781
G1 X148.141 Y190.468 E0.08143
G1 X149.88 Y191.536 E0.08727
G1 X151.478 Y192.387 E0.0774
G1 X153.211 Y193.176 E0.08143
G1 X155.12 Y193.899 E0.08727
G1 X156.85 Y194.435 E0.0774
G1 X158.709 Y194.888 E0.08183
G1 X160.594 Y195.223 E0.08184
G1 X162.39 Y195.429 E0.07729
G1 X164.426 Y195.537 E0.08718
G1 X166.335 Y195.514 E0.08164
G1 X168.138 Y195.379 E0.07729
G1 X170.158 Y195.104 E0.08718
G1 X172.029 Y194.723 E0.08163
G1 X173.782 Y194.252 E0.0776
G1 X175.804 Y193.566 E0.0913
G1 X177.478 Y192.877 E0.0774
G1 X179.112 Y192.086 E0.0776
G1 X180.97 Y191.033 E0.0913
G1 X182.485 Y190.043 E0.0774
G1 X184.019 Y188.898 E0.08183
G1 X185.479 Y187.66 E0.08183
G1 X186.782 Y186.408 E0.07729
G1 X188.227 Y184.832 E0.09141
G1 X189.368 Y183.414 E0.0778
G1 X190.468 Y181.859 E0.08144
G1 X191.536 Y180.12 E0.08727
G1 X192.386 Y178.522 E0.0774
G1 X193.176 Y176.788 E0.08143
G1 X193.899 Y174.88 E0.08727
G1 X194.435 Y173.15 E0.0774
G1 X194.888 Y171.291 E0.08183
G1 X195.223 Y169.406 E0.08184
G1 X195.429 Y167.61 E0.07729
G1 X195.537 Y165.574 E0.08718
G1 X195.514 Y163.665 E0.08164
G1 X195.379 Y161.862 E0.07729
G1 X195.104 Y159.842 E0.08718
G1 X194.723 Y157.971 E0.08163
G1 X194.252 Y156.218 E0.0776
G1 X193.566 Y154.196 E0.0913
G1 X192.877 Y152.522 E0.0774
G1 X192.086 Y150.888 E0.07761
G1 X191.033 Y149.03 E0.0913
G1 X190.043 Y147.515 E0.0774
G1 X188.898 Y145.981 E0.08184
G1 X187.66 Y144.521 E0.08184
G1 X186.406 Y143.216 E0.0774
G1 X184.832 Y141.773 E0.0913
G1 X183.414 Y140.632 E0.07781
G1 X181.859 Y139.532 E0.08143
G1 X180.12 Y138.464 E0.08727
G1 X178.522 Y137.613 E0.0774
G1 X176.784 Y136.822 E0.08163
G1 X174.88 Y136.101 E0.08707
G1 X173.15 Y135.565 E0.0774
G1 X171.291 Y135.112 E0.08183
G1 X169.406 Y134.777 E0.08184
G1 X167.608 Y134.57 E0.0774
G1 X165.518 Y134.462 E0.08949
G1 X163.665 Y134.486 E0.07922
G1 X161.86 Y134.621 E0.0774
G1 X159.837 Y134.897 E0.08727
G1 X157.971 Y135.277 E0.08143
G1 X156.218 Y135.748 E0.0776
G1 X154.196 Y136.434 E0.0913
G1 X152.522 Y137.123 E0.0774
G1 X150.888 Y137.914 E0.0776
G1 X149.03 Y138.967 E0.0913
G1 X147.515 Y139.957 E0.0774
G1 X145.981 Y141.102 E0.08184
G1 X144.521 Y142.34 E0.08183
G1 X143.259 Y143.553 E0.07484
G1 X143.556 Y143.861 F9000
G1 F1800
G1 X143.513 Y143.903 E0.00255
G1 X142.104 Y145.441 E0.08921
G1 X140.976 Y146.843 E0.07691
G1 X139.888 Y148.379 E0.08051
G1 X138.842 Y150.082 E0.08543
G1 X137.999 Y151.666 E0.07672
G1 X137.218 Y153.379 E0.08051
G1 X136.51 Y155.248 E0.08543
G1 X135.979 Y156.962 E0.07672
G1 X135.532 Y158.795 E0.0807
G1 X135.201 Y160.654 E0.0807
G1 X134.996 Y162.438 E0.0768
G1 X134.891 Y164.432 E0.08535
G1 X134.915 Y166.314 E0.0805
G1 X135.048 Y168.106 E0.0768
G1 X135.318 Y170.083 E0.08535
G1 X135.694 Y171.929 E0.08051
G1 X136.162 Y173.67 E0.0771
G1 X136.83 Y175.642 E0.08902
G1 X137.513 Y177.301 E0.07672
G1 X138.299 Y178.924 E0.0771
G1 X139.326 Y180.735 E0.08901
G1 X140.307 Y182.238 E0.07672
G1 X141.436 Y183.751 E0.0807
G1 X142.657 Y185.19 E0.0807
G1 X143.901 Y186.485 E0.0768
G1 X145.441 Y187.896 E0.08932
G1 X146.843 Y189.024 E0.07691
G1 X148.38 Y190.112 E0.08051
G1 X150.082 Y191.158 E0.08542
G1 X151.666 Y192.001 E0.07672
G1 X153.379 Y192.782 E0.0805
G1 X155.248 Y193.49 E0.08543
G1 X156.962 Y194.022 E0.07672
G1 X158.795 Y194.468 E0.08069
G1 X160.654 Y194.799 E0.0807
G1 X162.438 Y195.004 E0.0768
G1 X164.431 Y195.109 E0.08535
G1 X166.314 Y195.086 E0.08051
G1 X168.108 Y194.952 E0.0769
G1 X170.088 Y194.681 E0.08543
G1 X171.928 Y194.306 E0.08032
G1 X173.67 Y193.838 E0.0771
G1 X175.642 Y193.17 E0.08902
G1 X177.301 Y192.487 E0.07672
G1 X178.924 Y191.701 E0.0771
G1 X180.736 Y190.674 E0.08902
G1 X182.238 Y189.693 E0.07672
G1 X183.751 Y188.564 E0.0807
G1 X185.19 Y187.343 E0.0807
G1 X186.485 Y186.099 E0.0768
G1 X187.896 Y184.559 E0.08932
G1 X189.024 Y183.158 E0.07691
G1 X190.112 Y181.62 E0.08051
G1 X191.158 Y179.918 E0.08542
G1 X192.001 Y178.334 E0.07672
G1 X192.782 Y176.621 E0.08051
G1 X193.49 Y174.752 E0.08542
G1 X194.022 Y173.038 E0.07672
G1 X194.468 Y171.205 E0.08069
G1 X194.799 Y169.346 E0.0807
G1 X195.004 Y167.562 E0.0768
G1 X195.109 Y165.569 E0.08535
G1 X195.086 Y163.686 E0.08051
G1 X194.952 Y161.894 E0.0768
G1 X194.682 Y159.917 E0.08535
G1 X194.306 Y158.071 E0.08051
G1 X193.838 Y156.33 E0.0771
G1 X193.17 Y154.358 E0.08902
G1 X192.487 Y152.699 E0.07672
G1 X191.701 Y151.076 E0.0771
G1 X190.674 Y149.264 E0.08902
G1 X189.693 Y147.762 E0.07672
G1 X188.564 Y146.249 E0.0807
G1 X187.343 Y144.81 E0.0807
G1 X186.097 Y143.513 E0.0769
G1 X184.559 Y142.104 E0.08921
G1 X183.157 Y140.976 E0.07691
G1 X181.621 Y139.888 E0.08051
G1 X179.918 Y138.842 E0.08542
G1 X178.334 Y137.999 E0.07672
G1 X176.617 Y137.217 E0.08069
G1 X174.853 Y136.543 E0.0807
G1 X173.139 Y136.008 E0.0768
G1 X171.2 Y135.531 E0.08535
G1 X169.346 Y135.201 E0.08051
G1 X167.559 Y134.996 E0.0769
G1 X165.515 Y134.891 E0.08751
G1 X163.681 Y134.915 E0.07843
G1 X161.892 Y135.048 E0.07672
G1 X159.912 Y135.319 E0.08543
G1 X158.067 Y135.695 E0.08051
G1 X156.33 Y136.162 E0.07691
G1 X154.358 Y136.83 E0.08902
G1 X152.699 Y137.513 E0.07672
G1 X151.076 Y138.299 E0.0771
G1 X149.265 Y139.326 E0.08902
G1 X147.762 Y140.307 E0.07672
G1 X146.249 Y141.436 E0.0807
G1 X144.81 Y142.657 E0.0807
G1 X143.599 Y143.82 E0.07179
; INIT printing object Untitled.stl id:0 copy 0
G1 E-0.8 F3000
; printing object Untitled.stl id:0 copy 0
G1 X146.589 Y146.926 F9000
G1 E0.8 F1800
; External perimeter
;Perimeter
SET_VELOCITY_LIMIT ACCEL=2000 ACCEL_TO_DECEL=2000 SQUARE_CORNER_VELOCITY=5

; Overhang perimeter

;TYPE:Internal perimeter
G1 X147.698 Y145.859 E0.06578
G1 X148.934 Y144.81 E0.0693
G1 X150.233 Y143.841 E0.0693
G1 X151.591 Y142.956 E0.0693
G1 X153.001 Y142.157 E0.06931
G1 X154.459 Y141.449 E0.0693
G1 X155.959 Y140.833 E0.0693
G1 X157.494 Y140.313 E0.0693
G1 X159.059 Y139.891 E0.0693
G1 X160.647 Y139.567 E0.0693
G1 X162.253 Y139.344 E0.0693
G1 X163.869 Y139.222 E0.0693
G1 X165.49 Y139.202 E0.0693
G1 X165.876 Y139.222 E0.01652
G1 X167.109 Y139.284 E0.05278
G1 X168.72 Y139.467 E0.06931
G1 X170.316 Y139.751 E0.0693
G1 X171.89 Y140.135 E0.0693
G1 X173.438 Y140.616 E0.0693
G1 X174.953 Y141.194 E0.0693
G1 X176.428 Y141.866 E0.0693
G1 X177.858 Y142.629 E0.0693
G1 X179.237 Y143.481 E0.06931
G1 X180.56 Y144.417 E0.0693
G1 X181.822 Y145.435 E0.0693
G1 X183.017 Y146.53 E0.0693
G1 X184.141 Y147.698 E0.0693
G1 X185.19 Y148.934 E0.0693
G1 X186.159 Y150.233 E0.06931
G1 X187.044 Y151.591 E0.0693
G1 X187.843 Y153.001 E0.0693
G1 X188.551 Y154.459 E0.0693
G1 X189.167 Y155.959 E0.06931
G1 X189.687 Y157.494 E0.0693
G1 X190.109 Y159.059 E0.0693
G1 X190.433 Y160.647 E0.0693
G1 X190.656 Y162.253 E0.06931
G1 X190.778 Y163.869 E0.06931
G1 X190.798 Y165.49 E0.0693
G1 X190.716 Y167.109 E0.0693
G1 X190.533 Y168.72 E0.0693
G1 X190.249 Y170.316 E0.06931
G1 X189.865 Y171.89 E0.0693
G1 X189.384 Y173.438 E0.06931
G1 X188.806 Y174.953 E0.0693
G1 X188.134 Y176.428 E0.0693
G1 X187.371 Y177.858 E0.0693
G1 X186.519 Y179.237 E0.06931
G1 X185.583 Y180.56 E0.0693
G1 X184.565 Y181.822 E0.06931
G1 X183.47 Y183.017 E0.0693
G1 X182.302 Y184.141 E0.06931
G1 X181.066 Y185.19 E0.0693
G1 X179.767 Y186.159 E0.0693
G1 X178.409 Y187.044 E0.0693
G1 X176.999 Y187.843 E0.0693
G1 X175.541 Y188.551 E0.0693
G1 X174.041 Y189.167 E0.0693
G1 X172.506 Y189.687 E0.0693
G1 X170.941 Y190.109 E0.06931
G1 X169.353 Y190.433 E0.0693
G1 X167.747 Y190.656 E0.06931
G1 X166.131 Y190.778 E0.0693
G1 X164.51 Y190.798 E0.0693
G1 X162.891 Y190.716 E0.0693
G1 X161.28 Y190.533 E0.0693
G1 X159.685 Y190.249 E0.0693
G1 X158.11 Y189.865 E0.0693
G1 X156.562 Y189.384 E0.0693
G1 X155.047 Y188.806 E0.0693
G1 X153.572 Y188.134 E0.0693
G1 X152.142 Y187.371 E0.0693
G1 X150.763 Y186.519 E0.0693
G1 X149.44 Y185.583 E0.0693
G1 X148.178 Y184.565 E0.0693
G1 X146.983 Y183.47 E0.06931
G1 X145.859 Y182.302 E0.0693
G1 X144.81 Y181.066 E0.0693
G1 X143.841 Y179.767 E0.0693
G1 X142.956 Y178.409 E0.06931
G1 X142.157 Y176.999 E0.0693
G1 X141.449 Y175.541 E0.06931
G1 X140.833 Y174.041 E0.06931
G1 X140.313 Y172.506 E0.0693
G1 X139.891 Y170.941 E0.0693
G1 X139.567 Y169.353 E0.0693
G1 X139.344 Y167.747 E0.0693
G1 X139.222 Y166.131 E0.06931
G1 X139.202 Y164.51 E0.0693
G1 X139.284 Y162.891 E0.0693
G1 X139.467 Y161.28 E0.0693
G1 X139.751 Y159.684 E0.06931
G1 X140.135 Y158.11 E0.0693
G1 X140.616 Y156.562 E0.06931
G1 X141.194 Y155.047 E0.0693
G1 X141.866 Y153.572 E0.0693
G1 X142.629 Y152.142 E0.0693
G1 X143.481 Y150.763 E0.06931
G1 X144.417 Y149.44 E0.0693
G1 X145.435 Y148.178 E0.0693
G1 X146.53 Y146.983 E0.0693
G1 X146.546 Y146.967 E0.00096
G1 X146.249 Y146.659 F9000
G1 F1800
G1 X147.41 Y145.541 E0.06892
G1 X148.667 Y144.475 E0.07046
G1 X149.988 Y143.489 E0.07046
G1 X151.368 Y142.589 E0.07045
G1 X152.802 Y141.778 E0.07046
G1 X154.284 Y141.057 E0.07046
G1 X155.809 Y140.432 E0.07045
G1 X157.37 Y139.903 E0.07046
G1 X158.96 Y139.474 E0.07046
G1 X160.575 Y139.145 E0.07046
G1 X162.207 Y138.918 E0.07046
G1 X163.851 Y138.794 E0.07046
G1 X165.498 Y138.774 E0.07045
G1 X165.898 Y138.794 E0.0171
G1 X167.144 Y138.857 E0.05336
G1 X168.781 Y139.043 E0.07046
G1 X170.404 Y139.332 E0.07046
G1 X172.005 Y139.721 E0.07046
G1 X173.578 Y140.211 E0.07046
G1 X175.118 Y140.799 E0.07046
G1 X176.618 Y141.482 E0.07046
G1 X178.071 Y142.258 E0.07046
G1 X179.474 Y143.123 E0.07046
G1 X180.819 Y144.075 E0.07046
G1 X182.101 Y145.11 E0.07046
G1 X183.316 Y146.223 E0.07046
G1 X184.459 Y147.41 E0.07046
G1 X185.525 Y148.667 E0.07045
G1 X186.511 Y149.988 E0.07046
G1 X187.411 Y151.368 E0.07046
G1 X188.222 Y152.802 E0.07045
G1 X188.943 Y154.284 E0.07046
G1 X189.568 Y155.809 E0.07046
G1 X190.097 Y157.37 E0.07045
G1 X190.526 Y158.96 E0.07046
G1 X190.855 Y160.575 E0.07046
G1 X191.082 Y162.207 E0.07046
G1 X191.206 Y163.851 E0.07046
G1 X191.226 Y165.498 E0.07046
G1 X191.143 Y167.144 E0.07046
G1 X190.957 Y168.781 E0.07046
G1 X190.668 Y170.404 E0.07046
G1 X190.279 Y172.005 E0.07045
G1 X189.789 Y173.578 E0.07046
G1 X189.201 Y175.118 E0.07046
G1 X188.518 Y176.618 E0.07046
G1 X187.742 Y178.071 E0.07046
G1 X186.877 Y179.474 E0.07046
G1 X185.925 Y180.819 E0.07045
G1 X184.89 Y182.101 E0.07046
G1 X183.777 Y183.316 E0.07045
G1 X182.59 Y184.459 E0.07046
G1 X181.333 Y185.525 E0.07046
G1 X180.012 Y186.511 E0.07046
G1 X178.632 Y187.411 E0.07046
G1 X177.198 Y188.222 E0.07046
G1 X175.716 Y188.943 E0.07046
G1 X174.191 Y189.568 E0.07046
G1 X172.631 Y190.097 E0.07046
G1 X171.04 Y190.526 E0.07046
G1 X169.425 Y190.855 E0.07046
G1 X167.793 Y191.082 E0.07046
G1 X166.149 Y191.206 E0.07046
G1 X164.502 Y191.226 E0.07045
G1 X162.856 Y191.143 E0.07046
G1 X161.219 Y190.957 E0.07046
G1 X159.596 Y190.668 E0.07046
G1 X157.995 Y190.279 E0.07046
G1 X156.422 Y189.789 E0.07046
G1 X154.882 Y189.201 E0.07046
G1 X153.382 Y188.518 E0.07046
G1 X151.929 Y187.742 E0.07046
G1 X150.526 Y186.877 E0.07046
G1 X149.181 Y185.925 E0.07046
G1 X147.899 Y184.89 E0.07046
G1 X146.684 Y183.777 E0.07046
G1 X145.541 Y182.59 E0.07046
G1 X144.475 Y181.333 E0.07046
G1 X143.49 Y180.012 E0.07045
G1 X142.589 Y178.632 E0.07046
G1 X141.778 Y177.198 E0.07045
G1 X141.057 Y175.716 E0.07046
G1 X140.432 Y174.191 E0.07046
G1 X139.903 Y172.63 E0.07045
G1 X139.474 Y171.04 E0.07046
G1 X139.145 Y169.425 E0.07046
G1 X138.918 Y167.793 E0.07046
G1 X138.794 Y166.149 E0.07046
G1 X138.774 Y164.502 E0.07046
G1 X138.857 Y162.856 E0.07046
G1 X139.043 Y161.219 E0.07046
G1 X139.332 Y159.596 E0.07046
G1 X139.721 Y157.995 E0.07045
G1 X140.211 Y156.422 E0.07046
G1 X140.799 Y154.882 E0.07046
G1 X141.482 Y153.382 E0.07046
G1 X142.258 Y151.929 E0.07046
G1 X143.123 Y150.526 E0.07046
G1 X144.075 Y149.181 E0.07045
G1 X145.11 Y147.899 E0.07046
G1 X146.207 Y146.701 E0.06943
G1 X145.891 Y146.412 F9000
; External perimeter
;ExternalPerimeter
SET_VELOCITY_LIMIT ACCEL=1000 ACCEL_TO_DECEL=1000 SQUARE_CORNER_VELOCITY=5

; Perimeter

;TYPE:External perimeter
G1 F1800
G1 X145.916 Y146.384 E0.0016
G1 X147.123 Y145.223 E0.07161
G1 X148.4 Y144.139 E0.07161
G1 X149.742 Y143.138 E0.07161
G1 X151.145 Y142.223 E0.07161
G1 X152.603 Y141.398 E0.07161
G1 X154.109 Y140.666 E0.07161
G1 X155.659 Y140.03 E0.07161
G1 X157.245 Y139.493 E0.07161
G1 X158.862 Y139.056 E0.07161
G1 X160.503 Y138.722 E0.07161
G1 X162.162 Y138.492 E0.07161
G1 X163.832 Y138.366 E0.07161
G1 X165.506 Y138.345 E0.07161
G1 X165.919 Y138.366 E0.01767
G1 X167.179 Y138.429 E0.05393
G1 X168.843 Y138.619 E0.07161
G1 X170.492 Y138.912 E0.07161
G1 X172.119 Y139.308 E0.07161
G1 X173.719 Y139.806 E0.07161
G1 X175.283 Y140.403 E0.07161
G1 X176.807 Y141.097 E0.07161
G1 X178.285 Y141.886 E0.07161
G1 X179.71 Y142.766 E0.07161
G1 X181.077 Y143.733 E0.07161
G1 X182.381 Y144.785 E0.07161
G1 X183.616 Y145.916 E0.07161
G1 X184.777 Y147.123 E0.07161
G1 X185.861 Y148.4 E0.07161
G1 X186.862 Y149.742 E0.07161
G1 X187.777 Y151.145 E0.07161
G1 X188.602 Y152.603 E0.07161
G1 X189.334 Y154.109 E0.07161
G1 X189.97 Y155.659 E0.07161
G1 X190.507 Y157.245 E0.07161
G1 X190.944 Y158.862 E0.07161
G1 X191.278 Y160.503 E0.07161
G1 X191.508 Y162.162 E0.07161
G1 X191.634 Y163.832 E0.07161
G1 X191.655 Y165.506 E0.07161
G1 X191.571 Y167.179 E0.07161
G1 X191.381 Y168.843 E0.07161
G1 X191.088 Y170.492 E0.07161
G1 X190.692 Y172.119 E0.0716
G1 X190.194 Y173.718 E0.07161
G1 X189.597 Y175.283 E0.07161
G1 X188.903 Y176.807 E0.07161
G1 X188.114 Y178.285 E0.07161
G1 X187.234 Y179.71 E0.07161
G1 X186.267 Y181.077 E0.07161
G1 X185.215 Y182.381 E0.07161
G1 X184.084 Y183.616 E0.07161
G1 X182.877 Y184.777 E0.07161
G1 X181.6 Y185.861 E0.07161
G1 X180.258 Y186.862 E0.07161
G1 X178.855 Y187.777 E0.07161
G1 X177.397 Y188.602 E0.07161
G1 X175.891 Y189.334 E0.07161
G1 X174.341 Y189.97 E0.07161
G1 X172.755 Y190.507 E0.07161
G1 X171.138 Y190.944 E0.07161
G1 X169.497 Y191.278 E0.07161
G1 X167.838 Y191.508 E0.07161
G1 X166.168 Y191.634 E0.07161
G1 X164.494 Y191.655 E0.07161
G1 X162.821 Y191.571 E0.07161
G1 X161.157 Y191.381 E0.07161
G1 X159.508 Y191.088 E0.07161
G1 X157.881 Y190.692 E0.07161
G1 X156.281 Y190.194 E0.07161
G1 X154.717 Y189.597 E0.07161
G1 X153.193 Y188.903 E0.07161
G1 X151.715 Y188.114 E0.07161
G1 X150.29 Y187.234 E0.07161
G1 X148.923 Y186.267 E0.07161
