; generated by SuperSlicer 2.3.57 on 2021-12-21 at 06:46:53 UTC


;
;

;
;
; 

; external perimeters extrusion width = 0.40mm
; perimeters extrusion width = 0.40mm
; infill extrusion width = 0.40mm
; solid infill extrusion width = 0.40mm
; top infill extrusion width = 0.40mm
; first layer extrusion width = 0.48mm


;TYPE:Custom
START_PRINT T_BED=70 T_EXTRUDER=235
M107
G21 ; set units to millimeters
G90 ; use absolute coordinates
M83 ; use relative distances for extrusion
M104 S235 ; set temperature
M109 S235 ; set temperature and wait for it to be reached
M190 S70 ; set bed temperature and wait for it to be reached
M107
;LAYER_CHANGE
;Z:0.24
;HEIGHT:0.24
G1 Z0.24 F12000
G1 E-1.5 F3000
G1 X121.19 Y147.487 F12000
G1 E1.5 F1800
;TYPE:Skirt
;WIDTH:0.48
G1 F600
G1 X120.03 Y148.615 E0.06918
G1 X119.513 Y149.265 E0.03548
G1 X118.804 Y150.385 E0.05668
G1 X118.132 Y151.931 E0.07208
G1 X117.796 Y153.209 E0.05651
G1 X117.672 Y154.046 E0.03616
G1 X117.622 Y154.886 E0.03599
G1 X117.688 Y156.202 E0.05634
G1 X118.027 Y157.85 E0.07191
G1 X118.278 Y158.586 E0.03324
G1 X118.836 Y159.784 E0.05651
G1 X119.712 Y161.111 E0.06798
G1 X120.795 Y162.28 E0.06815
G1 X121.379 Y162.776 E0.03273
G1 X122.464 Y163.515 E0.05616
G1 X123.904 Y164.211 E0.06837
G1 X193.737 Y189.487 E3.17531
G1 X194.26 Y189.611 E0.02297
G1 X194.797 Y189.628 E0.02297
G1 X195.326 Y189.535 E0.02297
G1 X195.826 Y189.337 E0.02297
G1 X210.147 Y181.861 E0.69075
G1 X210.682 Y181.414 E0.02979
G1 X211.08 Y180.846 E0.02962
G1 X211.316 Y180.195 E0.02962
G1 X211.375 Y179.505 E0.02962
G1 X210.924 Y176.777 E0.11824
G1 X196.668 Y124.854 E2.30212
G1 X196.231 Y124.032 E0.0398
G1 X194.448 Y122.025 E0.11477
G1 X193.637 Y121.537 E0.04048
G1 X192.706 Y121.366 E0.04048
G1 X191.812 Y121.52 E0.03879
G1 X124.313 Y145.755 E3.06633
G1 X122.972 Y146.317 E0.06216
G1 X122.26 Y146.719 E0.03496
G1 X121.239 Y147.453 E0.05377
G1 X121.525 Y147.793 F12000
G1 F600
G1 X120.914 Y148.307 E0.03415
G1 X120.363 Y148.885 E0.03411
G1 X119.866 Y149.508 E0.03411
G1 X119.182 Y150.588 E0.05463
G1 X118.563 Y151.99 E0.06554
G1 X118.338 Y152.748 E0.03379
G1 X118.108 Y154.009 E0.05483
G1 X118.061 Y155.54 E0.06549
G1 X118.135 Y156.323 E0.03364
G1 X118.397 Y157.587 E0.05515
G1 X118.953 Y159.073 E0.06784
G1 X119.292 Y159.721 E0.03128
G1 X120.002 Y160.785 E0.05468
G1 X121.027 Y161.913 E0.06518
G1 X122.217 Y162.854 E0.06487
G1 X123.326 Y163.491 E0.05468
G1 X124.047 Y163.807 E0.03368
G1 X193.873 Y189.081 E3.17499
G1 X194.749 Y189.201 E0.03778
G1 X195.605 Y188.968 E0.03794
G1 X209.895 Y181.513 E0.68916
G1 X210.35 Y181.142 E0.02507
G1 X210.691 Y180.665 E0.02507
G1 X210.895 Y180.115 E0.02507
G1 X210.947 Y179.531 E0.02507
G1 X210.51 Y176.889 E0.11449
G1 X196.263 Y124.995 E2.30086
G1 X195.889 Y124.291 E0.03408
G1 X194.182 Y122.363 E0.1101
G1 X193.497 Y121.942 E0.03439
G1 X192.706 Y121.794 E0.03439
G1 X191.953 Y121.924 E0.03269
G1 X124.461 Y146.157 E3.06602
G1 X123.195 Y146.684 E0.05865
G1 X121.892 Y147.484 E0.06534
G1 X121.571 Y147.754 E0.01796
G1 E-1.5 F3000
G1 X133.333 Y152.27 F12000
G1 E1.5 F1800
;TYPE:Internal perimeter
G1 F600
G1 X134.55 Y152.269 E0.05204
G1 X135.397 Y152.255 E0.03621
G1 X136.246 Y152.227 E0.03633
G1 X137.098 Y152.186 E0.03646
G1 X137.952 Y152.131 E0.03661
G1 X138.809 Y152.062 E0.03676
G1 X139.669 Y151.98 E0.03692
G1 X140.531 Y151.885 E0.0371
G1 X141.396 Y151.775 E0.03728
G1 X142.264 Y151.652 E0.03747
G1 X143.134 Y151.516 E0.03767
G1 X144.007 Y151.366 E0.03787
G1 X144.883 Y151.202 E0.03809
G1 X145.762 Y151.025 E0.03832
G1 X146.643 Y150.833 E0.03855
G1 X147.527 Y150.629 E0.03879
G1 X148.413 Y150.41 E0.03904
G1 X149.302 Y150.178 E0.0393
G1 X150.195 Y149.932 E0.03956
G1 X151.089 Y149.672 E0.03984
G1 X151.987 Y149.399 E0.04012
G1 X152.887 Y149.112 E0.0404
G1 X153.79 Y148.811 E0.0407
G1 X154.696 Y148.496 E0.041
G1 X155.604 Y148.167 E0.0413
G1 X156.516 Y147.825 E0.04162
G1 X157.43 Y147.469 E0.04194
G1 X158.346 Y147.099 E0.04227
G1 X159.266 Y146.715 E0.0426
G1 X160.188 Y146.317 E0.04294
G1 X161.113 Y145.906 E0.04328
G1 X162.04 Y145.48 E0.04363
G1 X162.971 Y145.041 E0.04399
G1 X163.904 Y144.588 E0.04435
G1 X164.84 Y144.121 E0.04472
G1 X165.778 Y143.64 E0.04509
G1 X166.72 Y143.145 E0.04547
G1 X167.663 Y142.636 E0.04585
G1 X168.61 Y142.114 E0.04623
G1 X169.559 Y141.577 E0.04662
G1 X170.511 Y141.027 E0.04702
G1 X171.466 Y140.462 E0.04742
G1 X172.424 Y139.884 E0.04782
G1 X173.384 Y139.292 E0.04823
G1 X174.346 Y138.685 E0.04864
G1 X175.312 Y138.065 E0.04906
G1 X176.28 Y137.431 E0.04948
G1 X177.251 Y136.783 E0.0499
G1 X178.224 Y136.121 E0.05033
G1 X179.2 Y135.445 E0.05076
G1 X180.179 Y134.755 E0.0512
G1 X181.16 Y134.051 E0.05163
G1 X182.144 Y133.333 E0.05208
G1 X183.13 Y132.601 E0.05252
G1 X184.12 Y131.855 E0.05297
G1 X185.111 Y131.096 E0.05342
G1 X186.106 Y130.322 E0.05387
G1 X187.103 Y129.534 E0.05433
G1 X188.102 Y128.732 E0.05479
G1 X189.104 Y127.916 E0.05525
G1 X190.109 Y127.087 E0.05571
G1 X191.117 Y126.243 E0.05618
G1 X192.127 Y125.385 E0.05665
G1 X192.635 Y124.947 E0.0287
G1 X193.204 Y125.596 E0.0369
G1 X192.67 Y126.056 E0.03015
G1 X191.628 Y126.94 E0.0584
G1 X190.59 Y127.81 E0.05791
G1 X189.554 Y128.664 E0.05742
G1 X188.52 Y129.504 E0.05694
G1 X187.489 Y130.329 E0.05646
G1 X186.461 Y131.14 E0.05598
G1 X185.435 Y131.935 E0.0555
G1 X184.413 Y132.716 E0.05503
G1 X183.392 Y133.483 E0.05456
G1 X182.375 Y134.234 E0.05409
G1 X181.359 Y134.971 E0.05363
G1 X180.347 Y135.694 E0.05317
G1 X179.337 Y136.401 E0.05272
G1 X178.33 Y137.094 E0.05227
G1 X177.326 Y137.772 E0.05182
G1 X176.324 Y138.436 E0.05137
G1 X175.325 Y139.084 E0.05094
G1 X174.328 Y139.718 E0.0505
G1 X173.334 Y140.338 E0.05007
G1 X172.343 Y140.942 E0.04964
G1 X171.354 Y141.532 E0.04922
G1 X170.369 Y142.108 E0.0488
G1 X169.385 Y142.668 E0.04839
G1 X168.405 Y143.214 E0.04798
G1 X167.427 Y143.746 E0.04758
G1 X166.452 Y144.262 E0.04719
G1 X165.479 Y144.764 E0.04679
G1 X164.509 Y145.251 E0.04641
G1 X163.542 Y145.724 E0.04603
G1 X162.578 Y146.182 E0.04565
G1 X161.616 Y146.625 E0.04528
G1 X160.657 Y147.054 E0.04492
G1 X159.7 Y147.468 E0.04456
G1 X158.746 Y147.867 E0.04421
G1 X157.795 Y148.252 E0.04386
G1 X156.847 Y148.622 E0.04353
G1 X155.901 Y148.978 E0.0432
G1 X154.958 Y149.319 E0.04287
G1 X154.018 Y149.645 E0.04255
G1 X153.08 Y149.956 E0.04224
G1 X152.145 Y150.253 E0.04194
G1 X151.213 Y150.536 E0.04165
G1 X150.283 Y150.803 E0.04136
G1 X149.357 Y151.057 E0.04108
G1 X148.432 Y151.295 E0.04081
G1 X147.511 Y151.519 E0.04055
G1 X146.592 Y151.729 E0.04029
G1 X145.676 Y151.924 E0.04005
G1 X144.762 Y152.104 E0.03981
G1 X143.852 Y152.27 E0.03958
G1 X142.944 Y152.421 E0.03936
G1 X142.038 Y152.558 E0.03915
G1 X141.135 Y152.68 E0.03895
G1 X140.235 Y152.787 E0.03876
G1 X139.338 Y152.88 E0.03858
G1 X138.443 Y152.959 E0.03841
G1 X137.55 Y153.023 E0.03825
G1 X136.661 Y153.072 E0.03809
G1 X135.774 Y153.107 E0.03795
G1 X134.89 Y153.128 E0.03782
G1 X134.008 Y153.134 E0.0377
G1 X133.129 Y153.125 E0.03759
G1 X132.724 Y153.115 E0.01732
G1 X132.511 Y152.613 E0.02328
G1 X132.261 Y152.151 E0.02245
G1 X131.97 Y151.714 E0.02245
G1 X131.64 Y151.306 E0.02245
G1 X131.272 Y150.931 E0.02245
G1 X130.872 Y150.591 E0.02245
G1 X130.442 Y150.29 E0.02245
G1 X129.985 Y150.031 E0.02245
G1 X129.506 Y149.815 E0.02245
G1 X129.01 Y149.644 E0.02245
G1 X128.499 Y149.521 E0.02245
G1 X127.98 Y149.446 E0.02245
G1 X127.455 Y149.419 E0.02245
G1 X126.931 Y149.441 E0.02245
G1 X126.41 Y149.512 E0.02245
G1 X125.899 Y149.631 E0.02245
G1 X125.401 Y149.797 E0.02245
G1 X124.92 Y150.009 E0.02245
G1 X124.461 Y150.264 E0.02245
G1 X124.028 Y150.561 E0.02245
G1 X123.625 Y150.897 E0.02245
G1 X123.254 Y151.269 E0.02245
G1 X122.92 Y151.674 E0.02245
G1 X122.625 Y152.109 E0.02245
G1 X122.372 Y152.569 E0.02245
G1 X122.162 Y153.05 E0.02245
G1 X121.998 Y153.549 E0.02245
G1 X121.882 Y154.061 E0.02245
G1 X121.813 Y154.582 E0.02245
G1 X121.794 Y155.107 E0.02245
G1 X121.823 Y155.631 E0.02245
G1 X121.901 Y156.15 E0.02245
G1 X122.026 Y156.66 E0.02245
G1 X122.199 Y157.156 E0.02245
G1 X122.417 Y157.634 E0.02245
G1 X122.679 Y158.089 E0.02245
G1 X122.982 Y158.518 E0.02245
G1 X123.323 Y158.917 E0.02245
G1 X123.7 Y159.282 E0.02245
G1 X124.11 Y159.611 E0.02245
G1 X124.548 Y159.9 E0.02245
G1 X125.012 Y160.147 E0.02245
G1 X125.496 Y160.35 E0.02245
G1 X125.997 Y160.507 E0.02245
G1 X126.511 Y160.617 E0.02245
G1 X127.032 Y160.679 E0.02245
G1 X127.557 Y160.691 E0.02245
G1 X128.081 Y160.655 E0.02245
G1 X128.599 Y160.57 E0.02245
G1 X129.107 Y160.437 E0.02245
G1 X129.601 Y160.258 E0.02245
G1 X130.075 Y160.034 E0.02245
G1 X130.527 Y159.766 E0.02245
G1 X130.952 Y159.457 E0.02245
G1 X131.346 Y159.11 E0.02245
G1 X131.707 Y158.728 E0.02245
G1 X132.03 Y158.314 E0.02245
G1 X132.313 Y157.872 E0.02245
G1 X132.554 Y157.406 E0.02245
G1 X132.763 Y156.888 E0.02386
G1 X133.183 Y156.859 E0.01802
G1 X134.065 Y156.812 E0.03774
G1 X134.948 Y156.781 E0.03781
G1 X135.835 Y156.766 E0.0379
G1 X136.723 Y156.766 E0.038
G1 X137.615 Y156.781 E0.03811
G1 X138.509 Y156.812 E0.03824
G1 X139.405 Y156.858 E0.03837
G1 X140.304 Y156.92 E0.03852
G1 X141.205 Y156.998 E0.03868
G1 X142.109 Y157.091 E0.03885
G1 X143.015 Y157.199 E0.03903
G1 X143.924 Y157.323 E0.03923
G1 X144.836 Y157.462 E0.03943
G1 X145.75 Y157.617 E0.03964
G1 X146.667 Y157.788 E0.03987
G1 X147.586 Y157.974 E0.0401
G1 X148.508 Y158.175 E0.04035
G1 X149.433 Y158.393 E0.0406
G1 X150.36 Y158.625 E0.04087
G1 X151.289 Y158.873 E0.04114
G1 X152.222 Y159.137 E0.04143
G1 X153.157 Y159.417 E0.04172
G1 X154.094 Y159.712 E0.04202
G1 X155.034 Y160.022 E0.04233
G1 X155.977 Y160.348 E0.04265
G1 X156.922 Y160.69 E0.04298
G1 X157.87 Y161.048 E0.04331
G1 X158.82 Y161.421 E0.04366
G1 X159.773 Y161.809 E0.04401
G1 X160.729 Y162.214 E0.04437
G1 X161.687 Y162.633 E0.04473
G1 X162.648 Y163.069 E0.04511
G1 X163.612 Y163.52 E0.04549
G1 X164.578 Y163.987 E0.04587
G1 X165.546 Y164.469 E0.04627
G1 X166.518 Y164.968 E0.04667
G1 X167.492 Y165.481 E0.04708
G1 X168.468 Y166.011 E0.04749
G1 X169.447 Y166.556 E0.04791
G1 X170.429 Y167.117 E0.04833
G1 X171.413 Y167.693 E0.04877
G1 X172.4 Y168.285 E0.0492
G1 X173.389 Y168.893 E0.04964
G1 X174.381 Y169.517 E0.05009
G1 X175.375 Y170.156 E0.05054
G1 X176.372 Y170.811 E0.051
G1 X177.372 Y171.481 E0.05146
G1 X178.374 Y172.168 E0.05193
G1 X179.379 Y172.87 E0.0524
G1 X180.386 Y173.587 E0.05288
G1 X181.396 Y174.321 E0.05336
G1 X182.408 Y175.07 E0.05384
G1 X183.423 Y175.834 E0.05433
G1 X184.44 Y176.615 E0.05482
G1 X185.46 Y177.411 E0.05532
G1 X186.483 Y178.223 E0.05582
G1 X187.508 Y179.05 E0.05633
G1 X188.535 Y179.894 E0.05683
G1 X189.566 Y180.753 E0.05735
G1 X190.598 Y181.627 E0.05786
G1 X191.633 Y182.518 E0.05838
G1 X192.671 Y183.424 E0.0589
G1 X194.242 Y184.816 E0.08975
G1 X196.19 Y182.354 E0.13422
G1 X196.19 Y180.187 E0.09264
G1 X207.823 Y178.234 E0.50435
G1 X207.965 Y179.079 E0.03659
G1 X197.118 Y180.899 E0.47027
G1 X197.118 Y182.711 E0.07746
G1 X194.494 Y186.053 E0.18165
G1 X176.545 Y171.964 E0.9756
G1 X175.101 Y171.007 E0.07408
G1 X173.681 Y170.095 E0.07217
G1 X172.266 Y169.215 E0.07122
G1 X170.858 Y168.367 E0.07029
G1 X169.455 Y167.553 E0.06937
G1 X168.058 Y166.77 E0.06847
G1 X166.666 Y166.02 E0.06759
G1 X165.28 Y165.302 E0.06672
G1 X163.9 Y164.617 E0.06588
G1 X162.526 Y163.963 E0.06505
G1 X161.158 Y163.343 E0.06424
G1 X159.796 Y162.754 E0.06346
G1 X158.439 Y162.198 E0.06269
G1 X157.088 Y161.673 E0.06195
G1 X155.743 Y161.181 E0.06123
G1 X154.404 Y160.721 E0.06054
G1 X153.071 Y160.293 E0.05987
G1 X151.743 Y159.897 E0.05922
G1 X150.422 Y159.533 E0.05861
G1 X149.106 Y159.201 E0.05802
G1 X147.796 Y158.901 E0.05746
G1 X146.492 Y158.633 E0.05693
G1 X145.193 Y158.396 E0.05643
G1 X143.901 Y158.191 E0.05596
G1 X142.613 Y158.018 E0.05553
G1 X141.332 Y157.877 E0.05512
G1 X140.056 Y157.767 E0.05475
G1 X138.786 Y157.689 E0.05442
G1 X137.521 Y157.642 E0.05412
G1 X136.261 Y157.627 E0.05386
G1 X135.007 Y157.643 E0.05363
G1 X133.395 Y157.704 E0.06898
G1 X132.951 Y158.484 E0.03834
G1 X132.672 Y158.898 E0.02134
G1 X132.362 Y159.289 E0.02134
G1 X132.022 Y159.655 E0.02134
G1 X131.656 Y159.993 E0.02134
G1 X131.264 Y160.303 E0.02134
G1 X130.85 Y160.582 E0.02134
G1 X130.416 Y160.828 E0.02134
G1 X129.964 Y161.04 E0.02134
G1 X129.497 Y161.217 E0.02134
G1 X129.018 Y161.358 E0.02134
G1 X128.53 Y161.461 E0.02134
G1 X128.035 Y161.526 E0.02134
G1 X127.536 Y161.554 E0.02134
G1 X127.037 Y161.543 E0.02134
G1 X126.54 Y161.493 E0.02134
G1 X126.049 Y161.406 E0.02134
G1 X125.566 Y161.281 E0.02134
G1 X125.093 Y161.12 E0.02134
G1 X124.635 Y160.922 E0.02134
G1 X124.193 Y160.691 E0.02134
G1 X123.77 Y160.425 E0.02134
G1 X123.368 Y160.129 E0.02134
G1 X122.991 Y159.802 E0.02134
G1 X122.64 Y159.447 E0.02134
G1 X122.317 Y159.066 E0.02134
G1 X122.024 Y158.662 E0.02134
G1 X121.763 Y158.236 E0.02134
G1 X121.536 Y157.792 E0.02134
G1 X121.343 Y157.332 E0.02134
G1 X121.186 Y156.858 E0.02134
G1 X121.066 Y156.373 E0.02134
G1 X120.984 Y155.881 E0.02134
G1 X120.94 Y155.383 E0.02134
G1 X120.934 Y154.884 E0.02134
G1 X120.966 Y154.386 E0.02134
G1 X121.037 Y153.892 E0.02134
G1 X121.145 Y153.405 E0.02134
G1 X121.29 Y152.927 E0.02134
G1 X121.472 Y152.462 E0.02134
G1 X121.688 Y152.012 E0.02134
G1 X121.939 Y151.58 E0.02134
G1 X122.222 Y151.169 E0.02134
G1 X122.535 Y150.781 E0.02134
G1 X122.878 Y150.418 E0.02134
G1 X123.247 Y150.082 E0.02134
G1 X123.641 Y149.776 E0.02134
G1 X124.058 Y149.5 E0.02134
G1 X124.494 Y149.258 E0.02134
G1 X124.948 Y149.05 E0.02134
G1 X125.416 Y148.877 E0.02134
G1 X125.897 Y148.74 E0.02134
G1 X126.386 Y148.641 E0.02134
G1 X126.881 Y148.58 E0.02134
G1 X127.38 Y148.557 E0.02134
G1 X127.879 Y148.572 E0.02134
G1 X128.375 Y148.626 E0.02134
G1 X128.866 Y148.717 E0.02134
G1 X129.348 Y148.846 E0.02134
G1 X129.819 Y149.012 E0.02134
G1 X130.276 Y149.213 E0.02134
G1 X130.716 Y149.449 E0.02134
G1 X131.137 Y149.717 E0.02134
G1 X131.536 Y150.018 E0.02134
G1 X131.91 Y150.348 E0.02134
G1 X132.258 Y150.705 E0.02134
G1 X132.578 Y151.089 E0.02134
G1 X132.867 Y151.496 E0.02134
G1 X133.302 Y152.218 E0.03606
G1 X133.575 Y151.841 F12000
;TYPE:External perimeter
G1 F600
G1 X134.546 Y151.84 E0.04152
G1 X135.386 Y151.826 E0.03591
G1 X136.229 Y151.799 E0.03604
G1 X137.074 Y151.758 E0.03618
G1 X137.921 Y151.703 E0.03632
G1 X138.772 Y151.635 E0.03648
G1 X139.625 Y151.554 E0.03664
G1 X140.481 Y151.459 E0.03682
G1 X141.339 Y151.351 E0.037
G1 X142.201 Y151.229 E0.03719
G1 X143.065 Y151.093 E0.0374
G1 X143.932 Y150.944 E0.03761
G1 X144.801 Y150.781 E0.03783
G1 X145.674 Y150.605 E0.03805
G1 X146.549 Y150.415 E0.03829
G1 X147.427 Y150.212 E0.03853
G1 X148.308 Y149.995 E0.03879
G1 X149.191 Y149.764 E0.03905
G1 X150.078 Y149.52 E0.03932
G1 X150.967 Y149.262 E0.03959
G1 X151.859 Y148.99 E0.03987
G1 X152.754 Y148.704 E0.04016
G1 X153.652 Y148.405 E0.04046
G1 X154.553 Y148.092 E0.04077
G1 X155.456 Y147.765 E0.04108
G1 X156.362 Y147.425 E0.04139
G1 X157.272 Y147.07 E0.04172
G1 X158.184 Y146.702 E0.04205
G1 X159.098 Y146.321 E0.04238
G1 X160.016 Y145.925 E0.04273
G1 X160.936 Y145.515 E0.04307
G1 X161.86 Y145.092 E0.04343
G1 X162.786 Y144.655 E0.04379
G1 X163.715 Y144.204 E0.04415
G1 X164.646 Y143.739 E0.04452
G1 X165.581 Y143.26 E0.0449
G1 X166.518 Y142.767 E0.04527
G1 X167.458 Y142.26 E0.04566
G1 X168.401 Y141.74 E0.04605
G1 X169.347 Y141.205 E0.04644
G1 X170.295 Y140.657 E0.04684
G1 X171.246 Y140.095 E0.04724
G1 X172.2 Y139.518 E0.04765
G1 X173.157 Y138.928 E0.04806
G1 X174.116 Y138.324 E0.04848
G1 X175.079 Y137.706 E0.0489
G1 X176.043 Y137.074 E0.04932
G1 X177.011 Y136.428 E0.04974
G1 X177.981 Y135.768 E0.05017
G1 X178.955 Y135.094 E0.05061
G1 X179.93 Y134.406 E0.05105
G1 X180.909 Y133.704 E0.05149
G1 X181.89 Y132.988 E0.05193
G1 X182.874 Y132.258 E0.05238
G1 X183.86 Y131.514 E0.05283
G1 X184.849 Y130.756 E0.05328
G1 X185.841 Y129.985 E0.05373
G1 X186.836 Y129.199 E0.05419
G1 X187.833 Y128.399 E0.05465
G1 X188.833 Y127.585 E0.05512
G1 X189.835 Y126.757 E0.05559
G1 X190.84 Y125.915 E0.05606
G1 X191.848 Y125.06 E0.05653
G1 X192.678 Y124.345 E0.0468
G1 X193.811 Y125.639 E0.07354
G1 X192.948 Y126.382 E0.0487
G1 X191.905 Y127.268 E0.05853
G1 X190.864 Y128.139 E0.05804
G1 X189.825 Y128.996 E0.05755
G1 X188.789 Y129.838 E0.05707
G1 X187.756 Y130.665 E0.05659
