; generated by SuperSlicer 2.4 on 2022-09-02 at 03:05:54 UTC


;
;

;
;
; 

; external perimeters extrusion width = 0.40mm
; perimeters extrusion width = 0.50mm
; infill extrusion width = 0.72mm
; solid infill extrusion width = 0.56mm
; top infill extrusion width = 0.40mm
; support material extrusion width = 0.50mm

; external perimeters extrusion width = 0.40mm
; perimeters extrusion width = 0.50mm
; infill extrusion width = 0.72mm
; solid infill extrusion width = 0.56mm
; top infill extrusion width = 0.40mm
; support material extrusion width = 0.50mm

; external perimeters extrusion width = 0.40mm
; perimeters extrusion width = 0.50mm
; infill extrusion width = 0.72mm
; solid infill extrusion width = 0.56mm
; top infill extrusion width = 0.40mm
; support material extrusion width = 0.50mm

; object:{"name":"chair_insert_hex_nut","id":"chair_insert_hex_nut.stl id:0 copy 0","object_center":[165.000000,132.476009,0.000000],"boundingbox_center":[165.000000,132.476009,4.826000],"boundingbox_size":[16.636993,19.210754,9.652000]}
; object:{"name":"printed_thumbscrew","id":"printed_thumbscrew.stl id:1 copy 0","object_center":[165.000001,193.927677,0.000000],"boundingbox_center":[165.000001,193.927677,5.000000],"boundingbox_size":[26.327728,26.403381,10.000000]}
; object:{"name":"main_piece","id":"main_piece.stl id:2 copy 0","object_center":[165.000000,161.403686,0.000000],"boundingbox_center":[165.000000,161.403686,12.065001],"boundingbox_size":[114.934998,26.644600,24.130001]}
; plater:{"center":[165.000000,165.000000,0.000000],"boundingbox_center":[165.000000,165.000000,12.065001],"boundingbox_size":[114.934998,84.258736,24.130001]}

M73 P0 R74
;TYPE:Custom
START_PRINT T_BED=70 T_EXTRUDER=235
M107
G21 ; set units to millimeters
G90 ; use absolute coordinates
M83 ; use relative distances for extrusion
; Filament gcode
;_TOOLCHANGE 0
M104 S235 ; set temperature
M109 S235 ; set temperature and wait for it to be reached
M190 S70 ; set bed temperature and wait for it to be reached
M107
;LAYER_CHANGE
;Z:0.24
;HEIGHT:0.24
G1 Z0.24 F9000
G92 E0
M73 P0 R74
G1 E-1 F3000
M204 S1000
G1 X109.26 Y145.703 F9000
G1 E1 F1800
;TYPE:Skirt
;WIDTH:0.52
G1 X108.214 Y146.488 E0.0599
G1 X106.653 Y147.968 E0.09857
G1 X105.286 Y149.579 E0.09679
G1 X104.653 Y150.465 E0.04986
G1 X103.667 Y152.091 E0.08712
G1 X102.751 Y154.029 E0.0982
G1 X102.009 Y156.215 E0.10575
G1 X101.551 Y158.33 E0.09915
G1 X101.308 Y161.303 E0.13666
G1 X101.415 Y163.449 E0.09844
G1 X101.747 Y165.528 E0.09644
G1 X102.314 Y167.598 E0.09835
G1 X103.169 Y169.729 E0.10519
G1 X104.197 Y171.634 E0.09915
G1 X105.415 Y173.396 E0.09812
G1 X106.653 Y174.839 E0.08712
G1 X107.423 Y175.611 E0.04993
G1 X109.033 Y176.977 E0.09672
G1 X155.603 Y207.845 E2.5596
G1 X158.017 Y209.212 E0.12708
G1 X159.852 Y209.926 E0.09017
G1 X160.93 Y210.22 E0.05121
G1 X163.252 Y210.629 E0.10801
G1 X164.595 Y210.729 E0.06168
G1 X166.748 Y210.629 E0.09874
G1 X169.07 Y210.22 E0.10801
G1 X170.148 Y209.926 E0.05121
G1 X171.983 Y209.212 E0.09017
G1 X174.736 Y207.624 E0.14563
G1 X220.094 Y174.312 E2.5781
G1 X222.112 Y172.28 E0.1312
G1 X223.758 Y169.937 E0.1312
G1 X224.064 Y169.389 E0.02872
G1 X224.985 Y167.349 E0.10256
G1 X225.758 Y164.591 E0.13119
G1 X226.054 Y161.686 E0.13378
G1 X225.864 Y158.834 E0.13093
G1 X225.758 Y158.216 E0.02873
G1 X224.985 Y155.458 E0.1312
G1 X224.064 Y153.418 E0.10256
G1 X223.758 Y152.871 E0.02872
G1 X222.112 Y150.527 E0.1312
G1 X220.564 Y148.91 E0.10256
G1 X218.295 Y147.163 E0.1312
G1 X166.736 Y119.719 E2.67577
G1 X165.09 Y119.288 E0.07796
G1 X163.418 Y119.642 E0.07828
G1 X112.749 Y143.608 E2.56781
G1 X110.996 Y144.518 E0.09048
G1 X110.092 Y145.08 E0.04877
G1 X109.26 Y145.703 E0.04761
G1 X109.539 Y146.075 F9000
G1 F1800
G1 X108.524 Y146.836 E0.05815
G1 X106.999 Y148.281 E0.09624
G1 X105.664 Y149.852 E0.09443
G1 X104.072 Y152.322 E0.1346
G1 X103.179 Y154.215 E0.09589
G1 X102.461 Y156.328 E0.10225
G1 X102.013 Y158.392 E0.09675
G1 X101.774 Y161.316 E0.13439
G1 X101.88 Y163.411 E0.0961
G1 X102.205 Y165.439 E0.09412
G1 X102.76 Y167.461 E0.09602
G1 X103.587 Y169.522 E0.10174
G1 X104.588 Y171.381 E0.09675
G1 X105.777 Y173.102 E0.09582
G1 X107.752 Y175.28 E0.13467
G1 X109.323 Y176.611 E0.09436
G1 X155.836 Y207.442 E2.55645
G1 X158.204 Y208.784 E0.12468
G1 X159.984 Y209.479 E0.08753
G1 X161.011 Y209.761 E0.04881
G1 X163.333 Y210.17 E0.10801
G1 X164.595 Y210.263 E0.05795
G1 X166.667 Y210.17 E0.09502
G1 X168.989 Y209.761 E0.10801
G1 X170.016 Y209.479 E0.04881
G1 X171.796 Y208.784 E0.08753
G1 X174.46 Y207.248 E0.14089
G1 X219.816 Y173.937 E2.57801
G1 X222.119 Y171.531 E0.15258
G1 X223.639 Y169.197 E0.12759
G1 X224.56 Y167.157 E0.10256
G1 X225.306 Y164.474 E0.12758
G1 X225.589 Y161.647 E0.13013
G1 X225.306 Y158.334 E0.15236
G1 X224.56 Y155.65 E0.12759
G1 X223.639 Y153.61 E0.10256
G1 X221.775 Y150.85 E0.15258
G1 X219.816 Y148.87 E0.12759
G1 X218.017 Y147.538 E0.10256
G1 X166.517 Y120.131 E2.6726
G1 X165.184 Y119.758 E0.06342
G1 X163.618 Y120.063 E0.07311
G1 X112.948 Y144.029 E2.56781
M73 P1 R74
G1 X111.221 Y144.926 E0.08913
G1 X110.34 Y145.474 E0.04755
G1 X109.539 Y146.075 E0.04587
G1 E-1 F3000
; printing object chair_insert_hex_nut.stl id:0 copy 0
; acceleration to travel
M204 S3000
G1 X147.555 Y136.879 F9000
; decel to extrusion
M204 S1000
G1 X160.228 Y133.813
; end travel
G1 E1 F1800
;TYPE:Internal perimeter
;WIDTH:0.5
G1 X160.597 Y134.787 E0.04568
G1 X161.278 Y135.774 E0.05257
G1 X162.175 Y136.568 E0.05257
G1 X163.237 Y137.126 E0.05257
G1 X164.401 Y137.412 E0.05257
G1 X165.599 Y137.412 E0.05257
G1 X166.763 Y137.126 E0.05257
G1 X167.825 Y136.568 E0.05257
G1 X168.722 Y135.774 E0.05257
G1 X169.403 Y134.787 E0.05257
G1 X169.828 Y133.666 E0.05257
G1 X169.973 Y132.476 E0.05257
G1 X169.828 Y131.286 E0.05257
G1 X169.403 Y130.165 E0.05257
G1 X168.722 Y129.178 E0.05257
G1 X167.825 Y128.384 E0.05257
G1 X166.763 Y127.826 E0.05257
G1 X165.599 Y127.54 E0.05257
G1 X164.401 Y127.54 E0.05257
G1 X163.237 Y127.826 E0.05257
G1 X162.175 Y128.384 E0.05257
G1 X161.278 Y129.178 E0.05257
G1 X160.597 Y130.165 E0.05257
G1 X160.172 Y131.286 E0.05257
G1 X160.027 Y132.476 E0.05257
G1 X160.172 Y133.666 E0.05257
G1 X160.228 Y133.813 E0.0069
G1 X160.647 Y133.654 F9000
G1 F1800
G1 X160.997 Y134.577 E0.04329
G1 X161.616 Y135.474 E0.0478
G1 X162.432 Y136.197 E0.0478
G1 X163.397 Y136.703 E0.0478
G1 X164.455 Y136.964 E0.0478
G1 X165.545 Y136.964 E0.0478
G1 X166.603 Y136.703 E0.0478
G1 X167.568 Y136.197 E0.0478
G1 X168.384 Y135.474 E0.0478
G1 X169.003 Y134.577 E0.0478
G1 X169.39 Y133.558 E0.0478
G1 X169.521 Y132.476 E0.0478
G1 X169.39 Y131.394 E0.0478
G1 X169.003 Y130.375 E0.0478
G1 X168.384 Y129.478 E0.0478
G1 X167.568 Y128.755 E0.0478
G1 X166.603 Y128.249 E0.0478
G1 X165.545 Y127.988 E0.0478
G1 X164.455 Y127.988 E0.0478
G1 X163.397 Y128.249 E0.0478
G1 X162.432 Y128.755 E0.0478
G1 X161.616 Y129.478 E0.0478
G1 X160.997 Y130.375 E0.0478
G1 X160.61 Y131.394 E0.0478
G1 X160.479 Y132.476 E0.0478
G1 X160.61 Y133.558 E0.0478
G1 X160.647 Y133.654 E0.00451
G1 X161.066 Y133.495 F9000
G1 F1800
G1 X161.397 Y134.367 E0.0409
G1 X161.954 Y135.174 E0.04302
G1 X162.688 Y135.825 E0.04302
G1 X163.557 Y136.281 E0.04302
G1 X164.51 Y136.515 E0.04302
G1 X165.49 Y136.515 E0.04302
G1 X166.443 Y136.281 E0.04302
G1 X166.895 Y136.043 E0.02239
G1 X167.312 Y135.825 E0.02063
G1 X168.046 Y135.174 E0.04302
G1 X168.603 Y134.367 E0.04302
G1 X168.951 Y133.45 E0.04302
G1 X169.069 Y132.476 E0.04302
G1 X168.951 Y131.502 E0.04302
G1 X168.603 Y130.585 E0.04302
G1 X168.046 Y129.778 E0.04302
G1 X167.312 Y129.127 E0.04302
G1 X166.443 Y128.671 E0.04302
G1 X165.49 Y128.437 E0.04302
G1 X164.51 Y128.437 E0.04302
G1 X163.557 Y128.671 E0.04302
G1 X162.688 Y129.127 E0.04302
G1 X161.954 Y129.778 E0.04302
G1 X161.397 Y130.585 E0.04302
G1 X161.049 Y131.502 E0.04302
G1 X160.931 Y132.476 E0.04302
G1 X161.049 Y133.45 E0.04302
G1 X161.066 Y133.495 E0.00212
G1 X161.439 Y133.354 F9000
;TYPE:External perimeter
;WIDTH:0.4
G1 F1800
G1 X161.752 Y134.18 E0.03013
G1 X162.255 Y134.908 E0.03013
G1 X162.917 Y135.494 E0.03013
G1 X163.699 Y135.905 E0.03013
G1 X164.558 Y136.117 E0.03013
G1 X165.442 Y136.117 E0.03013
G1 X166.301 Y135.905 E0.03013
G1 X166.71 Y135.691 E0.01575
G1 X167.083 Y135.494 E0.01438
G1 X167.745 Y134.908 E0.03013
G1 X168.248 Y134.18 E0.03013
G1 X168.561 Y133.354 E0.03013
G1 X168.668 Y132.476 E0.03013
G1 X168.561 Y131.598 E0.03013
G1 X168.248 Y130.772 E0.03013
G1 X167.745 Y130.044 E0.03013
G1 X167.083 Y129.458 E0.03013
G1 X166.301 Y129.047 E0.03013
G1 X165.442 Y128.835 E0.03013
G1 X164.558 Y128.835 E0.03013
G1 X163.699 Y129.047 E0.03013
G1 X162.917 Y129.458 E0.03013
G1 X162.255 Y130.044 E0.03013
G1 X161.752 Y130.772 E0.03013
G1 X161.439 Y131.598 E0.03013
G1 X161.332 Y132.476 E0.03013
G1 X161.439 Y133.354 E0.03013
;WIPE_START
M204 S4000
G1 X161.162 Y133.642 F9000
;WIPE_END
G1 E-1 F3000
; acceleration to travel
M204 S3000
G1 X158.998 Y135.679 F9000
; decel to extrusion
M204 S1000
G1 X158.277 Y136.358
; end travel
G1 E1 F1800
;TYPE:Internal perimeter
;WIDTH:0.5
G1 X158.277 Y128.594 E0.34046
G1 X165 Y124.713 E0.34046
G1 X171.723 Y128.594 E0.34046
G1 X171.723 Y136.358 E0.34046
G1 X165 Y140.239 E0.34046
G1 X158.277 Y136.358 E0.34046
G1 X157.828 Y136.616 F9000
G1 F1800
G1 X157.828 Y128.336 E0.36317
G1 X165 Y124.195 E0.36317
G1 X172.172 Y128.336 E0.36317
G1 X172.172 Y136.616 E0.36317
G1 X165 Y140.757 E0.36317
G1 X157.828 Y136.616 E0.36317
G1 X157.38 Y136.875 F9000
G1 F1800
G1 X157.38 Y128.077 E0.38588
G1 X165 Y123.677 E0.38588
G1 X172.62 Y128.077 E0.38588
G1 X172.62 Y136.875 E0.38588
G1 X165 Y141.275 E0.38588
G1 X157.38 Y136.875 E0.38588
G1 X156.982 Y137.105 F9000
;TYPE:External perimeter
;WIDTH:0.4
G1 F1800
G1 X156.982 Y127.847 E0.31552
G1 X165 Y123.217 E0.31552
G1 X165.266 Y123.371 E0.01046
G1 X173.018 Y127.847 E0.30506
G1 X173.018 Y137.105 E0.31552
G1 X165 Y141.735 E0.31552
G1 X156.982 Y137.105 E0.31552
;WIPE_START
M204 S4000
G1 X157.239 Y136.799 F9000
;WIPE_END
G1 E-1 F3000
; acceleration to travel
M204 S3000
G1 X165.906 Y129.855 F9000
; decel to extrusion
M204 S1000
G1 X169.207 Y127.209
; end travel
G1 E1 F1800
;TYPE:Solid infill
;WIDTH:0.510053
G1 F3600
G1 X171.446 Y129.448 E0.14339
G1 X171.446 Y130.167 E0.03257
G1 X168.103 Y126.824 E0.2141
G1 X166.402 Y125.842 E0.08898
G1 X171.446 Y130.886 E0.32308
G1 X171.446 Y131.605 E0.03257
G1 X164.92 Y125.079 E0.418
G1 X164.464 Y125.342 E0.02384
G1 X166.63 Y127.508 E0.13873
G1 X165.676 Y127.273 E0.04451
G1 X164.008 Y125.605 E0.10681
G1 X163.552 Y125.869 E0.02384
G1 X164.946 Y127.263 E0.08928
G1 X164.367 Y127.263 E0.02622
G1 X164.255 Y127.29 E0.00525
G1 X163.096 Y126.132 E0.0742
G1 X162.64 Y126.395 E0.02384
G1 X163.678 Y127.433 E0.06645
G1 X163.138 Y127.566 E0.02518
G1 X163.107 Y127.582 E0.00155
G1 X162.184 Y126.658 E0.05913
G1 X161.728 Y126.922 E0.02384
G1 X162.636 Y127.829 E0.05812
G1 X162.164 Y128.077 E0.02412
G1 X161.272 Y127.185 E0.05712
G1 X160.817 Y127.448 E0.02384
G1 X161.755 Y128.386 E0.06009
G1 X161.373 Y128.724 E0.02307
G1 X160.361 Y127.711 E0.06486
G1 X159.905 Y127.974 E0.02384
G1 X161.01 Y129.079 E0.07077
G1 X160.716 Y129.505 E0.02341
G1 X159.449 Y128.238 E0.08116
G1 X158.993 Y128.501 E0.02384
G1 X160.422 Y129.93 E0.09156
G1 X160.35 Y130.035 E0.00578
G1 X160.201 Y130.428 E0.01902
G1 X158.554 Y128.781 E0.10549
G1 X158.554 Y129.5 E0.03257
G1 X160.003 Y130.949 E0.09283
G1 X159.901 Y131.219 E0.01307
G1 X159.863 Y131.529 E0.01412
G1 X158.554 Y130.219 E0.08387
G1 X158.554 Y130.938 E0.03257
G1 X159.786 Y132.17 E0.07888
G1 X159.748 Y132.476 E0.01396
G1 X159.8 Y132.904 E0.01952
G1 X158.554 Y131.657 E0.07983
G1 X158.554 Y132.377 E0.03257
G1 X160.272 Y134.095 E0.11004
G1 E-1 F3000
; acceleration to travel
M204 S3000
G1 X167.249 Y131.364 F9000
; decel to extrusion
M204 S1000
G1 X169.575 Y130.453
; end travel
G1 E1 F1800
G1 F3600
G1 X171.446 Y132.325 E0.11986
G1 X171.446 Y133.044 E0.03257
G1 X170.165 Y131.763 E0.08205
G1 X170.252 Y132.476 E0.03255
G1 X170.242 Y132.558 E0.00376
G1 X171.446 Y133.763 E0.07714
G1 X171.446 Y134.482 E0.03257
G1 X170.164 Y133.2 E0.08213
G1 X170.099 Y133.733 E0.02433
G1 X170.066 Y133.821 E0.00426
G1 X171.446 Y135.201 E0.08841
G1 X171.446 Y135.92 E0.03257
G1 X169.868 Y134.342 E0.10107
G1 X169.67 Y134.863 E0.02525
G1 X171.166 Y136.359 E0.09581
G1 X170.71 Y136.623 E0.02384
G1 X169.386 Y135.299 E0.08479
G1 X169.093 Y135.724 E0.02341
G1 X170.254 Y136.886 E0.0744
G1 X169.798 Y137.149 E0.02384
G1 X168.76 Y136.11 E0.06653
G1 X168.378 Y136.448 E0.02307
G1 X169.343 Y137.412 E0.06175
G1 X168.887 Y137.675 E0.02384
G1 X167.997 Y136.786 E0.05697
G1 X167.983 Y136.798 E0.00083
G1 X167.529 Y137.037 E0.02325
G1 X168.431 Y137.939 E0.05777
G1 X167.975 Y138.202 E0.02384
G1 X167.057 Y137.284 E0.05878
G1 X166.862 Y137.386 E0.00996
G1 X166.524 Y137.47 E0.01579
G1 X167.519 Y138.465 E0.06374
G1 X167.063 Y138.728 E0.02384
G1 X165.947 Y137.612 E0.07149
G1 X165.633 Y137.689 E0.01463
G1 X165.305 Y137.689 E0.01486
G1 X166.607 Y138.991 E0.0834
G1 X166.151 Y139.255 E0.02384
G1 X164.586 Y137.689 E0.10026
G1 X164.367 Y137.689 E0.00991
G1 X163.703 Y137.526 E0.03097
G1 X165.695 Y139.518 E0.12759
G1 X165.239 Y139.781 E0.02384
G1 X162.521 Y137.063 E0.17411
G1 X162.017 Y136.798 E0.02578
G1 X161.069 Y135.959 E0.05734
G1 X160.35 Y134.917 E0.05734
G1 X160.335 Y134.876 E0.00194
G1 X158.554 Y133.096 E0.11406
G1 X158.554 Y133.815 E0.03257
G1 X164.192 Y139.453 E0.3611
G1 X162.49 Y138.47 E0.08898
G1 X158.554 Y134.534 E0.25212
G1 X158.554 Y135.253 E0.03257
G1 X160.789 Y137.488 E0.14315
G1 X159.088 Y136.506 E0.08898
G1 X158.335 Y135.753 E0.04818
G1 E-1 F3000
; acceleration to travel
M204 S3000
G1 X167.923 Y130.006 F9000
; decel to extrusion
M204 S1000
G1 X170.72 Y128.33
; end travel
G1 E1 F1800
;TYPE:Gap fill
;WIDTH:0.163504
G1 X170.845 Y128.426 E0.00173
;WIDTH:0.211144
G1 X170.971 Y128.522 E0.00247
;WIDTH:0.258783
G1 X171.096 Y128.619 E0.00321
;WIDTH:0.306422
G1 X171.222 Y128.715 E0.00394
;WIDTH:0.339478
G1 X171.347 Y128.811 E0.00446
G1 X171.423 Y128.886 E0.00299
G1 X171.499 Y128.96 E0.00299
G1 E-1 F3000
; stop printing object chair_insert_hex_nut.stl id:0 copy 0
; printing object main_piece.stl id:2 copy 0
; acceleration to travel
M204 S3000
G1 X141.142 Y141.407 F9000
; decel to extrusion
M204 S1000
G1 X131.023 Y145.556
; end travel
G1 E1 F1800
;TYPE:Support material
;WIDTH:0.5
G1 X131.616 Y147.407 E0.08526
G1 X130.052 Y147.407 E0.06861
G1 X130.004 Y147.41 E0.0021
G1 X129.561 Y147.465 E0.01957
G1 X129.468 Y147.489 E0.00421
G1 X129.035 Y147.658 E0.02035
G1 X128.951 Y147.703 E0.00421
G1 X128.573 Y147.973 E0.02035
G1 X128.502 Y148.038 E0.00421
G1 X128.356 Y148.21 E0.00992
G1 X128.202 Y148.392 E0.01043
G1 X128.15 Y148.472 E0.00422
G1 X127.953 Y148.873 E0.01958
G1 X127.946 Y148.889 E0.00078
G1 X127.914 Y148.98 E0.00422
G1 X127.819 Y149.434 E0.02035
G1 X127.811 Y149.53 E0.00421
G1 X127.83 Y149.994 E0.02035
G1 X127.846 Y150.089 E0.00421
G1 X127.978 Y150.534 E0.02035
G1 X127.997 Y150.578 E0.00211
G1 X128.016 Y150.622 E0.00211
G1 X128.253 Y151.02 E0.02035
G1 X128.301 Y151.082 E0.00342
G1 X128.312 Y151.096 E0.0008
G1 X128.619 Y151.404 E0.01904
G1 X128.63 Y151.414 E0.00066
G1 X128.954 Y151.714 E0.01938
G1 X129.274 Y152.011 E0.01913
G1 X129.594 Y152.308 E0.01913
G1 X129.914 Y152.604 E0.01913
G1 X130.193 Y152.863 E0.0167
G1 X130.427 Y153.164 E0.01671
G1 X131.229 Y154.198 E0.0574
G1 X131.462 Y154.5 E0.01671
G1 X131.643 Y154.835 E0.0167
G1 X131.851 Y155.218 E0.01913
G1 X132.005 Y155.503 E0.01419
G1 X132.058 Y155.602 E0.00494
G1 X132.266 Y155.986 E0.01913
G1 X132.447 Y156.321 E0.0167
G1 X132.571 Y156.681 E0.01671
G1 X132.997 Y157.919 E0.0574
G1 X133.121 Y158.279 E0.0167
G1 X133.185 Y158.655 E0.01671
G1 X133.403 Y159.945 E0.0574
G1 X133.467 Y160.321 E0.01671
G1 X133.468 Y160.702 E0.0167
G1 X133.47 Y161.138 E0.01913
G1 X133.472 Y161.574 E0.01913
G1 X133.473 Y162.01 E0.01913
G1 X133.475 Y162.391 E0.01671
G1 X133.414 Y162.767 E0.01671
G1 X133.344 Y163.198 E0.01913
G1 X133.275 Y163.629 E0.01913
G1 X133.205 Y164.059 E0.01913
G1 X133.144 Y164.436 E0.01671
G1 X133.023 Y164.797 E0.01671
G1 X132.606 Y166.037 E0.0574
G1 X132.485 Y166.398 E0.0167
G1 X132.306 Y166.735 E0.01671
