; generated by SuperSlicer 2.3.57 on 2022-01-28 at 04:22:56 UTC


;
;

;
;
; 

; external perimeters extrusion width = 0.40mm
; perimeters extrusion width = 0.40mm
; infill extrusion width = 0.40mm
; solid infill extrusion width = 0.40mm
; top infill extrusion width = 0.40mm
; support material extrusion width = 0.40mm
; first layer extrusion width = 0.48mm


;TYPE:Custom
START_PRINT T_BED=60 T_EXTRUDER=200
M107
G21 ; set units to millimeters
G90 ; use absolute coordinates
M83 ; use relative distances for extrusion
; Filament gcode
M104 S200 ; set temperature
M109 S200 ; set temperature and wait for it to be reached
M190 S60 ; set bed temperature and wait for it to be reached
;LAYER_CHANGE
;Z:0.24
;HEIGHT:0.24
G1 E-0.8 F3000
G1 Z0.24 F9000
M204 S1500
G1 X47.729 Y132.335
G1 E0.8 F1800
;TYPE:Skirt
;WIDTH:0.48
G1 F600
G1 X46.954 Y132.75 E0.03685
G1 X46.253 Y133.281 E0.03685
G1 X45.643 Y133.915 E0.03685
G1 X45.139 Y134.635 E0.03685
G1 X44.752 Y135.425 E0.03685
G1 X44.494 Y136.266 E0.03685
G1 X44.369 Y137.136 E0.03685
G1 X44.357 Y192.52 E2.32058
G1 X44.544 Y193.941 E0.06008
G1 X44.849 Y194.804 E0.03832
G1 X45.289 Y195.605 E0.03832
G1 X45.848 Y196.321 E0.03807
G1 X46.52 Y196.942 E0.03832
G1 X47.283 Y197.446 E0.03832
G1 X48.118 Y197.82 E0.03832
G1 X49.002 Y198.054 E0.03832
G1 X49.906 Y198.142 E0.03807
G1 X280.008 Y198.143 E9.64134
G1 X281.441 Y197.956 E0.06057
G1 X282.266 Y197.668 E0.0366
G1 X283.041 Y197.253 E0.03685
G1 X283.739 Y196.727 E0.0366
G1 X284.35 Y196.094 E0.03685
G1 X284.853 Y195.38 E0.0366
G1 X285.241 Y194.591 E0.03685
G1 X285.501 Y193.757 E0.0366
G1 X285.629 Y192.887 E0.03685
G1 X285.641 Y137.375 E2.32598
G1 X285.512 Y136.293 E0.04567
G1 X285.177 Y135.255 E0.04567
G1 X284.649 Y134.302 E0.04567
G1 X283.948 Y133.468 E0.04567
G1 X283.099 Y132.784 E0.04567
G1 X282.134 Y132.277 E0.04567
G1 X281.091 Y131.964 E0.04567
G1 X280.006 Y131.857 E0.04567
G1 X49.992 Y131.857 E9.63766
G1 X48.559 Y132.044 E0.06057
G1 X47.785 Y132.315 E0.03433
G1 X47.855 Y132.516 F9000
M204 S500
G1 X47.925 Y132.718
G1 F600
G1 X47.907 Y132.724 E0.00084
G1 X47.186 Y133.11 E0.03424
G1 X46.535 Y133.604 E0.03424
G1 X45.969 Y134.193 E0.03424
G1 X45.504 Y134.859 E0.034
G1 X45.147 Y135.593 E0.03424
G1 X44.909 Y136.375 E0.03424
G1 X44.795 Y137.184 E0.03424
G1 X44.786 Y192.516 E2.31843
G1 X44.956 Y193.822 E0.05516
G1 X45.236 Y194.619 E0.03542
G1 X45.641 Y195.361 E0.03542
G1 X46.164 Y196.032 E0.03565
G1 X46.785 Y196.605 E0.03542
G1 X47.491 Y197.071 E0.03542
G1 X48.262 Y197.416 E0.03542
G1 X49.08 Y197.632 E0.03542
G1 X49.921 Y197.714 E0.03542
G1 X280.005 Y197.714 E9.64059
G1 X281.322 Y197.544 E0.05563
G1 X282.088 Y197.278 E0.034
G1 X282.809 Y196.893 E0.03424
G1 X283.461 Y196.4 E0.03424
G1 X284.024 Y195.816 E0.034
G1 X284.493 Y195.146 E0.03424
G1 X284.849 Y194.417 E0.034
G1 X285.088 Y193.642 E0.034
G1 X285.203 Y192.838 E0.034
G1 X285.213 Y137.394 E2.32315
G1 X285.095 Y136.392 E0.04225
G1 X284.787 Y135.432 E0.04225
G1 X284.299 Y134.55 E0.04225
G1 X283.651 Y133.778 E0.04225
G1 X282.867 Y133.144 E0.04225
G1 X281.975 Y132.674 E0.04225
G1 X281.009 Y132.384 E0.04225
G1 X280.006 Y132.286 E0.04225
G1 X49.995 Y132.286 E9.63752
G1 X48.678 Y132.456 E0.05563
G1 X47.982 Y132.698 E0.03089
G1 E-0.8 F3000
M204 S1500
G1 X49.54 Y160.307 F9000
M204 S500
G1 X51.097 Y187.916
G1 E0.8 F1800
;TYPE:Internal perimeter
G1 F600
G1 X51.097 Y138.597 E2.0665
G1 X278.903 Y138.597 E9.54515
G1 X278.903 Y191.403 E2.21259
G1 X51.097 Y191.403 E9.54515
G1 X51.097 Y187.976 E0.14358
M204 S1500
G1 X50.883 Y187.976 F9000
M204 S500
G1 X50.668 Y187.976
G1 F600
G1 X50.668 Y138.168 E2.08696
G1 X279.332 Y138.168 E9.58106
G1 X279.332 Y191.832 E2.2485
G1 X50.668 Y191.832 E9.58106
G1 X50.668 Y188.036 E0.15902
M204 S1500
G1 X50.454 Y188.036 F9000
M204 S500
G1 X50.24 Y188.036
;TYPE:External perimeter
G1 F600
G1 X50.24 Y137.74 E2.10743
G1 X279.76 Y137.74 E9.61697
G1 X279.76 Y192.26 E2.28441
G1 X50.24 Y192.26 E9.61697
G1 X50.24 Y188.096 E0.17446
;WIPE_START
G1 X50.586 Y187.836 F9000
;WIPE_END
G1 E-0.8 F3000
M204 S1500
G1 X164.237 Y163.292 F9000
M204 S500
G1 X277.887 Y138.747
G1 E0.8 F1800
;TYPE:Solid infill
;WIDTH:0.480297
G1 X278.569 Y139.429 E0.04043
G1 X278.569 Y140.035 E0.02541
G1 X277.465 Y138.931 E0.06544
G1 X276.859 Y138.931 E0.02541
G1 X278.569 Y140.641 E0.10137
G1 X278.569 Y141.247 E0.02541
G1 X276.253 Y138.931 E0.1373
G1 X275.647 Y138.931 E0.02541
G1 X278.569 Y141.853 E0.17323
G1 X278.569 Y142.459 E0.02541
G1 X275.041 Y138.931 E0.20916
G1 X274.435 Y138.931 E0.02541
G1 X278.569 Y143.065 E0.24509
G1 X278.569 Y143.671 E0.02541
G1 X273.829 Y138.931 E0.28102
G1 X273.223 Y138.931 E0.02541
G1 X278.569 Y144.277 E0.31695
G1 X278.569 Y144.883 E0.02541
G1 X272.617 Y138.931 E0.35288
G1 X272.011 Y138.931 E0.02541
G1 X278.569 Y145.489 E0.38881
G1 X278.569 Y146.095 E0.02541
G1 X271.405 Y138.931 E0.42474
G1 X270.799 Y138.931 E0.02541
G1 X278.569 Y146.701 E0.46067
G1 X278.569 Y147.307 E0.02541
G1 X270.193 Y138.931 E0.49661
G1 X269.587 Y138.931 E0.02541
G1 X278.569 Y147.913 E0.53254
G1 X278.569 Y148.519 E0.02541
G1 X268.981 Y138.931 E0.56847
G1 X268.375 Y138.931 E0.02541
G1 X278.569 Y149.125 E0.6044
G1 X278.569 Y149.731 E0.02541
G1 X267.769 Y138.931 E0.64033
G1 X267.163 Y138.931 E0.02541
G1 X278.569 Y150.337 E0.67626
G1 X278.569 Y150.943 E0.02541
G1 X266.557 Y138.931 E0.71219
G1 X265.951 Y138.931 E0.02541
G1 X278.569 Y151.549 E0.74812
G1 X278.569 Y152.155 E0.02541
G1 X265.345 Y138.931 E0.78405
G1 X264.739 Y138.931 E0.02541
G1 X278.569 Y152.761 E0.81998
G1 X278.569 Y153.367 E0.02541
G1 X264.133 Y138.931 E0.85591
G1 X263.528 Y138.931 E0.02541
G1 X278.569 Y153.972 E0.89184
G1 X278.569 Y154.578 E0.02541
G1 X262.922 Y138.931 E0.92777
G1 X262.316 Y138.931 E0.02541
G1 X278.569 Y155.184 E0.9637
G1 X278.569 Y155.79 E0.02541
G1 X261.71 Y138.931 E0.99963
G1 X261.104 Y138.931 E0.02541
G1 X278.569 Y156.396 E1.03556
G1 X278.569 Y157.002 E0.02541
G1 X260.498 Y138.931 E1.07149
G1 X259.892 Y138.931 E0.02541
G1 X278.569 Y157.608 E1.10742
G1 X278.569 Y158.214 E0.02541
G1 X259.286 Y138.931 E1.14335
G1 X258.68 Y138.931 E0.02541
G1 X278.569 Y158.82 E1.17928
G1 X278.569 Y159.426 E0.02541
G1 X258.074 Y138.931 E1.21521
G1 X257.468 Y138.931 E0.02541
G1 X278.569 Y160.032 E1.25114
G1 X278.569 Y160.638 E0.02541
G1 X256.862 Y138.931 E1.28707
G1 X256.256 Y138.931 E0.02541
G1 X278.569 Y161.244 E1.323
G1 X278.569 Y161.85 E0.02541
G1 X255.65 Y138.931 E1.35894
G1 X255.044 Y138.931 E0.02541
G1 X278.569 Y162.456 E1.39487
G1 X278.569 Y163.062 E0.02541
G1 X254.438 Y138.931 E1.4308
G1 X253.832 Y138.931 E0.02541
G1 X278.569 Y163.668 E1.46673
G1 X278.569 Y164.274 E0.02541
G1 X253.226 Y138.931 E1.50266
G1 X252.62 Y138.931 E0.02541
G1 X278.569 Y164.88 E1.53859
G1 X278.569 Y165.486 E0.02541
G1 X252.014 Y138.931 E1.57452
G1 X251.408 Y138.931 E0.02541
G1 X278.569 Y166.092 E1.61045
G1 X278.569 Y166.698 E0.02541
G1 X250.802 Y138.931 E1.64638
G1 X250.196 Y138.931 E0.02541
G1 X278.569 Y167.304 E1.68231
G1 X278.569 Y167.91 E0.02541
G1 X249.59 Y138.931 E1.71824
G1 X248.984 Y138.931 E0.02541
G1 X278.569 Y168.516 E1.75417
G1 X278.569 Y169.122 E0.02541
G1 X248.378 Y138.931 E1.7901
G1 X247.772 Y138.931 E0.02541
G1 X278.569 Y169.728 E1.82603
G1 X278.569 Y170.334 E0.02541
G1 X247.166 Y138.931 E1.86196
G1 X246.56 Y138.931 E0.02541
G1 X278.569 Y170.94 E1.89789
G1 X278.569 Y171.546 E0.02541
G1 X245.954 Y138.931 E1.93382
G1 X245.348 Y138.931 E0.02541
G1 X278.569 Y172.152 E1.96975
G1 X278.569 Y172.758 E0.02541
G1 X244.742 Y138.931 E2.00568
G1 X244.136 Y138.931 E0.02541
G1 X278.569 Y173.364 E2.04161
G1 X278.569 Y173.97 E0.02541
G1 X243.53 Y138.931 E2.07754
G1 X242.924 Y138.931 E0.02541
G1 X278.569 Y174.576 E2.11347
G1 X278.569 Y175.182 E0.02541
G1 X242.318 Y138.931 E2.1494
G1 X241.712 Y138.931 E0.02541
G1 X278.569 Y175.788 E2.18534
G1 X278.569 Y176.394 E0.02541
G1 X241.106 Y138.931 E2.22127
G1 X240.5 Y138.931 E0.02541
G1 X278.569 Y177 E2.2572
G1 X278.569 Y177.606 E0.02541
G1 X239.894 Y138.931 E2.29313
G1 X239.288 Y138.931 E0.02541
G1 X278.569 Y178.212 E2.32906
G1 X278.569 Y178.818 E0.02541
G1 X238.682 Y138.931 E2.36499
G1 X238.076 Y138.931 E0.02541
G1 X278.569 Y179.424 E2.40092
G1 X278.569 Y180.03 E0.02541
G1 X237.47 Y138.931 E2.43685
G1 X236.864 Y138.931 E0.02541
G1 X278.569 Y180.636 E2.47278
G1 X278.569 Y181.242 E0.02541
G1 X236.258 Y138.931 E2.50871
G1 X235.652 Y138.931 E0.02541
G1 X278.569 Y181.848 E2.54464
G1 X278.569 Y182.454 E0.02541
G1 X235.046 Y138.931 E2.58057
G1 X234.44 Y138.931 E0.02541
G1 X278.569 Y183.06 E2.6165
G1 X278.569 Y183.666 E0.02541
G1 X233.834 Y138.931 E2.65243
G1 X233.228 Y138.931 E0.02541
G1 X278.569 Y184.272 E2.68836
G1 X278.569 Y184.878 E0.02541
G1 X232.622 Y138.931 E2.72429
G1 X232.016 Y138.931 E0.02541
G1 X278.569 Y185.484 E2.76022
G1 X278.569 Y186.09 E0.02541
G1 X231.41 Y138.931 E2.79615
G1 X230.804 Y138.931 E0.02541
G1 X278.569 Y186.696 E2.83208
G1 X278.569 Y187.302 E0.02541
G1 X230.198 Y138.931 E2.86801
G1 X229.592 Y138.931 E0.02541
G1 X278.569 Y187.908 E2.90394
G1 X278.569 Y188.514 E0.02541
G1 X228.986 Y138.931 E2.93987
G1 X228.38 Y138.931 E0.02541
G1 X278.569 Y189.12 E2.9758
G1 X278.569 Y189.726 E0.02541
G1 X227.774 Y138.931 E3.01174
G1 X227.169 Y138.931 E0.02541
G1 X278.569 Y190.331 E3.04767
G1 X278.569 Y190.937 E0.02541
G1 X226.563 Y138.931 E3.0836
G1 X225.957 Y138.931 E0.02541
G1 X278.094 Y191.069 E3.09138
G1 X277.488 Y191.069 E0.02541
G1 X225.351 Y138.931 E3.09138
G1 X224.745 Y138.931 E0.02541
G1 X276.882 Y191.069 E3.09138
G1 X276.276 Y191.069 E0.02541
G1 X224.139 Y138.931 E3.09138
G1 X223.533 Y138.931 E0.02541
G1 X275.67 Y191.069 E3.09138
G1 X275.064 Y191.069 E0.02541
G1 X222.927 Y138.931 E3.09138
G1 X222.321 Y138.931 E0.02541
G1 X274.458 Y191.069 E3.09138
G1 X273.852 Y191.069 E0.02541
G1 X221.715 Y138.931 E3.09138
G1 X221.109 Y138.931 E0.02541
G1 X273.246 Y191.069 E3.09138
G1 X272.64 Y191.069 E0.02541
G1 X220.503 Y138.931 E3.09138
G1 X219.897 Y138.931 E0.02541
G1 X272.034 Y191.069 E3.09138
G1 X271.428 Y191.069 E0.02541
G1 X219.291 Y138.931 E3.09138
G1 X218.685 Y138.931 E0.02541
G1 X270.822 Y191.069 E3.09138
G1 X270.216 Y191.069 E0.02541
G1 X218.079 Y138.931 E3.09138
G1 X217.473 Y138.931 E0.02541
G1 X269.61 Y191.069 E3.09138
G1 X269.004 Y191.069 E0.02541
G1 X216.867 Y138.931 E3.09138
G1 X216.261 Y138.931 E0.02541
G1 X268.398 Y191.069 E3.09138
G1 X267.792 Y191.069 E0.02541
G1 X215.655 Y138.931 E3.09138
G1 X215.049 Y138.931 E0.02541
G1 X267.186 Y191.069 E3.09138
G1 X266.58 Y191.069 E0.02541
G1 X214.443 Y138.931 E3.09138
G1 X213.837 Y138.931 E0.02541
G1 X265.974 Y191.069 E3.09138
G1 X265.368 Y191.069 E0.02541
G1 X213.231 Y138.931 E3.09138
G1 X212.625 Y138.931 E0.02541
G1 X264.763 Y191.069 E3.09138
G1 X264.157 Y191.069 E0.02541
G1 X212.019 Y138.931 E3.09138
G1 X211.413 Y138.931 E0.02541
G1 X263.551 Y191.069 E3.09138
G1 X262.945 Y191.069 E0.02541
G1 X210.807 Y138.931 E3.09138
G1 X210.201 Y138.931 E0.02541
G1 X262.339 Y191.069 E3.09138
G1 X261.733 Y191.069 E0.02541
G1 X209.595 Y138.931 E3.09138
G1 X208.989 Y138.931 E0.02541
G1 X261.127 Y191.069 E3.09138
G1 X260.521 Y191.069 E0.02541
G1 X208.383 Y138.931 E3.09138
G1 X207.777 Y138.931 E0.02541
G1 X259.915 Y191.069 E3.09138
G1 X259.309 Y191.069 E0.02541
G1 X207.171 Y138.931 E3.09138
G1 X206.565 Y138.931 E0.02541
G1 X258.703 Y191.069 E3.09138
G1 X258.097 Y191.069 E0.02541
G1 X205.959 Y138.931 E3.09138
G1 X205.353 Y138.931 E0.02541
G1 X257.491 Y191.069 E3.09138
G1 X256.885 Y191.069 E0.02541
G1 X204.747 Y138.931 E3.09138
G1 X204.141 Y138.931 E0.02541
G1 X256.279 Y191.069 E3.09138
G1 X255.673 Y191.069 E0.02541
G1 X203.535 Y138.931 E3.09138
G1 X202.929 Y138.931 E0.02541
G1 X255.067 Y191.069 E3.09138
G1 X254.461 Y191.069 E0.02541
G1 X202.323 Y138.931 E3.09138
G1 X201.717 Y138.931 E0.02541
G1 X253.855 Y191.069 E3.09138
G1 X253.249 Y191.069 E0.02541
G1 X201.111 Y138.931 E3.09138
G1 X200.505 Y138.931 E0.02541
G1 X252.643 Y191.069 E3.09138
G1 X252.037 Y191.069 E0.02541
G1 X199.899 Y138.931 E3.09138
G1 X199.293 Y138.931 E0.02541
G1 X251.431 Y191.069 E3.09138
G1 X250.825 Y191.069 E0.02541
G1 X198.687 Y138.931 E3.09138
G1 X198.081 Y138.931 E0.02541
G1 X250.219 Y191.069 E3.09138
G1 X249.613 Y191.069 E0.02541
G1 X197.475 Y138.931 E3.09138
G1 X196.869 Y138.931 E0.02541
G1 X249.007 Y191.069 E3.09138
G1 X248.401 Y191.069 E0.02541
G1 X196.263 Y138.931 E3.09138
G1 X195.657 Y138.931 E0.02541
G1 X247.795 Y191.069 E3.09138
G1 X247.189 Y191.069 E0.02541
G1 X195.051 Y138.931 E3.09138
G1 X194.445 Y138.931 E0.02541
G1 X246.583 Y191.069 E3.09138
G1 X245.977 Y191.069 E0.02541
G1 X193.839 Y138.931 E3.09138
G1 X193.233 Y138.931 E0.02541
G1 X245.371 Y191.069 E3.09138
G1 X244.765 Y191.069 E0.02541
G1 X192.627 Y138.931 E3.09138
G1 X192.021 Y138.931 E0.02541
G1 X244.159 Y191.069 E3.09138
G1 X243.553 Y191.069 E0.02541
G1 X191.415 Y138.931 E3.09138
G1 X190.809 Y138.931 E0.02541
G1 X242.947 Y191.069 E3.09138
G1 X242.341 Y191.069 E0.02541
G1 X190.204 Y138.931 E3.09138
G1 X189.598 Y138.931 E0.02541
G1 X241.735 Y191.069 E3.09138
G1 X241.129 Y191.069 E0.02541
G1 X188.992 Y138.931 E3.09138
G1 X188.386 Y138.931 E0.02541
G1 X240.523 Y191.069 E3.09138
G1 X239.917 Y191.069 E0.02541
G1 X187.78 Y138.931 E3.09138
G1 X187.174 Y138.931 E0.02541
G1 X239.311 Y191.069 E3.09138
G1 X238.705 Y191.069 E0.02541
G1 X186.568 Y138.931 E3.09138
G1 X185.962 Y138.931 E0.02541
G1 X238.099 Y191.069 E3.09138
G1 X237.493 Y191.069 E0.02541
G1 X185.356 Y138.931 E3.09138
G1 X184.75 Y138.931 E0.02541
G1 X236.887 Y191.069 E3.09138
G1 X236.281 Y191.069 E0.02541
G1 X184.144 Y138.931 E3.09138
G1 X183.538 Y138.931 E0.02541
G1 X235.675 Y191.069 E3.09138
G1 X235.069 Y191.069 E0.02541
G1 X182.932 Y138.931 E3.09138
G1 X182.326 Y138.931 E0.02541
G1 X234.463 Y191.069 E3.09138
G1 X233.857 Y191.069 E0.02541
G1 X181.72 Y138.931 E3.09138
G1 X181.114 Y138.931 E0.02541
G1 X233.251 Y191.069 E3.09138
G1 X232.645 Y191.069 E0.02541
G1 X180.508 Y138.931 E3.09138
G1 X179.902 Y138.931 E0.02541
G1 X232.039 Y191.069 E3.09138
G1 X231.433 Y191.069 E0.02541
G1 X179.296 Y138.931 E3.09138
G1 X178.69 Y138.931 E0.02541
G1 X230.827 Y191.069 E3.09138
G1 X230.221 Y191.069 E0.02541
G1 X178.084 Y138.931 E3.09138
G1 X177.478 Y138.931 E0.02541
G1 X229.615 Y191.069 E3.09138
G1 X229.009 Y191.069 E0.02541
G1 X176.872 Y138.931 E3.09138
G1 X176.266 Y138.931 E0.02541
G1 X228.404 Y191.069 E3.09138
G1 X227.798 Y191.069 E0.02541
G1 X175.66 Y138.931 E3.09138
G1 X175.054 Y138.931 E0.02541
G1 X227.192 Y191.069 E3.09138
G1 X226.586 Y191.069 E0.02541
G1 X174.448 Y138.931 E3.09138
G1 X173.842 Y138.931 E0.02541
G1 X225.98 Y191.069 E3.09138
G1 X225.374 Y191.069 E0.02541
G1 X173.236 Y138.931 E3.09138
G1 X172.63 Y138.931 E0.02541
G1 X224.768 Y191.069 E3.09138
G1 X224.162 Y191.069 E0.02541
G1 X172.024 Y138.931 E3.09138
G1 X171.418 Y138.931 E0.02541
G1 X223.556 Y191.069 E3.09138
G1 X222.95 Y191.069 E0.02541
G1 X170.812 Y138.931 E3.09138
G1 X170.206 Y138.931 E0.02541
G1 X222.344 Y191.069 E3.09138
G1 X221.738 Y191.069 E0.02541
G1 X169.6 Y138.931 E3.09138
G1 X168.994 Y138.931 E0.02541
G1 X221.132 Y191.069 E3.09138
G1 X220.526 Y191.069 E0.02541
G1 X168.388 Y138.931 E3.09138
G1 X167.782 Y138.931 E0.02541
G1 X219.92 Y191.069 E3.09138
G1 X219.314 Y191.069 E0.02541
G1 X167.176 Y138.931 E3.09138
G1 X166.57 Y138.931 E0.02541
G1 X218.708 Y191.069 E3.09138
G1 X218.102 Y191.069 E0.02541
G1 X165.964 Y138.931 E3.09138
G1 X165.358 Y138.931 E0.02541
G1 X217.496 Y191.069 E3.09138
G1 X216.89 Y191.069 E0.02541
G1 X164.752 Y138.931 E3.09138
G1 X164.146 Y138.931 E0.02541
G1 X216.284 Y191.069 E3.09138
G1 X215.678 Y191.069 E0.02541
G1 X163.54 Y138.931 E3.09138
G1 X162.934 Y138.931 E0.02541
G1 X215.072 Y191.069 E3.09138
G1 X214.466 Y191.069 E0.02541
G1 X162.328 Y138.931 E3.09138
G1 X161.722 Y138.931 E0.02541
G1 X213.86 Y191.069 E3.09138
G1 X213.254 Y191.069 E0.02541
G1 X161.116 Y138.931 E3.09138
G1 X160.51 Y138.931 E0.02541
G1 X212.648 Y191.069 E3.09138
G1 X212.042 Y191.069 E0.02541
G1 X159.904 Y138.931 E3.09138
G1 X159.298 Y138.931 E0.02541
G1 X211.436 Y191.069 E3.09138
G1 X210.83 Y191.069 E0.02541
G1 X158.692 Y138.931 E3.09138
G1 X158.086 Y138.931 E0.02541
G1 X210.224 Y191.069 E3.09138
G1 X209.618 Y191.069 E0.02541
