; generated by SuperSlicer 2.4 on 2022-08-27 at 23:55:58 UTC


;
;

;
;
; 

; external perimeters extrusion width = 0.40mm
; perimeters extrusion width = 0.50mm
; infill extrusion width = 0.72mm
; solid infill extrusion width = 0.56mm
; top infill extrusion width = 0.40mm
; support material extrusion width = 0.50mm

; object:{"name":"copy_of_light_switch_cover","id":"copy_of_light_switch_cover.stl id:0 copy 0","object_center":[152.500001,150.000000,0.000000],"boundingbox_center":[152.500001,150.000000,6.499000],"boundingbox_size":[66.108414,110.176331,12.998000]}
; plater:{"center":[152.500001,150.000000,0.000000],"boundingbox_center":[152.500001,150.000000,6.499000],"boundingbox_size":[66.108414,110.176331,12.998000]}

M73 P0 R39
;TYPE:Custom
START_PRINT T_BED=60 T_EXTRUDER=200
M107
G21 ; set units to millimeters
G90 ; use absolute coordinates
M83 ; use relative distances for extrusion
; Filament gcode
;_TOOLCHANGE 0
M104 S200 ; set temperature
M109 S200 ; set temperature and wait for it to be reached
M190 S60 ; set bed temperature and wait for it to be reached
M107
;LAYER_CHANGE
;Z:0.24
;HEIGHT:0.24
G1 Z0.24 F9000
G92 E0
M73 P0 R39
G1 E-0.8 F3000
M204 S1000
G1 X116.365 Y93.467 F9000
G1 E0.8 F1800
;TYPE:Skirt
;WIDTH:0.52
G1 X115.97 Y95.13 E0.07828
G1 X115.97 Y204.867 E5.02725
M73 P0 R39
G1 X116.699 Y207.072 E0.10641
G1 X118.007 Y208.172 E0.07828
G1 X119.67 Y208.566 E0.07828
G1 X185.336 Y208.566 E3.0083
G1 X187.542 Y207.837 E0.10641
G1 X188.641 Y206.529 E0.07828
G1 X189.036 Y204.867 E0.07828
G1 X189.036 Y95.13 E5.02725
G1 X188.307 Y92.924 E0.10641
G1 X186.999 Y91.825 E0.07828
G1 X185.336 Y91.43 E0.07828
G1 X119.67 Y91.43 E3.0083
G1 X117.465 Y92.159 E0.10641
G1 X116.365 Y93.467 E0.07828
G1 X116.83 Y93.586 F9000
G1 F1800
G1 X116.437 Y95.13 E0.073
G1 X116.437 Y204.867 E5.02725
G1 X116.954 Y206.621 E0.08377
G1 X118.123 Y207.706 E0.07311
G1 X119.67 Y208.1 E0.07311
G1 X185.336 Y208.1 E3.0083
G1 X187.09 Y207.583 E0.08377
G1 X188.176 Y206.413 E0.07311
G1 X188.57 Y204.867 E0.07311
G1 X188.57 Y95.13 E5.02725
G1 X188.053 Y93.376 E0.08377
G1 X186.883 Y92.29 E0.07311
G1 X185.336 Y91.896 E0.07311
G1 X119.67 Y91.896 E3.0083
M73 P1 R38
G1 X117.916 Y92.413 E0.08377
G1 X116.83 Y93.586 E0.0732
G1 E-0.8 F3000
; printing object copy_of_light_switch_cover.stl id:0 copy 0
; acceleration to travel
M204 S3000
G1 X122.351 Y98.484 F9000
; decel to extrusion
M204 S1000
G1 X124.192 Y100.117
; end travel
G1 E0.8 F1800
;TYPE:Support material
;WIDTH:0.5
G1 X125.005 Y100.117 E0.03568
G1 X125.997 Y100.117 E0.0435
G1 X126.493 Y100.117 E0.02175
G1 X126.989 Y100.117 E0.02175
G1 X127.981 Y100.117 E0.0435
G1 X128.973 Y100.117 E0.0435
G1 X129.469 Y100.117 E0.02175
G1 X129.965 Y100.117 E0.02175
G1 X131.452 Y100.117 E0.06525
G1 X131.948 Y100.117 E0.02175
G1 X132.444 Y100.117 E0.02175
G1 X132.94 Y100.116 E0.02175
G1 X133.436 Y100.116 E0.02175
G1 X134.428 Y100.116 E0.0435
G1 X134.924 Y100.116 E0.02175
G1 X135.42 Y100.116 E0.02175
G1 X135.916 Y100.116 E0.02175
G1 X136.412 Y100.116 E0.02175
G1 X136.908 Y100.116 E0.02175
G1 X137.403 Y100.116 E0.02175
G1 X137.899 Y100.116 E0.02175
G1 X139.387 Y100.116 E0.06525
G1 X140.379 Y100.116 E0.0435
G1 X140.875 Y100.116 E0.02175
G1 X141.371 Y100.116 E0.02175
G1 X142.363 Y100.116 E0.0435
G1 X143.355 Y100.116 E0.0435
G1 X143.851 Y100.116 E0.02175
G1 X144.346 Y100.116 E0.02175
G1 X145.834 Y100.116 E0.06525
G1 X146.33 Y100.116 E0.02175
G1 X146.826 Y100.116 E0.02175
G1 X147.322 Y100.116 E0.02175
G1 X147.818 Y100.116 E0.02175
G1 X148.81 Y100.116 E0.0435
G1 X149.306 Y100.116 E0.02175
G1 X149.802 Y100.116 E0.02175
G1 X150.298 Y100.116 E0.02175
G1 X150.794 Y100.116 E0.02175
G1 X151.785 Y100.116 E0.0435
G1 X151.919 Y100.116 E0.00585
G1 X152.319 Y100.116 E0.01755
G1 X152.419 Y100.103 E0.00444
G1 X152.52 Y100.076 E0.00459
G1 X152.621 Y100.103 E0.00458
G1 X152.722 Y100.116 E0.00445
G1 X153.042 Y100.116 E0.01404
G1 X153.255 Y100.116 E0.00936
G1 X154.743 Y100.116 E0.06525
G1 X155.239 Y100.116 E0.02175
G1 X155.735 Y100.116 E0.02175
G1 X157.719 Y100.116 E0.087
G1 X158.215 Y100.116 E0.02175
G1 X158.711 Y100.116 E0.02175
G1 X159.702 Y100.116 E0.0435
G1 X160.198 Y100.116 E0.02175
G1 X160.694 Y100.116 E0.02175
G1 X161.19 Y100.116 E0.02175
G1 X161.686 Y100.116 E0.02175
G1 X163.67 Y100.116 E0.087
G1 X164.166 Y100.116 E0.02175
G1 X164.662 Y100.116 E0.02175
G1 X166.646 Y100.116 E0.087
G1 X167.141 Y100.116 E0.02175
G1 X167.637 Y100.116 E0.02175
G1 X169.125 Y100.116 E0.06525
G1 X169.621 Y100.116 E0.02175
G1 X170.117 Y100.116 E0.02175
G1 X172.101 Y100.116 E0.087
G1 X172.597 Y100.117 E0.02175
G1 X173.093 Y100.117 E0.02175
G1 X174.084 Y100.117 E0.0435
G1 X174.58 Y100.117 E0.02175
G1 X175.076 Y100.117 E0.02175
G1 X175.572 Y100.117 E0.02175
G1 X176.068 Y100.117 E0.02175
G1 X178.052 Y100.117 E0.087
G1 X178.548 Y100.117 E0.02175
G1 X179.044 Y100.117 E0.02175
G1 X180.849 Y100.117 E0.07918
G1 X180.849 Y200.239 E4.39098
G1 X124.192 Y200.239 E2.48477
G1 X124.192 Y100.117 E4.39098
; acceleration to travel
M204 S3000
G1 X134.956 Y114.255 F9000
; decel to extrusion
M204 S1000
G1 X138.544 Y118.967
; end travel
G1 F1800
G1 X138.544 Y180.922 E2.71707
G1 X166.498 Y180.922 E1.22593
G1 X166.498 Y118.967 E2.71708
G1 X138.544 Y118.967 E1.22593
G1 E-0.8 F3000
; acceleration to travel
M204 S3000
G1 X169.941 Y179.837 F9000
; decel to extrusion
M204 S1000
G1 X180.406 Y200.127
; end travel
G1 E0.8 F1800
G1 X180.406 Y100.422 E4.37269
G1 X179.908 Y100.422 E0.02185
G1 X179.908 Y199.934 E4.36423
M73 P2 R38
G1 X179.41 Y199.934 E0.02185
G1 X179.41 Y100.422 E4.36423
G1 X179.044 Y100.422 E0.01605
G1 X178.911 Y100.422 E0.00581
G1 X178.911 Y199.934 E4.36423
M73 P2 R38
G1 X178.413 Y199.934 E0.02185
G1 X178.413 Y100.422 E4.36423
G1 X178.052 Y100.422 E0.01584
G1 X177.915 Y100.422 E0.00602
G1 X177.915 Y199.934 E4.36423
G1 X177.416 Y199.934 E0.02185
G1 X177.416 Y100.422 E4.36423
G1 X176.918 Y100.422 E0.02185
G1 X176.918 Y199.934 E4.36423
G1 X176.42 Y199.934 E0.02185
G1 X176.42 Y100.422 E4.36424
M73 P3 R38
G1 X176.068 Y100.422 E0.01542
G1 X175.921 Y100.422 E0.00644
G1 X175.921 Y199.934 E4.36424
G1 X175.423 Y199.934 E0.02185
G1 X175.423 Y100.422 E4.36424
G1 X175.076 Y100.422 E0.01521
G1 X174.925 Y100.422 E0.00665
G1 X174.925 Y199.934 E4.36424
G1 X174.426 Y199.934 E0.02185
G1 X174.426 Y100.422 E4.36424
G1 X174.084 Y100.422 E0.015
G1 X173.928 Y100.422 E0.00686
G1 X173.928 Y199.934 E4.36424
G1 X173.43 Y199.934 E0.02185
G1 X173.43 Y100.422 E4.36424
G1 X173.093 Y100.421 E0.01479
G1 X172.931 Y100.421 E0.00707
G1 X172.931 Y199.934 E4.36424
M73 P4 R37
G1 X172.433 Y199.934 E0.02185
G1 X172.433 Y100.421 E4.36424
G1 X172.101 Y100.421 E0.01458
G1 X171.935 Y100.421 E0.00728
G1 X171.935 Y199.934 E4.36424
G1 X171.436 Y199.934 E0.02185
G1 X171.436 Y100.421 E4.36424
G1 X170.938 Y100.421 E0.02185
G1 X170.938 Y199.934 E4.36424
G1 X170.44 Y199.934 E0.02185
G1 X170.44 Y100.421 E4.36424
G1 X170.117 Y100.421 E0.01416
G1 X169.941 Y100.421 E0.0077
G1 X169.941 Y199.934 E4.36424
M73 P5 R37
G1 X169.443 Y199.934 E0.02185
G1 X169.443 Y100.421 E4.36425
G1 X169.125 Y100.421 E0.01395
G1 X168.945 Y100.421 E0.00791
G1 X168.945 Y199.934 E4.36425
G1 X168.446 Y199.934 E0.02185
G1 X168.447 Y100.421 E4.36425
G1 X167.948 Y100.421 E0.02185
G1 X167.948 Y199.934 E4.36425
G1 X167.45 Y199.934 E0.02185
G1 X167.45 Y100.421 E4.36425
G1 X167.141 Y100.421 E0.01353
G1 X166.952 Y100.421 E0.00833
G1 X166.952 Y199.934 E4.36425
G1 X166.453 Y199.934 E0.02185
G1 X166.453 Y181.227 E0.82044
G1 X165.955 Y181.227 E0.02185
G1 X165.955 Y199.934 E0.82044
G1 X165.457 Y199.934 E0.02185
G1 X165.457 Y181.227 E0.82044
G1 X164.958 Y181.227 E0.02185
G1 X164.958 Y199.934 E0.82044
M73 P6 R36
G1 X164.46 Y199.934 E0.02185
G1 X164.46 Y181.227 E0.82044
G1 X163.962 Y181.227 E0.02185
G1 X163.962 Y199.934 E0.82044
G1 X163.463 Y199.934 E0.02185
G1 X163.463 Y181.227 E0.82044
G1 X162.965 Y181.227 E0.02185
G1 X162.965 Y199.934 E0.82044
G1 X162.467 Y199.934 E0.02185
G1 X162.467 Y181.227 E0.82044
G1 X161.968 Y181.227 E0.02185
G1 X161.968 Y199.934 E0.82044
G1 X161.47 Y199.934 E0.02185
G1 X161.47 Y181.227 E0.82044
G1 X160.972 Y181.227 E0.02185
G1 X160.972 Y199.934 E0.82044
G1 X160.473 Y199.934 E0.02185
G1 X160.473 Y181.227 E0.82044
G1 X159.975 Y181.227 E0.02185
G1 X159.975 Y199.934 E0.82044
G1 X159.477 Y199.934 E0.02185
G1 X159.477 Y181.227 E0.82044
G1 X158.978 Y181.227 E0.02185
G1 X158.978 Y199.934 E0.82044
G1 X158.48 Y199.934 E0.02185
G1 X158.48 Y181.227 E0.82044
G1 X157.982 Y181.227 E0.02185
G1 X157.982 Y199.934 E0.82044
G1 X157.483 Y199.934 E0.02185
G1 X157.483 Y181.227 E0.82044
G1 X156.985 Y181.227 E0.02185
G1 X156.985 Y199.934 E0.82044
G1 X156.487 Y199.934 E0.02185
G1 X156.487 Y181.227 E0.82044
G1 X155.988 Y181.227 E0.02185
G1 X155.988 Y199.934 E0.82044
G1 X155.49 Y199.934 E0.02185
G1 X155.49 Y181.227 E0.82044
G1 X154.992 Y181.227 E0.02185
G1 X154.992 Y199.934 E0.82044
G1 X154.493 Y199.934 E0.02185
G1 X154.493 Y181.227 E0.82044
G1 X153.995 Y181.227 E0.02185
G1 X153.995 Y199.934 E0.82044
G1 X153.497 Y199.934 E0.02185
G1 X153.497 Y181.227 E0.82044
G1 X152.998 Y181.227 E0.02185
G1 X152.998 Y199.934 E0.82044
G1 X152.5 Y199.934 E0.02185
G1 X152.5 Y181.227 E0.82044
G1 X152.002 Y181.227 E0.02185
G1 X152.002 Y199.934 E0.82044
G1 X151.503 Y199.934 E0.02185
G1 X151.503 Y181.227 E0.82044
G1 X151.005 Y181.227 E0.02185
G1 X151.005 Y199.934 E0.82044
G1 X150.507 Y199.934 E0.02185
G1 X150.507 Y181.227 E0.82044
G1 X150.008 Y181.227 E0.02185
G1 X150.008 Y199.934 E0.82044
G1 X149.51 Y199.934 E0.02185
G1 X149.51 Y181.227 E0.82044
G1 X149.012 Y181.227 E0.02185
G1 X149.012 Y199.934 E0.82044
G1 X148.513 Y199.934 E0.02185
G1 X148.513 Y181.227 E0.82044
G1 X148.015 Y181.227 E0.02185
G1 X148.015 Y199.934 E0.82044
G1 X147.517 Y199.934 E0.02185
G1 X147.517 Y181.227 E0.82044
M73 P7 R36
G1 X147.018 Y181.227 E0.02185
G1 X147.018 Y199.934 E0.82044
G1 X146.52 Y199.934 E0.02185
G1 X146.52 Y181.227 E0.82044
G1 X146.022 Y181.227 E0.02185
G1 X146.022 Y199.934 E0.82044
G1 X145.523 Y199.934 E0.02185
G1 X145.523 Y181.227 E0.82044
G1 X145.025 Y181.227 E0.02185
G1 X145.025 Y199.934 E0.82044
G1 X144.527 Y199.934 E0.02185
G1 X144.527 Y181.227 E0.82044
G1 X144.028 Y181.227 E0.02185
G1 X144.028 Y199.934 E0.82044
G1 X143.53 Y199.934 E0.02185
G1 X143.53 Y181.227 E0.82044
G1 X143.032 Y181.227 E0.02185
G1 X143.032 Y199.934 E0.82044
G1 X142.533 Y199.934 E0.02185
G1 X142.533 Y181.227 E0.82044
G1 X142.035 Y181.227 E0.02185
G1 X142.035 Y199.934 E0.82044
G1 X141.537 Y199.934 E0.02185
G1 X141.537 Y181.227 E0.82044
G1 X141.038 Y181.227 E0.02185
G1 X141.038 Y199.934 E0.82044
G1 X140.54 Y199.934 E0.02185
G1 X140.54 Y181.227 E0.82044
G1 X140.042 Y181.227 E0.02185
G1 X140.042 Y199.934 E0.82044
G1 X139.543 Y199.934 E0.02185
G1 X139.543 Y181.227 E0.82044
G1 X139.045 Y181.227 E0.02185
G1 X139.045 Y199.934 E0.82044
M73 P8 R36
G1 X138.547 Y199.934 E0.02185
G1 X138.547 Y181.227 E0.82044
G1 X138.239 Y181.227 E0.01349
G1 X138.239 Y118.662 E2.74382
G1 X138.547 Y118.662 E0.01349
G1 X138.547 Y100.421 E0.79998
G1 X139.045 Y100.421 E0.02185
G1 X139.045 Y118.662 E0.79998
G1 X139.543 Y118.662 E0.02185
G1 X139.543 Y100.421 E0.79999
G1 X140.042 Y100.421 E0.02185
G1 X140.042 Y118.662 E0.79999
G1 X140.54 Y118.662 E0.02185
G1 X140.54 Y100.421 E0.79999
G1 X140.875 Y100.421 E0.01469
G1 X141.038 Y100.421 E0.00717
G1 X141.038 Y118.662 E0.79999
G1 X141.537 Y118.662 E0.02185
G1 X141.537 Y100.421 E0.79999
G1 X142.035 Y100.421 E0.02185
G1 X142.035 Y118.662 E0.79999
G1 X142.533 Y118.662 E0.02185
G1 X142.533 Y100.421 E0.79999
G1 X143.032 Y100.421 E0.02185
G1 X143.032 Y118.662 E0.79999
G1 X143.53 Y118.662 E0.02185
G1 X143.53 Y100.421 E0.79999
G1 X143.851 Y100.421 E0.01405
G1 X144.028 Y100.421 E0.0078
G1 X144.028 Y118.662 E0.79999
G1 X144.527 Y118.662 E0.02185
G1 X144.527 Y100.421 E0.79999
M73 P8 R36
G1 X145.025 Y100.421 E0.02185
G1 X145.025 Y118.662 E0.79999
G1 X145.523 Y118.662 E0.02185
G1 X145.523 Y100.421 E0.79999
G1 X145.834 Y100.421 E0.01363
G1 X146.022 Y100.421 E0.00822
G1 X146.022 Y118.662 E0.8
G1 X146.52 Y118.662 E0.02185
G1 X146.52 Y100.421 E0.8
G1 X146.826 Y100.421 E0.01342
G1 X147.018 Y100.421 E0.00843
G1 X147.018 Y118.662 E0.8
G1 X147.517 Y118.662 E0.02185
G1 X147.517 Y100.421 E0.8
G1 X147.818 Y100.421 E0.01321
G1 X148.015 Y100.421 E0.00864
G1 X148.015 Y118.662 E0.8
G1 X148.513 Y118.662 E0.02185
G1 X148.513 Y100.421 E0.8
G1 X148.81 Y100.421 E0.013
G1 X149.012 Y100.421 E0.00885
G1 X149.012 Y118.662 E0.8
G1 X149.51 Y118.662 E0.02185
G1 X149.51 Y100.421 E0.8
G1 X149.802 Y100.421 E0.01279
G1 X150.008 Y100.421 E0.00906
G1 X150.008 Y118.662 E0.8
G1 X150.507 Y118.662 E0.02185
G1 X150.507 Y100.421 E0.8
G1 X150.794 Y100.421 E0.01258
G1 X151.005 Y100.421 E0.00927
G1 X151.005 Y118.662 E0.8
G1 X151.503 Y118.662 E0.02185
G1 X151.503 Y100.421 E0.8
G1 X151.785 Y100.421 E0.01237
G1 X151.919 Y100.421 E0.00585
G1 X152.002 Y100.421 E0.00364
G1 X152.002 Y118.662 E0.8
G1 X152.5 Y118.662 E0.02185
G1 X152.5 Y100.397 E0.80106
G1 X152.52 Y100.391 E0.00092
G1 X152.562 Y100.402 E0.00188
G1 X152.702 Y100.421 E0.0062
G1 X152.998 Y100.421 E0.013
G1 X152.998 Y118.662 E0.8
G1 X153.497 Y118.662 E0.02185
G1 X153.497 Y100.421 E0.8
G1 X153.995 Y100.421 E0.02185
G1 X153.995 Y118.662 E0.8
G1 X154.493 Y118.662 E0.02185
G1 X154.493 Y100.421 E0.8
G1 X154.743 Y100.421 E0.01096
G1 X154.992 Y100.421 E0.0109
G1 X154.992 Y118.662 E0.8
G1 X155.49 Y118.662 E0.02185
G1 X155.49 Y100.421 E0.8
G1 X155.735 Y100.421 E0.01075
G1 X155.988 Y100.421 E0.01111
G1 X155.988 Y118.662 E0.8
G1 X156.487 Y118.662 E0.02185
G1 X156.487 Y100.421 E0.8
G1 X156.985 Y100.421 E0.02185
G1 X156.985 Y118.662 E0.8
G1 X157.483 Y118.662 E0.02185
G1 X157.483 Y100.421 E0.8
G1 X157.719 Y100.421 E0.01033
G1 X157.982 Y100.421 E0.01153
G1 X157.982 Y118.662 E0.8
G1 X158.48 Y118.662 E0.02185
G1 X158.48 Y100.421 E0.8
G1 X158.711 Y100.421 E0.01012
G1 X158.978 Y100.421 E0.01174
G1 X158.978 Y118.662 E0.8
G1 X159.477 Y118.662 E0.02185
G1 X159.477 Y100.421 E0.79999
G1 X159.702 Y100.421 E0.00991
G1 X159.975 Y100.421 E0.01195
G1 X159.975 Y118.662 E0.79999
G1 X160.473 Y118.662 E0.02185
G1 X160.473 Y100.421 E0.79999
G1 X160.694 Y100.421 E0.0097
G1 X160.972 Y100.421 E0.01216
G1 X160.972 Y118.662 E0.79999
G1 X161.47 Y118.662 E0.02185
G1 X161.47 Y100.421 E0.79999
G1 X161.686 Y100.421 E0.00949
G1 X161.968 Y100.421 E0.01237
G1 X161.968 Y118.662 E0.79999
G1 X162.467 Y118.662 E0.02185
G1 X162.467 Y100.421 E0.79999
M73 P9 R35
G1 X162.965 Y100.421 E0.02185
G1 X162.965 Y118.662 E0.79999
G1 X163.463 Y118.662 E0.02185
G1 X163.463 Y100.421 E0.79999
G1 X163.67 Y100.421 E0.00906
G1 X163.962 Y100.421 E0.01279
G1 X163.962 Y118.662 E0.79999
G1 X164.46 Y118.662 E0.02185
G1 X164.46 Y100.421 E0.79999
G1 X164.662 Y100.421 E0.00885
G1 X164.958 Y100.421 E0.013
G1 X164.958 Y118.662 E0.79999
G1 X165.457 Y118.662 E0.02185
G1 X165.457 Y100.421 E0.79999
G1 X165.955 Y100.421 E0.02185
G1 X165.955 Y118.662 E0.79998
G1 X166.453 Y118.662 E0.02185
G1 X166.453 Y100.228 E0.80844
G1 E-0.8 F3000
; acceleration to travel
M204 S3000
G1 X145.15 Y175.152 F9000
; decel to extrusion
M204 S1000
G1 X138.048 Y200.127
; end travel
G1 E0.8 F1800
G1 X138.048 Y100.421 E4.37271
G1 X137.899 Y100.421 E0.00654
G1 X137.55 Y100.421 E0.01532
G1 X137.55 Y199.934 E4.36425
G1 X137.052 Y199.934 E0.02185
G1 X137.052 Y100.421 E4.36425
G1 X136.908 Y100.421 E0.00633
G1 X136.554 Y100.421 E0.01553
G1 X136.554 Y199.934 E4.36425
G1 X136.055 Y199.934 E0.02185
G1 X136.055 Y100.421 E4.36425
M73 P10 R35
G1 X135.916 Y100.421 E0.00612
G1 X135.557 Y100.421 E0.01574
G1 X135.557 Y199.934 E4.36425
M73 P10 R35
G1 X135.059 Y199.934 E0.02185
G1 X135.059 Y100.421 E4.36424
G1 X134.924 Y100.421 E0.00591
G1 X134.56 Y100.421 E0.01595
G1 X134.56 Y199.934 E4.36424
G1 X134.062 Y199.934 E0.02185
G1 X134.062 Y100.421 E4.36424
G1 X133.564 Y100.421 E0.02185
G1 X133.564 Y199.934 E4.36424
G1 X133.065 Y199.934 E0.02185
G1 X133.065 Y100.421 E4.36424
G1 X132.94 Y100.421 E0.00549
G1 X132.567 Y100.421 E0.01637
G1 X132.567 Y199.934 E4.36424
M73 P11 R35
G1 X132.069 Y199.934 E0.02185
G1 X132.069 Y100.421 E4.36424
G1 X131.948 Y100.421 E0.00527
G1 X131.57 Y100.422 E0.01658
G1 X131.57 Y199.934 E4.36424
G1 X131.072 Y199.934 E0.02185
