; generated by SuperSlicer 2.3.57 on 2022-01-25 at 03:56:44 UTC


;
;

;
;
; 

; external perimeters extrusion width = 0.40mm
; perimeters extrusion width = 0.40mm
; infill extrusion width = 0.40mm
; solid infill extrusion width = 0.40mm
; top infill extrusion width = 0.40mm
; support material extrusion width = 0.40mm
; first layer extrusion width = 0.48mm


;TYPE:Custom
START_PRINT T_BED=60 T_EXTRUDER=200
M107
G21 ; set units to millimeters
G90 ; use absolute coordinates
M83 ; use relative distances for extrusion
; Filament gcode
M104 S200 ; set temperature
M109 S200 ; set temperature and wait for it to be reached
M190 S60 ; set bed temperature and wait for it to be reached
;LAYER_CHANGE
;Z:0.24
;HEIGHT:0.24
G1 E-0.6 F3000
G1 Z0.24 F9000
M204 S1500
G1 X122.197 Y89.107
G1 E0.6 F1800
;TYPE:Skirt
;WIDTH:0.48
G1 F600
G1 X84.761 Y140.445 E2.71658
G1 X84.409 Y141.121 E0.03259
G1 X84.152 Y141.839 E0.03259
G1 X83.994 Y142.585 E0.03259
G1 X83.937 Y143.351 E0.03284
G1 X83.937 Y199.651 E2.40714
G1 X84.379 Y219.303 E0.84044
G1 X86.398 Y234.668 E0.66261
G1 X86.584 Y235.492 E0.0361
G1 X86.888 Y236.273 E0.03585
G1 X87.357 Y237.078 E0.03985
G1 X87.949 Y237.791 E0.0396
G1 X96.814 Y246.656 E0.53604
G1 X97.822 Y247.439 E0.05458
G1 X98.499 Y247.791 E0.03259
G1 X99.216 Y248.048 E0.03259
G1 X99.962 Y248.206 E0.03259
G1 X100.722 Y248.263 E0.03259
G1 X229.654 Y248.248 E5.51254
G1 X230.546 Y248.11 E0.0386
G1 X231.411 Y247.83 E0.03885
G1 X232.214 Y247.417 E0.0386
G1 X232.945 Y246.878 E0.03885
G1 X242.05 Y237.793 E0.54993
G1 X242.84 Y236.776 E0.05508
G1 X243.318 Y235.783 E0.0471
G1 X243.595 Y234.717 E0.0471
G1 X245.66 Y218.797 E0.68635
G1 X246.063 Y199.632 E0.81962
G1 X246.063 Y143.362 E2.40584
G1 X246.007 Y142.59 E0.03309
G1 X245.846 Y141.833 E0.03309
G1 X245.497 Y140.918 E0.04185
G1 X244.996 Y140.078 E0.04185
G1 X205.457 Y85.894 E2.86787
G1 X204.686 Y85.091 E0.0476
G1 X202.164 Y82.989 E0.14035
G1 X201.555 Y82.561 E0.03184
G1 X200.873 Y82.207 E0.03284
G1 X200.15 Y81.949 E0.03284
G1 X199.392 Y81.79 E0.03309
G1 X198.626 Y81.737 E0.03284
G1 X131.327 Y81.738 E2.87739
G1 X130.02 Y81.904 E0.05633
G1 X128.793 Y82.365 E0.05608
G1 X127.905 Y82.935 E0.0451
G1 X125.357 Y85.054 E0.14167
G1 X124.485 Y85.969 E0.05408
G1 X122.232 Y89.058 E0.16346
G1 X122.405 Y89.185 F9000
M204 S500
G1 X122.578 Y89.311
G1 F600
G1 X85.128 Y140.666 E2.71754
G1 X84.563 Y141.96 E0.06036
G1 X84.366 Y143.357 E0.06036
G1 X84.366 Y199.651 E2.40685
G1 X84.804 Y219.249 E0.83813
G1 X86.821 Y234.601 E0.66203
G1 X86.991 Y235.36 E0.03325
G1 X87.273 Y236.085 E0.03325
G1 X87.707 Y236.83 E0.03686
G1 X88.257 Y237.494 E0.03686
G1 X97.11 Y246.346 E0.53529
G1 X98.043 Y247.072 E0.05054
G1 X99.337 Y247.637 E0.06036
G1 X100.729 Y247.834 E0.06012
G1 X229.62 Y247.821 E5.51078
G1 X230.455 Y247.691 E0.03614
G1 X231.253 Y247.431 E0.0359
G1 X232.004 Y247.043 E0.03614
G1 X232.678 Y246.542 E0.0359
G1 X241.743 Y237.493 E0.54765
G1 X242.47 Y236.56 E0.05054
G1 X242.916 Y235.637 E0.04383
G1 X243.172 Y234.645 E0.04383
G1 X245.232 Y218.781 E0.68397
G1 X245.634 Y199.637 E0.81867
G1 X245.634 Y143.36 E2.40616
G1 X245.583 Y142.651 E0.03037
G1 X245.436 Y141.956 E0.03037
G1 X245.111 Y141.103 E0.03902
G1 X244.645 Y140.325 E0.03878
G1 X205.126 Y86.167 E2.86649
G1 X204.41 Y85.418 E0.04431
G1 X201.353 Y82.94 E0.16824
G1 X200.719 Y82.607 E0.03061
G1 X200.04 Y82.363 E0.03085
G1 X199.34 Y82.216 E0.03061
G1 X198.626 Y82.166 E0.03061
G1 X131.34 Y82.166 E2.87684
G1 X130.133 Y82.317 E0.05198
G1 X128.99 Y82.746 E0.05222
G1 X128.16 Y83.279 E0.04215
G1 X125.633 Y85.382 E0.14059
G1 X124.822 Y86.234 E0.0503
G1 X122.613 Y89.262 E0.16023
G1 E-0.6 F3000
M204 S1500
G1 X165.468 Y121.475 F9000
M204 S500
G1 X208.323 Y153.688
G1 E0.6 F1800
;TYPE:Internal perimeter
G1 F600
G1 X208.323 Y176.312 E0.96728
G1 X218.1 Y186.089 E0.59117
G1 X227.877 Y176.312 E0.59117
G1 X227.877 Y153.688 E0.96728
G1 X218.1 Y143.911 E0.59117
G1 X208.365 Y153.646 E0.5886
M204 S1500
G1 X208.558 Y153.756 F9000
M204 S500
G1 X208.752 Y153.866
G1 F600
G1 X208.752 Y176.134 E0.9521
G1 X218.1 Y185.483 E0.56526
G1 X227.448 Y176.134 E0.56526
G1 X227.448 Y153.866 E0.9521
G1 X218.1 Y144.517 E0.56526
G1 X208.794 Y153.823 E0.56269
G1 E-0.6 F3000
M204 S1500
G1 X208.987 Y157.117 F9000
M204 S500
G1 X209.18 Y160.411
G1 E0.6 F1800
;TYPE:External perimeter
G1 F600
G1 X209.18 Y175.957 E0.66467
G1 X218.1 Y184.877 E0.53935
G1 X227.02 Y175.957 E0.53935
G1 X227.02 Y154.043 E0.93693
G1 X218.1 Y145.123 E0.53935
G1 X209.18 Y154.043 E0.53935
G1 X209.18 Y160.351 E0.2697
;WIPE_START
G1 X208.834 Y160.611 F9000
;WIPE_END
G1 E-0.6 F3000
M204 S1500
G1 X204.655 Y160.611 F9000
M204 S500
G1 X200.477 Y160.611
G1 E0.6 F1800
;TYPE:Internal perimeter
G1 F600
G1 X200.477 Y153.688 E0.29599
G1 X190.7 Y143.911 E0.59117
G1 X180.923 Y153.688 E0.59117
G1 X180.923 Y176.312 E0.96728
G1 X190.7 Y186.089 E0.59117
G1 X200.477 Y176.312 E0.59117
G1 X200.477 Y160.671 E0.66873
M204 S1500
G1 X200.263 Y160.671 F9000
M204 S500
G1 X200.048 Y160.671
G1 F600
G1 X200.048 Y153.866 E0.29097
G1 X190.7 Y144.517 E0.56526
G1 X181.352 Y153.866 E0.56526
G1 X181.352 Y176.134 E0.9521
G1 X190.7 Y185.483 E0.56526
G1 X200.048 Y176.134 E0.56526
G1 X200.048 Y160.731 E0.65857
G1 E-0.6 F3000
M204 S1500
G1 X199.834 Y164.156 F9000
M204 S500
G1 X199.62 Y167.582
G1 E0.6 F1800
;TYPE:External perimeter
G1 F600
G1 X199.62 Y154.043 E0.57885
G1 X190.7 Y145.123 E0.53935
G1 X181.78 Y154.043 E0.53935
G1 X181.78 Y175.957 E0.93693
G1 X190.7 Y184.877 E0.53935
G1 X199.62 Y175.957 E0.53935
G1 X199.62 Y167.642 E0.35551
;WIPE_START
G1 X199.966 Y167.382 F9000
;WIPE_END
G1 E-0.6 F3000
M204 S1500
G1 X185.922 Y167.953 F9000
M204 S500
G1 X171.877 Y168.524
G1 E0.6 F1800
;TYPE:Internal perimeter
G1 F600
G1 X171.877 Y142.477 E1.11366
G1 X236.923 Y142.477 E2.78107
G1 X236.923 Y179.388 E1.57816
G1 X228.788 Y187.523 E0.49187
G1 X180.012 Y187.523 E2.08546
G1 X171.877 Y179.388 E0.49187
G1 X171.877 Y168.584 E0.46193
M204 S1500
G1 X171.663 Y168.584 F9000
M204 S500
G1 X171.448 Y168.584
G1 F600
G1 X171.448 Y163.952 E0.19807
G1 X169.448 Y163.952 E0.08551
G1 X169.448 Y163.048 E0.03861
G1 X171.448 Y163.048 E0.08551
G1 X171.448 Y144.952 E0.77375
G1 X169.048 Y144.952 E0.10261
G1 X169.048 Y144.048 E0.03861
G1 X171.448 Y144.048 E0.10261
G1 X171.448 Y142.048 E0.08551
G1 X237.352 Y142.048 E2.81771
G1 X237.352 Y144.048 E0.08551
G1 X239.752 Y144.048 E0.10261
G1 X239.752 Y144.952 E0.03861
G1 X237.352 Y144.952 E0.10261
G1 X237.352 Y163.048 E0.77375
G1 X239.352 Y163.048 E0.08551
G1 X239.352 Y163.952 E0.03861
G1 X237.352 Y163.952 E0.08551
G1 X237.352 Y179.566 E0.66759
G1 X228.966 Y187.952 E0.50705
G1 X179.834 Y187.952 E2.10064
G1 X171.448 Y179.566 E0.50705
G1 X171.448 Y168.644 E0.46695
M204 S1500
G1 X171.234 Y168.644 F9000
M204 S500
G1 X171.02 Y168.644
;TYPE:External perimeter
G1 F600
G1 X171.02 Y164.38 E0.18232
G1 X169.02 Y164.38 E0.08551
G1 X169.02 Y162.62 E0.07525
G1 X171.02 Y162.62 E0.08551
G1 X171.02 Y145.38 E0.7371
G1 X168.62 Y145.38 E0.10261
G1 X168.62 Y143.62 E0.07525
G1 X171.02 Y143.62 E0.10261
G1 X171.02 Y141.62 E0.08551
G1 X237.78 Y141.62 E2.85435
G1 X237.78 Y143.62 E0.08551
G1 X240.18 Y143.62 E0.10261
G1 X240.18 Y145.38 E0.07525
G1 X237.78 Y145.38 E0.10261
G1 X237.78 Y162.62 E0.7371
G1 X239.78 Y162.62 E0.08551
G1 X239.78 Y164.38 E0.07525
G1 X237.78 Y164.38 E0.08551
G1 X237.78 Y179.743 E0.65686
G1 X229.143 Y188.38 E0.52223
G1 X179.657 Y188.38 E2.11581
G1 X171.02 Y179.743 E0.52223
G1 X171.02 Y168.704 E0.47198
;WIPE_START
G1 X171.366 Y168.444 F9000
;WIPE_END
G1 E-0.6 F3000
M204 S1500
G1 X171.523 Y165.972 F9000
M204 S500
G1 X171.68 Y163.5
G1 E0.6 F1800
;TYPE:Gap fill
;WIDTH:0.560579
G1 F600
G1 X171.425 Y163.5 E0.01293
G1 X169.645 Y163.5 E0.09042
G1 E-0.6 F3000
M204 S1500
G1 X169.445 Y154 F9000
M204 S500
G1 X169.245 Y144.5
G1 E0.6 F1800
G1 F600
G1 X171.68 Y144.5 E0.12366
G1 E-0.6 F3000
M204 S1500
G1 X203.793 Y143.563 F9000
M204 S500
G1 X235.907 Y142.627
G1 E0.6 F1800
;TYPE:Solid infill
;WIDTH:0.480074
G1 X236.589 Y143.309 E0.04124
G1 X236.589 Y143.915 E0.02591
G1 X235.485 Y142.811 E0.06674
G1 X234.879 Y142.811 E0.02591
G1 X236.589 Y144.521 E0.10339
G1 X236.589 Y145.127 E0.02591
G1 X234.273 Y142.811 E0.14004
G1 X233.667 Y142.811 E0.02591
G1 X236.589 Y145.733 E0.17668
G1 X236.589 Y146.339 E0.02591
G1 X233.061 Y142.811 E0.21333
G1 X232.455 Y142.811 E0.02591
G1 X236.589 Y146.945 E0.24998
G1 X236.589 Y147.551 E0.02591
G1 X231.849 Y142.811 E0.28662
G1 X231.243 Y142.811 E0.02591
G1 X236.589 Y148.157 E0.32327
G1 X236.589 Y148.763 E0.02591
G1 X230.637 Y142.811 E0.35992
G1 X230.031 Y142.811 E0.02591
G1 X236.589 Y149.369 E0.39656
G1 X236.589 Y149.975 E0.02591
G1 X229.425 Y142.811 E0.43321
G1 X228.819 Y142.811 E0.02591
G1 X236.589 Y150.581 E0.46986
G1 X236.589 Y151.187 E0.02591
G1 X228.213 Y142.811 E0.5065
G1 X227.607 Y142.811 E0.02591
G1 X236.589 Y151.793 E0.54315
G1 X236.589 Y152.399 E0.02591
G1 X227.001 Y142.811 E0.5798
G1 X226.395 Y142.811 E0.02591
G1 X236.589 Y153.005 E0.61644
G1 X236.589 Y153.611 E0.02591
G1 X225.789 Y142.811 E0.65309
G1 X225.183 Y142.811 E0.02591
G1 X236.589 Y154.217 E0.68974
G1 X236.589 Y154.823 E0.02591
G1 X224.577 Y142.811 E0.72638
G1 X223.971 Y142.811 E0.02591
G1 X236.589 Y155.429 E0.76303
G1 X236.589 Y156.035 E0.02591
G1 X223.365 Y142.811 E0.79968
G1 X222.759 Y142.811 E0.02591
G1 X236.589 Y156.641 E0.83632
G1 X236.589 Y157.247 E0.02591
G1 X222.153 Y142.811 E0.87297
G1 X221.548 Y142.811 E0.02591
G1 X236.589 Y157.852 E0.90962
G1 X236.589 Y158.458 E0.02591
G1 X220.942 Y142.811 E0.94626
G1 X220.336 Y142.811 E0.02591
G1 X236.589 Y159.064 E0.98291
G1 X236.589 Y159.67 E0.02591
G1 X219.73 Y142.811 E1.01956
G1 X219.124 Y142.811 E0.02591
G1 X236.589 Y160.276 E1.0562
G1 X236.589 Y160.882 E0.02591
G1 X218.518 Y142.811 E1.09285
G1 X217.912 Y142.811 E0.02591
G1 X236.589 Y161.488 E1.1295
G1 X236.589 Y162.094 E0.02591
G1 X217.121 Y142.627 E1.17729
G1 E-0.6 F3000
M204 S1500
G1 X217.483 Y143.291 F9000
M204 S500
G1 X217.844 Y143.955
G1 E0.6 F1800
G1 X216.7 Y142.811 E0.06919
G1 X216.094 Y142.811 E0.02591
G1 X217.411 Y144.128 E0.07964
G1 X217.108 Y144.431 E0.01832
G1 X215.488 Y142.811 E0.09796
G1 X214.882 Y142.811 E0.02591
G1 X216.805 Y144.734 E0.11628
G1 X216.502 Y145.037 E0.01832
G1 X214.276 Y142.811 E0.13461
G1 X213.67 Y142.811 E0.02591
G1 X216.199 Y145.34 E0.15293
G1 X215.896 Y145.643 E0.01832
G1 X213.064 Y142.811 E0.17125
G1 X212.458 Y142.811 E0.02591
G1 X215.593 Y145.946 E0.18958
G1 X215.29 Y146.249 E0.01832
G1 X211.852 Y142.811 E0.2079
G1 X211.246 Y142.811 E0.02591
G1 X214.987 Y146.552 E0.22622
G1 X214.684 Y146.855 E0.01832
G1 X210.64 Y142.811 E0.24455
G1 X210.034 Y142.811 E0.02591
G1 X214.381 Y147.158 E0.26287
G1 X214.078 Y147.461 E0.01832
G1 X209.428 Y142.811 E0.28119
G1 X208.822 Y142.811 E0.02591
G1 X213.775 Y147.764 E0.29952
G1 X213.472 Y148.067 E0.01832
G1 X208.216 Y142.811 E0.31784
G1 X207.61 Y142.811 E0.02591
G1 X213.169 Y148.37 E0.33616
G1 X212.866 Y148.673 E0.01832
G1 X207.004 Y142.811 E0.35449
G1 X206.398 Y142.811 E0.02591
G1 X212.563 Y148.976 E0.37281
G1 X212.26 Y149.279 E0.01832
G1 X205.792 Y142.811 E0.39113
G1 X205.186 Y142.811 E0.02591
G1 X211.957 Y149.582 E0.40946
G1 X211.654 Y149.885 E0.01832
G1 X204.58 Y142.811 E0.42778
G1 X203.974 Y142.811 E0.02591
G1 X211.351 Y150.188 E0.4461
G1 X211.048 Y150.491 E0.01832
G1 X203.368 Y142.811 E0.46443
G1 X202.762 Y142.811 E0.02591
G1 X210.745 Y150.794 E0.48275
G1 X210.442 Y151.097 E0.01832
G1 X202.156 Y142.811 E0.50107
G1 X201.55 Y142.811 E0.02591
G1 X210.139 Y151.4 E0.5194
G1 X209.836 Y151.703 E0.01832
G1 X200.944 Y142.811 E0.53772
G1 X200.338 Y142.811 E0.02591
G1 X209.533 Y152.006 E0.55604
G1 X209.23 Y152.309 E0.01832
G1 X199.732 Y142.811 E0.57437
G1 X199.126 Y142.811 E0.02591
G1 X208.927 Y152.612 E0.59269
G1 X208.624 Y152.915 E0.01832
G1 X198.52 Y142.811 E0.61101
G1 X197.914 Y142.811 E0.02591
G1 X208.321 Y153.218 E0.62934
G1 X208.018 Y153.521 E0.01832
G1 X197.308 Y142.811 E0.64766
G1 X196.702 Y142.811 E0.02591
G1 X207.989 Y154.098 E0.68255
G1 X207.989 Y154.704 E0.02591
G1 X196.096 Y142.811 E0.7192
G1 X195.49 Y142.811 E0.02591
G1 X207.989 Y155.31 E0.75585
G1 X207.989 Y155.916 E0.02591
G1 X194.884 Y142.811 E0.79249
G1 X194.278 Y142.811 E0.02591
G1 X207.989 Y156.522 E0.82914
G1 X207.989 Y157.128 E0.02591
G1 X193.672 Y142.811 E0.86579
G1 X193.066 Y142.811 E0.02591
G1 X207.989 Y157.734 E0.90243
G1 X207.989 Y158.34 E0.02591
G1 X192.46 Y142.811 E0.93908
G1 X191.854 Y142.811 E0.02591
G1 X207.989 Y158.946 E0.97573
G1 X207.989 Y159.552 E0.02591
G1 X191.248 Y142.811 E1.01237
G1 X190.642 Y142.811 E0.02591
G1 X207.989 Y160.158 E1.04902
G1 X207.989 Y160.764 E0.02591
G1 X190.036 Y142.811 E1.08567
G1 X189.43 Y142.811 E0.02591
G1 X190.379 Y143.76 E0.05736
G1 X190.076 Y144.063 E0.01832
G1 X188.824 Y142.811 E0.07568
G1 X188.218 Y142.811 E0.02591
G1 X189.773 Y144.366 E0.09401
G1 X189.47 Y144.669 E0.01832
G1 X187.612 Y142.811 E0.11233
G1 X187.006 Y142.811 E0.02591
G1 X189.167 Y144.972 E0.13065
G1 X188.864 Y145.275 E0.01832
G1 X186.4 Y142.811 E0.14898
G1 X185.794 Y142.811 E0.02591
G1 X188.561 Y145.578 E0.1673
G1 X188.258 Y145.881 E0.01832
G1 X185.189 Y142.811 E0.18562
G1 X184.583 Y142.811 E0.02591
G1 X187.955 Y146.184 E0.20395
G1 X187.652 Y146.487 E0.01832
G1 X183.977 Y142.811 E0.22227
G1 X183.371 Y142.811 E0.02591
G1 X187.349 Y146.79 E0.24059
G1 X187.046 Y147.093 E0.01832
G1 X182.765 Y142.811 E0.25892
G1 X182.159 Y142.811 E0.02591
G1 X186.743 Y147.396 E0.27724
G1 X186.44 Y147.699 E0.01832
G1 X181.553 Y142.811 E0.29556
G1 X180.947 Y142.811 E0.02591
G1 X186.137 Y148.002 E0.31389
G1 X185.834 Y148.305 E0.01832
G1 X180.341 Y142.811 E0.33221
G1 X179.735 Y142.811 E0.02591
G1 X185.531 Y148.608 E0.35053
G1 X185.228 Y148.911 E0.01832
G1 X179.129 Y142.811 E0.36886
G1 X178.523 Y142.811 E0.02591
G1 X184.925 Y149.214 E0.38718
G1 X184.622 Y149.517 E0.01832
G1 X177.917 Y142.811 E0.4055
G1 X177.311 Y142.811 E0.02591
G1 X184.319 Y149.82 E0.42383
G1 X184.016 Y150.123 E0.01832
G1 X176.705 Y142.811 E0.44215
G1 X176.099 Y142.811 E0.02591
G1 X183.713 Y150.426 E0.46047
G1 X183.41 Y150.729 E0.01832
G1 X175.493 Y142.811 E0.4788
G1 X174.887 Y142.811 E0.02591
G1 X183.107 Y151.031 E0.49712
G1 X182.804 Y151.334 E0.01832
G1 X174.281 Y142.811 E0.51544
G1 X173.675 Y142.811 E0.02591
G1 X182.501 Y151.637 E0.53377
G1 X182.198 Y151.94 E0.01832
G1 X173.069 Y142.811 E0.55209
G1 X172.463 Y142.811 E0.02591
G1 X181.895 Y152.243 E0.57041
G1 X181.592 Y152.546 E0.01832
G1 X172.211 Y143.166 E0.56731
G1 X172.211 Y143.772 E0.02591
G1 X181.289 Y152.849 E0.54899
G1 X180.986 Y153.152 E0.01832
G1 X172.211 Y144.377 E0.53066
G1 X172.211 Y144.983 E0.02591
G1 X180.683 Y153.455 E0.51234
G1 X180.589 Y153.55 E0.00571
G1 X180.589 Y153.967 E0.01784
G1 X172.211 Y145.589 E0.50663
G1 X172.211 Y146.195 E0.02591
G1 X180.589 Y154.573 E0.50663
G1 X180.589 Y155.179 E0.02591
G1 X172.211 Y146.801 E0.50663
G1 X172.211 Y147.407 E0.02591
G1 X180.589 Y155.785 E0.50663
G1 X180.589 Y156.391 E0.02591
G1 X172.211 Y148.013 E0.50663
G1 X172.211 Y148.619 E0.02591
G1 X180.589 Y156.997 E0.50663
G1 X180.589 Y157.603 E0.02591
G1 X172.211 Y149.225 E0.50663
G1 X172.211 Y149.831 E0.02591
G1 X180.589 Y158.209 E0.50663
G1 X180.589 Y158.815 E0.02591
G1 X172.211 Y150.437 E0.50663
G1 X172.211 Y151.043 E0.02591
G1 X180.589 Y159.421 E0.50663
G1 X180.589 Y160.027 E0.02591
G1 X172.211 Y151.649 E0.50663
G1 X172.211 Y152.255 E0.02591
G1 X180.589 Y160.633 E0.50663
G1 X180.589 Y161.239 E0.02591
G1 X172.211 Y152.861 E0.50663
G1 X172.211 Y153.467 E0.02591
G1 X180.589 Y161.845 E0.50663
G1 X180.589 Y162.451 E0.02591
G1 X172.211 Y154.073 E0.50663
G1 X172.211 Y154.679 E0.02591
G1 X180.589 Y163.057 E0.50663
G1 X180.589 Y163.663 E0.02591
G1 X172.211 Y155.285 E0.50663
G1 X172.211 Y155.891 E0.02591
G1 X180.589 Y164.269 E0.50663
G1 X180.589 Y164.875 E0.02591
G1 X172.211 Y156.497 E0.50663
G1 X172.211 Y157.103 E0.02591
G1 X180.589 Y165.481 E0.50663
G1 X180.589 Y166.087 E0.02591
G1 X172.211 Y157.709 E0.50663
G1 X172.211 Y158.315 E0.02591
G1 X180.589 Y166.693 E0.50663
G1 X180.589 Y167.299 E0.02591
G1 X172.211 Y158.921 E0.50663
G1 X172.211 Y159.527 E0.02591
G1 X180.589 Y167.905 E0.50663
G1 X180.589 Y168.511 E0.02591
