; generated by SuperSlicer 2.3.57 on 2022-01-26 at 19:51:04 UTC


;
;

;
;
; 

; external perimeters extrusion width = 0.40mm
; perimeters extrusion width = 0.40mm
; infill extrusion width = 0.40mm
; solid infill extrusion width = 0.40mm
; top infill extrusion width = 0.40mm
; support material extrusion width = 0.40mm
; first layer extrusion width = 0.48mm


;TYPE:Custom
START_PRINT T_BED=60 T_EXTRUDER=200
M107
G21 ; set units to millimeters
G90 ; use absolute coordinates
M83 ; use relative distances for extrusion
; Filament gcode
M104 S200 ; set temperature
M109 S200 ; set temperature and wait for it to be reached
M190 S60 ; set bed temperature and wait for it to be reached
;LAYER_CHANGE
;Z:0.24
;HEIGHT:0.24
G1 E-0.8 F3000
G1 Z0.24 F9000
M204 S1500
G1 X123.362 Y93.025
G1 E0.8 F1800
;TYPE:Skirt
;WIDTH:0.48
G1 F600
G1 X122.816 Y94.062 E0.05009
G1 X122.477 Y95.305 E0.05508
G1 X120.234 Y110.91 E0.67406
G1 X119.776 Y130.263 E0.82768
G1 X119.776 Y240.734 E4.72327
G1 X119.881 Y241.708 E0.04185
G1 X120.152 Y242.648 E0.04185
G1 X120.582 Y243.528 E0.04185
G1 X121.157 Y244.32 E0.04185
G1 X121.892 Y245.026 E0.0436
G1 X124.71 Y247.165 E0.15126
G1 X125.964 Y247.861 E0.06131
G1 X126.976 Y248.159 E0.0451
G1 X128.026 Y248.263 E0.0451
G1 X202.29 Y248.252 E3.17522
G1 X203.086 Y248.146 E0.03435
G1 X203.865 Y247.926 E0.0346
G1 X204.604 Y247.597 E0.0346
G1 X205.289 Y247.165 E0.0346
G1 X208.536 Y244.646 E0.17569
G1 X209.282 Y243.743 E0.05009
G1 X209.823 Y242.711 E0.04984
G1 X210.122 Y241.693 E0.04535
G1 X210.225 Y240.638 E0.04535
G1 X210.225 Y130.38 E4.71411
G1 X209.753 Y110.772 E0.83861
G1 X207.508 Y95.214 E0.67204
G1 X207.238 Y94.201 E0.04485
G1 X206.781 Y93.25 E0.0451
G1 X206.334 Y92.611 E0.03335
G1 X205.803 Y92.04 E0.03335
G1 X195.812 Y82.964 E0.57713
G1 X195.027 Y82.44 E0.04035
G1 X194.165 Y82.055 E0.04035
G1 X193.252 Y81.818 E0.04035
G1 X192.305 Y81.737 E0.0406
G1 X137.689 Y81.737 E2.33514
G1 X136.714 Y81.824 E0.04185
G1 X135.963 Y82.011 E0.03309
G1 X135.25 Y82.297 E0.03284
G1 X134.583 Y82.677 E0.03284
G1 X133.973 Y83.144 E0.03284
G1 X124.11 Y92.123 E0.57028
G1 X123.4 Y92.979 E0.04753
G1 X123.563 Y93.115 F9000
M204 S500
G1 X123.727 Y93.251
G1 F600
G1 X123.215 Y94.217 E0.04671
G1 X122.901 Y95.368 E0.05102
G1 X120.661 Y110.944 E0.67282
G1 X120.204 Y130.273 E0.82664
G1 X120.204 Y240.717 E4.72209
G1 X120.301 Y241.624 E0.03902
G1 X120.555 Y242.501 E0.03902
G1 X120.957 Y243.32 E0.03902
G1 X121.496 Y244.057 E0.03902
G1 X122.169 Y244.699 E0.03975
G1 X124.962 Y246.818 E0.14988
G1 X126.117 Y247.461 E0.05653
G1 X127.057 Y247.738 E0.04191
G1 X128.027 Y247.834 E0.04167
G1 X202.253 Y247.825 E3.17359
G1 X202.997 Y247.727 E0.03205
G1 X203.718 Y247.524 E0.03205
G1 X204.403 Y247.219 E0.03205
G1 X205.032 Y246.822 E0.03181
G1 X208.217 Y244.359 E0.17213
G1 X208.913 Y243.524 E0.04647
G1 X209.423 Y242.558 E0.04671
G1 X209.7 Y241.618 E0.04191
G1 X209.797 Y240.637 E0.04215
G1 X209.797 Y130.38 E4.71409
G1 X209.328 Y110.825 E0.83631
G1 X207.088 Y95.296 E0.67084
G1 X206.841 Y94.364 E0.04119
G1 X206.428 Y93.494 E0.04119
G1 X206.01 Y92.892 E0.03133
G1 X205.508 Y92.351 E0.03157
G1 X195.563 Y83.313 E0.57457
G1 X194.833 Y82.823 E0.03758
G1 X194.032 Y82.462 E0.03758
G1 X193.181 Y82.241 E0.03758
G1 X192.305 Y82.166 E0.03758
G1 X137.692 Y82.166 E2.33499
G1 X136.806 Y82.243 E0.03806
G1 X136.11 Y82.414 E0.03061
G1 X135.445 Y82.679 E0.03061
G1 X134.823 Y83.032 E0.03061
G1 X134.254 Y83.467 E0.03061
G1 X124.419 Y92.42 E0.56867
G1 X123.765 Y93.205 E0.04365
G1 E-0.8 F3000
M204 S1500
G1 X146.592 Y96.431 F9000
M204 S500
G1 X169.419 Y99.658
G1 E0.8 F1800
;TYPE:Internal perimeter
G1 F600
G1 X169.419 Y122.342 E0.96989
G1 X180.055 Y132.021 E0.61482
G1 X190.69 Y122.342 E0.61482
G1 X190.69 Y99.658 E0.96989
G1 X180.055 Y89.979 E0.61482
G1 X169.464 Y99.617 E0.61225
M204 S1500
G1 X169.656 Y99.732 F9000
M204 S500
G1 X169.848 Y99.847
G1 F600
G1 X169.848 Y122.153 E0.9537
G1 X180.055 Y131.441 E0.59005
G1 X190.262 Y122.153 E0.59005
G1 X190.262 Y99.847 E0.9537
G1 X180.055 Y90.559 E0.59005
G1 X169.892 Y99.807 E0.58748
G1 E-0.8 F3000
M204 S1500
G1 X179.863 Y109.987 F9000
M204 S500
G1 X189.833 Y120.167
G1 E0.8 F1800
;TYPE:External perimeter
G1 F600
G1 X189.833 Y100.037 E0.86069
G1 X180.055 Y91.138 E0.56528
G1 X170.276 Y100.037 E0.56528
G1 X170.276 Y121.964 E0.9375
G1 X180.055 Y130.862 E0.56528
G1 X189.833 Y121.964 E0.56528
G1 X189.833 Y120.227 E0.07424
;WIPE_START
G1 X190.18 Y119.967 F9000
;WIPE_END
G1 E-0.8 F3000
M204 S1500
G1 X175.38 Y119.967 F9000
M204 S500
G1 X160.581 Y119.967
G1 E0.8 F1800
;TYPE:Internal perimeter
G1 F600
G1 X160.581 Y99.658 E0.86834
G1 X149.945 Y89.979 E0.61482
G1 X139.31 Y99.658 E0.61482
G1 X139.31 Y122.342 E0.96989
G1 X149.945 Y132.021 E0.61482
G1 X160.581 Y122.342 E0.61482
G1 X160.581 Y120.027 E0.09899
M204 S1500
G1 X160.366 Y120.027 F9000
M204 S500
G1 X160.152 Y120.027
G1 F600
G1 X160.152 Y99.847 E0.8628
G1 X149.945 Y90.559 E0.59005
G1 X139.738 Y99.847 E0.59005
G1 X139.738 Y122.153 E0.9537
G1 X149.945 Y131.441 E0.59005
G1 X160.152 Y122.153 E0.59005
G1 X160.152 Y120.087 E0.08833
G1 E-0.8 F3000
M204 S1500
G1 X159.938 Y118.959 F9000
M204 S500
G1 X159.724 Y117.832
G1 E0.8 F1800
;TYPE:External perimeter
G1 F600
G1 X159.724 Y100.037 E0.76084
G1 X149.945 Y91.138 E0.56528
G1 X140.167 Y100.037 E0.56528
G1 X140.167 Y121.964 E0.9375
G1 X149.945 Y130.862 E0.56528
G1 X159.724 Y121.964 E0.56528
G1 X159.724 Y117.892 E0.17409
;WIPE_START
G1 X160.07 Y117.632 F9000
;WIPE_END
G1 E-0.8 F3000
M204 S1500
G1 X145.133 Y106.662 F9000
M204 S500
G1 X130.196 Y95.692
G1 E0.8 F1800
;TYPE:Internal perimeter
G1 F600
G1 X138.125 Y88.477 E0.45835
G1 X191.875 Y88.477 E2.29812
G1 X200.848 Y96.642 E0.51871
G1 X200.848 Y133.523 E1.57685
G1 X129.152 Y133.523 E3.0654
G1 X129.152 Y96.642 E1.57685
G1 X130.152 Y95.733 E0.0578
M204 S1500
G1 X130.008 Y95.574 F9000
M204 S500
G1 X129.863 Y95.416
G1 F600
G1 X137.959 Y88.048 E0.468
G1 X192.041 Y88.048 E2.31229
G1 X201.277 Y96.453 E0.5339
G1 X201.277 Y112.048 E0.6668
G1 X203.474 Y112.048 E0.09397
G1 X203.474 Y112.952 E0.03861
G1 X201.277 Y112.952 E0.09397
G1 X201.277 Y131.048 E0.77375
G1 X203.914 Y131.048 E0.11276
G1 X203.914 Y131.952 E0.03861
G1 X201.277 Y131.952 E0.11276
G1 X201.277 Y133.952 E0.08551
G1 X128.723 Y133.952 E3.10204
G1 X128.723 Y131.952 E0.08551
G1 X126.086 Y131.952 E0.11276
G1 X126.086 Y131.048 E0.03861
G1 X128.723 Y131.048 E0.11276
G1 X128.723 Y112.952 E0.77375
G1 X126.526 Y112.952 E0.09397
G1 X126.526 Y112.048 E0.03861
G1 X128.723 Y112.048 E0.09397
G1 X128.723 Y96.453 E0.6668
G1 X129.819 Y95.456 E0.06333
M204 S1500
G1 X129.675 Y95.298 F9000
M204 S500
G1 X129.531 Y95.139
;TYPE:External perimeter
G1 F600
G1 X137.793 Y87.62 E0.47765
G1 X192.207 Y87.62 E2.32647
G1 X201.705 Y96.264 E0.54909
G1 X201.705 Y111.62 E0.65657
G1 X203.903 Y111.62 E0.09397
G1 X203.903 Y113.38 E0.07525
G1 X201.705 Y113.38 E0.09397
G1 X201.705 Y130.62 E0.7371
G1 X204.342 Y130.62 E0.11276
G1 X204.342 Y132.38 E0.07525
G1 X201.705 Y132.38 E0.11276
G1 X201.705 Y134.38 E0.08551
G1 X128.295 Y134.38 E3.13868
G1 X128.295 Y132.38 E0.08551
G1 X125.658 Y132.38 E0.11276
G1 X125.658 Y130.62 E0.07525
G1 X128.295 Y130.62 E0.11276
G1 X128.295 Y113.38 E0.7371
G1 X126.097 Y113.38 E0.09397
G1 X126.097 Y111.62 E0.07525
G1 X128.295 Y111.62 E0.09397
G1 X128.295 Y96.264 E0.65657
G1 X129.486 Y95.179 E0.06887
;WIPE_START
G1 X129.912 Y95.261 F9000
;WIPE_END
G1 E-0.8 F3000
M204 S1500
G1 X129.433 Y103.88 F9000
M204 S500
G1 X128.955 Y112.5
G1 E0.8 F1800
;TYPE:Gap fill
;WIDTH:0.560577
G1 F600
G1 X128.828 Y112.5 E0.00646
G1 X128.7 Y112.5 E0.00646
G1 X126.977 Y112.5 E0.08753
G1 X126.85 Y112.5 E0.00646
G1 X126.723 Y112.5 E0.00646
G1 E-0.8 F3000
M204 S1500
G1 X126.503 Y122 F9000
M204 S500
G1 X126.283 Y131.5
G1 E0.8 F1800
G1 F600
G1 X126.41 Y131.5 E0.00646
G1 X126.538 Y131.5 E0.00646
G1 X128.7 Y131.5 E0.10986
G1 X128.828 Y131.5 E0.00646
G1 X128.955 Y131.5 E0.00646
G1 E-0.8 F3000
M204 S1500
G1 X165 Y131.5 F9000
M204 S500
G1 X201.045 Y131.5
G1 E0.8 F1800
G1 F600
G1 X201.172 Y131.5 E0.00646
G1 X201.3 Y131.5 E0.00646
G1 X203.717 Y131.5 E0.12279
G1 E-0.8 F3000
M204 S1500
G1 X203.497 Y122 F9000
M204 S500
G1 X203.277 Y112.5
G1 E0.8 F1800
G1 F600
G1 X203.023 Y112.5 E0.01293
G1 X202.161 Y112.5 E0.04377
G1 X201.3 Y112.5 E0.04377
G1 X201.172 Y112.5 E0.00646
G1 X201.045 Y112.5 E0.00646
G1 E-0.8 F3000
M204 S1500
G1 X199.36 Y103.228 F9000
M204 S500
G1 X197.674 Y93.957
G1 E0.8 F1800
;TYPE:Solid infill
;WIDTH:0.481194
G1 X200.514 Y96.797 E0.17214
G1 X200.514 Y97.403 E0.02597
G1 X193.709 Y90.598 E0.41249
G1 X191.746 Y88.811 E0.11377
G1 X191.317 Y88.811 E0.0184
G1 X200.514 Y98.009 E0.5575
G1 X200.514 Y98.615 E0.02597
G1 X190.711 Y88.811 E0.59424
G1 X190.105 Y88.811 E0.02597
G1 X200.514 Y99.22 E0.63097
G1 X200.514 Y99.826 E0.02597
G1 X189.499 Y88.811 E0.6677
G1 X188.893 Y88.811 E0.02597
G1 X200.514 Y100.432 E0.70443
G1 X200.514 Y101.038 E0.02597
G1 X188.287 Y88.811 E0.74116
G1 X187.681 Y88.811 E0.02597
G1 X200.514 Y101.644 E0.7779
G1 X200.514 Y102.25 E0.02597
G1 X187.075 Y88.811 E0.81463
G1 X186.469 Y88.811 E0.02597
G1 X200.514 Y102.856 E0.85136
G1 X200.514 Y103.462 E0.02597
G1 X185.863 Y88.811 E0.88809
G1 X185.257 Y88.811 E0.02597
G1 X200.514 Y104.068 E0.92482
G1 X200.514 Y104.674 E0.02597
G1 X184.651 Y88.811 E0.96156
G1 X184.045 Y88.811 E0.02597
G1 X200.514 Y105.28 E0.99829
G1 X200.514 Y105.886 E0.02597
G1 X183.439 Y88.811 E1.03502
G1 X182.833 Y88.811 E0.02597
G1 X200.514 Y106.492 E1.07175
G1 X200.514 Y107.098 E0.02597
G1 X182.227 Y88.811 E1.10849
G1 X181.621 Y88.811 E0.02597
G1 X200.514 Y107.704 E1.14522
G1 X200.514 Y108.31 E0.02597
G1 X181.015 Y88.811 E1.18195
G1 X180.409 Y88.811 E0.02597
G1 X200.514 Y108.916 E1.21868
G1 X200.514 Y109.522 E0.02597
G1 X191.025 Y100.033 E0.5752
G1 X191.025 Y99.51 E0.02242
G1 X185.213 Y94.221 E0.3368
G1 X179.619 Y88.627 E0.33911
G1 E-0.8 F3000
M204 S1500
G1 X180.433 Y89.745 F9000
M204 S500
G1 X181.248 Y90.862
G1 E0.8 F1800
G1 X179.197 Y88.811 E0.12432
G1 X178.591 Y88.811 E0.02597
G1 X179.663 Y89.884 E0.06501
G1 X179.346 Y90.172 E0.01839
G1 X177.985 Y88.811 E0.08252
G1 X177.379 Y88.811 E0.02597
G1 X179.029 Y90.461 E0.10002
G1 X178.712 Y90.75 E0.01839
G1 X176.773 Y88.811 E0.11752
G1 X176.167 Y88.811 E0.02597
G1 X178.394 Y91.039 E0.13502
G1 X178.077 Y91.327 E0.01839
G1 X175.561 Y88.811 E0.15252
G1 X174.955 Y88.811 E0.02597
G1 X177.76 Y91.616 E0.17002
G1 X177.443 Y91.905 E0.01839
G1 X174.349 Y88.811 E0.18752
G1 X173.743 Y88.811 E0.02597
G1 X177.125 Y92.193 E0.20502
G1 X176.808 Y92.482 E0.01839
G1 X173.137 Y88.811 E0.22252
G1 X172.531 Y88.811 E0.02597
G1 X176.491 Y92.771 E0.24002
G1 X176.173 Y93.06 E0.01839
G1 X171.925 Y88.811 E0.25752
G1 X171.319 Y88.811 E0.02597
G1 X175.856 Y93.348 E0.27502
G1 X175.539 Y93.637 E0.01839
G1 X170.713 Y88.811 E0.29252
G1 X170.107 Y88.811 E0.02597
G1 X175.222 Y93.926 E0.31002
G1 X174.904 Y94.214 E0.01839
G1 X169.501 Y88.811 E0.32752
G1 X168.895 Y88.811 E0.02597
G1 X174.587 Y94.503 E0.34503
G1 X174.27 Y94.792 E0.01839
G1 X168.289 Y88.811 E0.36253
G1 X167.683 Y88.811 E0.02597
G1 X173.953 Y95.081 E0.38003
G1 X173.635 Y95.369 E0.01839
G1 X167.077 Y88.811 E0.39753
G1 X166.471 Y88.811 E0.02597
G1 X173.318 Y95.658 E0.41503
G1 X173.001 Y95.947 E0.01839
G1 X165.865 Y88.811 E0.43253
G1 X165.259 Y88.811 E0.02597
G1 X172.684 Y96.235 E0.45003
G1 X172.366 Y96.524 E0.01839
G1 X164.653 Y88.811 E0.46753
G1 X164.047 Y88.811 E0.02597
G1 X172.049 Y96.813 E0.48503
G1 X171.732 Y97.102 E0.01839
G1 X163.441 Y88.811 E0.50253
G1 X162.835 Y88.811 E0.02597
G1 X171.414 Y97.39 E0.52003
G1 X171.097 Y97.679 E0.01839
G1 X162.229 Y88.811 E0.53753
G1 X161.623 Y88.811 E0.02597
G1 X170.78 Y97.968 E0.55503
G1 X170.463 Y98.256 E0.01839
G1 X161.017 Y88.811 E0.57253
G1 X160.411 Y88.811 E0.02597
G1 X170.145 Y98.545 E0.59003
G1 X169.828 Y98.834 E0.01839
G1 X159.805 Y88.811 E0.60754
G1 X159.199 Y88.811 E0.02597
G1 X169.511 Y99.123 E0.62504
G1 X169.194 Y99.411 E0.01839
G1 X158.593 Y88.811 E0.64254
G1 X157.987 Y88.811 E0.02597
G1 X169.085 Y99.909 E0.6727
G1 X169.085 Y100.515 E0.02597
G1 X157.381 Y88.811 E0.70944
G1 X156.775 Y88.811 E0.02597
G1 X169.085 Y101.121 E0.74617
G1 X169.085 Y101.727 E0.02597
G1 X156.169 Y88.811 E0.7829
G1 X155.564 Y88.811 E0.02597
G1 X169.085 Y102.333 E0.81963
G1 X169.085 Y102.939 E0.02597
G1 X154.958 Y88.811 E0.85637
G1 X154.352 Y88.811 E0.02597
G1 X169.085 Y103.545 E0.8931
G1 X169.085 Y104.151 E0.02597
G1 X153.746 Y88.811 E0.92983
G1 X153.14 Y88.811 E0.02597
G1 X169.085 Y104.757 E0.96656
G1 X169.085 Y105.363 E0.02597
G1 X152.534 Y88.811 E1.00329
G1 X151.928 Y88.811 E0.02597
G1 X169.085 Y105.969 E1.04003
G1 X169.085 Y106.575 E0.02597
G1 X151.322 Y88.811 E1.07676
G1 X150.716 Y88.811 E0.02597
G1 X169.085 Y107.181 E1.11349
G1 X169.085 Y107.787 E0.02597
G1 X150.11 Y88.811 E1.15022
G1 X149.504 Y88.811 E0.02597
G1 X153 Y92.307 E0.21193
G1 X149.945 Y89.528 E0.17704
G1 X149.772 Y89.685 E0.01004
G1 X148.898 Y88.811 E0.05298
G1 X148.292 Y88.811 E0.02597
G1 X149.454 Y89.974 E0.07048
G1 X149.137 Y90.263 E0.01839
G1 X147.686 Y88.811 E0.08798
G1 X147.08 Y88.811 E0.02597
G1 X148.82 Y90.551 E0.10548
G1 X148.503 Y90.84 E0.01839
G1 X146.474 Y88.811 E0.12298
G1 X145.868 Y88.811 E0.02597
G1 X148.185 Y91.129 E0.14048
G1 X147.868 Y91.418 E0.01839
G1 X145.262 Y88.811 E0.15798
G1 X144.656 Y88.811 E0.02597
G1 X147.551 Y91.706 E0.17549
G1 X147.234 Y91.995 E0.01839
G1 X144.05 Y88.811 E0.19299
G1 X143.444 Y88.811 E0.02597
G1 X146.916 Y92.284 E0.21049
G1 X146.599 Y92.572 E0.01839
G1 X142.838 Y88.811 E0.22799
G1 X142.232 Y88.811 E0.02597
G1 X146.282 Y92.861 E0.24549
G1 X145.965 Y93.15 E0.01839
G1 X141.626 Y88.811 E0.26299
G1 X141.02 Y88.811 E0.02597
G1 X145.647 Y93.439 E0.28049
G1 X145.33 Y93.727 E0.01839
G1 X140.414 Y88.811 E0.29799
G1 X139.808 Y88.811 E0.02597
G1 X145.013 Y94.016 E0.31549
G1 X144.695 Y94.305 E0.01839
G1 X139.202 Y88.811 E0.33299
G1 X138.596 Y88.811 E0.02597
G1 X144.378 Y94.593 E0.35049
G1 X144.061 Y94.882 E0.01839
G1 X138.116 Y88.937 E0.36036
G1 X137.799 Y89.226 E0.01839
G1 X143.744 Y95.171 E0.36036
G1 X143.426 Y95.46 E0.01839
G1 X137.481 Y89.514 E0.36036
G1 X137.164 Y89.803 E0.01839
G1 X143.109 Y95.748 E0.36036
G1 X142.792 Y96.037 E0.01839
G1 X136.847 Y90.092 E0.36036
G1 X136.53 Y90.381 E0.01839
G1 X142.475 Y96.326 E0.36036
G1 X142.157 Y96.614 E0.01839
G1 X136.212 Y90.669 E0.36036
G1 X135.895 Y90.958 E0.01839
G1 X141.84 Y96.903 E0.36036
G1 X141.523 Y97.192 E0.01839
G1 X135.578 Y91.247 E0.36036
G1 X135.26 Y91.535 E0.01839
G1 X141.205 Y97.481 E0.36036
G1 X140.888 Y97.769 E0.01839
G1 X134.943 Y91.824 E0.36036
G1 X134.626 Y92.113 E0.01839
G1 X140.571 Y98.058 E0.36036
G1 X140.254 Y98.347 E0.01839
G1 X134.309 Y92.402 E0.36036
G1 X133.991 Y92.69 E0.01839
G1 X139.936 Y98.635 E0.36036
G1 X139.619 Y98.924 E0.01839
G1 X133.674 Y92.979 E0.36036
G1 X133.357 Y93.268 E0.01839
G1 X139.302 Y99.213 E0.36036
G1 X138.985 Y99.502 E0.01839
G1 X133.04 Y93.556 E0.36036
G1 X132.722 Y93.845 E0.01839
G1 X138.975 Y100.098 E0.37904
G1 X138.975 Y100.704 E0.02597
G1 X132.405 Y94.134 E0.39827
G1 X132.088 Y94.423 E0.01839
G1 X138.975 Y101.31 E0.4175
G1 X138.975 Y101.916 E0.02597
G1 X131.77 Y94.711 E0.43673
G1 X131.453 Y95 E0.01839
G1 X138.975 Y102.522 E0.45596
G1 X138.975 Y103.128 E0.02597
G1 X131.136 Y95.289 E0.47519
G1 X130.819 Y95.577 E0.01839
G1 X138.975 Y103.734 E0.49443
G1 X138.975 Y104.34 E0.02597
G1 X130.501 Y95.866 E0.51366
G1 X130.184 Y96.155 E0.01839
G1 X138.975 Y104.946 E0.53289
G1 X138.975 Y105.552 E0.02597
G1 X129.867 Y96.444 E0.55212
G1 X129.55 Y96.732 E0.01839
G1 X138.975 Y106.158 E0.57135
G1 X138.975 Y106.764 E0.02597
G1 X129.486 Y97.275 E0.5752
G1 X129.486 Y97.881 E0.02597
G1 X138.975 Y107.37 E0.5752
G1 X138.975 Y107.976 E0.02597
G1 X129.486 Y98.487 E0.5752
G1 X129.486 Y99.093 E0.02597
G1 X138.975 Y108.582 E0.5752
G1 X138.975 Y109.188 E0.02597
G1 X129.486 Y99.699 E0.5752
G1 X129.486 Y100.305 E0.02597
G1 X138.975 Y109.794 E0.5752
G1 X138.975 Y110.4 E0.02597
G1 X129.486 Y100.911 E0.5752
G1 X129.486 Y101.517 E0.02597
G1 X138.975 Y111.006 E0.5752
G1 X138.975 Y111.612 E0.02597
G1 X129.486 Y102.123 E0.5752
G1 X129.486 Y102.729 E0.02597
G1 X138.975 Y112.218 E0.5752
G1 X138.975 Y112.824 E0.02597
