; generated by SuperSlicer 2.3.57 on 2022-01-27 at 21:50:26 UTC


;
;

;
;
; 

; external perimeters extrusion width = 0.40mm
; perimeters extrusion width = 0.40mm
; infill extrusion width = 0.40mm
; solid infill extrusion width = 0.40mm
; top infill extrusion width = 0.40mm
; support material extrusion width = 0.40mm
; first layer extrusion width = 0.48mm


;TYPE:Custom
START_PRINT T_BED=60 T_EXTRUDER=200
M107
G21 ; set units to millimeters
G90 ; use absolute coordinates
M83 ; use relative distances for extrusion
; Filament gcode
M109 S200 ; set temperature and wait for it to be reached
M190 S60 ; set bed temperature and wait for it to be reached
;LAYER_CHANGE
;Z:0.24
;HEIGHT:0.24
G1 E-0.8 F3000
G1 Z0.24 F9000
M204 S1500
G1 X91.84 Y134.533
G1 E0.8 F1800
;TYPE:Skirt
;WIDTH:0.48
G1 F600
G1 X91.278 Y135.012 E0.03096
G1 X81.46 Y144.833 E0.58187
G1 X80.623 Y145.99 E0.05984
G1 X80.104 Y147.314 E0.05959
G1 X77.741 Y165.164 E0.75443
G1 X77.296 Y186.203 E0.88173
G1 X77.296 Y188.807 E0.10911
G1 X77.484 Y190.193 E0.05862
G1 X78.01 Y191.496 E0.05886
G1 X78.582 Y192.333 E0.04248
G1 X79.29 Y193.051 E0.04224
G1 X82.221 Y195.482 E0.15958
G1 X82.879 Y195.901 E0.03268
G1 X83.588 Y196.226 E0.03268
G1 X168.72 Y225.653 E3.77415
G1 X169.456 Y225.852 E0.03194
G1 X170.552 Y225.961 E0.04615
G1 X244.466 Y225.96 E3.09699
G1 X245.864 Y225.774 E0.05911
G1 X247.172 Y225.246 E0.05911
G1 X247.942 Y224.731 E0.03881
G1 X250.68 Y222.45 E0.14934
G1 X251.445 Y221.673 E0.04567
G1 X251.947 Y220.944 E0.03709
G1 X252.327 Y220.151 E0.03685
G1 X252.578 Y219.308 E0.03685
G1 X252.696 Y218.437 E0.03685
G1 X252.705 Y156.904 E2.57824
G1 X252.236 Y135.484 E0.89772
G1 X250.003 Y118.472 E0.71893
G1 X249.765 Y117.499 E0.04199
G1 X249.358 Y116.583 E0.04199
G1 X248.951 Y115.952 E0.03145
G1 X248.464 Y115.381 E0.03145
G1 X238.47 Y105.408 E0.59158
G1 X237.656 Y104.824 E0.04199
G1 X236.751 Y104.393 E0.04199
G1 X235.784 Y104.128 E0.04199
G1 X234.792 Y104.039 E0.04175
G1 X180.185 Y104.039 E2.28804
G1 X179.032 Y104.161 E0.0486
G1 X93.371 Y133.723 E3.79695
G1 X92.465 Y134.128 E0.04155
G1 X91.891 Y134.5 E0.02869
G1 X92.031 Y134.689 F9000
M204 S500
G1 X92.171 Y134.878
G1 F600
G1 X91.575 Y135.321 E0.03114
G1 X81.777 Y145.122 E0.58065
G1 X81.001 Y146.192 E0.0554
G1 X80.518 Y147.423 E0.0554
G1 X78.17 Y165.173 E0.75023
G1 X77.724 Y188.79 E0.98973
G1 X77.895 Y190.073 E0.05423
G1 X78.38 Y191.279 E0.05446
G1 X78.906 Y192.052 E0.03919
G1 X79.565 Y192.723 E0.03942
G1 X82.466 Y195.13 E0.15792
G1 X83.078 Y195.522 E0.03047
G1 X83.745 Y195.826 E0.0307
G1 X169.538 Y225.431 E3.80279
G1 X170.553 Y225.532 E0.04272
G1 X244.465 Y225.532 E3.09695
G1 X245.753 Y225.36 E0.05446
G1 X246.954 Y224.877 E0.05423
G1 X247.68 Y224.391 E0.0366
G1 X250.4 Y222.126 E0.14834
G1 X251.093 Y221.427 E0.04124
G1 X251.563 Y220.752 E0.03448
G1 X251.921 Y220.011 E0.03448
G1 X252.158 Y219.223 E0.03448
G1 X252.269 Y218.402 E0.03471
G1 X252.276 Y156.904 E2.57678
G1 X251.811 Y135.534 E0.89564
G1 X249.581 Y118.546 E0.71792
G1 X249.367 Y117.658 E0.03824
G1 X248.998 Y116.817 E0.03848
G1 X248.159 Y115.682 E0.05915
G1 X238.205 Y105.745 E0.58931
G1 X237.452 Y105.201 E0.03895
G1 X236.614 Y104.799 E0.03895
G1 X235.718 Y104.552 E0.03895
G1 X234.792 Y104.468 E0.03895
G1 X180.188 Y104.468 E2.28792
G1 X179.118 Y104.581 E0.04507
G1 X93.51 Y134.128 E3.79463
G1 X92.685 Y134.496 E0.03785
G1 X92.22 Y134.842 E0.02432
G1 E-0.8 F3000
M204 S1500
G1 X152.059 Y134.842 F9000
M204 S500
G1 X211.899 Y134.842
G1 E0.8 F1800
;TYPE:Internal perimeter
G1 F600
G1 X211.899 Y148.017 E0.55203
G1 X222.546 Y158.664 E0.63092
G1 X233.194 Y148.017 E0.63092
G1 X233.194 Y123.236 E1.03833
G1 X222.546 Y112.589 E0.63092
G1 X211.899 Y123.236 E0.63092
G1 X211.899 Y134.782 E0.48379
M204 S1500
G1 X212.113 Y134.782 F9000
M204 S500
G1 X212.328 Y134.782
G1 F600
G1 X212.328 Y147.839 E0.54711
G1 X222.546 Y158.058 E0.60553
G1 X232.765 Y147.839 E0.60553
G1 X232.765 Y123.413 E1.02346
G1 X222.546 Y113.195 E0.60553
G1 X212.328 Y123.413 E0.60553
G1 X212.328 Y134.722 E0.47383
G1 E-0.8 F3000
M204 S1500
G1 X216.678 Y145.328 F9000
M204 S500
G1 X221.029 Y155.935
G1 E0.8 F1800
;TYPE:External perimeter
G1 F600
G1 X222.546 Y157.452 E0.08991
G1 X232.337 Y147.662 E0.58014
G1 X232.337 Y123.591 E1.00859
G1 X222.546 Y113.801 E0.58014
G1 X212.756 Y123.591 E0.58014
G1 X212.756 Y147.662 E1.00859
G1 X220.987 Y155.893 E0.48771
;WIPE_START
G1 X220.926 Y156.321 F9000
;WIPE_END
G1 E-0.8 F3000
M204 S1500
G1 X212.005 Y152.169 F9000
M204 S500
G1 X203.084 Y148.017
G1 E0.8 F1800
;TYPE:Internal perimeter
G1 F600
G1 X203.084 Y123.236 E1.03833
G1 X192.437 Y112.589 E0.63092
G1 X181.789 Y123.236 E0.63092
G1 X181.789 Y148.017 E1.03833
G1 X192.437 Y158.664 E0.63092
G1 X203.041 Y148.059 E0.6284
M204 S1500
G1 X202.848 Y147.949 F9000
M204 S500
G1 X202.655 Y147.839
G1 F600
G1 X202.655 Y123.413 E1.02346
G1 X192.437 Y113.195 E0.60553
G1 X182.218 Y123.413 E0.60553
G1 X182.218 Y147.839 E1.02346
G1 X192.437 Y158.058 E0.60553
G1 X202.613 Y147.882 E0.60301
G1 E-0.8 F3000
M204 S1500
G1 X201.738 Y148.454 F9000
M204 S500
G1 X200.863 Y149.026
G1 E0.8 F1800
;TYPE:External perimeter
G1 F600
G1 X202.227 Y147.662 E0.08082
G1 X202.227 Y123.591 E1.00859
G1 X192.437 Y113.801 E0.58014
G1 X182.646 Y123.591 E0.58014
G1 X182.646 Y147.662 E1.00859
G1 X192.437 Y157.452 E0.58014
G1 X200.821 Y149.068 E0.4968
;WIPE_START
G1 X201.249 Y149.129 F9000
;WIPE_END
G1 E-0.8 F3000
M204 S1500
G1 X222.289 Y146.754 F9000
M204 S500
G1 X243.328 Y144.378
G1 E0.8 F1800
;TYPE:Internal perimeter
G1 F600
G1 X243.328 Y160.474 E0.67439
G1 X171.655 Y160.474 E3.0031
G1 X171.655 Y119.775 E1.70528
G1 X180.651 Y110.779 E0.53306
G1 X234.332 Y110.779 E2.24923
G1 X243.328 Y119.775 E0.53306
G1 X243.328 Y144.318 E1.02838
M204 S1500
G1 X243.542 Y144.318 F9000
M204 S500
G1 X243.756 Y144.318
G1 F600
G1 X243.756 Y157.603 E0.55664
G1 X246.394 Y157.603 E0.11051
G1 X246.394 Y158.704 E0.04612
G1 X243.756 Y158.704 E0.11051
G1 X243.756 Y160.902 E0.09209
G1 X171.227 Y160.902 E3.03901
G1 X171.227 Y158.704 E0.09209
G1 X168.589 Y158.704 E0.11051
G1 X168.589 Y157.603 E0.04612
G1 X171.227 Y157.603 E0.11051
G1 X171.227 Y137.825 E0.82872
G1 X169.029 Y137.825 E0.09209
G1 X169.029 Y136.724 E0.04612
G1 X171.227 Y136.724 E0.09209
G1 X171.227 Y119.598 E0.71761
G1 X180.474 Y110.351 E0.54794
G1 X234.509 Y110.351 E2.26411
G1 X243.756 Y119.598 E0.54794
G1 X243.756 Y136.724 E0.71761
G1 X245.954 Y136.724 E0.09209
G1 X245.954 Y137.825 E0.04612
G1 X243.756 Y137.825 E0.09209
G1 X243.756 Y144.258 E0.26956
M204 S1500
G1 X243.97 Y144.258 F9000
M204 S500
G1 X244.185 Y144.258
;TYPE:External perimeter
G1 F600
G1 X244.185 Y157.175 E0.5412
G1 X246.822 Y157.175 E0.11051
G1 X246.822 Y159.133 E0.08203
G1 X244.185 Y159.133 E0.11051
G1 X244.185 Y161.331 E0.09209
G1 X170.798 Y161.331 E3.07491
G1 X170.798 Y159.133 E0.09209
G1 X168.161 Y159.133 E0.11051
G1 X168.161 Y157.175 E0.08203
G1 X170.798 Y157.175 E0.11051
G1 X170.798 Y138.254 E0.79281
G1 X168.601 Y138.254 E0.09209
G1 X168.601 Y136.296 E0.08203
G1 X170.798 Y136.296 E0.09209
G1 X170.798 Y119.42 E0.7071
G1 X180.296 Y109.922 E0.56281
G1 X234.687 Y109.922 E2.27898
G1 X244.185 Y119.42 E0.56281
G1 X244.185 Y136.296 E0.7071
G1 X246.382 Y136.296 E0.09209
G1 X246.382 Y138.254 E0.08203
G1 X244.185 Y138.254 E0.09209
G1 X244.185 Y144.198 E0.24909
;WIPE_START
G1 X243.838 Y144.458 F9000
;WIPE_END
G1 E-0.8 F3000
M204 S1500
G1 X243.681 Y140.867 F9000
M204 S500
G1 X243.525 Y137.275
G1 E0.8 F1800
;TYPE:Gap fill
;WIDTH:0.758381
G1 F600
G1 X245.58 Y137.275 E0.14209
G1 X245.757 Y137.275 E0.01222
G1 E-0.8 F3000
M204 S1500
G1 X245.977 Y147.714 F9000
M204 S500
G1 X246.197 Y158.154
G1 E0.8 F1800
;WIDTH:0.758383
G1 F600
G1 X243.525 Y158.154 E0.18469
G1 E-0.8 F3000
M204 S1500
G1 X238.761 Y134.541 F9000
M204 S500
G1 X233.997 Y110.929
G1 E0.8 F1800
;TYPE:Solid infill
;WIDTH:0.479569
G1 X242.993 Y119.926 E0.53262
G1 X242.993 Y120.532 E0.02537
G1 X233.575 Y111.113 E0.55759
G1 X232.969 Y111.113 E0.02537
G1 X242.993 Y121.138 E0.59347
G1 X242.993 Y121.744 E0.02537
G1 X232.363 Y111.113 E0.62934
G1 X231.757 Y111.113 E0.02537
G1 X242.993 Y122.35 E0.66522
G1 X242.993 Y122.956 E0.02537
G1 X231.151 Y111.113 E0.7011
G1 X230.545 Y111.113 E0.02537
G1 X242.993 Y123.562 E0.73697
G1 X242.993 Y124.168 E0.02537
G1 X229.939 Y111.113 E0.77285
G1 X229.333 Y111.113 E0.02537
G1 X242.993 Y124.774 E0.80872
G1 X242.993 Y125.38 E0.02537
G1 X228.727 Y111.113 E0.8446
G1 X228.121 Y111.113 E0.02537
G1 X242.993 Y125.986 E0.88048
G1 X242.993 Y126.592 E0.02537
G1 X227.515 Y111.113 E0.91635
G1 X226.909 Y111.113 E0.02537
G1 X242.993 Y127.198 E0.95223
G1 X242.993 Y127.804 E0.02537
G1 X226.303 Y111.113 E0.9881
G1 X225.697 Y111.113 E0.02537
G1 X242.993 Y128.41 E1.02398
G1 X242.993 Y129.016 E0.02537
G1 X225.091 Y111.113 E1.05985
G1 X224.485 Y111.113 E0.02537
G1 X242.993 Y129.621 E1.09573
G1 X242.993 Y130.227 E0.02537
G1 X223.879 Y111.113 E1.13161
G1 X223.273 Y111.113 E0.02537
G1 X242.993 Y130.833 E1.16748
G1 X242.993 Y131.439 E0.02537
G1 X222.667 Y111.113 E1.20336
G1 X222.061 Y111.113 E0.02537
G1 X242.993 Y132.045 E1.23923
G1 X242.993 Y132.651 E0.02537
G1 X221.455 Y111.113 E1.27511
G1 X220.849 Y111.113 E0.02537
G1 X222.199 Y112.463 E0.07991
G1 X221.896 Y112.766 E0.01794
G1 X220.244 Y111.113 E0.09785
G1 X219.638 Y111.113 E0.02537
G1 X221.593 Y113.069 E0.11578
G1 X221.29 Y113.372 E0.01794
G1 X219.032 Y111.113 E0.13372
G1 X218.426 Y111.113 E0.02537
G1 X220.987 Y113.675 E0.15166
G1 X220.684 Y113.978 E0.01794
G1 X217.82 Y111.113 E0.1696
G1 X217.214 Y111.113 E0.02537
G1 X220.381 Y114.281 E0.18754
G1 X220.078 Y114.584 E0.01794
G1 X216.608 Y111.113 E0.20547
G1 X216.002 Y111.113 E0.02537
G1 X219.775 Y114.887 E0.22341
G1 X219.472 Y115.19 E0.01794
G1 X215.396 Y111.113 E0.24135
G1 X214.79 Y111.113 E0.02537
G1 X219.169 Y115.493 E0.25929
G1 X218.866 Y115.796 E0.01794
G1 X214.184 Y111.113 E0.27723
G1 X213.578 Y111.113 E0.02537
G1 X218.563 Y116.099 E0.29516
G1 X218.26 Y116.402 E0.01794
G1 X212.972 Y111.113 E0.3131
G1 X212.366 Y111.113 E0.02537
G1 X217.957 Y116.705 E0.33104
G1 X217.654 Y117.008 E0.01794
G1 X211.76 Y111.113 E0.34898
G1 X211.154 Y111.113 E0.02537
G1 X217.351 Y117.311 E0.36691
G1 X217.048 Y117.614 E0.01794
G1 X210.548 Y111.113 E0.38485
G1 X209.942 Y111.113 E0.02537
G1 X216.745 Y117.917 E0.40279
G1 X216.442 Y118.22 E0.01794
G1 X209.336 Y111.113 E0.42073
G1 X208.73 Y111.113 E0.02537
G1 X216.139 Y118.523 E0.43867
G1 X215.836 Y118.826 E0.01794
G1 X208.124 Y111.113 E0.4566
G1 X207.518 Y111.113 E0.02537
G1 X215.533 Y119.129 E0.47454
G1 X215.23 Y119.432 E0.01794
G1 X206.912 Y111.113 E0.49248
G1 X206.306 Y111.113 E0.02537
G1 X214.927 Y119.735 E0.51042
G1 X214.624 Y120.038 E0.01794
G1 X205.7 Y111.113 E0.52836
G1 X205.094 Y111.113 E0.02537
G1 X214.321 Y120.341 E0.54629
G1 X214.018 Y120.644 E0.01794
G1 X204.488 Y111.113 E0.56423
G1 X203.882 Y111.113 E0.02537
G1 X213.715 Y120.947 E0.58217
G1 X213.412 Y121.25 E0.01794
G1 X203.276 Y111.113 E0.60011
G1 X202.67 Y111.113 E0.02537
G1 X213.109 Y121.553 E0.61805
G1 X212.806 Y121.856 E0.01794
G1 X202.064 Y111.113 E0.63598
G1 X201.458 Y111.113 E0.02537
G1 X212.503 Y122.159 E0.65392
G1 X212.2 Y122.462 E0.01794
G1 X200.852 Y111.113 E0.67186
G1 X200.246 Y111.113 E0.02537
G1 X211.897 Y122.765 E0.6898
G1 X211.595 Y123.068 E0.01794
G1 X199.64 Y111.113 E0.70774
G1 X199.034 Y111.113 E0.02537
G1 X211.565 Y123.644 E0.74186
G1 X211.565 Y124.25 E0.02537
G1 X198.428 Y111.113 E0.77774
G1 X197.822 Y111.113 E0.02537
G1 X211.565 Y124.856 E0.81361
G1 X211.565 Y125.462 E0.02537
G1 X197.216 Y111.113 E0.84949
G1 X196.61 Y111.113 E0.02537
G1 X211.565 Y126.068 E0.88536
G1 X211.565 Y126.674 E0.02537
G1 X196.004 Y111.113 E0.92124
G1 X195.398 Y111.113 E0.02537
G1 X211.565 Y127.28 E0.95712
G1 X211.565 Y127.886 E0.02537
G1 X194.792 Y111.113 E0.99299
G1 X194.186 Y111.113 E0.02537
G1 X211.565 Y128.492 E1.02887
G1 X211.565 Y129.098 E0.02537
G1 X193.58 Y111.113 E1.06474
G1 X192.974 Y111.113 E0.02537
G1 X211.565 Y129.704 E1.10062
G1 X211.565 Y130.31 E0.02537
G1 X192.368 Y111.113 E1.1365
G1 X191.762 Y111.113 E0.02537
G1 X211.565 Y130.916 E1.17237
G1 X211.565 Y131.522 E0.02537
G1 X203.418 Y123.375 E0.48232
G1 X203.418 Y123.097 E0.01163
G1 X192.437 Y112.116 E0.65014
G1 X192.298 Y112.255 E0.00822
G1 X191.156 Y111.113 E0.06757
G1 X190.55 Y111.113 E0.02537
G1 X191.995 Y112.558 E0.08551
G1 X191.692 Y112.861 E0.01794
G1 X189.944 Y111.113 E0.10345
G1 X189.338 Y111.113 E0.02537
G1 X191.389 Y113.164 E0.12139
G1 X191.086 Y113.467 E0.01794
G1 X188.732 Y111.113 E0.13932
G1 X188.126 Y111.113 E0.02537
G1 X190.783 Y113.77 E0.15726
G1 X190.48 Y114.073 E0.01794
G1 X187.52 Y111.113 E0.1752
G1 X186.914 Y111.113 E0.02537
G1 X190.177 Y114.376 E0.19314
G1 X189.874 Y114.679 E0.01794
G1 X186.308 Y111.113 E0.21108
G1 X185.702 Y111.113 E0.02537
G1 X189.571 Y114.982 E0.22901
G1 X189.268 Y115.285 E0.01794
G1 X185.096 Y111.113 E0.24695
G1 X184.49 Y111.113 E0.02537
G1 X188.965 Y115.588 E0.26489
G1 X188.662 Y115.891 E0.01794
G1 X183.884 Y111.113 E0.28283
G1 X183.279 Y111.113 E0.02537
G1 X188.359 Y116.194 E0.30077
G1 X188.056 Y116.497 E0.01794
G1 X182.673 Y111.113 E0.3187
G1 X182.067 Y111.113 E0.02537
G1 X187.753 Y116.8 E0.33664
G1 X187.45 Y117.103 E0.01794
G1 X181.461 Y111.113 E0.35458
G1 X180.855 Y111.113 E0.02537
G1 X187.147 Y117.406 E0.37252
G1 X186.844 Y117.709 E0.01794
G1 X180.519 Y111.384 E0.37444
G1 X180.216 Y111.687 E0.01794
G1 X186.541 Y118.012 E0.37444
G1 X186.238 Y118.315 E0.01794
G1 X179.913 Y111.99 E0.37444
G1 X179.61 Y112.293 E0.01794
G1 X185.935 Y118.618 E0.37444
G1 X185.632 Y118.921 E0.01794
G1 X179.307 Y112.596 E0.37444
G1 X179.004 Y112.899 E0.01794
G1 X185.329 Y119.224 E0.37444
G1 X185.026 Y119.527 E0.01794
G1 X178.701 Y113.202 E0.37444
G1 X178.398 Y113.505 E0.01794
G1 X184.723 Y119.83 E0.37444
G1 X184.42 Y120.133 E0.01794
G1 X178.095 Y113.808 E0.37444
G1 X177.792 Y114.111 E0.01794
G1 X184.117 Y120.436 E0.37444
G1 X183.814 Y120.739 E0.01794
G1 X177.489 Y114.414 E0.37444
G1 X177.186 Y114.717 E0.01794
G1 X183.511 Y121.042 E0.37444
G1 X183.208 Y121.345 E0.01794
G1 X176.883 Y115.02 E0.37444
G1 X176.58 Y115.323 E0.01794
G1 X182.905 Y121.648 E0.37444
G1 X182.602 Y121.951 E0.01794
G1 X176.277 Y115.626 E0.37444
G1 X175.974 Y115.929 E0.01794
G1 X182.299 Y122.254 E0.37444
G1 X181.996 Y122.556 E0.01794
G1 X175.671 Y116.232 E0.37444
G1 X175.368 Y116.535 E0.01794
G1 X181.693 Y122.859 E0.37444
G1 X181.455 Y123.097 E0.01409
G1 X181.455 Y123.228 E0.00545
G1 X175.065 Y116.838 E0.37829
G1 X174.762 Y117.141 E0.01794
G1 X181.455 Y123.834 E0.39623
G1 X181.455 Y124.439 E0.02537
G1 X174.459 Y117.444 E0.41417
G1 X174.156 Y117.747 E0.01794
G1 X181.455 Y125.045 E0.4321
G1 X181.455 Y125.651 E0.02537
G1 X173.853 Y118.05 E0.45004
G1 X173.55 Y118.353 E0.01794
G1 X181.455 Y126.257 E0.46798
G1 X181.455 Y126.863 E0.02537
G1 X173.247 Y118.656 E0.48592
G1 X172.944 Y118.959 E0.01794
G1 X181.455 Y127.469 E0.50386
G1 X181.455 Y128.075 E0.02537
G1 X172.641 Y119.262 E0.52179
G1 X172.338 Y119.565 E0.01794
G1 X181.455 Y128.681 E0.53973
G1 X181.455 Y129.287 E0.02537
G1 X172.035 Y119.868 E0.55767
G1 X171.989 Y119.914 E0.00272
G1 X171.989 Y120.428 E0.02153
G1 X181.455 Y129.893 E0.56039
G1 X181.455 Y130.499 E0.02537
G1 X171.989 Y121.034 E0.56039
G1 X171.989 Y121.64 E0.02537
G1 X181.455 Y131.105 E0.56039
G1 X181.455 Y131.711 E0.02537
G1 X171.989 Y122.246 E0.56039
G1 X171.989 Y122.852 E0.02537
G1 X181.455 Y132.317 E0.56039
G1 X181.455 Y132.923 E0.02537
G1 X171.989 Y123.458 E0.56039
G1 X171.989 Y124.064 E0.02537
G1 X181.455 Y133.529 E0.56039
G1 X181.455 Y134.135 E0.02537
G1 X171.989 Y124.67 E0.56039
G1 X171.989 Y125.276 E0.02537
G1 X181.455 Y134.741 E0.56039
G1 X181.455 Y135.347 E0.02537
G1 X171.989 Y125.882 E0.56039
G1 X171.989 Y126.488 E0.02537
G1 X181.455 Y135.953 E0.56039
G1 X181.455 Y136.559 E0.02537
G1 X171.989 Y127.094 E0.56039
G1 X171.989 Y127.7 E0.02537
G1 X181.455 Y137.165 E0.56039
G1 X181.455 Y137.771 E0.02537
G1 X171.989 Y128.306 E0.56039
G1 X171.989 Y128.912 E0.02537
G1 X181.455 Y138.377 E0.56039
G1 X181.455 Y138.983 E0.02537
G1 X171.989 Y129.518 E0.56039
G1 X171.989 Y130.124 E0.02537
G1 X181.455 Y139.589 E0.56039
G1 X181.455 Y140.195 E0.02537
