; generated by SuperSlicer 2.3.56 on 2021-12-09 at 22:26:39 UTC


;
;

;
;
; 

; external perimeters extrusion width = 0.40mm
; perimeters extrusion width = 0.40mm
; infill extrusion width = 0.40mm
; solid infill extrusion width = 0.40mm
; top infill extrusion width = 0.40mm
; first layer extrusion width = 0.48mm


;TYPE:Custom
START_PRINT T_BED=60 T_EXTRUDER=200
M107
G21 ; set units to millimeters
G90 ; use absolute coordinates
M83 ; use relative distances for extrusion
; Filament gcode
M104 S200 ; set temperature
M109 S200 ; set temperature and wait for it to be reached
M190 S60 ; set bed temperature and wait for it to be reached
;LAYER_CHANGE
;Z:0.24
;HEIGHT:0.24
G1 Z0.240000 F12000.000
G1 E-0.80000 F3000.000
G1 X133.945 Y125.404 F12000.000
G1 E0.80000 F1500.000
;TYPE:Skirt
;WIDTH:0.48
G1 F600.000
G1 X135.797 Y123.633 E0.10955
G1 X137.699 Y122.019 E0.10663
G1 X139.876 Y120.388 E0.11631
G1 X141.953 Y119.018 E0.10640
G1 X144.176 Y117.735 E0.10972
G1 X146.467 Y116.589 E0.10955
G1 X148.756 Y115.609 E0.10646
G1 X151.316 Y114.691 E0.11624
G1 X153.710 Y113.993 E0.10663
G1 X156.208 Y113.423 E0.10955
G1 X158.740 Y113.002 E0.10972
G1 X161.216 Y112.741 E0.10646
G1 X163.904 Y112.618 E0.11504
G1 X166.426 Y112.657 E0.10784
G1 X168.909 Y112.842 E0.10646
G1 X171.604 Y113.207 E0.11631
G1 X174.046 Y113.690 E0.10640
G1 X176.530 Y114.335 E0.10972
G1 X178.966 Y115.127 E0.10955
G1 X181.288 Y116.037 E0.10663
G1 X183.757 Y117.181 E0.11631
G1 X185.947 Y118.361 E0.10640
G1 X188.131 Y119.710 E0.10972
G1 X190.226 Y121.185 E0.10955
G1 X192.176 Y122.739 E0.10663
G1 X194.198 Y124.559 E0.11631
G1 X195.943 Y126.333 E0.10640
G1 X197.632 Y128.266 E0.10972
G1 X199.199 Y130.293 E0.10955
G1 X200.605 Y132.353 E0.10663
G1 X202.000 Y134.688 E0.11631
G1 X203.146 Y136.897 E0.10640
G1 X204.189 Y139.242 E0.10972
G1 X205.090 Y141.641 E0.10955
G1 X205.826 Y144.023 E0.10663
G1 X206.471 Y146.666 E0.11631
G1 X206.914 Y149.115 E0.10640
G1 X207.220 Y151.663 E0.10972
G1 X207.373 Y154.221 E0.10955
G1 X207.375 Y156.711 E0.10646
G1 X207.212 Y159.430 E0.11648
G1 X206.913 Y161.901 E0.10640
G1 X206.455 Y164.426 E0.10972
G1 X205.848 Y166.915 E0.10955
G1 X205.114 Y169.299 E0.10663
G1 X204.160 Y171.840 E0.11607
G1 X203.144 Y174.118 E0.10663
G1 X201.962 Y176.396 E0.10972
G1 X200.648 Y178.596 E0.10955
G1 X199.244 Y180.657 E0.10663
G1 X197.580 Y182.809 E0.11631
G1 X195.942 Y184.682 E0.10640
G1 X194.144 Y186.507 E0.10955
G1 X192.173 Y188.277 E0.11322
G1 X190.227 Y189.827 E0.10640
G1 X188.128 Y191.304 E0.10972
G1 X185.949 Y192.651 E0.10955
G1 X183.753 Y193.834 E0.10663
G1 X181.285 Y194.978 E0.11631
G1 X178.968 Y195.886 E0.10640
G1 X176.527 Y196.679 E0.10972
G1 X174.047 Y197.323 E0.10955
G1 X171.604 Y197.806 E0.10646
G1 X168.910 Y198.171 E0.11624
G1 X166.423 Y198.356 E0.10663
G1 X163.897 Y198.395 E0.10801
G1 X161.216 Y198.272 E0.11476
G1 X158.741 Y198.011 E0.10640
G1 X156.209 Y197.590 E0.10972
G1 X153.711 Y197.020 E0.10955
G1 X151.317 Y196.322 E0.10663
G1 X148.756 Y195.404 E0.11631
G1 X146.469 Y194.425 E0.10640
G1 X144.173 Y193.277 E0.10972
G1 X141.954 Y191.996 E0.10955
G1 X139.872 Y190.623 E0.10663
G1 X137.696 Y188.991 E0.11631
G1 X135.798 Y187.381 E0.10640
G1 X133.946 Y185.611 E0.10955
G1 X132.148 Y183.667 E0.11322
G1 X130.568 Y181.744 E0.10640
G1 X129.060 Y179.668 E0.10972
G1 X127.680 Y177.509 E0.10955
G1 X126.465 Y175.331 E0.10663
G1 X125.284 Y172.880 E0.11631
G1 X124.342 Y170.577 E0.10640
G1 X123.512 Y168.148 E0.10972
G1 X122.831 Y165.678 E0.10955
G1 X122.311 Y163.239 E0.10663
G1 X121.906 Y160.549 E0.11631
G1 X121.684 Y158.070 E0.10640
G1 X121.607 Y155.505 E0.10972
G1 X121.684 Y152.944 E0.10955
G1 X121.906 Y150.460 E0.10663
G1 X122.312 Y147.770 E0.11631
G1 X122.830 Y145.336 E0.10640
G1 X123.513 Y142.863 E0.10972
G1 X124.341 Y140.438 E0.10955
G1 X125.284 Y138.133 E0.10646
G1 X126.464 Y135.684 E0.11624
G1 X127.679 Y133.506 E0.10663
G1 X129.059 Y131.347 E0.10955
G1 X130.618 Y129.206 E0.11322
G1 X132.200 Y127.285 E0.10640
G1 X133.904 Y125.448 E0.10716
G1 X134.218 Y125.739 F12000.000
G1 F600.000
G1 X134.249 Y125.705 E0.00196
G1 X136.086 Y123.950 E0.10863
G1 X137.973 Y122.349 E0.10580
G1 X140.112 Y120.745 E0.11429
G1 X142.177 Y119.383 E0.10579
G1 X144.377 Y118.113 E0.10863
G1 X146.650 Y116.976 E0.10863
G1 X148.925 Y116.003 E0.10580
G1 X151.441 Y115.101 E0.11429
G1 X153.816 Y114.408 E0.10579
G1 X156.293 Y113.843 E0.10863
G1 X158.800 Y113.427 E0.10863
G1 X161.261 Y113.167 E0.10580
G1 X163.901 Y113.047 E0.11302
G1 X166.405 Y113.085 E0.10706
G1 X168.876 Y113.269 E0.10596
G1 X171.522 Y113.628 E0.11413
G1 X173.949 Y114.107 E0.10579
G1 X176.408 Y114.746 E0.10863
G1 X178.824 Y115.531 E0.10863
G1 X181.132 Y116.436 E0.10596
G1 X183.550 Y117.556 E0.11397
G1 X185.732 Y118.731 E0.10596
G1 X187.893 Y120.067 E0.10863
G1 X189.971 Y121.529 E0.10863
G1 X191.909 Y123.074 E0.10596
G1 X193.893 Y124.860 E0.11413
G1 X195.628 Y126.623 E0.10579
G1 X197.300 Y128.537 E0.10863
G1 X198.854 Y130.547 E0.10863
G1 X200.249 Y132.591 E0.10580
G1 X201.618 Y134.882 E0.11412
G1 X202.759 Y137.082 E0.10596
G1 X203.792 Y139.403 E0.10863
G1 X204.685 Y141.782 E0.10863
G1 X205.416 Y144.149 E0.10596
G1 X206.049 Y146.743 E0.11413
G1 X206.490 Y149.178 E0.10579
G1 X206.793 Y151.700 E0.10863
G1 X206.945 Y154.236 E0.10863
G1 X206.946 Y156.711 E0.10580
G1 X206.787 Y159.375 E0.11412
G1 X206.490 Y161.835 E0.10596
G1 X206.036 Y164.335 E0.10863
G1 X205.434 Y166.804 E0.10863
G1 X204.704 Y169.172 E0.10596
G1 X203.768 Y171.668 E0.11397
G1 X202.759 Y173.931 E0.10596
G1 X201.589 Y176.186 E0.10863
G1 X200.286 Y178.367 E0.10863
G1 X198.892 Y180.412 E0.10580
G1 X197.260 Y182.524 E0.11412
G1 X195.629 Y184.390 E0.10596
G1 X193.848 Y186.197 E0.10847
G1 X191.906 Y187.942 E0.11162
G1 X189.971 Y189.484 E0.10579
G1 X187.890 Y190.948 E0.10878
G1 X185.732 Y192.282 E0.10847
G1 X183.554 Y193.455 E0.10580
G1 X181.128 Y194.579 E0.11429
G1 X178.825 Y195.482 E0.10579
G1 X176.408 Y196.267 E0.10863
G1 X173.949 Y196.906 E0.10863
G1 X171.522 Y197.385 E0.10580
G1 X168.877 Y197.744 E0.11412
G1 X166.405 Y197.928 E0.10596
G1 X163.898 Y197.966 E0.10721
G1 X161.261 Y197.846 E0.11287
G1 X158.800 Y197.587 E0.10579
G1 X156.294 Y197.170 E0.10863
G1 X153.817 Y196.605 E0.10863
G1 X151.441 Y195.912 E0.10580
G1 X148.925 Y195.010 E0.11429
G1 X146.650 Y194.037 E0.10579
G1 X144.378 Y192.900 E0.10863
G1 X142.177 Y191.630 E0.10863
G1 X140.109 Y190.266 E0.10596
G1 X137.973 Y188.664 E0.11413
G1 X136.086 Y187.064 E0.10579
G1 X134.250 Y185.308 E0.10863
G1 X132.479 Y183.395 E0.11146
G1 X130.908 Y181.483 E0.10579
G1 X129.414 Y179.428 E0.10863
G1 X128.047 Y177.287 E0.10863
G1 X126.839 Y175.123 E0.10596
G1 X125.681 Y172.717 E0.11413
G1 X124.744 Y170.428 E0.10579
G1 X123.922 Y168.023 E0.10863
G1 X123.246 Y165.574 E0.10863
G1 X122.731 Y163.154 E0.10580
G1 X122.333 Y160.511 E0.11429
G1 X122.112 Y158.046 E0.10579
G1 X122.036 Y155.507 E0.10863
G1 X122.117 Y152.901 E0.11146
G1 X122.339 Y150.437 E0.10579
G1 X122.718 Y147.924 E0.10863
G1 X123.246 Y145.439 E0.10863
G1 X123.905 Y143.050 E0.10596
G1 X124.768 Y140.524 E0.11413
G1 X125.707 Y138.235 E0.10579
G1 X126.809 Y135.946 E0.10863
G1 X128.047 Y133.727 E0.10863
G1 X129.378 Y131.641 E0.10580
G1 X130.949 Y129.478 E0.11429
G1 X132.521 Y127.568 E0.10579
G1 X134.177 Y125.783 E0.10410
G1 E-0.80000 F3000.000
G1 X136.604 Y128.034 F12000.000
G1 E0.80000 F1500.000
;TYPE:Internal perimeter
G1 F600.000
G1 X136.609 Y128.029 E0.00029
G1 X138.302 Y126.411 E0.10016
G1 X140.089 Y124.896 E0.10016
G1 X141.963 Y123.491 E0.10016
G1 X143.918 Y122.200 E0.10016
G1 X145.947 Y121.029 E0.10016
G1 X148.042 Y119.981 E0.10016
G1 X150.196 Y119.061 E0.10016
G1 X152.401 Y118.270 E0.10016
G1 X154.650 Y117.613 E0.10016
G1 X156.934 Y117.092 E0.10016
G1 X159.244 Y116.708 E0.10016
G1 X161.574 Y116.464 E0.10016
G1 X163.914 Y116.358 E0.10016
G1 X166.257 Y116.393 E0.10016
G1 X168.593 Y116.569 E0.10016
G1 X170.914 Y116.883 E0.10016
G1 X173.212 Y117.336 E0.10016
G1 X175.479 Y117.925 E0.10016
G1 X177.707 Y118.649 E0.10016
G1 X179.888 Y119.505 E0.10016
G1 X182.013 Y120.489 E0.10016
G1 X184.076 Y121.599 E0.10016
G1 X186.069 Y122.831 E0.10016
G1 X187.985 Y124.179 E0.10016
G1 X189.816 Y125.640 E0.10016
G1 X191.557 Y127.207 E0.10016
G1 X193.201 Y128.876 E0.10016
G1 X194.742 Y130.640 E0.10016
G1 X196.175 Y132.493 E0.10016
G1 X197.495 Y134.429 E0.10016
G1 X198.696 Y136.440 E0.10016
G1 X199.775 Y138.519 E0.10016
G1 X200.728 Y140.659 E0.10016
G1 X201.551 Y142.852 E0.10016
G1 X202.242 Y145.091 E0.10016
G1 X202.797 Y147.366 E0.10016
G1 X203.215 Y149.671 E0.10016
G1 X203.495 Y151.997 E0.10016
G1 X203.635 Y154.335 E0.10016
G1 X203.635 Y156.678 E0.10016
G1 X203.495 Y159.016 E0.10016
G1 X203.215 Y161.342 E0.10016
G1 X202.797 Y163.647 E0.10016
G1 X202.242 Y165.923 E0.10016
G1 X201.551 Y168.161 E0.10016
G1 X200.728 Y170.354 E0.10016
G1 X199.775 Y172.494 E0.10016
G1 X198.696 Y174.573 E0.10016
G1 X197.495 Y176.584 E0.10016
G1 X196.175 Y178.520 E0.10016
G1 X194.742 Y180.373 E0.10016
G1 X193.201 Y182.137 E0.10016
G1 X191.557 Y183.806 E0.10016
G1 X189.816 Y185.373 E0.10016
G1 X187.985 Y186.834 E0.10016
G1 X186.069 Y188.182 E0.10016
G1 X184.076 Y189.414 E0.10016
G1 X182.013 Y190.524 E0.10016
G1 X179.888 Y191.508 E0.10016
G1 X177.707 Y192.364 E0.10016
G1 X175.479 Y193.088 E0.10016
G1 X173.212 Y193.677 E0.10016
G1 X170.914 Y194.130 E0.10016
G1 X168.593 Y194.445 E0.10016
G1 X166.257 Y194.620 E0.10016
G1 X163.914 Y194.655 E0.10016
G1 X161.574 Y194.550 E0.10016
G1 X159.244 Y194.305 E0.10016
G1 X156.934 Y193.921 E0.10016
G1 X154.650 Y193.400 E0.10016
G1 X152.401 Y192.743 E0.10016
G1 X150.196 Y191.953 E0.10016
G1 X148.042 Y191.032 E0.10016
G1 X145.947 Y189.984 E0.10016
G1 X143.918 Y188.813 E0.10016
G1 X141.963 Y187.522 E0.10016
G1 X140.089 Y186.117 E0.10016
G1 X138.302 Y184.603 E0.10016
G1 X136.609 Y182.984 E0.10016
G1 X135.015 Y181.267 E0.10016
G1 X133.528 Y179.457 E0.10016
G1 X132.151 Y177.562 E0.10016
G1 X130.890 Y175.588 E0.10016
G1 X129.749 Y173.542 E0.10016
G1 X128.732 Y171.431 E0.10016
G1 X127.844 Y169.264 E0.10016
G1 X127.087 Y167.047 E0.10016
G1 X126.464 Y164.789 E0.10016
G1 X125.977 Y162.498 E0.10016
G1 X125.628 Y160.181 E0.10016
G1 X125.418 Y157.848 E0.10016
G1 X125.347 Y155.507 E0.10016
G1 X125.418 Y153.165 E0.10016
G1 X125.628 Y150.832 E0.10016
G1 X125.977 Y148.516 E0.10016
G1 X126.464 Y146.224 E0.10016
G1 X127.087 Y143.966 E0.10016
G1 X127.844 Y141.749 E0.10016
G1 X128.732 Y139.582 E0.10016
G1 X129.749 Y137.471 E0.10016
G1 X130.890 Y135.425 E0.10016
G1 X132.151 Y133.451 E0.10016
G1 X133.528 Y131.556 E0.10016
G1 X135.015 Y129.747 E0.10016
G1 X136.563 Y128.078 E0.09730
G1 X136.249 Y127.787 F12000.000
G1 F600.000
G1 X136.303 Y127.729 E0.00341
G1 X138.015 Y126.092 E0.10125
G1 X139.822 Y124.561 E0.10125
G1 X141.716 Y123.140 E0.10125
G1 X143.693 Y121.836 E0.10125
G1 X145.744 Y120.652 E0.10125
G1 X147.862 Y119.592 E0.10125
G1 X150.039 Y118.661 E0.10125
G1 X152.269 Y117.863 E0.10125
G1 X154.542 Y117.198 E0.10125
G1 X156.851 Y116.672 E0.10125
G1 X159.187 Y116.284 E0.10125
G1 X161.542 Y116.036 E0.10125
G1 X163.908 Y115.930 E0.10125
G1 X166.276 Y115.965 E0.10125
G1 X168.637 Y116.142 E0.10125
G1 X170.984 Y116.460 E0.10125
G1 X173.308 Y116.918 E0.10125
G1 X175.600 Y117.514 E0.10125
G1 X177.852 Y118.245 E0.10125
G1 X180.056 Y119.111 E0.10125
G1 X182.205 Y120.106 E0.10125
G1 X184.291 Y121.228 E0.10125
G1 X186.305 Y122.473 E0.10125
G1 X188.242 Y123.836 E0.10125
G1 X190.093 Y125.313 E0.10125
G1 X191.853 Y126.897 E0.10125
G1 X193.515 Y128.585 E0.10125
G1 X195.073 Y130.368 E0.10125
G1 X196.522 Y132.241 E0.10125
G1 X197.856 Y134.198 E0.10125
G1 X199.071 Y136.231 E0.10125
G1 X200.161 Y138.333 E0.10125
G1 X201.125 Y140.496 E0.10125
G1 X201.957 Y142.714 E0.10125
G1 X202.655 Y144.977 E0.10125
G1 X203.216 Y147.277 E0.10125
G1 X203.639 Y149.607 E0.10125
G1 X203.922 Y151.959 E0.10125
G1 X204.063 Y154.322 E0.10125
G1 X204.063 Y156.691 E0.10125
G1 X203.922 Y159.055 E0.10125
G1 X203.639 Y161.406 E0.10125
G1 X203.216 Y163.736 E0.10125
G1 X202.655 Y166.037 E0.10125
G1 X201.957 Y168.300 E0.10125
G1 X201.125 Y170.517 E0.10125
G1 X200.161 Y172.680 E0.10125
G1 X199.071 Y174.782 E0.10125
G1 X197.856 Y176.815 E0.10125
G1 X196.522 Y178.772 E0.10125
G1 X195.073 Y180.645 E0.10125
G1 X193.515 Y182.429 E0.10125
G1 X191.853 Y184.116 E0.10125
G1 X190.093 Y185.700 E0.10125
G1 X188.242 Y187.177 E0.10125
G1 X186.305 Y188.540 E0.10125
G1 X184.291 Y189.785 E0.10125
G1 X182.205 Y190.907 E0.10125
G1 X180.056 Y191.903 E0.10125
G1 X177.852 Y192.768 E0.10125
G1 X175.600 Y193.500 E0.10125
G1 X173.308 Y194.095 E0.10125
G1 X170.984 Y194.553 E0.10125
G1 X168.637 Y194.871 E0.10125
G1 X166.276 Y195.048 E0.10125
G1 X163.908 Y195.083 E0.10125
G1 X161.542 Y194.977 E0.10125
G1 X159.187 Y194.730 E0.10125
G1 X156.851 Y194.342 E0.10125
G1 X154.542 Y193.815 E0.10125
G1 X152.269 Y193.151 E0.10125
G1 X150.039 Y192.352 E0.10125
G1 X147.862 Y191.421 E0.10125
G1 X145.744 Y190.362 E0.10125
G1 X143.693 Y189.178 E0.10125
G1 X141.716 Y187.873 E0.10125
G1 X139.822 Y186.452 E0.10125
G1 X138.015 Y184.921 E0.10125
G1 X136.303 Y183.285 E0.10125
G1 X134.693 Y181.549 E0.10125
G1 X133.188 Y179.719 E0.10125
G1 X131.796 Y177.803 E0.10125
G1 X130.522 Y175.808 E0.10125
G1 X129.368 Y173.739 E0.10125
G1 X128.341 Y171.606 E0.10125
G1 X127.443 Y169.414 E0.10125
G1 X126.677 Y167.173 E0.10125
G1 X126.047 Y164.890 E0.10125
G1 X125.555 Y162.574 E0.10125
G1 X125.202 Y160.232 E0.10125
G1 X124.990 Y157.874 E0.10125
G1 X124.919 Y155.507 E0.10125
G1 X124.990 Y153.139 E0.10125
G1 X125.202 Y150.781 E0.10125
G1 X125.555 Y148.439 E0.10125
G1 X126.047 Y146.123 E0.10125
G1 X126.677 Y143.840 E0.10125
G1 X127.443 Y141.599 E0.10125
G1 X128.341 Y139.407 E0.10125
G1 X129.368 Y137.274 E0.10125
G1 X130.522 Y135.205 E0.10125
G1 X131.796 Y133.210 E0.10125
G1 X133.188 Y131.294 E0.10125
G1 X134.693 Y129.465 E0.10125
G1 X136.208 Y127.831 E0.09528
G1 X135.894 Y127.540 F12000.000
;TYPE:External perimeter
G1 F600.000
G1 X135.998 Y127.428 E0.00652
G1 X137.728 Y125.773 E0.10235
G1 X139.554 Y124.226 E0.10235
G1 X141.470 Y122.790 E0.10235
G1 X143.467 Y121.471 E0.10235
G1 X145.541 Y120.274 E0.10235
G1 X147.682 Y119.203 E0.10235
G1 X149.883 Y118.262 E0.10235
G1 X152.136 Y117.455 E0.10235
G1 X154.434 Y116.784 E0.10235
G1 X156.768 Y116.251 E0.10235
G1 X159.129 Y115.859 E0.10235
G1 X161.510 Y115.609 E0.10235
G1 X163.901 Y115.501 E0.10235
G1 X166.295 Y115.537 E0.10235
G1 X168.682 Y115.716 E0.10235
G1 X171.054 Y116.037 E0.10235
G1 X173.403 Y116.500 E0.10235
G1 X175.720 Y117.102 E0.10235
G1 X177.997 Y117.842 E0.10235
G1 X180.225 Y118.716 E0.10235
G1 X182.397 Y119.723 E0.10235
G1 X184.505 Y120.857 E0.10235
G1 X186.541 Y122.115 E0.10235
G1 X188.499 Y123.493 E0.10235
G1 X190.370 Y124.986 E0.10235
G1 X192.149 Y126.588 E0.10235
G1 X193.829 Y128.293 E0.10235
G1 X195.404 Y130.096 E0.10235
G1 X196.869 Y131.989 E0.10235
G1 X198.217 Y133.967 E0.10235
G1 X199.445 Y136.022 E0.10235
G1 X200.548 Y138.147 E0.10235
G1 X201.521 Y140.334 E0.10235
G1 X202.362 Y142.575 E0.10235
G1 X203.068 Y144.862 E0.10235
G1 X203.636 Y147.188 E0.10235
G1 X204.063 Y149.543 E0.10235
G1 X204.349 Y151.920 E0.10235
G1 X204.492 Y154.310 E0.10235
G1 X204.492 Y156.703 E0.10235
G1 X204.349 Y159.093 E0.10235
G1 X204.063 Y161.470 E0.10235
G1 X203.636 Y163.825 E0.10235
G1 X203.068 Y166.151 E0.10235
G1 X202.362 Y168.438 E0.10235
G1 X201.521 Y170.679 E0.10235
G1 X200.548 Y172.866 E0.10235
G1 X199.445 Y174.991 E0.10235
G1 X198.217 Y177.046 E0.10235
G1 X196.869 Y179.024 E0.10235
G1 X195.404 Y180.917 E0.10235
G1 X193.829 Y182.720 E0.10235
G1 X192.149 Y184.426 E0.10235
G1 X190.370 Y186.027 E0.10235
G1 X188.499 Y187.520 E0.10235
G1 X186.541 Y188.898 E0.10235
G1 X184.505 Y190.156 E0.10235
G1 X182.397 Y191.291 E0.10235
G1 X180.225 Y192.297 E0.10235
G1 X177.997 Y193.171 E0.10235
G1 X175.720 Y193.911 E0.10235
G1 X173.403 Y194.513 E0.10235
G1 X171.054 Y194.976 E0.10235
G1 X168.682 Y195.297 E0.10235
G1 X166.295 Y195.476 E0.10235
G1 X163.901 Y195.512 E0.10235
G1 X161.510 Y195.405 E0.10235
G1 X159.129 Y195.154 E0.10235
G1 X156.768 Y194.762 E0.10235
G1 X154.434 Y194.230 E0.10235
G1 X152.136 Y193.558 E0.10235
G1 X149.883 Y192.751 E0.10235
G1 X147.682 Y191.810 E0.10235
