; generated by SuperSlicer 2.3.56 on 2021-12-09 at 22:34:01 UTC


;
;

;
;
; 

; external perimeters extrusion width = 0.40mm
; perimeters extrusion width = 0.40mm
; infill extrusion width = 0.40mm
; solid infill extrusion width = 0.40mm
; top infill extrusion width = 0.40mm
; first layer extrusion width = 0.48mm


;TYPE:Custom
START_PRINT T_BED=70 T_EXTRUDER=235
M107
G21 ; set units to millimeters
G90 ; use absolute coordinates
M83 ; use relative distances for extrusion
M104 S235 ; set temperature
M109 S235 ; set temperature and wait for it to be reached
M190 S70 ; set bed temperature and wait for it to be reached
;LAYER_CHANGE
;Z:0.24
;HEIGHT:0.24
G1 Z0.240000 F12000.000
G1 E-1.50000 F3000.000
G1 X132.292 Y122.923 F12000.000
G1 E1.50000 F1800.000
;TYPE:Skirt
;WIDTH:0.48
G1 F600.000
G1 X135.386 Y120.131 E0.17819
G1 X137.014 Y118.851 E0.08853
G1 X139.510 Y117.106 E0.13023
G1 X143.104 Y114.993 E0.17821
G1 X146.877 Y113.215 E0.17836
G1 X149.726 Y112.137 E0.13023
G1 X151.701 Y111.514 E0.08853
G1 X155.752 Y110.533 E0.17821
G1 X159.879 Y109.923 E0.17836
G1 X162.917 Y109.717 E0.13023
G1 X164.992 Y109.692 E0.08870
G1 X167.089 Y109.763 E0.08973
G1 X169.181 Y109.929 E0.08971
G1 X172.199 Y110.341 E0.13023
G1 X174.232 Y110.735 E0.08853
G1 X178.255 Y111.803 E0.17796
G1 X182.175 Y113.237 E0.17846
G1 X184.070 Y114.080 E0.08868
G1 X186.779 Y115.472 E0.13023
G1 X190.325 Y117.663 E0.17821
G1 X193.660 Y120.169 E0.17836
G1 X195.227 Y121.523 E0.08853
G1 X197.416 Y123.639 E0.13023
G1 X200.176 Y126.763 E0.17821
G1 X202.642 Y130.128 E0.17836
G1 X204.244 Y132.719 E0.13023
G1 X205.233 Y134.538 E0.08853
G1 X206.970 Y138.327 E0.17821
G1 X208.356 Y142.262 E0.17836
G1 X208.909 Y144.257 E0.08853
G1 X209.558 Y147.233 E0.13023
G1 X210.123 Y151.362 E0.17821
G1 X210.310 Y155.530 E0.17836
G1 X210.207 Y158.574 E0.13023
G1 X210.021 Y160.636 E0.08853
G1 X209.366 Y164.753 E0.17821
G1 X208.338 Y168.796 E0.17836
G1 X207.693 Y170.763 E0.08853
G1 X206.583 Y173.600 E0.13023
G1 X204.764 Y177.350 E0.17821
G1 X202.609 Y180.922 E0.17836
G1 X200.836 Y183.398 E0.13023
G1 X199.538 Y185.012 E0.08853
G1 X196.708 Y188.077 E0.17838
G1 X195.182 Y189.517 E0.08971
G1 X192.854 Y191.481 E0.13023
G1 X189.466 Y193.910 E0.17821
G1 X185.868 Y196.021 E0.17836
G1 X183.128 Y197.352 E0.13023
G1 X181.218 Y198.151 E0.08853
G1 X177.272 Y199.494 E0.17822
G1 X173.217 Y200.473 E0.17835
G1 X171.176 Y200.821 E0.08853
G1 X168.150 Y201.165 E0.13023
G1 X163.984 Y201.308 E0.17821
G1 X159.819 Y201.071 E0.17836
G1 X157.765 Y200.812 E0.08853
G1 X154.769 Y200.265 E0.13023
G1 X150.740 Y199.195 E0.17821
G1 X146.822 Y197.762 E0.17836
G1 X144.930 Y196.920 E0.08853
G1 X142.221 Y195.528 E0.13023
G1 X138.672 Y193.335 E0.17838
G1 X135.340 Y190.831 E0.17819
G1 X133.057 Y188.815 E0.13023
G1 X131.584 Y187.361 E0.08853
G1 X128.824 Y184.237 E0.17821
G1 X126.358 Y180.872 E0.17836
G1 X124.756 Y178.281 E0.13023
G1 X123.767 Y176.462 E0.08853
G1 X122.030 Y172.673 E0.17821
G1 X120.644 Y168.738 E0.17836
G1 X119.861 Y165.795 E0.13023
G1 X119.442 Y163.767 E0.08853
G1 X118.877 Y159.638 E0.17821
G1 X118.690 Y155.470 E0.17836
G1 X118.738 Y153.400 E0.08853
G1 X118.979 Y150.364 E0.13022
G1 X119.634 Y146.247 E0.17821
G1 X120.662 Y142.204 E0.17836
G1 X121.642 Y139.321 E0.13023
G1 X122.417 Y137.401 E0.08853
G1 X124.236 Y133.650 E0.17821
G1 X126.391 Y130.078 E0.17836
G1 X127.580 Y128.380 E0.08865
G1 X129.462 Y125.988 E0.13010
G1 X132.252 Y122.967 E0.17582
G1 X132.566 Y123.257 F12000.000
G1 F600.000
G1 X132.592 Y123.229 E0.00167
G1 X135.655 Y120.465 E0.17640
G1 X137.268 Y119.197 E0.08770
G1 X139.748 Y117.463 E0.12940
G1 X143.306 Y115.371 E0.17645
G1 X147.038 Y113.612 E0.17640
G1 X149.869 Y112.541 E0.12940
G1 X151.825 Y111.924 E0.08770
G1 X155.836 Y110.953 E0.17646
G1 X159.917 Y110.350 E0.17640
G1 X162.937 Y110.145 E0.12940
G1 X164.991 Y110.121 E0.08786
G1 X169.133 Y110.355 E0.17734
G1 X172.131 Y110.764 E0.12940
G1 X174.145 Y111.155 E0.08770
G1 X178.128 Y112.213 E0.17621
G1 X182.006 Y113.631 E0.17655
G1 X183.882 Y114.465 E0.08780
G1 X186.574 Y115.849 E0.12940
G1 X190.085 Y118.018 E0.17645
G1 X193.384 Y120.496 E0.17639
G1 X194.936 Y121.837 E0.08770
G1 X197.112 Y123.941 E0.12940
G1 X199.844 Y127.034 E0.17646
G1 X202.283 Y130.361 E0.17639
G1 X203.875 Y132.936 E0.12940
G1 X204.854 Y134.738 E0.08770
G1 X206.573 Y138.490 E0.17646
G1 X207.944 Y142.381 E0.17639
G1 X208.493 Y144.358 E0.08770
G1 X209.138 Y147.314 E0.12940
G1 X209.697 Y151.404 E0.17646
G1 X209.882 Y155.523 E0.17630
G1 X209.834 Y157.576 E0.08780
G1 X209.595 Y160.593 E0.12940
G1 X208.946 Y164.668 E0.17646
G1 X207.930 Y168.667 E0.17639
G1 X207.290 Y170.616 E0.08770
G1 X206.188 Y173.434 E0.12940
G1 X204.386 Y177.148 E0.17646
G1 X202.255 Y180.680 E0.17640
G1 X200.493 Y183.141 E0.12940
G1 X199.207 Y184.739 E0.08770
G1 X196.408 Y187.771 E0.17646
G1 X194.900 Y189.195 E0.08864
G1 X192.585 Y191.147 E0.12950
G1 X189.231 Y193.552 E0.17646
G1 X185.673 Y195.640 E0.17639
G1 X182.950 Y196.962 E0.12940
G1 X181.058 Y197.753 E0.08770
G1 X177.150 Y199.083 E0.17646
G1 X173.143 Y200.051 E0.17629
G1 X171.118 Y200.397 E0.08780
G1 X168.111 Y200.738 E0.12940
G1 X163.986 Y200.879 E0.17646
G1 X159.867 Y200.645 E0.17639
G1 X157.832 Y200.389 E0.08770
G1 X154.855 Y199.845 E0.12940
G1 X150.866 Y198.786 E0.17646
G1 X146.992 Y197.368 E0.17639
G1 X145.118 Y196.535 E0.08770
G1 X142.426 Y195.151 E0.12940
G1 X138.915 Y192.982 E0.17646
G1 X135.616 Y190.504 E0.17639
G1 X133.348 Y188.501 E0.12940
G1 X131.888 Y187.059 E0.08770
G1 X129.156 Y183.966 E0.17646
G1 X126.717 Y180.639 E0.17640
G1 X125.125 Y178.064 E0.12940
G1 X124.146 Y176.262 E0.08770
G1 X122.427 Y172.510 E0.17646
G1 X121.056 Y168.619 E0.17640
G1 X120.278 Y165.694 E0.12940
G1 X119.862 Y163.686 E0.08770
G1 X119.303 Y159.596 E0.17646
G1 X119.118 Y155.475 E0.17639
G1 X119.166 Y153.424 E0.08770
G1 X119.405 Y150.407 E0.12940
G1 X120.054 Y146.332 E0.17646
G1 X121.070 Y142.333 E0.17639
G1 X122.044 Y139.468 E0.12940
G1 X122.812 Y137.566 E0.08770
G1 X124.614 Y133.852 E0.17646
G1 X126.745 Y130.320 E0.17639
G1 X127.923 Y128.637 E0.08782
G1 X129.793 Y126.261 E0.12927
G1 X132.525 Y123.301 E0.17222
G1 E-1.50000 F3000.000
G1 X134.877 Y125.627 F12000.000
G1 E1.50000 F1800.000
;TYPE:Internal perimeter
G1 F600.000
G1 X134.920 Y125.584 E0.00260
G1 X135.604 Y124.923 E0.04065
G1 X136.302 Y124.278 E0.04065
G1 X137.015 Y123.649 E0.04065
G1 X137.742 Y123.036 E0.04065
G1 X138.482 Y122.439 E0.04065
G1 X139.236 Y121.860 E0.04065
G1 X140.003 Y121.297 E0.04065
G1 X140.782 Y120.752 E0.04065
G1 X141.573 Y120.225 E0.04065
G1 X142.376 Y119.716 E0.04065
G1 X143.191 Y119.225 E0.04065
G1 X144.016 Y118.753 E0.04065
G1 X144.852 Y118.299 E0.04065
G1 X145.697 Y117.865 E0.04065
G1 X146.553 Y117.450 E0.04065
G1 X147.417 Y117.054 E0.04065
G1 X148.291 Y116.677 E0.04065
G1 X149.172 Y116.321 E0.04065
G1 X150.061 Y115.985 E0.04065
G1 X150.958 Y115.668 E0.04065
G1 X151.862 Y115.373 E0.04065
G1 X152.772 Y115.097 E0.04065
G1 X153.688 Y114.842 E0.04065
G1 X154.609 Y114.608 E0.04065
G1 X155.536 Y114.395 E0.04065
G1 X156.467 Y114.203 E0.04065
G1 X157.403 Y114.032 E0.04065
G1 X158.342 Y113.882 E0.04065
G1 X159.284 Y113.754 E0.04065
G1 X160.229 Y113.647 E0.04065
G1 X161.175 Y113.561 E0.04065
G1 X162.124 Y113.496 E0.04065
G1 X163.074 Y113.453 E0.04065
G1 X164.025 Y113.432 E0.04065
G1 X164.975 Y113.432 E0.04065
G1 X165.926 Y113.453 E0.04065
G1 X166.876 Y113.496 E0.04065
G1 X167.825 Y113.561 E0.04065
G1 X168.771 Y113.647 E0.04065
G1 X169.716 Y113.754 E0.04065
G1 X170.658 Y113.882 E0.04065
G1 X171.597 Y114.032 E0.04065
G1 X172.533 Y114.203 E0.04065
G1 X173.464 Y114.395 E0.04065
G1 X174.391 Y114.608 E0.04065
G1 X175.312 Y114.842 E0.04065
G1 X176.228 Y115.097 E0.04066
G1 X177.133 Y115.371 E0.04041
G1 X178.042 Y115.668 E0.04089
G1 X178.939 Y115.985 E0.04065
G1 X179.828 Y116.321 E0.04065
G1 X180.709 Y116.677 E0.04065
G1 X181.583 Y117.054 E0.04065
G1 X182.447 Y117.450 E0.04065
G1 X183.303 Y117.865 E0.04065
G1 X184.148 Y118.299 E0.04065
G1 X184.984 Y118.753 E0.04065
G1 X185.809 Y119.225 E0.04065
G1 X186.624 Y119.716 E0.04065
G1 X187.427 Y120.225 E0.04065
G1 X188.218 Y120.752 E0.04065
G1 X188.997 Y121.297 E0.04065
G1 X189.764 Y121.860 E0.04065
G1 X190.518 Y122.439 E0.04065
G1 X191.258 Y123.036 E0.04065
G1 X191.985 Y123.649 E0.04065
G1 X192.698 Y124.278 E0.04065
G1 X193.396 Y124.923 E0.04065
G1 X194.080 Y125.584 E0.04065
G1 X194.748 Y126.260 E0.04065
G1 X195.402 Y126.951 E0.04065
G1 X196.039 Y127.657 E0.04065
G1 X196.660 Y128.377 E0.04065
G1 X197.265 Y129.110 E0.04065
G1 X197.853 Y129.858 E0.04065
G1 X198.424 Y130.618 E0.04065
G1 X198.977 Y131.391 E0.04065
G1 X199.513 Y132.176 E0.04065
G1 X200.032 Y132.973 E0.04065
G1 X200.532 Y133.782 E0.04065
G1 X201.013 Y134.602 E0.04065
G1 X201.476 Y135.433 E0.04065
G1 X201.920 Y136.273 E0.04065
G1 X202.345 Y137.124 E0.04065
G1 X202.751 Y137.984 E0.04065
G1 X203.137 Y138.853 E0.04065
G1 X203.503 Y139.730 E0.04065
G1 X203.850 Y140.616 E0.04065
G1 X204.176 Y141.509 E0.04065
G1 X204.482 Y142.409 E0.04065
G1 X204.768 Y143.316 E0.04065
G1 X205.033 Y144.229 E0.04065
G1 X205.277 Y145.148 E0.04065
G1 X205.501 Y146.072 E0.04065
G1 X205.703 Y147.001 E0.04065
G1 X205.885 Y147.935 E0.04065
G1 X206.045 Y148.872 E0.04065
G1 X206.184 Y149.812 E0.04065
G1 X206.302 Y150.756 E0.04065
G1 X206.399 Y151.702 E0.04065
G1 X206.474 Y152.650 E0.04065
G1 X206.528 Y153.599 E0.04065
G1 X206.560 Y154.549 E0.04065
G1 X206.571 Y155.500 E0.04065
G1 X206.560 Y156.451 E0.04065
G1 X206.528 Y157.401 E0.04065
G1 X206.474 Y158.350 E0.04065
G1 X206.399 Y159.298 E0.04065
G1 X206.302 Y160.244 E0.04065
G1 X206.184 Y161.188 E0.04065
G1 X206.045 Y162.128 E0.04065
G1 X205.885 Y163.065 E0.04065
G1 X205.703 Y163.999 E0.04065
G1 X205.501 Y164.928 E0.04065
G1 X205.277 Y165.852 E0.04065
G1 X205.033 Y166.771 E0.04065
G1 X204.768 Y167.684 E0.04065
G1 X204.482 Y168.591 E0.04065
G1 X204.176 Y169.491 E0.04065
G1 X203.850 Y170.384 E0.04065
G1 X203.503 Y171.270 E0.04065
G1 X203.137 Y172.147 E0.04065
G1 X202.751 Y173.016 E0.04065
G1 X202.345 Y173.876 E0.04065
G1 X201.920 Y174.727 E0.04065
G1 X201.476 Y175.567 E0.04065
G1 X201.013 Y176.398 E0.04065
G1 X200.532 Y177.218 E0.04065
G1 X200.032 Y178.027 E0.04065
G1 X199.513 Y178.824 E0.04065
G1 X198.977 Y179.609 E0.04065
G1 X198.424 Y180.382 E0.04065
G1 X197.853 Y181.142 E0.04065
G1 X197.265 Y181.890 E0.04065
G1 X196.660 Y182.623 E0.04065
G1 X196.039 Y183.343 E0.04065
G1 X195.402 Y184.049 E0.04065
G1 X194.748 Y184.740 E0.04065
G1 X194.080 Y185.416 E0.04065
G1 X193.396 Y186.077 E0.04065
G1 X192.698 Y186.722 E0.04065
G1 X191.985 Y187.351 E0.04065
G1 X191.258 Y187.964 E0.04065
G1 X190.518 Y188.561 E0.04065
G1 X189.764 Y189.140 E0.04065
G1 X188.997 Y189.703 E0.04065
G1 X188.218 Y190.248 E0.04065
G1 X187.427 Y190.775 E0.04065
G1 X186.624 Y191.284 E0.04065
G1 X185.809 Y191.775 E0.04065
G1 X184.984 Y192.247 E0.04065
G1 X184.148 Y192.701 E0.04065
G1 X183.303 Y193.135 E0.04065
G1 X182.447 Y193.550 E0.04065
G1 X181.583 Y193.946 E0.04065
G1 X180.709 Y194.323 E0.04065
G1 X179.828 Y194.679 E0.04065
G1 X178.939 Y195.015 E0.04065
G1 X178.042 Y195.332 E0.04065
G1 X177.133 Y195.629 E0.04089
G1 X176.228 Y195.903 E0.04041
G1 X175.312 Y196.158 E0.04066
G1 X174.391 Y196.392 E0.04065
G1 X173.464 Y196.605 E0.04065
G1 X172.533 Y196.797 E0.04065
G1 X171.597 Y196.968 E0.04065
G1 X170.658 Y197.118 E0.04065
G1 X169.716 Y197.246 E0.04065
G1 X168.771 Y197.353 E0.04065
G1 X167.825 Y197.439 E0.04065
G1 X166.876 Y197.504 E0.04065
G1 X165.926 Y197.547 E0.04065
G1 X164.975 Y197.568 E0.04065
G1 X164.025 Y197.568 E0.04065
G1 X163.074 Y197.547 E0.04065
G1 X162.124 Y197.504 E0.04065
G1 X161.175 Y197.439 E0.04065
G1 X160.229 Y197.353 E0.04065
G1 X159.284 Y197.246 E0.04065
G1 X158.342 Y197.118 E0.04065
G1 X157.403 Y196.968 E0.04065
G1 X156.467 Y196.797 E0.04065
G1 X155.536 Y196.605 E0.04065
G1 X154.609 Y196.392 E0.04065
G1 X153.688 Y196.158 E0.04065
G1 X152.772 Y195.903 E0.04065
G1 X151.862 Y195.627 E0.04065
G1 X150.958 Y195.332 E0.04065
G1 X150.061 Y195.015 E0.04065
G1 X149.172 Y194.679 E0.04065
G1 X148.291 Y194.323 E0.04065
G1 X147.417 Y193.946 E0.04065
G1 X146.553 Y193.550 E0.04065
G1 X145.697 Y193.135 E0.04065
G1 X144.852 Y192.701 E0.04065
G1 X144.016 Y192.247 E0.04065
G1 X143.191 Y191.775 E0.04065
G1 X142.376 Y191.284 E0.04065
G1 X141.573 Y190.775 E0.04065
G1 X140.782 Y190.248 E0.04065
G1 X140.003 Y189.703 E0.04065
G1 X139.236 Y189.140 E0.04065
G1 X138.482 Y188.561 E0.04065
G1 X137.742 Y187.964 E0.04065
G1 X137.015 Y187.351 E0.04065
G1 X136.302 Y186.722 E0.04065
G1 X135.604 Y186.077 E0.04065
G1 X134.920 Y185.416 E0.04065
G1 X134.252 Y184.740 E0.04065
G1 X133.598 Y184.049 E0.04065
G1 X132.961 Y183.343 E0.04065
G1 X132.340 Y182.623 E0.04065
G1 X131.735 Y181.890 E0.04065
G1 X131.147 Y181.142 E0.04065
G1 X130.578 Y180.384 E0.04053
G1 X130.023 Y179.609 E0.04077
G1 X129.487 Y178.824 E0.04065
G1 X128.968 Y178.027 E0.04065
G1 X128.468 Y177.218 E0.04065
G1 X127.987 Y176.398 E0.04065
G1 X127.524 Y175.567 E0.04065
G1 X127.080 Y174.727 E0.04065
G1 X126.655 Y173.876 E0.04065
G1 X126.249 Y173.016 E0.04065
G1 X125.863 Y172.147 E0.04065
G1 X125.497 Y171.270 E0.04065
G1 X125.150 Y170.384 E0.04065
G1 X124.824 Y169.491 E0.04065
G1 X124.518 Y168.591 E0.04065
G1 X124.232 Y167.684 E0.04065
G1 X123.967 Y166.771 E0.04065
G1 X123.723 Y165.852 E0.04065
G1 X123.499 Y164.928 E0.04065
G1 X123.297 Y163.999 E0.04065
G1 X123.115 Y163.065 E0.04065
G1 X122.955 Y162.128 E0.04065
G1 X122.816 Y161.188 E0.04065
G1 X122.698 Y160.244 E0.04065
G1 X122.601 Y159.298 E0.04065
G1 X122.526 Y158.350 E0.04065
G1 X122.472 Y157.401 E0.04065
G1 X122.440 Y156.451 E0.04065
G1 X122.429 Y155.500 E0.04065
G1 X122.440 Y154.549 E0.04065
G1 X122.472 Y153.599 E0.04065
G1 X122.526 Y152.650 E0.04065
G1 X122.601 Y151.702 E0.04065
G1 X122.698 Y150.756 E0.04065
G1 X122.816 Y149.812 E0.04065
G1 X122.955 Y148.872 E0.04065
G1 X123.115 Y147.935 E0.04065
G1 X123.297 Y147.001 E0.04065
G1 X123.499 Y146.072 E0.04065
G1 X123.723 Y145.148 E0.04065
G1 X123.967 Y144.229 E0.04065
G1 X124.232 Y143.316 E0.04065
G1 X124.518 Y142.409 E0.04065
G1 X124.824 Y141.509 E0.04065
G1 X125.150 Y140.616 E0.04065
G1 X125.497 Y139.730 E0.04065
G1 X125.863 Y138.853 E0.04065
G1 X126.249 Y137.984 E0.04065
G1 X126.655 Y137.124 E0.04065
G1 X127.080 Y136.273 E0.04065
G1 X127.524 Y135.433 E0.04065
G1 X127.987 Y134.602 E0.04065
G1 X128.468 Y133.782 E0.04065
G1 X128.968 Y132.973 E0.04065
G1 X129.487 Y132.176 E0.04065
G1 X130.023 Y131.391 E0.04065
G1 X130.578 Y130.616 E0.04077
G1 X131.147 Y129.858 E0.04053
G1 X131.735 Y129.110 E0.04065
G1 X132.340 Y128.377 E0.04065
G1 X132.961 Y127.657 E0.04065
G1 X133.598 Y126.951 E0.04065
G1 X134.252 Y126.260 E0.04065
G1 X134.835 Y125.670 E0.03549
G1 X134.530 Y125.369 F12000.000
G1 F600.000
G1 X134.619 Y125.279 E0.00537
G1 X135.309 Y124.612 E0.04107
G1 X136.015 Y123.960 E0.04107
G1 X136.735 Y123.324 E0.04107
G1 X137.469 Y122.705 E0.04107
G1 X138.217 Y122.102 E0.04107
G1 X138.979 Y121.517 E0.04107
G1 X139.753 Y120.949 E0.04107
G1 X140.540 Y120.398 E0.04107
G1 X141.340 Y119.866 E0.04107
G1 X142.151 Y119.352 E0.04107
G1 X142.974 Y118.856 E0.04107
G1 X143.807 Y118.379 E0.04107
G1 X144.652 Y117.920 E0.04107
G1 X145.506 Y117.481 E0.04107
G1 X146.370 Y117.062 E0.04107
G1 X147.243 Y116.662 E0.04107
G1 X148.125 Y116.282 E0.04107
G1 X149.016 Y115.922 E0.04107
G1 X149.914 Y115.582 E0.04107
G1 X150.820 Y115.263 E0.04107
G1 X151.733 Y114.964 E0.04107
G1 X152.652 Y114.686 E0.04107
G1 X153.578 Y114.428 E0.04107
G1 X154.509 Y114.192 E0.04107
G1 X155.445 Y113.977 E0.04107
G1 X156.386 Y113.783 E0.04107
G1 X157.330 Y113.610 E0.04107
G1 X158.279 Y113.459 E0.04107
G1 X159.231 Y113.329 E0.04107
G1 X160.185 Y113.220 E0.04107
G1 X161.142 Y113.134 E0.04107
G1 X162.100 Y113.069 E0.04107
G1 X163.059 Y113.025 E0.04107
G1 X164.020 Y113.004 E0.04107
G1 X164.980 Y113.004 E0.04107
G1 X165.941 Y113.025 E0.04107
G1 X166.900 Y113.069 E0.04107
G1 X167.858 Y113.134 E0.04107
G1 X168.815 Y113.220 E0.04107
G1 X169.769 Y113.329 E0.04107
G1 X170.721 Y113.459 E0.04107
G1 X171.670 Y113.610 E0.04107
G1 X172.614 Y113.783 E0.04107
G1 X173.555 Y113.977 E0.04107
G1 X174.491 Y114.192 E0.04107
G1 X175.422 Y114.428 E0.04107
