; Postprocessed by [ArcWelder](https://github.com/FormerLurker/ArcWelderLib)
; Copyright(C) 2021 - Brad Hochgesang
; Version: 1.2.0, Branch: HEAD, BuildDate: 2021-11-21T20:25:43Z
; resolution=0.05mm
; path_tolerance=5.0%
; max_radius=9999.00mm
; g90_influences_extruder=True
; default_xyz_precision=3
; default_e_precision=5
; extrusion_rate_variance_percent=5.0%

; generated by SuperSlicer 2.4 on 2022-05-03 at 04:24:57 UTC







; 

; external perimeters extrusion width = 0.40mm
; perimeters extrusion width = 0.40mm
; infill extrusion width = 0.72mm
; solid infill extrusion width = 0.56mm
; top infill extrusion width = 0.40mm
; first layer extrusion width = 0.48mm

; external perimeters extrusion width = 0.40mm
; perimeters extrusion width = 0.40mm
; infill extrusion width = 0.72mm
; solid infill extrusion width = 0.56mm
; top infill extrusion width = 0.40mm
; first layer extrusion width = 0.48mm

; external perimeters extrusion width = 0.40mm
; perimeters extrusion width = 0.40mm
; infill extrusion width = 0.72mm
; solid infill extrusion width = 0.56mm
; top infill extrusion width = 0.40mm
; first layer extrusion width = 0.48mm

; external perimeters extrusion width = 0.40mm
; perimeters extrusion width = 0.40mm
; infill extrusion width = 0.72mm
; solid infill extrusion width = 0.56mm
; top infill extrusion width = 0.40mm
; first layer extrusion width = 0.48mm

; external perimeters extrusion width = 0.40mm
; perimeters extrusion width = 0.40mm
; infill extrusion width = 0.72mm
; solid infill extrusion width = 0.56mm
; top infill extrusion width = 0.40mm
; first layer extrusion width = 0.48mm

; object:{"name":"[a]_latch","id":"[a]_latch.stl id:0 copy 0","object_center":[200.431622,177.174923,0.000000],"boundingbox_center":[200.431622,177.174923,5.500000],"boundingbox_size":[24.060699,34.332947,11.000000]}
; object:{"name":"[a]_guidler","id":"[a]_guidler.stl id:1 copy 0","object_center":[174.325923,185.938067,0.000000],"boundingbox_center":[174.325923,185.938067,6.275001],"boundingbox_size":[19.600006,46.336273,12.550001]}
; object:{"name":"test1","id":"test1.stl id:2 copy 0","object_center":[147.437938,183.392139,0.000000],"boundingbox_center":[147.437938,183.392139,2.500000],"boundingbox_size":[22.000002,29.999999,5.000000]}
; object:{"name":"AWire_Cover_25mm_Stepper","id":"AWire_Cover_25mm_Stepper.stl id:3 copy 0","object_center":[179.377276,141.643806,0.000000],"boundingbox_center":[179.377276,141.643806,28.100006],"boundingbox_size":[51.679443,30.252253,56.200012]}
; object:{"name":"Tronxy_X5SA_Chain_Anchor","id":"Tronxy_X5SA_Chain_Anchor.stl id:4 copy 0","object_center":[132.537553,141.643807,0.000000],"boundingbox_center":[132.537553,141.643807,2.874870],"boundingbox_size":[30.000002,41.500008,5.749741]}
; plater:{"center":[164.999762,165.000003,0.000000],"boundingbox_center":[164.999762,165.000003,28.100006],"boundingbox_size":[94.924420,88.212400,56.200012]}

M73 P0 R107
;TYPE:Custom
START_PRINT T_BED=110 T_EXTRUDER=245
M107
G21 ; set units to millimeters
G90 ; use absolute coordinates
M83 ; use relative distances for extrusion
; Filament gcode
M104 S245 ; set temperature
M109 S245 ; set temperature and wait for it to be reached
M190 S110 ; set bed temperature and wait for it to be reached
M107
;LAYER_CHANGE
;Z:0.24
;HEIGHT:0.24
G1 Z0.24 F9000
G92 E0
G1 E-0.8 F1800
M204 S1000
G1 X115.774 Y130.911 F9000
G1 E0.8 F1800
;TYPE:Skirt
;WIDTH:0.52
G1 X114.962 Y131.88 E0.05912
G2 X114.095 Y134.262 I4.554 J3.006 E0.11944
G1 X114.053 Y148.889 E0.68381
G2 X114.287 Y150.462 I5.844 J-0.065 E0.07448
G1 X133.083 Y199.615 E2.46001
G1 X133.985 Y200.969 E0.07606
G1 X135.46 Y201.831 E0.07988
G1 X163.828 Y210.471 E1.38625
G1 X164.906 Y210.632 E0.05094
G1 X180.019 Y210.632 E0.70649
G1 X181.521 Y210.313 E0.07177
G1 X212.999 Y196.331 E1.61014
G1 X214.237 Y195.54 E0.06867
G1 X215.135 Y194.522 E0.06344
G1 X215.632 Y193.568 E0.05031
G1 X215.861 Y192.807 E0.03714
G1 X215.975 Y191.59 E0.05712
G1 X215.789 Y190.375 E0.05748
G1 X198.687 Y127.191 E3.05992
G1 X198.129 Y125.847 E0.06803
G1 X197.42 Y124.892 E0.0556
G1 X196.208 Y123.926 E0.07242
G1 X195.462 Y123.567 E0.03873
G1 X194.346 Y123.267 E0.05403
G1 X146.565 Y117.436 E2.25017
G1 X142.669 Y117.423 E0.18212
G2 X140.813 Y117.864 I0.327 J5.501 E0.08951
G1 X116.96 Y130.055 E1.25225
G1 X115.774 Y130.911 E0.06835
G1 X116.104 Y131.24 F9000
G1 F1800
G1 X115.344 Y132.147 E0.05532
G1 X114.738 Y133.447 E0.06703
G1 X114.559 Y134.302 E0.04086
G1 X114.519 Y148.889 E0.68191
G1 X114.738 Y150.341 E0.06862
G1 X133.518 Y199.448 E2.45775
G1 X134.231 Y200.558 E0.06165
G1 X135.596 Y201.385 E0.0746
G1 X163.964 Y210.025 E1.38625
G1 X164.906 Y210.166 E0.04452
G1 X180.019 Y210.166 E0.70649
G1 X181.332 Y209.887 E0.06272
G1 X212.81 Y195.905 E1.61014
G1 X213.922 Y195.196 E0.06168
G1 X214.754 Y194.253 E0.05876
G1 X215.202 Y193.386 E0.04563
G2 X215.510 Y191.821 I-4.267 J-1.653 E0.07484
G1 X215.339 Y190.497 E0.06242
G1 X198.237 Y127.313 E3.05992
G1 X197.734 Y126.095 E0.06159
G1 X197.09 Y125.222 E0.05072
G1 X195.96 Y124.321 E0.06753
G1 X195.308 Y124.007 E0.03385
G1 X194.29 Y123.73 E0.04935
G1 X146.508 Y117.899 E2.25017
G1 X142.71 Y117.888 E0.17758
G2 X141.010 Y118.287 I0.274 J4.989 E0.08191
G1 X117.172 Y130.47 E1.25145
G1 X116.104 Y131.24 E0.06156
; INIT printing object [a]_latch.stl id:0 copy 0
G1 E-0.8
; printing object [a]_latch.stl id:0 copy 0
; acceleration to travel
M204 S3000
G1 X180.202 Y165.964 F9000
; decel to extrusion
M204 S1000
G1 X201.567 Y177.538
; end travel
G1 E0.8 F1800
;TYPE:Internal perimeter
;WIDTH:0.48
G1 X201.887 Y177.516 E0.0137
G2 X206.117 Y186.744 I16.502 J-1.981 E0.44102
G1 X208.562 Y189.421 E0.155
G1 X208.432 Y189.639 E0.01087
G2 X207.664 Y189.539 I-0.705 J2.417 E0.03320
G1 X201.087 Y189.539 E0.2812
G1 X200.596 Y189.582 E0.02107
G2 X201.567 Y186.429 I-4.766 J-3.194 E0.14298
G1 X201.567 Y177.538 E0.38013
; acceleration to travel
M204 S3000
G1 X199.402 Y170.03 F9000
; decel to extrusion
M204 S1000
G1 X198.681 Y167.528
; end travel
G1 F1800
G2 X201.203 Y165.341 I-0.643 J-3.289 E0.14937
G3 X201.749 Y167.061 I-3.261 J1.982 E0.07782
G1 X201.754 Y172.337 E0.22554
G1 X201.437 Y172.361 E0.01359
G2 X198.681 Y167.528 I-7.903 J1.305 E0.24297
G1 X197.912 Y167.171 F9000
G1 F1800
G2 X200.989 Y164.424 I0.080 J-3.007 E0.19409
G1 X201.234 Y164.395 E0.01059
G1 X201.915 Y165.854 E0.06883
G3 X202.178 Y167.038 I-3.432 J1.384 E0.05206
G1 X202.185 Y175.509 E0.3622
G2 X206.436 Y186.458 I16.266 J-0.016 E0.51367
G1 X211.083 Y191.546 E0.29464
G3 X210.786 Y191.875 I-0.122 J0.189 E0.03281
G2 X209.580 Y190.632 I-7.899 J6.457 E0.07411
G2 X207.645 Y189.967 I-1.987 J2.635 E0.08885
G1 X201.106 Y189.967 E0.27958
G2 X199.673 Y190.316 I0.075 J3.425 E0.06351
G1 X199.518 Y190.071 E0.01239
G2 X200.627 Y188.648 I-2.002 J-2.704 E0.07795
G2 X201.139 Y186.415 I-4.705 J-2.254 E0.09868
G1 X201.139 Y173.734 E0.54218
G2 X197.836 Y167.410 I-7.735 J0.015 E0.31699
G1 X197.912 Y167.171 E0.01071
G1 E-0.8
; acceleration to travel
M204 S3000
G1 X196.232 Y163.99 F9000
; decel to extrusion
M204 S1000
G1 X195.672 Y162.93
; end travel
G1 E0.8 F1800
G2 X196.338 Y162.124 I2.297 J1.220 E0.65303
G2 X195.672 Y162.930 I1.528 J1.941 E0.04492
G1 X196.029 Y163.167 F9000
;TYPE:External perimeter
G1 F1800
G2 X196.305 Y162.754 I1.928 J0.990 E0.56118
G1 X196.029 Y163.167 E0.02125
;WIPE_START
M204 S5000
G1 X195.63 Y163.198 F9000
;WIPE_END
; acceleration to travel
M204 S3000
G1 X194.837 Y164.392
; decel to extrusion
M204 S1000
G1 X194.573 Y164.79
; end travel
;TYPE:Internal perimeter
G1 F1800
G2 X194.869 Y165.696 I2.460 J-0.302 E0.04093
G1 X193.815 Y165.509 E0.04576
G1 X193.786 Y165.255 E0.01093
G1 X193.893 Y165.21 E0.00498
G1 X194.573 Y164.79 E0.03415
G1 X194.94 Y163.845 F9000
G1 F1800
G2 X195.288 Y165.588 I3.073 J0.293 E0.07693
G1 X195.816 Y166.38 E0.04068
G2 X194.740 Y166.108 I-2.642 J8.186 E0.04748
G1 X189.925 Y165.256 E0.20906
G3 X189.880 Y164.803 I-0.017 J-0.227 E0.02927
G1 X191.731 Y165.122 E0.0803
G2 X194.250 Y164.486 I0.516 J-3.262 E0.11412
G1 X194.94 Y163.845 E0.04025
G1 E-0.8
; acceleration to travel
M204 S3000
G1 X196.6 Y184.11 F9000
; decel to extrusion
M204 S1000
G1 X197.153 Y190.864
; end travel
G1 E0.8 F1800
G2 X198.255 Y190.940 I0.801 J-3.593 E0.04737
G3 X196.824 Y192.350 I-6.048 J-4.707 E0.08620
G1 X197.153 Y190.864 E0.06504
G1 X196.74 Y190.779 F9000
G1 F1800
G1 X196.841 Y190.292 E0.02127
G2 X199.202 Y190.252 I1.135 J-2.685 E0.10382
G1 X199.341 Y190.498 E0.01207
G1 X198.829 Y190.935 E0.02876
G3 X197.512 Y192.378 I-12.762 J-10.325 E0.08359
G3 X196.186 Y193.033 I-1.923 J-2.224 E0.06383
G2 X196.740 Y190.779 I-26.516 J-7.712 E0.09928
G1 E-0.8
; acceleration to travel
M204 S3000
G1 X195.171 Y170.259 F9000
; decel to extrusion
M204 S1000
G1 X194.647 Y163.419
; end travel
G1 E0.8 F1800
G1 X194.672 Y163.386 E0.00176
G3 X196.079 Y161.446 I4.054 J1.460 E0.10395
G3 X200.856 Y162.572 I1.883 J2.707 E0.23649
G1 X202.314 Y165.694 E0.14731
G3 X202.606 Y167.014 I-3.872 J1.549 E0.05805
G1 X202.614 Y175.502 E0.36289
G2 X206.755 Y186.171 I15.836 J-0.008 E0.50057
G1 X211.415 Y191.274 E0.29547
G3 X210.497 Y192.195 I-0.454 J0.466 E0.08764
G2 X209.321 Y190.976 I-7.747 J6.297 E0.07247
G2 X207.626 Y190.396 I-1.730 J2.290 E0.07782
G1 X201.125 Y190.396 E0.27796
G2 X199.131 Y191.241 I0.026 J2.837 E0.09491
G3 X197.659 Y192.816 I-10.850 J-8.665 E0.09226
G3 X195.669 Y193.491 I-1.939 J-2.445 E0.09157
G1 X195.678 Y193.279 E0.00907
G2 X196.540 Y189.628 I-39.991 J-11.369 E0.16041
G2 X199.884 Y189.099 I1.414 J-1.898 E0.16099
G2 X200.711 Y186.402 I-4.079 J-2.726 E0.12223
G1 X200.711 Y173.744 E0.54118
G2 X194.657 Y166.529 I-7.344 J0.015 E0.43696
G1 X189.828 Y165.674 E0.2097
G3 X189.940 Y164.379 I0.075 J-0.646 E0.08542
G1 X191.785 Y164.697 E0.08007
G2 X194.647 Y163.419 I0.464 J-2.805 E0.14182
G1 X194.305 Y163.161 F9000
;TYPE:External perimeter
G1 F1800
G3 X196.020 Y160.973 I4.253 J1.568 E0.12104
G3 X201.414 Y162.754 I1.934 J3.202 E0.27610
G1 X202.712 Y165.534 E0.13119
G3 X203.035 Y166.991 I-4.264 J1.709 E0.06406
G1 X203.042 Y175.495 E0.36358
G2 X207.074 Y185.885 I15.424 J-0.008 E0.48749
G1 X211.747 Y191.002 E0.2963
G3 X210.209 Y192.514 I-0.784 J0.741 E0.14262
G2 X209.062 Y191.320 I-7.699 J6.248 E0.07083
G2 X207.607 Y190.824 I-1.472 J1.937 E0.06682
G1 X201.144 Y190.824 E0.27633
G2 X199.433 Y191.546 I0.024 J2.446 E0.08140
G3 X197.919 Y193.157 I-10.699 J-8.538 E0.09465
G3 X195.612 Y193.882 I-2.033 J-2.437 E0.10608
G3 X195.252 Y193.215 I0.211 J-0.544 E0.03522
G2 X196.198 Y189.273 I-61.504 J-16.844 E0.17342
G3 X196.679 Y189.177 I0.283 J0.163 E0.02370
G2 X199.530 Y188.855 I1.281 J-1.439 E0.13820
G2 X200.282 Y186.388 I-3.728 J-2.484 E0.11175
G1 X200.282 Y173.754 E0.54017
G2 X194.574 Y166.949 I-6.945 J0.029 E0.41215
G1 X191.753 Y166.45 E0.12248
G1 X189.73 Y166.092 E0.08785
G3 X189.971 Y163.949 I0.171 J-1.066 E0.14034
G2 X192.256 Y164.308 I7.973 J-43.297 E0.09892
G2 X194.305 Y163.161 I-0.014 J-2.429 E0.10464
;WIPE_START
M204 S5000
G1 X194.705 Y163.159 F9000
;WIPE_END
M204 S1000
G1 X195.072 Y163.454
;TYPE:Gap fill
;WIDTH:0.400175
G1 F1800
G3 X195.242 Y163.026 I3.321 J1.071 E0.01602
;WIDTH:0.350894
G3 X200.699 Y163.073 I2.719 J1.123 E0.20864
;WIDTH:0.383181
G3 X200.860 Y163.484 I-2.086 J1.054 E0.01463
;WIDTH:0.434048
G1 X200.902 Y163.613 E0.00518
;WIDTH:0.479832
G1 X200.943 Y163.743 E0.0058
;WIDTH:0.527843
G1 X200.997 Y163.917 E0.00869
;WIDTH:0.552972
G2 X201.061 Y164.217 I14.193 J-2.871 E0.01534
; acceleration to travel
M204 S3000
G1 X201.371 Y166.205 F9000
; decel to extrusion
M204 S1000
G1 X201.488 Y166.962
; end travel
;TYPE:Solid infill
;WIDTH:0.504061
G1 F3600
G1 X200.834 Y166.308 E0.04155
G1 X200.586 Y166.666 E0.01955
G1 X201.32 Y167.4 E0.04665
G1 X201.344 Y168.03 E0.02829
G1 X200.333 Y167.02 E0.06416
G1 X199.922 Y167.214 E0.02043
G1 X201.368 Y168.66 E0.09177
G1 X201.391 Y169.289 E0.02829
G1 X199.511 Y167.409 E0.11937
G1 X199.1 Y167.604 E0.02043
G1 X201.44 Y169.944 E0.14861
; acceleration to travel
M204 S3000
G1 X201.344 Y167.18 F9000
; decel to extrusion
M204 S1000
G1 X201.316 Y166.374
; end travel
;TYPE:Gap fill
;WIDTH:0.195598
G1 F1800
G1 X201.253 Y166.265 E0.00182
;WIDTH:0.305186
G1 X201.157 Y166.101 E0.0048
;WIDTH:0.373998
G1 X201.045 Y165.945 E0.0062
; acceleration to travel
M204 S3000
G1 X201.185 Y168.996 F9000
; decel to extrusion
M204 S1000
G1 X201.232 Y170.013
; end travel
;WIDTH:0.668437
G1 F1800
G1 X201.276 Y170.207 E0.01222
;WIDTH:0.580684
G1 X201.29 Y170.271 E0.00349
;WIDTH:0.540441
G1 X201.33 Y170.451 E0.009
;WIDTH:0.501026
G1 X201.35 Y170.562 E0.00505
;WIDTH:0.455535
G1 X201.37 Y170.673 E0.00454
;WIDTH:0.410044
G1 X201.389 Y170.784 E0.00403
;WIDTH:0.364553
G1 X201.409 Y170.895 E0.00352
;WIDTH:0.319062
G1 X201.428 Y171.006 E0.00301
;WIDTH:0.273571
G1 X201.448 Y171.117 E0.0025
;WIDTH:0.227998
G3 X201.489 Y171.395 I-2.783 J0.552 E0.00496
;WIDTH:0.143664
G3 X201.516 Y171.601 I-128.496 J16.946 E0.00190
G1 X201.61 Y172.545 F9000
;WIDTH:0.804017
G1 F1800
G1 X201.624 Y172.719 E0.0131
;WIDTH:0.73488
G3 X201.653 Y173.358 I-7.037 J0.640 E0.04363
;WIDTH:0.703796
G2 X201.671 Y176.060 I110.059 J0.618 E0.17587
;WIDTH:0.740854
G2 X201.688 Y176.792 I15.253 J0.012 E0.05040
;WIDTH:0.786564
G2 X201.712 Y177.331 I46.512 J-1.801 E0.03953
; acceleration to travel
M204 S3000
G1 X201.782 Y178.259 F9000
; decel to extrusion
M204 S1000
G1 X201.806 Y178.568
; end travel
;WIDTH:0.143664
G1 F1800
G3 X201.828 Y178.783 I-13.399 J1.480 E0.00198
;WIDTH:0.186434
G1 X201.845 Y178.952 E0.00229
;WIDTH:0.229203
G1 X201.862 Y179.121 E0.00301
;WIDTH:0.271973
G1 X201.879 Y179.29 E0.00374
;WIDTH:0.316785
G2 X201.916 Y179.610 I5.108 J-0.428 E0.00852
;WIDTH:0.360828
G1 X201.936 Y179.752 E0.00443
;WIDTH:0.404811
G1 X201.955 Y179.894 E0.00506
;WIDTH:0.448794
G1 X201.974 Y180.036 E0.00569
;WIDTH:0.492777
G1 X201.993 Y180.178 E0.00632
;WIDTH:0.53676
G1 X202.013 Y180.321 E0.00694
;WIDTH:0.580743
G1 X202.032 Y180.463 E0.00757
;WIDTH:0.624726
G1 X202.051 Y180.605 E0.0082
;WIDTH:0.649384
G1 X202.081 Y180.784 E0.01087
;WIDTH:0.725845
G1 X202.106 Y180.929 E0.00983
G1 X201.892 Y180.987 F9000
;TYPE:Solid infill
;WIDTH:0.469204
G1 F3600
G1 X202.767 Y181.862 E0.05171
G1 X203.299 Y183 E0.05252
G1 X201.799 Y181.499 E0.08869
G1 X201.796 Y182.103 E0.02522
G1 X204.156 Y184.463 E0.13951
G1 X205.518 Y186.43 E0.09998
G1 X201.793 Y182.706 E0.22013
G1 X201.791 Y183.309 E0.02522
G1 X207.868 Y189.387 E0.35921
G1 X207.258 Y189.382 E0.02551
G1 X201.788 Y183.913 E0.32329
G1 X201.785 Y184.516 E0.02522
G1 X206.647 Y189.378 E0.28736
G1 X206.037 Y189.373 E0.02551
G1 X201.783 Y185.119 E0.25144
G1 X201.78 Y185.723 E0.02522
G1 X205.426 Y189.369 E0.21551
G1 X204.816 Y189.364 E0.02551
G1 X201.777 Y186.326 E0.17959
G1 X201.775 Y186.929 E0.02522
G1 X204.205 Y189.36 E0.14367
G1 X203.595 Y189.356 E0.02551
G1 X201.666 Y187.427 E0.11399
G1 X201.502 Y187.868 E0.01968
G1 X202.985 Y189.351 E0.08765
G1 X202.374 Y189.347 E0.02551
G1 X201.337 Y188.309 E0.06131
G1 X201.172 Y188.75 E0.01968
G1 X201.764 Y189.342 E0.03497
G1 X201.153 Y189.338 E0.02551
G1 X200.864 Y189.048 E0.0171
; acceleration to travel
M204 S3000
G1 X204.522 Y187.186 F9000
; decel to extrusion
M204 S1000
G1 X205.589 Y186.643
; end travel
;TYPE:Gap fill
;WIDTH:0.283265
G1 F1800
G2 X206.158 Y187.242 I23.923 J-22.155 E0.01910
;WIDTH:0.237576
G1 X206.648 Y187.756 E0.01319
;WIDTH:0.192541
G1 X207.138 Y188.27 E0.00999
;WIDTH:0.147505
G2 X207.661 Y188.818 I30.788 J-28.860 E0.00726
; acceleration to travel
M204 S3000
G1 X208.417 Y189.424 F9000
; decel to extrusion
M204 S1000
G1 X208.669 Y189.626
; end travel
;WIDTH:0.602843
G1 F1800
G1 X208.755 Y189.684 E0.00568
;WIDTH:0.549775
G1 X208.865 Y189.763 E0.00674
;WIDTH:0.50761
G1 X208.982 Y189.843 E0.00646
;WIDTH:0.426661
G1 X209.099 Y189.923 E0.00531
;WIDTH:0.364565
G3 X209.271 Y190.055 I-0.780 J1.194 E0.00676
;WIDTH:0.315679
G1 X209.362 Y190.13 E0.00311
;WIDTH:0.275692
G1 X209.453 Y190.204 E0.00264
;WIDTH:0.235705
G1 X209.544 Y190.279 E0.00217
;WIDTH:0.195718
G1 X209.635 Y190.354 E0.0017
;WIDTH:0.155665
G3 X209.847 Y190.550 I-0.997 J1.290 E0.00300
; acceleration to travel
M204 S3000
G1 X200.604 Y190.973 F9000
; decel to extrusion
