; generated by SuperSlicer 2.4 on 2022-04-26 at 04:57:11 UTC


;
;

;
;
; 

; external perimeters extrusion width = 0.40mm
; perimeters extrusion width = 0.40mm
; infill extrusion width = 0.72mm
; solid infill extrusion width = 0.56mm
; top infill extrusion width = 0.40mm
; support material extrusion width = 0.40mm
; first layer extrusion width = 0.48mm

; object:{"name":"test","id":"test.stl id:0 copy 0","object_center":[165.000000,165.000000,0.000000],"boundingbox_center":[165.000000,165.000000,17.500000],"boundingbox_size":[87.000000,38.338066,35.000001]}
; plater:{"center":[165.000000,165.000000,0.000000],"boundingbox_center":[165.000000,165.000000,17.500000],"boundingbox_size":[87.000000,38.338066,35.000001]}

M73 P0 R44
;TYPE:Custom
START_PRINT T_BED=60 T_EXTRUDER=200
M107
G21 ; set units to millimeters
G90 ; use absolute coordinates
M83 ; use relative distances for extrusion
; Filament gcode
M104 S200 ; set temperature
M109 S200 ; set temperature and wait for it to be reached
M190 S60 ; set bed temperature and wait for it to be reached
M107
;LAYER_CHANGE
;Z:0.24
;HEIGHT:0.24
G1 E-0.6 F3000
G1 Z0.24 F9000
G92 E0
M204 S1000
G1 X121.449 Y142.921
G1 E0.6 F1800
;TYPE:Skirt
;WIDTH:0.52
G1 X120.326 Y144.209 E0.07988
G1 X119.901 Y145.864 E0.07988
G1 X119.901 Y184.085 E1.78671
G1 X120.63 Y186.274 E0.10788
G1 X121.937 Y187.374 E0.07988
G1 X123.6 Y187.769 E0.07988
G1 X206.4 Y187.769 E3.87062
G1 X208.593 Y187.049 E0.10788
G1 X209.698 Y185.746 E0.07988
G1 X210.099 Y184.085 E0.07988
G1 X210.124 Y147.256 E1.7216
G1 X210.099 Y145.864 E0.06512
G1 X209.37 Y143.726 E0.10558
G1 X208.063 Y142.626 E0.07988
G1 X206.4 Y142.232 E0.07988
G1 X123.6 Y142.232 E3.87062
G1 X121.506 Y142.903 E0.10278
G1 X121.849 Y143.232 F9000
G1 F1800
G1 X120.789 Y144.333 E0.07142
G1 X120.367 Y145.872 E0.0746
G1 X120.367 Y184.083 E1.78622
G1 X120.884 Y185.823 E0.08486
G1 X122.054 Y186.908 E0.0746
G1 X123.6 Y187.302 E0.0746
G1 X206.4 Y187.302 E3.87062
G1 X208.142 Y186.793 E0.08486
G1 X209.233 Y185.627 E0.0746
G1 X209.633 Y184.083 E0.0746
G1 X209.659 Y147.324 E1.71836
G1 X209.633 Y145.872 E0.06787
G1 X209.116 Y144.177 E0.08283
G1 X207.946 Y143.092 E0.0746
G1 X206.4 Y142.698 E0.0746
G1 X123.6 Y142.698 E3.87062
G1 X121.896 Y143.183 E0.08283
G1 X121.89 Y143.189 E0.00037
; INIT printing object test.stl id:0 copy 0
G1 E-0.6 F3000
; printing object test.stl id:0 copy 0
; acceleration to travel
M204 S4000
G1 X124.136 Y146.26 F9000
; decel to extrusion
M204 S1000
G1 X124.697 Y147.028
; end travel
G1 E0.6 F1800
;TYPE:Internal perimeter
;WIDTH:0.48
G1 X125.803 Y147.028 E0.04729
G1 X125.803 Y149.027 E0.08546
G1 X125.778 Y149.027 E0.00109
G1 X125.778 Y176.366 E1.1689
G1 X125.803 Y176.366 E0.00109
G1 X125.803 Y182.366 E0.25653
G1 X204.197 Y182.366 E3.35177
G1 X204.197 Y176.366 E0.25653
G1 X204.222 Y176.366 E0.00109
G1 X204.222 Y149.027 E1.1689
G1 X204.197 Y149.027 E0.00109
G1 X204.197 Y147.028 E0.08546
G1 X205.303 Y147.028 E0.04729
G1 X205.303 Y148.421 E0.05955
G1 X205.328 Y148.421 E0.00109
G1 X205.328 Y176.972 E1.22072
G1 X205.303 Y176.972 E0.00109
G1 X205.303 Y182.972 E0.25653
G1 X124.697 Y182.972 E3.44635
M73 P1 R44
G1 X124.697 Y176.972 E0.25653
G1 X124.672 Y176.972 E0.00109
G1 X124.672 Y148.421 E1.22072
G1 X124.697 Y148.421 E0.00109
G1 X124.697 Y147.088 E0.05698
G1 X124.268 Y146.6 F9000
G1 F1800
G1 X126.232 Y146.6 E0.08393
G1 X126.232 Y149.455 E0.1221
G1 X126.206 Y149.455 E0.00109
G1 X126.206 Y175.938 E1.13226
G1 X126.232 Y175.938 E0.00109
G1 X126.232 Y181.938 E0.25653
G1 X203.768 Y181.938 E3.31513
G1 X203.768 Y175.938 E0.25653
G1 X203.794 Y175.938 E0.00109
G1 X203.794 Y149.455 E1.13226
G1 X203.768 Y149.455 E0.00109
G1 X203.768 Y146.6 E0.1221
G1 X205.732 Y146.6 E0.08393
G1 X205.732 Y147.992 E0.05955
G1 X205.757 Y147.992 E0.00109
G1 X205.757 Y177.401 E1.25736
G1 X205.732 Y177.401 E0.00109
G1 X205.732 Y183.401 E0.25653
G1 X124.268 Y183.401 E3.48299
G1 X124.268 Y177.401 E0.25653
G1 X124.243 Y177.401 E0.00109
G1 X124.243 Y147.992 E1.25736
G1 X124.268 Y147.992 E0.00109
G1 X124.268 Y146.66 E0.05698
G1 X123.84 Y146.171 F9000
;TYPE:External perimeter
G1 F1800
G1 X126.66 Y146.171 E0.12057
G1 X126.66 Y149.884 E0.15874
G1 X126.635 Y149.884 E0.00109
G1 X126.635 Y175.509 E1.09562
G1 X126.66 Y175.509 E0.00109
G1 X126.66 Y181.509 E0.25653
G1 X203.34 Y181.509 E3.27849
G1 X203.34 Y175.509 E0.25653
G1 X203.365 Y175.509 E0.00109
G1 X203.365 Y149.884 E1.09562
G1 X203.34 Y149.884 E0.00109
G1 X203.34 Y146.171 E0.15874
G1 X206.16 Y146.171 E0.12057
G1 X206.16 Y147.564 E0.05955
G1 X206.185 Y147.564 E0.00109
G1 X206.185 Y177.829 E1.294
G1 X206.16 Y177.829 E0.00109
G1 X206.16 Y183.829 E0.25653
G1 X123.84 Y183.829 E3.51963
G1 X123.84 Y177.829 E0.25653
G1 X123.815 Y177.829 E0.00109
G1 X123.815 Y147.564 E1.294
G1 X123.84 Y147.564 E0.00109
G1 X123.84 Y146.231 E0.05698
;WIPE_START
M204 S4000
G1 X124.186 Y146.371 F9000
;WIPE_END
; acceleration to travel
G1 X125.037 Y147.054
; decel to extrusion
M204 S1000
G1 X125.25 Y147.225
; end travel
;TYPE:Gap fill
;WIDTH:0.763592
G1 F1800
G1 X125.25 Y147.403 E0.01265
G1 X125.25 Y147.581 E0.01265
G1 X125.25 Y148.618 E0.07366
G1 X125.246 Y148.697 E0.00563
G1 X125.225 Y148.83 E0.00956
G1 X125.225 Y176.563 E1.97051
G1 X125.229 Y176.642 E0.00563
G1 X125.25 Y176.775 E0.00956
G1 X125.25 Y182.419 E0.40102
G1 X125.271 Y182.44 E0.00207
;WIDTH:0.59564
G1 X125.394 Y182.563 E0.00947
;WIDTH:0.475674
G1 X125.429 Y182.581 E0.00167
;WIDTH:0.348423
G1 X125.606 Y182.669 E0.00585
;WIDTH:0.263588
G1 X204.394 Y182.669 E1.6673
M73 P2 R44
G1 X204.429 Y182.651 E0.00084
;WIDTH:0.39084
G1 X204.606 Y182.563 E0.00669
;WIDTH:0.475674
G1 X204.627 Y182.542 E0.00123
;WIDTH:0.643627
G1 X204.75 Y182.419 E0.01031
;WIDTH:0.76359
G1 X204.75 Y176.775 E0.40102
G1 X204.754 Y176.696 E0.00563
G1 X204.775 Y176.563 E0.00956
G1 X204.775 Y148.83 E1.9705
G1 X204.771 Y148.751 E0.00563
G1 X204.75 Y148.618 E0.00956
G1 X204.75 Y147.581 E0.07366
G1 X204.75 Y147.225 E0.0253
; INIT stop printing object test.stl id:0 copy 0
;LAYER_CHANGE
;Z:0.44
;HEIGHT:0.2
G1 E-0.6 F3000
; stop printing object test.stl id:0 copy 0
M204 S4000
G1 Z0.44 F9000
G92 E0
; INIT printing object test.stl id:0 copy 0
; printing object test.stl id:0 copy 0
; acceleration to travel
G1 X204.109 Y162.328
; decel to extrusion
M204 S3500
G1 X203.267 Y182.15
; end travel
G1 E0.6 F1800
;TYPE:Internal perimeter
;WIDTH:0.4
G1 F5400
G1 X203.981 Y182.15 E0.0212
G1 X203.981 Y176.15 E0.17815
G1 X204.053 Y176.15 E0.00214
G1 X204.053 Y149.243 E0.7989
G1 X203.981 Y149.243 E0.00214
G1 X203.981 Y146.812 E0.07218
G1 X205.519 Y146.812 E0.04568
G1 X205.519 Y148.205 E0.04135
G1 X205.591 Y148.205 E0.00214
G1 X205.591 Y177.188 E0.86056
G1 X205.519 Y177.188 E0.00214
G1 X205.519 Y183.188 E0.17815
G1 X124.481 Y183.188 E2.40613
M73 P2 R43
G1 X124.481 Y177.188 E0.17815
G1 X124.409 Y177.188 E0.00214
G1 X124.409 Y148.205 E0.86056
G1 X124.481 Y148.205 E0.00214
G1 X124.481 Y146.812 E0.04135
G1 X126.019 Y146.812 E0.04568
G1 X126.019 Y149.243 E0.07218
G1 X125.947 Y149.243 E0.00214
G1 X125.947 Y176.15 E0.7989
G1 X126.019 Y176.15 E0.00214
G1 X126.019 Y182.15 E0.17815
G1 X203.207 Y182.15 E2.2918
; acceleration to travel
M204 S4000
G1 X203.239 Y181.959 F9000
; decel to extrusion
M204 S3500
G1 X203.267 Y181.793
; end travel
G1 F5400
G1 X203.624 Y181.793 E0.0106
G1 X203.624 Y175.793 E0.17815
G1 X203.696 Y175.793 E0.00214
G1 X203.696 Y149.6 E0.77769
G1 X203.624 Y149.6 E0.00214
G1 X203.624 Y146.455 E0.09338
G1 X205.876 Y146.455 E0.06688
G1 X205.876 Y147.848 E0.04135
G1 X205.948 Y147.848 E0.00214
G1 X205.948 Y177.545 E0.88176
G1 X205.876 Y177.545 E0.00214
G1 X205.876 Y183.545 E0.17815
G1 X124.124 Y183.545 E2.42734
G1 X124.124 Y177.545 E0.17815
G1 X124.052 Y177.545 E0.00214
G1 X124.052 Y147.848 E0.88176
G1 X124.124 Y147.848 E0.00214
G1 X124.124 Y146.455 E0.04135
G1 X126.376 Y146.455 E0.06688
G1 X126.376 Y149.6 E0.09338
G1 X126.304 Y149.6 E0.00214
G1 X126.304 Y175.793 E0.77769
G1 X126.376 Y175.793 E0.00214
G1 X126.376 Y181.793 E0.17815
G1 X203.207 Y181.793 E2.28119
; acceleration to travel
M204 S4000
G1 X203.245 Y181.564 F9000
; decel to extrusion
M204 S2500
G1 X203.267 Y181.436
; end travel
;TYPE:External perimeter
G1 F4800
G1 X203.267 Y175.436 E0.17815
G1 X203.339 Y175.436 E0.00214
G1 X203.339 Y149.957 E0.75649
G1 X203.267 Y149.957 E0.00214
G1 X203.267 Y146.098 E0.11458
G1 X206.233 Y146.098 E0.08808
G1 X206.233 Y147.49 E0.04135
G1 X206.305 Y147.49 E0.00214
G1 X206.305 Y177.902 E0.90297
G1 X206.233 Y177.902 E0.00214
G1 X206.233 Y183.902 E0.17815
G1 X123.767 Y183.902 E2.44854
G1 X123.767 Y177.902 E0.17815
G1 X123.695 Y177.902 E0.00214
G1 X123.695 Y147.49 E0.90297
G1 X123.767 Y147.49 E0.00214
G1 X123.767 Y146.098 E0.04135
G1 X126.733 Y146.098 E0.08808
G1 X126.733 Y149.957 E0.11458
G1 X126.661 Y149.957 E0.00214
G1 X126.661 Y175.436 E0.75649
G1 X126.733 Y175.436 E0.00214
G1 X126.733 Y181.436 E0.17815
G1 X203.207 Y181.436 E2.27059
;WIPE_START
M204 S4000
G1 X203.667 Y181.436 F9000
;WIPE_END
; acceleration to travel
G1 X204.036 Y182.334
; decel to extrusion
M204 S2000
G1 X204.174 Y182.669
; end travel
;TYPE:Gap fill
;WIDTH:0.752991
G1 F1800
G1 X125.826 Y182.669 E4.62584
; acceleration to travel
M204 S4000
G1 X125.901 Y182.326 F9000
; decel to extrusion
M204 S3500
G1 X125.99 Y181.924
; end travel
;TYPE:Solid infill
;WIDTH:0.505754
G1 F4800
G1 X124.978 Y182.936 E0.05558
G1 X124.733 Y182.936 E0.00951
G1 X124.733 Y182.45 E0.01889
G1 X125.767 Y181.415 E0.05681
G1 X125.767 Y180.684 E0.0284
G1 X124.733 Y181.719 E0.05681
G1 X124.733 Y180.987 E0.0284
G1 X125.767 Y179.953 E0.05681
G1 X125.767 Y179.221 E0.0284
G1 X124.733 Y180.256 E0.05681
G1 X124.733 Y179.525 E0.0284
G1 X125.767 Y178.49 E0.05681
G1 X125.767 Y177.759 E0.0284
G1 X124.733 Y178.794 E0.05681
G1 X124.733 Y178.062 E0.0284
G1 X125.767 Y177.028 E0.05681
G1 X125.767 Y176.296 E0.0284
G1 X124.733 Y177.331 E0.05681
G1 X124.733 Y176.6 E0.0284
G1 X125.767 Y175.565 E0.05681
G1 X125.767 Y174.834 E0.0284
G1 X124.733 Y175.869 E0.05681
G1 X124.733 Y175.137 E0.0284
G1 X125.767 Y174.103 E0.05681
G1 X125.767 Y173.371 E0.0284
G1 X124.733 Y174.406 E0.05681
G1 X124.733 Y173.675 E0.0284
G1 X125.767 Y172.64 E0.05681
G1 X125.767 Y171.909 E0.0284
G1 X124.733 Y172.943 E0.05681
G1 X124.733 Y172.212 E0.0284
G1 X125.767 Y171.178 E0.05681
G1 X125.767 Y170.446 E0.0284
G1 X124.733 Y171.481 E0.05681
G1 X124.733 Y170.75 E0.0284
G1 X125.767 Y169.715 E0.05681
G1 X125.767 Y168.984 E0.0284
G1 X124.733 Y170.018 E0.05681
G1 X124.733 Y169.287 E0.0284
G1 X125.767 Y168.253 E0.05681
G1 X125.767 Y167.521 E0.0284
G1 X124.733 Y168.556 E0.05681
G1 X124.733 Y167.825 E0.0284
G1 X125.767 Y166.79 E0.05681
G1 X125.767 Y166.059 E0.0284
G1 X124.733 Y167.093 E0.05681
G1 X124.733 Y166.362 E0.0284
G1 X125.767 Y165.328 E0.05681
G1 X125.767 Y164.596 E0.0284
G1 X124.733 Y165.631 E0.05681
G1 X124.733 Y164.9 E0.0284
G1 X125.767 Y163.865 E0.05681
G1 X125.767 Y163.134 E0.0284
G1 X124.733 Y164.168 E0.05681
G1 X124.733 Y163.437 E0.0284
G1 X125.767 Y162.403 E0.05681
G1 X125.767 Y161.671 E0.0284
G1 X124.733 Y162.706 E0.05681
G1 X124.733 Y161.975 E0.0284
G1 X125.767 Y160.94 E0.05681
G1 X125.767 Y160.209 E0.0284
G1 X124.733 Y161.243 E0.05681
G1 X124.733 Y160.512 E0.0284
G1 X125.767 Y159.477 E0.05681
G1 X125.767 Y158.746 E0.0284
G1 X124.733 Y159.781 E0.05681
G1 X124.733 Y159.05 E0.0284
G1 X125.767 Y158.015 E0.05681
G1 X125.767 Y157.284 E0.0284
G1 X124.733 Y158.318 E0.05681
G1 X124.733 Y157.587 E0.0284
G1 X125.767 Y156.552 E0.05681
G1 X125.767 Y155.821 E0.0284
G1 X124.733 Y156.856 E0.05681
G1 X124.733 Y156.124 E0.0284
G1 X125.767 Y155.09 E0.05681
G1 X125.767 Y154.359 E0.0284
G1 X124.733 Y155.393 E0.05681
G1 X124.733 Y154.662 E0.0284
G1 X125.767 Y153.627 E0.05681
G1 X125.767 Y152.896 E0.0284
G1 X124.733 Y153.931 E0.05681
G1 X124.733 Y153.199 E0.0284
G1 X125.767 Y152.165 E0.05681
G1 X125.767 Y151.434 E0.0284
G1 X124.733 Y152.468 E0.05681
G1 X124.733 Y151.737 E0.0284
G1 X125.767 Y150.702 E0.05681
G1 X125.767 Y149.971 E0.0284
G1 X124.733 Y151.006 E0.05681
G1 X124.733 Y150.274 E0.0284
G1 X125.767 Y149.24 E0.05681
G1 X125.767 Y148.509 E0.0284
G1 X124.733 Y149.543 E0.05681
G1 X124.733 Y148.812 E0.0284
G1 X125.767 Y147.777 E0.05681
G1 X125.767 Y147.064 E0.0277
G1 X125.749 Y147.064 E0.0007
G1 X124.733 Y148.081 E0.05583
G1 X124.733 Y147.349 E0.0284
G1 X125.24 Y146.842 E0.02788
G1 E-0.6 F3000
; acceleration to travel
M204 S4000
G1 X167.483 Y166.211 F9000
; decel to extrusion
M204 S3500
G1 X204.444 Y183.159
; end travel
G1 E0.6 F1800
;WIDTH:0.506889
G1 F4800
G1 X205.267 Y182.336 E0.04529
G1 X205.267 Y181.605 E0.02846
G1 X204.422 Y182.45 E0.04653
G1 X204.422 Y182.066 E0.01495
G1 X204.233 Y182.066 E0.00736
G1 X204.233 Y181.908 E0.00615
G1 X205.267 Y180.873 E0.05694
G1 X205.267 Y180.142 E0.02846
G1 X204.233 Y181.177 E0.05694
G1 X204.233 Y180.445 E0.02846
G1 X205.267 Y179.411 E0.05694
G1 X205.267 Y178.679 E0.02846
G1 X204.233 Y179.714 E0.05694
G1 X204.233 Y178.983 E0.02846
G1 X205.267 Y177.948 E0.05694
G1 X205.267 Y177.217 E0.02846
G1 X204.233 Y178.252 E0.05694
G1 X204.233 Y177.52 E0.02846
G1 X205.267 Y176.486 E0.05694
G1 X205.267 Y175.754 E0.02846
G1 X204.233 Y176.789 E0.05694
G1 X204.233 Y176.058 E0.02846
G1 X205.267 Y175.023 E0.05694
G1 X205.267 Y174.292 E0.02846
G1 X204.233 Y175.326 E0.05694
G1 X204.233 Y174.595 E0.02846
G1 X205.267 Y173.561 E0.05694
G1 X205.267 Y172.829 E0.02846
G1 X204.233 Y173.864 E0.05694
G1 X204.233 Y173.133 E0.02846
G1 X205.267 Y172.098 E0.05694
G1 X205.267 Y171.367 E0.02846
G1 X204.233 Y172.401 E0.05694
G1 X204.233 Y171.67 E0.02846
G1 X205.267 Y170.636 E0.05694
G1 X205.267 Y169.904 E0.02846
G1 X204.233 Y170.939 E0.05694
G1 X204.233 Y170.208 E0.02846
G1 X205.267 Y169.173 E0.05694
G1 X205.267 Y168.442 E0.02846
G1 X204.233 Y169.476 E0.05694
G1 X204.233 Y168.745 E0.02846
G1 X205.267 Y167.711 E0.05694
G1 X205.267 Y166.979 E0.02846
G1 X204.233 Y168.014 E0.05694
G1 X204.233 Y167.283 E0.02846
G1 X205.267 Y166.248 E0.05694
G1 X205.267 Y165.517 E0.02846
G1 X204.233 Y166.551 E0.05694
G1 X204.233 Y165.82 E0.02846
G1 X205.267 Y164.786 E0.05694
G1 X205.267 Y164.054 E0.02846
G1 X204.233 Y165.089 E0.05694
G1 X204.233 Y164.358 E0.02846
G1 X205.267 Y163.323 E0.05694
G1 X205.267 Y162.592 E0.02846
G1 X204.233 Y163.626 E0.05694
G1 X204.233 Y162.895 E0.02846
G1 X205.267 Y161.86 E0.05694
G1 X205.267 Y161.129 E0.02846
G1 X204.233 Y162.164 E0.05694
G1 X204.233 Y161.433 E0.02846
G1 X205.267 Y160.398 E0.05694
G1 X205.267 Y159.667 E0.02846
G1 X204.233 Y160.701 E0.05694
G1 X204.233 Y159.97 E0.02846
G1 X205.267 Y158.935 E0.05694
G1 X205.267 Y158.204 E0.02846
G1 X204.233 Y159.239 E0.05694
G1 X204.233 Y158.507 E0.02846
G1 X205.267 Y157.473 E0.05694
G1 X205.267 Y156.742 E0.02846
G1 X204.233 Y157.776 E0.05694
G1 X204.233 Y157.045 E0.02846
G1 X205.267 Y156.01 E0.05694
G1 X205.267 Y155.279 E0.02846
G1 X204.233 Y156.314 E0.05694
G1 X204.233 Y155.582 E0.02846
G1 X205.267 Y154.548 E0.05694
G1 X205.267 Y153.817 E0.02846
G1 X204.233 Y154.851 E0.05694
G1 X204.233 Y154.12 E0.02846
G1 X205.267 Y153.085 E0.05694
G1 X205.267 Y152.354 E0.02846
G1 X204.233 Y153.389 E0.05694
G1 X204.233 Y152.657 E0.02846
G1 X205.267 Y151.623 E0.05694
G1 X205.267 Y150.892 E0.02846
G1 X204.233 Y151.926 E0.05694
G1 X204.233 Y151.195 E0.02846
G1 X205.267 Y150.16 E0.05694
G1 X205.267 Y149.429 E0.02846
G1 X204.233 Y150.464 E0.05694
G1 X204.233 Y149.732 E0.02846
G1 X205.267 Y148.698 E0.05694
G1 X205.267 Y147.967 E0.02846
G1 X204.233 Y149.001 E0.05694
G1 X204.233 Y148.27 E0.02846
G1 X205.267 Y147.235 E0.05694
G1 X205.267 Y147.064 E0.00667
G1 X204.707 Y147.064 E0.02179
G1 X204.01 Y147.761 E0.03836
; INIT stop printing object test.stl id:0 copy 0
;LAYER_CHANGE
;Z:0.64
;HEIGHT:0.2
G1 E-0.6 F3000
; stop printing object test.stl id:0 copy 0
M204 S4000
G1 Z0.64 F9000
G92 E0
; INIT printing object test.stl id:0 copy 0
; printing object test.stl id:0 copy 0
; acceleration to travel
G1 X203.618 Y165.127
; decel to extrusion
M204 S3500
G1 X203.233 Y182.117
; end travel
G1 E0.6 F1800
;TYPE:Internal perimeter
;WIDTH:0.4
G1 F5400
G1 X203.947 Y182.117 E0.0212
G1 X203.947 Y176.117 E0.17815
G1 X204.062 Y176.117 E0.00339
G1 X204.062 Y149.276 E0.79692
