; generated by SuperSlicer 2.3.57 on 2022-04-07 at 03:56:05 UTC


;
;

;
;
; 

; external perimeters extrusion width = 0.40mm
; perimeters extrusion width = 0.45mm
; infill extrusion width = 0.72mm
; solid infill extrusion width = 0.56mm
; top infill extrusion width = 0.40mm
; support material extrusion width = 0.42mm
; first layer extrusion width = 0.48mm

; external perimeters extrusion width = 0.40mm
; perimeters extrusion width = 0.45mm
; infill extrusion width = 0.72mm
; solid infill extrusion width = 0.56mm
; top infill extrusion width = 0.40mm
; support material extrusion width = 0.42mm
; first layer extrusion width = 0.48mm

; external perimeters extrusion width = 0.40mm
; perimeters extrusion width = 0.45mm
; infill extrusion width = 0.72mm
; solid infill extrusion width = 0.56mm
; top infill extrusion width = 0.40mm
; support material extrusion width = 0.42mm
; first layer extrusion width = 0.48mm

; object:{"name":"Untitled","id":"Untitled.stl id:0 copy 0","object_center":[152.500027,149.999997,0.000000],"boundingbox_center":[152.500027,149.999997,30.000001],"boundingbox_size":[32.000168,109.000071,60.000002]}
; plater:{"center":[152.500027,149.999997,0.000000],"boundingbox_center":[152.500027,149.999997,30.000001],"boundingbox_size":[32.000168,109.000071,60.000002]}

;TYPE:Custom
START_PRINT T_BED=60 T_EXTRUDER=215
M107
G21 ; set units to millimeters
G90 ; use absolute coordinates
M83 ; use relative distances for extrusion
; Filament gcode
M104 S215 ; set temperature
M109 S215 ; set temperature and wait for it to be reached
M190 S60 ; set bed temperature and wait for it to be reached
M107
;LAYER_CHANGE
;Z:0.24
;HEIGHT:0.24
G1 E-0.8 F3000
G1 Z0.24 F9000
G1 X130.698 Y90.021
G1 E0.8 F1800
; External perimeter
;Skirt
SET_VELOCITY_LIMIT ACCEL=300 ACCEL_TO_DECEL=3000 SQUARE_CORNER_VELOCITY=5

; Support material

;TYPE:Skirt
;WIDTH:0.48
G1 X130.349 Y90.612 E0.02939
G1 X130.117 Y91.26 E0.02939
G1 X130.01 Y91.939 E0.02939
G1 X130.005 Y148.338 E2.41137
G1 X137.079 Y205.335 E2.45564
G1 X137.523 Y206.35 E0.04739
G1 X138.249 Y207.182 E0.04719
G1 X139.194 Y207.761 E0.04739
G1 X140.27 Y208.028 E0.04739
G1 X164.414 Y208.043 E1.03229
G1 X165.333 Y207.921 E0.03961
G1 X166.296 Y207.51 E0.0448
G1 X167.1 Y206.845 E0.0446
G1 X167.682 Y205.979 E0.0446
G1 X167.995 Y204.984 E0.0446
G1 X174.984 Y148.71 E2.42454
G1 X174.997 Y92.336 E2.41027
G1 X174.874 Y91.408 E0.04001
G1 X174.422 Y90.381 E0.04799
G1 X173.675 Y89.537 E0.04819
G1 X172.706 Y88.962 E0.04819
G1 X171.607 Y88.71 E0.04819
G1 X133.653 Y88.517 E1.62276
G1 X132.969 Y88.581 E0.02939
G1 X132.308 Y88.772 E0.02939
G1 X131.696 Y89.084 E0.02939
G1 X131.153 Y89.505 E0.02939
G1 X130.738 Y89.975 E0.02682
G1 X131.06 Y90.257 F9000
G1 F1800
G1 X131.036 Y90.285 E0.00159
G1 X130.728 Y90.812 E0.02609
G1 X130.526 Y91.388 E0.02609
G1 X130.437 Y91.987 E0.02591
G1 X130.434 Y148.337 E2.40923
G1 X137.494 Y205.227 E2.45105
G1 X137.89 Y206.128 E0.04206
G1 X138.539 Y206.867 E0.04206
G1 X139.382 Y207.375 E0.04206
G1 X140.339 Y207.604 E0.04206
G1 X164.414 Y207.614 E1.02935
G1 X165.229 Y207.506 E0.03513
G1 X166.077 Y207.142 E0.03944
G1 X166.786 Y206.553 E0.03944
G1 X167.3 Y205.787 E0.03944
G1 X167.575 Y204.901 E0.03963
G1 X174.558 Y148.669 E2.42269
G1 X174.568 Y92.338 E2.40846
G1 X174.46 Y91.519 E0.03532
G1 X174.058 Y90.607 E0.04263
G1 X173.392 Y89.859 E0.04281
G1 X172.529 Y89.353 E0.04281
G1 X171.555 Y89.136 E0.04263
G1 X133.651 Y88.946 E1.62064
G1 X133.043 Y89.003 E0.02609
G1 X132.458 Y89.174 E0.02609
G1 X131.918 Y89.45 E0.02591
G1 X131.437 Y89.825 E0.02609
G1 X131.1 Y90.212 E0.02194
; INIT printing object Untitled.stl id:0 copy 0
G1 E-0.8 F3000
; printing object Untitled.stl id:0 copy 0
G1 X171.354 Y148.413 F9000
G1 E0.8 F1800
; External perimeter
;SupportMaterial
SET_VELOCITY_LIMIT ACCEL=3000 ACCEL_TO_DECEL=3000 SQUARE_CORNER_VELOCITY=5

; Support material interface

;TYPE:Support material
G1 X171.354 Y92.344 E2.39723
G1 X170.497 Y92.344 E0.03664
G1 X170.497 Y148.229 E2.38936
G1 X169.64 Y148.229 E0.03664
G1 X169.64 Y92.344 E2.38936
G1 X168.783 Y92.344 E0.03664
G1 X168.783 Y142.844 E2.15911
G1 X168.734 Y142.794 E0.00297
G1 X167.926 Y142.794 E0.03454
G1 X167.926 Y92.344 E2.15701
G1 X167.069 Y92.344 E0.03664
G1 X167.069 Y142.794 E2.15701
G1 X166.212 Y142.794 E0.03664
G1 X166.212 Y92.344 E2.15701
G1 X165.355 Y92.344 E0.03664
G1 X165.355 Y142.794 E2.15701
G1 X164.498 Y142.794 E0.03664
G1 X164.498 Y92.344 E2.15701
G1 X163.641 Y92.344 E0.03664
G1 X163.641 Y142.794 E2.15701
G1 X162.784 Y142.794 E0.03664
G1 X162.784 Y92.344 E2.15701
G1 X161.927 Y92.344 E0.03664
G1 X161.927 Y142.794 E2.15701
G1 X161.403 Y142.794 E0.02242
G1 X161.403 Y100.687 E1.80032
G1 X161.07 Y100.687 E0.01422
G1 X161.07 Y92.344 E0.35669
G1 X160.213 Y92.344 E0.03664
G1 X160.213 Y100.687 E0.35669
G1 X159.356 Y100.687 E0.03664
G1 X159.356 Y92.344 E0.35669
G1 X158.499 Y92.344 E0.03664
G1 X158.499 Y100.687 E0.35669
G1 X157.642 Y100.687 E0.03664
G1 X157.642 Y92.344 E0.35669
G1 X156.785 Y92.344 E0.03664
G1 X156.785 Y100.687 E0.35669
G1 X155.928 Y100.687 E0.03664
G1 X155.928 Y92.344 E0.35669
G1 X155.071 Y92.344 E0.03664
G1 X155.071 Y100.687 E0.35669
G1 X154.214 Y100.687 E0.03664
G1 X154.214 Y92.344 E0.35669
G1 X153.357 Y92.344 E0.03664
G1 X153.357 Y100.687 E0.35669
G1 X152.5 Y100.687 E0.03664
G1 X152.5 Y92.344 E0.35669
G1 X151.643 Y92.344 E0.03664
G1 X151.643 Y100.687 E0.35669
G1 X150.786 Y100.687 E0.03664
G1 X150.786 Y92.344 E0.35669
G1 X149.929 Y92.344 E0.03664
G1 X149.929 Y100.687 E0.35669
G1 X149.072 Y100.687 E0.03664
G1 X149.072 Y92.344 E0.35669
G1 X148.215 Y92.344 E0.03664
G1 X148.215 Y100.687 E0.35669
G1 X147.358 Y100.687 E0.03664
G1 X147.358 Y92.344 E0.35669
G1 X146.501 Y92.344 E0.03664
G1 X146.501 Y100.687 E0.35669
G1 X145.644 Y100.687 E0.03664
G1 X145.644 Y92.344 E0.35669
G1 X144.787 Y92.344 E0.03664
G1 X144.787 Y100.687 E0.35669
G1 X143.93 Y100.687 E0.03664
G1 X143.93 Y92.344 E0.35669
G1 X143.073 Y92.344 E0.03664
G1 X143.073 Y142.794 E2.15701
G1 X142.216 Y142.794 E0.03664
G1 X142.216 Y92.344 E2.15701
G1 X141.359 Y92.344 E0.03664
G1 X141.359 Y142.794 E2.15701
G1 X140.502 Y142.794 E0.03664
G1 X140.502 Y92.344 E2.15701
G1 X139.645 Y92.344 E0.03664
G1 X139.645 Y142.794 E2.15701
G1 X138.788 Y142.794 E0.03664
G1 X138.788 Y92.344 E2.15701
G1 X137.931 Y92.344 E0.03664
G1 X137.931 Y142.794 E2.15701
G1 X137.074 Y142.794 E0.03664
G1 X137.074 Y92.344 E2.15701
G1 X136.217 Y92.344 E0.03664
G1 X136.217 Y142.843 E2.15911
G1 X135.794 Y143.266 E0.02557
G1 X135.794 Y148.229 E0.21217
G1 X135.36 Y148.229 E0.01856
G1 X135.36 Y92.344 E2.38936
G1 X134.503 Y92.344 E0.03664
G1 X134.503 Y148.229 E2.38936
G1 X133.646 Y148.229 E0.03664
G1 X133.646 Y92.16 E2.39723
G1 E-0.8 F3000
G1 X163.434 Y161.146 F9000
G1 E0.8 F1800
; External perimeter
;Perimeter
SET_VELOCITY_LIMIT ACCEL=2000 ACCEL_TO_DECEL=2000 SQUARE_CORNER_VELOCITY=5

; Overhang perimeter

;TYPE:Internal perimeter
G1 X163.236 Y162.894 E0.07519
G1 X163.212 Y163.595 E0.03
G1 X163.206 Y203.303 E1.69773
G1 X141.794 Y203.303 E0.91545
G1 X141.783 Y163.254 E1.71231
G1 X141.744 Y162.648 E0.02594
G1 X141.555 Y161.143 E0.06486
G1 X137.697 Y161.143 E0.16496
G1 X137.697 Y144.697 E0.70316
G1 X167.303 Y144.697 E1.26582
G1 X167.303 Y161.146 E0.7033
G1 X163.494 Y161.146 E0.16284
G1 X163.817 Y161.575 F9000
G1 F1800
G1 X163.663 Y162.925 E0.05811
G1 X163.64 Y163.602 E0.02897
G1 X163.634 Y203.269 E1.69594
G1 X163.731 Y203.269 E0.00416
G1 X163.731 Y203.732 E0.0198
G1 X141.268 Y203.732 E0.96042
G1 X141.268 Y203.268 E0.0198
G1 X141.366 Y203.268 E0.00416
G1 X141.354 Y163.268 E1.71024
G1 X141.317 Y162.689 E0.02481
G1 X141.177 Y161.572 E0.04814
G1 X137.268 Y161.571 E0.16711
G1 X137.268 Y144.268 E0.7398
G1 X167.731 Y144.269 E1.30246
G1 X167.731 Y161.575 E0.73994
G1 X163.877 Y161.575 E0.16481
G1 X164.199 Y162.003 F9000
; External perimeter
;ExternalPerimeter
SET_VELOCITY_LIMIT ACCEL=1000 ACCEL_TO_DECEL=1000 SQUARE_CORNER_VELOCITY=5

; Perimeter

;TYPE:External perimeter
G1 F1800
G1 X164.091 Y162.957 E0.04103
G1 X164.069 Y163.61 E0.02793
G1 X164.063 Y202.84 E1.67731
G1 X164.16 Y202.84 E0.00042
G1 X164.16 Y202.96 E0.00458
G1 X164.16 Y203.2 E0.00971
G1 X164.16 Y204.16 E0.04105
G1 X164.04 Y204.16 E0.0046
G1 X163.8 Y204.16 E0.00973
G1 X140.84 Y204.16 E0.98167
G1 X140.84 Y204.04 E0.00458
G1 X140.84 Y203.8 E0.00971
G1 X140.84 Y202.84 E0.04105
G1 X140.937 Y202.84 E0.00042
G1 X140.937 Y202.72 E0.00458
G1 X140.937 Y202.48 E0.00971
G1 X140.926 Y163.282 E1.67594
G1 X140.89 Y162.729 E0.02367
G1 X140.799 Y162 E0.03142
G1 X140.679 Y162 E0.00474
G1 X140.439 Y162 E0.00987
G1 X136.84 Y162 E0.15387
G1 X136.84 Y161.88 E0.0046
G1 X136.84 Y161.64 E0.00973
G1 X136.84 Y143.84 E0.76104
G1 X136.96 Y143.84 E0.00458
G1 X136.992 Y143.84 E0.00083
G1 X168.16 Y143.84 E1.33259
G1 X168.16 Y143.96 E0.0046
G1 X168.16 Y144.2 E0.00973
G1 X168.16 Y162.003 E0.76119
G1 X168.04 Y162.003 E0.0046
G1 X167.8 Y162.003 E0.00973
G1 X164.259 Y162.003 E0.15138
;WIPE_START
G1 X163.801 Y161.973 F9000
;WIPE_END
G1 X167.239 Y145.627
; External perimeter
;SolidInfill
SET_VELOCITY_LIMIT ACCEL=2000 ACCEL_TO_DECEL=2000 SQUARE_CORNER_VELOCITY=5

; Bridge infill

;TYPE:Solid infill
;WIDTH:0.47564
G1 F2400
G1 X166.557 Y144.946 E0.04086
G1 X165.951 Y144.946 E0.02567
G1 X167.054 Y146.049 E0.06613
G1 X167.054 Y146.655 E0.02567
G1 X165.345 Y144.946 E0.10244
G1 X164.739 Y144.946 E0.02567
G1 X167.054 Y147.261 E0.13874
G1 X167.054 Y147.867 E0.02567
G1 X164.133 Y144.946 E0.17505
G1 X163.527 Y144.946 E0.02567
G1 X167.054 Y148.473 E0.21136
G1 X167.054 Y149.079 E0.02567
G1 X162.921 Y144.946 E0.24767
G1 X162.315 Y144.946 E0.02567
G1 X167.054 Y149.685 E0.28398
G1 X167.054 Y150.291 E0.02567
G1 X161.709 Y144.946 E0.32029
G1 X161.103 Y144.946 E0.02567
G1 X167.054 Y150.897 E0.35659
G1 X167.054 Y151.503 E0.02567
G1 X160.497 Y144.946 E0.3929
G1 X159.891 Y144.946 E0.02567
G1 X167.054 Y152.109 E0.42921
G1 X167.054 Y152.715 E0.02567
G1 X159.285 Y144.946 E0.46552
G1 X158.679 Y144.946 E0.02567
G1 X167.054 Y153.321 E0.50183
G1 X167.054 Y153.927 E0.02567
G1 X158.073 Y144.946 E0.53813
G1 X157.467 Y144.946 E0.02567
G1 X167.054 Y154.533 E0.57444
G1 X167.054 Y155.139 E0.02567
G1 X156.861 Y144.946 E0.61075
G1 X156.255 Y144.946 E0.02567
G1 X167.054 Y155.745 E0.64706
G1 X167.054 Y156.351 E0.02567
G1 X155.649 Y144.946 E0.68337
G1 X155.043 Y144.945 E0.02567
G1 X167.054 Y156.957 E0.71968
G1 X167.054 Y157.563 E0.02567
G1 X154.437 Y144.945 E0.75598
G1 X153.831 Y144.945 E0.02567
G1 X167.054 Y158.169 E0.79229
G1 X167.054 Y158.775 E0.02567
G1 X153.225 Y144.945 E0.8286
G1 X152.619 Y144.945 E0.02567
G1 X167.054 Y159.381 E0.86491
G1 X167.054 Y159.987 E0.02567
G1 X152.013 Y144.945 E0.90122
G1 X151.407 Y144.945 E0.02567
G1 X167.054 Y160.593 E0.93752
G1 X167.054 Y160.898 E0.01293
G1 X166.754 Y160.898 E0.01275
G1 X150.801 Y144.945 E0.95581
G1 X150.195 Y144.945 E0.02567
G1 X166.148 Y160.898 E0.95581
G1 X165.542 Y160.898 E0.02567
G1 X149.589 Y144.945 E0.95581
G1 X148.983 Y144.945 E0.02567
G1 X164.936 Y160.898 E0.95581
G1 X164.33 Y160.898 E0.02567
G1 X148.377 Y144.945 E0.95581
G1 X147.771 Y144.945 E0.02567
G1 X163.724 Y160.898 E0.95581
G1 X163.212 Y160.898 E0.02166
G1 X163.203 Y160.983 E0.00363
G1 X147.165 Y144.945 E0.9609
G1 X146.559 Y144.945 E0.02567
G1 X163.141 Y161.527 E0.99351
G1 X163.079 Y162.071 E0.0232
G1 X145.953 Y144.945 E1.02611
G1 X145.347 Y144.945 E0.02567
G1 X163.017 Y162.615 E1.05871
G1 X162.988 Y162.876 E0.0111
G1 X162.977 Y163.181 E0.01297
G1 X144.741 Y144.945 E1.09263
G1 X144.135 Y144.945 E0.02567
G1 X162.963 Y163.774 E1.1281
G1 X162.963 Y164.379 E0.02567
G1 X143.529 Y144.945 E1.16441
G1 X142.923 Y144.945 E0.02567
G1 X162.963 Y164.985 E1.20071
G1 X162.963 Y165.591 E0.02567
G1 X142.317 Y144.945 E1.23701
G1 X141.711 Y144.945 E0.02567
G1 X162.963 Y166.197 E1.27331
G1 X162.963 Y166.803 E0.02567
G1 X141.105 Y144.945 E1.30962
G1 X140.499 Y144.945 E0.02567
G1 X162.963 Y167.409 E1.34592
G1 X162.963 Y168.015 E0.02567
G1 X139.893 Y144.945 E1.38222
G1 X139.287 Y144.945 E0.02567
G1 X162.963 Y168.621 E1.41852
G1 X162.963 Y169.227 E0.02567
G1 X138.681 Y144.945 E1.45483
G1 X138.075 Y144.945 E0.02567
G1 X162.962 Y169.832 E1.49113
G1 X162.962 Y170.438 E0.02567
G1 X137.945 Y145.421 E1.49891
G1 X137.945 Y146.027 E0.02567
G1 X162.962 Y171.044 E1.49891
G1 X162.962 Y171.65 E0.02567
G1 X137.945 Y146.633 E1.4989
G1 X137.945 Y147.239 E0.02567
G1 X162.962 Y172.256 E1.4989
G1 X162.962 Y172.862 E0.02567
G1 X137.945 Y147.845 E1.49889
G1 X137.945 Y148.451 E0.02567
G1 X162.962 Y173.468 E1.49888
G1 X162.962 Y174.074 E0.02567
G1 X137.945 Y149.057 E1.49888
G1 X137.945 Y149.663 E0.02567
G1 X162.962 Y174.68 E1.49887
G1 X162.962 Y175.285 E0.02567
G1 X137.945 Y150.269 E1.49887
G1 X137.945 Y150.875 E0.02567
G1 X162.961 Y175.891 E1.49886
G1 X162.961 Y176.497 E0.02567
G1 X137.945 Y151.481 E1.49886
G1 X137.945 Y152.087 E0.02567
G1 X162.961 Y177.103 E1.49885
G1 X162.961 Y177.709 E0.02567
G1 X137.945 Y152.693 E1.49884
G1 X137.945 Y153.299 E0.02567
G1 X162.961 Y178.315 E1.49884
G1 X162.961 Y178.921 E0.02567
G1 X137.945 Y153.905 E1.49883
G1 X137.945 Y154.511 E0.02567
G1 X162.961 Y179.527 E1.49883
G1 X162.961 Y180.132 E0.02567
G1 X137.945 Y155.117 E1.49882
G1 X137.945 Y155.723 E0.02567
G1 X162.961 Y180.738 E1.49882
G1 X162.961 Y181.344 E0.02567
G1 X137.945 Y156.329 E1.49881
G1 X137.945 Y156.935 E0.02567
G1 X162.961 Y181.95 E1.4988
G1 X162.96 Y182.556 E0.02567
G1 X141.843 Y161.438 E1.2653
G1 X141.775 Y160.895 E0.02321
G1 X141.299 Y160.895 E0.02015
G1 X137.945 Y157.541 E0.20093
G1 X137.945 Y158.147 E0.02567
G1 X140.693 Y160.895 E0.16462
G1 X140.087 Y160.895 E0.02568
G1 X137.945 Y158.753 E0.12831
G1 X137.945 Y159.359 E0.02567
G1 X139.481 Y160.895 E0.092
G1 X138.875 Y160.895 E0.02568
G1 X137.945 Y159.965 E0.05569
G1 X137.945 Y160.571 E0.02567
G1 X138.453 Y161.079 E0.03042
G1 X141.717 Y161.919 F9000
G1 F2400
G1 X162.96 Y183.162 E1.27281
G1 X162.96 Y183.768 E0.02567
G1 X142.003 Y162.811 E1.25567
G1 X142.031 Y163.246 E0.01848
G1 X142.031 Y163.445 E0.00842
G1 X162.96 Y184.374 E1.25398
G1 X162.96 Y184.98 E0.02567
G1 X142.031 Y164.051 E1.25396
G1 X142.032 Y164.657 E0.02568
G1 X162.96 Y185.585 E1.25394
G1 X162.96 Y186.191 E0.02567
G1 X142.032 Y165.263 E1.25393
G1 X142.032 Y165.869 E0.02568
G1 X162.96 Y186.797 E1.25391
G1 X162.96 Y187.403 E0.02567
G1 X142.032 Y166.476 E1.2539
G1 X142.032 Y167.082 E0.02568
G1 X162.96 Y188.009 E1.25388
G1 X162.959 Y188.615 E0.02567
G1 X142.032 Y167.688 E1.25386
G1 X142.033 Y168.294 E0.02568
G1 X162.959 Y189.221 E1.25385
G1 X162.959 Y189.827 E0.02567
G1 X142.033 Y168.9 E1.25383
G1 X142.033 Y169.506 E0.02568
G1 X162.959 Y190.433 E1.25381
G1 X162.959 Y191.038 E0.02567
G1 X142.033 Y170.113 E1.2538
G1 X142.033 Y170.719 E0.02568
G1 X162.959 Y191.644 E1.25378
G1 X162.959 Y192.25 E0.02567
G1 X142.034 Y171.325 E1.25377
G1 X142.034 Y171.931 E0.02568
G1 X162.959 Y192.856 E1.25375
G1 X162.959 Y193.462 E0.02567
G1 X142.034 Y172.537 E1.25373
G1 X142.034 Y173.143 E0.02568
G1 X162.959 Y194.068 E1.25372
G1 X162.958 Y194.674 E0.02567
G1 X142.034 Y173.75 E1.2537
G1 X142.034 Y174.356 E0.02568
G1 X162.958 Y195.28 E1.25368
G1 X162.958 Y195.886 E0.02567
G1 X142.035 Y174.962 E1.25367
G1 X142.035 Y175.568 E0.02568
G1 X162.958 Y196.491 E1.25365
G1 X162.958 Y197.097 E0.02567
G1 X142.035 Y176.174 E1.25364
G1 X142.035 Y176.78 E0.02568
G1 X162.958 Y197.703 E1.25362
G1 X162.958 Y198.309 E0.02567
G1 X142.035 Y177.386 E1.2536
G1 X142.035 Y177.993 E0.02568
G1 X162.958 Y198.915 E1.25359
G1 X162.958 Y199.521 E0.02567
G1 X142.036 Y178.599 E1.25357
G1 X142.036 Y179.205 E0.02568
G1 X162.958 Y200.127 E1.25355
G1 X162.958 Y200.733 E0.02567
G1 X142.036 Y179.811 E1.25354
G1 X142.036 Y180.417 E0.02568
G1 X162.957 Y201.339 E1.25352
G1 X162.957 Y201.944 E0.02567
G1 X142.036 Y181.023 E1.25351
G1 X142.036 Y181.63 E0.02568
G1 X162.957 Y202.55 E1.25349
G1 X162.957 Y203.055 E0.02136
G1 X162.855 Y203.055 E0.00431
G1 X142.037 Y182.236 E1.24738
G1 X142.037 Y182.842 E0.02568
G1 X162.249 Y203.055 E1.21106
G1 X161.644 Y203.055 E0.02567
G1 X142.037 Y183.448 E1.17474
G1 X142.037 Y184.054 E0.02568
G1 X161.038 Y203.055 E1.13843
G1 X160.432 Y203.055 E0.02567
G1 X142.037 Y184.66 E1.10211
