; generated by SuperSlicer 2.4 on 2022-08-20 at 02:06:10 UTC


;
;

;
;
; 

; external perimeters extrusion width = 0.48mm
; perimeters extrusion width = 0.48mm
; infill extrusion width = 0.72mm
; solid infill extrusion width = 0.56mm
; top infill extrusion width = 0.40mm
; support material extrusion width = 0.42mm
; first layer extrusion width = 0.48mm

; object:{"name":"Untitled","id":"Untitled.stl id:0 copy 0","object_center":[165.001908,164.999978,0.000000],"boundingbox_center":[165.001908,164.999978,3.319200],"boundingbox_size":[170.764008,72.552002,6.638000]}
; plater:{"center":[165.001908,164.999978,0.000000],"boundingbox_center":[165.001908,164.999978,3.319200],"boundingbox_size":[170.764008,72.552002,6.638000]}

M73 P0 R30
;TYPE:Custom
START_PRINT T_BED=110 T_EXTRUDER=245
M107
G21 ; set units to millimeters
G90 ; use absolute coordinates
M83 ; use relative distances for extrusion
; Filament gcode
M104 S245 ; set temperature
M109 S245 ; set temperature and wait for it to be reached
M190 S110 ; set bed temperature and wait for it to be reached
M107
;LAYER_CHANGE
;Z:0.24
;HEIGHT:0.24
G1 Z0.24 F9000
G92 E0
M73 P0 R30
G1 E-0.5 F3000
M204 S1000
G1 X79.935 Y153.509 F9000
G1 E0.5 F1800
;TYPE:Skirt
;WIDTH:0.52
G1 X79.149 Y154.004 E0.04341
G1 X78.452 Y154.573 E0.04206
G1 X77.809 Y155.243 E0.04343
G1 X77.275 Y155.954 E0.04154
G1 X76.811 Y156.757 E0.04335
G1 X76.461 Y157.579 E0.04176
G1 X76.204 Y158.467 E0.04325
G1 X76.061 Y159.349 E0.04174
G1 X76.024 Y160.279 E0.0435
G1 X76.095 Y161.165 E0.04157
G1 X76.281 Y162.073 E0.04333
G1 X76.56 Y162.914 E0.0414
G1 X77.059 Y163.954 E0.05396
G1 X86.836 Y181.74 E0.94876
G1 X98.068 Y200.342 E1.0158
G1 X98.72 Y201.297 E0.05406
G1 X99.307 Y201.96 E0.0414
G1 X100.001 Y202.576 E0.04337
G1 X100.741 Y203.086 E0.04201
G1 X101.563 Y203.517 E0.0434
G1 X102.393 Y203.832 E0.04149
G1 X103.294 Y204.054 E0.04336
G1 X104.165 Y204.161 E0.04106
G1 X224.881 Y204.637 E5.64311
G1 X225.824 Y204.637 E0.04405
G1 X226.71 Y204.53 E0.04174
G1 X227.611 Y204.308 E0.04336
G1 X228.441 Y203.993 E0.04149
G1 X229.263 Y203.562 E0.0434
G1 X229.998 Y203.056 E0.04174
G1 X230.692 Y202.442 E0.0433
G1 X231.287 Y201.77 E0.04197
G1 X231.813 Y201.006 E0.04336
G1 X243.174 Y182.205 E1.02686
G1 X252.943 Y164.432 E0.94805
G1 X253.442 Y163.393 E0.05391
G1 X253.723 Y162.549 E0.04157
G1 X253.983 Y160.875 E0.07921
G1 X253.849 Y142.621 E0.85333
G1 X253.12 Y140.443 E0.10738
G1 X251.812 Y139.343 E0.07988
G1 X250.15 Y138.948 E0.07988
G1 X203.735 Y138.972 E2.16974
M73 P1 R29
G1 X82.371 Y152.667 E5.70936
M73 P1 R29
G1 X80.726 Y153.133 E0.07997
G1 X79.935 Y153.509 E0.04094
G1 X80.186 Y153.959 F9000
G1 F1800
G1 X79.398 Y154.399 E0.04218
G1 X78.788 Y154.896 E0.03675
G1 X77.679 Y156.187 E0.07959
G1 X77.215 Y156.99 E0.04335
G1 X76.652 Y158.597 E0.0796
G1 X76.527 Y159.367 E0.03648
G1 X76.552 Y161.072 E0.07968
G1 X76.982 Y162.715 E0.07938
G1 X77.468 Y163.73 E0.05262
G1 X87.245 Y181.515 E0.94876
G1 X98.468 Y200.101 E1.01491
G1 X99.104 Y201.032 E0.05272
G1 X100.311 Y202.227 E0.07941
G1 X100.957 Y202.673 E0.03671
G1 X102.505 Y203.379 E0.07952
G1 X104.167 Y203.695 E0.0791
G1 X225.824 Y204.171 E5.68708
G1 X227.499 Y203.855 E0.07969
G1 X229.047 Y203.149 E0.07952
G1 X230.383 Y202.093 E0.07964
G1 X231.429 Y200.741 E0.07989
G1 X242.765 Y181.98 E1.02466
G1 X252.534 Y164.208 E0.94805
G1 X253.021 Y163.193 E0.05259
G1 X253.266 Y162.456 E0.03633
G1 X253.517 Y160.878 E0.07468
G1 X253.383 Y142.624 E0.85333
G1 X252.866 Y140.894 E0.08441
G1 X251.696 Y139.809 E0.0746
G1 X250.15 Y139.415 E0.0746
G1 X203.787 Y139.435 E2.16729
G1 X82.424 Y153.13 E5.70936
G1 X80.875 Y153.575 E0.07535
G1 X80.186 Y153.959 E0.03688
G1 E-0.5 F3000
; printing object Untitled.stl id:0 copy 0
; acceleration to travel
M204 S3000
G1 X171.244 Y158.569 F9000
; decel to extrusion
M204 S1000
G1 X201.596 Y160.105
; end travel
G1 E0.5 F1800
;TYPE:Internal perimeter
;WIDTH:0.48
G1 X201.582 Y160.156 E0.00226
G1 X201.556 Y160.811 E0.02803
G1 X201.687 Y161.454 E0.02807
G1 X201.967 Y162.048 E0.02806
G1 X202.384 Y162.557 E0.02815
G1 X202.91 Y162.951 E0.02808
G1 X203.515 Y163.208 E0.0281
G1 X204.161 Y163.313 E0.02799
G1 X204.816 Y163.263 E0.02811
G1 X205.442 Y163.053 E0.02821
M73 P2 R29
G1 X205.993 Y162.702 E0.02793
G1 X206.452 Y162.229 E0.02818
G1 X206.776 Y161.658 E0.0281
G1 X206.96 Y161.03 E0.02796
G1 X206.988 Y160.373 E0.0281
G1 X206.854 Y159.729 E0.02816
G1 X206.575 Y159.138 E0.02793
G1 X206.16 Y158.627 E0.02813
G1 X205.632 Y158.233 E0.02818
G1 X205.03 Y157.977 E0.02798
G1 X204.383 Y157.871 E0.02802
G1 X203.726 Y157.921 E0.02817
G1 X203.103 Y158.134 E0.02814
G1 X202.549 Y158.482 E0.02799
G1 X202.093 Y158.957 E0.02818
G1 X201.766 Y159.524 E0.02796
G1 X201.596 Y160.105 E0.02587
G1 X202.008 Y160.225 F9000
;TYPE:External perimeter
G1 F1800
G1 X201.987 Y160.776 E0.02357
G1 X202.097 Y161.318 E0.02366
G1 X202.332 Y161.817 E0.02359
G1 X202.683 Y162.245 E0.02367
G1 X203.125 Y162.577 E0.02363
G1 X203.635 Y162.793 E0.02367
G1 X204.179 Y162.882 E0.02359
G1 X204.73 Y162.84 E0.02362
G1 X205.256 Y162.663 E0.0237
G1 X205.72 Y162.367 E0.02354
G1 X206.106 Y161.97 E0.02369
G1 X206.379 Y161.49 E0.02362
G1 X206.534 Y160.96 E0.0236
G1 X206.557 Y160.408 E0.0236
G1 X206.445 Y159.865 E0.02371
G1 X206.21 Y159.368 E0.02353
G1 X205.861 Y158.939 E0.02363
G1 X205.417 Y158.607 E0.02371
G1 X204.909 Y158.391 E0.02357
G1 X204.365 Y158.302 E0.0236
G1 X203.813 Y158.344 E0.02365
G1 X203.289 Y158.523 E0.02368
G1 X202.822 Y158.816 E0.02359
G1 X202.438 Y159.216 E0.0237
G1 X202.163 Y159.694 E0.02354
G1 X202.008 Y160.225 E0.02367
;WIPE_START
M204 S4000
G1 X201.64 Y160.382 F9000
;WIPE_END
G1 E-0.5 F3000
; acceleration to travel
M204 S3000
G1 X220.193 Y185.701 F9000
; decel to extrusion
M204 S1000
G1 X226.377 Y194.141
; end travel
G1 E0.5 F1800
;TYPE:Internal perimeter
G1 X225.738 Y193.985 E0.02811
G1 X224.979 Y193.985 E0.03245
G1 X224.241 Y194.166 E0.03249
G1 X223.567 Y194.519 E0.03254
G1 X222.997 Y195.024 E0.03255
G1 X222.848 Y195.241 E0.01127
G1 X222.607 Y195.166 E0.01078
G1 X222.607 Y187.973 E0.30754
G1 X219.926 Y187.136 E0.12009
G1 X218.231 Y186.376 E0.07942
G1 X216.641 Y185.415 E0.07945
G1 X215.284 Y184.362 E0.07344
G1 X215.052 Y184.153 E0.01335
G1 X213.94 Y183.041 E0.06722
G1 X212.719 Y181.497 E0.08416
G1 X211.766 Y179.924 E0.07865
G1 X210.997 Y178.217 E0.08001
G1 X210.443 Y176.446 E0.07937
G1 X210.109 Y174.62 E0.07936
G1 X209.996 Y172.757 E0.07979
G1 X210.059 Y171.386 E0.05869
G1 X210.268 Y169.884 E0.06484
G1 X210.828 Y167.557 E0.10232
G1 X204.586 Y163.952 E0.30817
G1 X204.642 Y163.706 E0.01081
G1 X204.902 Y163.686 E0.01115
G1 X205.628 Y163.442 E0.03272
G1 X206.265 Y163.036 E0.03231
G1 X206.797 Y162.488 E0.03266
G1 X207.174 Y161.826 E0.03257
G1 X207.386 Y161.1 E0.03233
G1 X207.418 Y160.338 E0.0326
G1 X207.263 Y159.592 E0.03261
G1 X207.151 Y159.355 E0.01121
G1 X207.337 Y159.184 E0.01077
G1 X213.569 Y162.782 E0.3077
G1 X215.562 Y160.933 E0.11627
G1 X216.99 Y159.885 E0.0757
G1 X218.528 Y159.007 E0.07574
G1 X220.058 Y158.351 E0.07116
G1 X221.816 Y157.82 E0.0785
G1 X223.592 Y157.506 E0.07714
G1 X225.451 Y157.406 E0.07961
G1 X225.836 Y157.429 E0.01647
G1 X227.125 Y157.506 E0.0552
G1 X228.868 Y157.812 E0.07569
G1 X230.564 Y158.315 E0.07562
G1 X232.176 Y159 E0.07487
G1 X233.728 Y159.885 E0.0764
G1 X235.153 Y160.932 E0.07563
G1 X237.146 Y162.783 E0.11626
G1 X243.379 Y159.185 E0.30771
G1 X243.564 Y159.356 E0.01079
G1 X243.451 Y159.594 E0.01125
G1 X243.302 Y160.341 E0.03256
G1 X243.331 Y161.095 E0.03228
G1 X243.542 Y161.828 E0.03261
G1 X243.924 Y162.488 E0.0326
G1 X244.449 Y163.035 E0.03241
G1 X245.092 Y163.443 E0.03257
G1 X245.818 Y163.686 E0.03274
G1 X246.075 Y163.706 E0.011
G1 X246.131 Y163.952 E0.0108
G1 X239.894 Y167.556 E0.30798
G1 X240.45 Y169.884 E0.10235
G1 X240.654 Y171.32 E0.06199
G1 X240.722 Y172.758 E0.06157
G1 X240.61 Y174.62 E0.07973
G1 X240.275 Y176.447 E0.07943
G1 X239.782 Y178.042 E0.07135
G1 X239.675 Y178.334 E0.01332
G1 X238.959 Y179.91 E0.07401
G1 X237.998 Y181.499 E0.07941
G1 X236.898 Y182.905 E0.07628
G1 X235.554 Y184.259 E0.0816
G1 X234.076 Y185.416 E0.08025
G1 X232.487 Y186.376 E0.07935
G1 X230.792 Y187.136 E0.07942
G1 X228.113 Y187.973 E0.12002
G1 X228.113 Y195.169 E0.30769
G1 X227.872 Y195.244 E0.01078
G1 X227.72 Y195.024 E0.01142
G1 X227.152 Y194.52 E0.0325
G1 X226.479 Y194.166 E0.03249
G1 X226.377 Y194.141 E0.00451
G1 E-0.5 F3000
; acceleration to travel
M204 S3000
G1 X239.395 Y168.854 F9000
; decel to extrusion
M204 S1000
G1 X243.734 Y160.425
; end travel
G1 E0.5 F1800
G1 X243.758 Y161.027 E0.02573
G1 X243.939 Y161.659 E0.02813
G1 X244.269 Y162.229 E0.02815
G1 X244.722 Y162.701 E0.02797
G1 X245.278 Y163.053 E0.02812
G1 X245.904 Y163.263 E0.02825
G1 X246.559 Y163.313 E0.02808
G1 X247.206 Y163.207 E0.02802
G1 X247.809 Y162.951 E0.02802
G1 X248.335 Y162.556 E0.02811
G1 X248.748 Y162.048 E0.02803
G1 X249.03 Y161.457 E0.02797
G1 X249.164 Y160.809 E0.02829
G1 X249.133 Y160.154 E0.02804
G1 X248.953 Y159.525 E0.02796
G1 X248.625 Y158.957 E0.02803
G1 X248.169 Y158.482 E0.02818
G1 X247.615 Y158.134 E0.02796
G1 X246.994 Y157.921 E0.02806
G1 X246.335 Y157.871 E0.02828
G1 X246.105 Y157.908 E0.00993
G1 X245.688 Y157.977 E0.01808
G1 X245.085 Y158.233 E0.02802
G1 X244.56 Y158.627 E0.02806
G1 X244.144 Y159.135 E0.02808
G1 X243.861 Y159.73 E0.02816
G1 X243.732 Y160.375 E0.02812
G1 X243.734 Y160.425 E0.00216
G1 X244.163 Y160.409 F9000
;TYPE:External perimeter
G1 F1800
G1 X244.184 Y160.958 E0.0235
G1 X244.337 Y161.49 E0.02366
G1 X244.614 Y161.97 E0.02369
G1 X244.995 Y162.367 E0.02354
G1 X245.463 Y162.663 E0.02367
G1 X245.99 Y162.84 E0.02376
G1 X246.541 Y162.882 E0.02361
G1 X247.085 Y162.793 E0.0236
G1 X247.593 Y162.577 E0.02359
G1 X248.035 Y162.245 E0.02364
G1 X248.383 Y161.817 E0.02358
G1 X248.62 Y161.319 E0.02357
G1 X248.734 Y160.775 E0.02377
G1 X248.708 Y160.224 E0.02357
G1 X248.555 Y159.694 E0.02358
G1 X248.28 Y159.216 E0.02357
G1 X247.896 Y158.816 E0.0237
G1 X247.429 Y158.523 E0.02358
G1 X246.907 Y158.344 E0.0236
G1 X246.353 Y158.302 E0.02375
G1 X246.175 Y158.331 E0.00773
G1 X245.808 Y158.391 E0.01587
G1 X245.301 Y158.607 E0.02359
G1 X244.859 Y158.939 E0.02362
G1 X244.509 Y159.367 E0.02364
G1 X244.271 Y159.866 E0.02366
G1 X244.163 Y160.409 E0.02367
;WIPE_START
M204 S4000
G1 X243.809 Y160.595 F9000
;WIPE_END
G1 E-0.5 F3000
; acceleration to travel
M204 S3000
G1 X230.658 Y186.067 F9000
; decel to extrusion
M204 S1000
G1 X226.275 Y194.557
; end travel
G1 E0.5 F1800
;TYPE:Internal perimeter
G1 X225.687 Y194.413 E0.02591
G1 X225.031 Y194.413 E0.02803
G1 X224.394 Y194.57 E0.02804
G1 X223.812 Y194.875 E0.02808
G1 X223.32 Y195.311 E0.0281
G1 X222.946 Y195.852 E0.02814
G1 X222.714 Y196.465 E0.02804
G1 X222.636 Y197.118 E0.02811
G1 X222.714 Y197.768 E0.02799
G1 X222.946 Y198.384 E0.02815
G1 X223.321 Y198.924 E0.0281
G1 X223.812 Y199.359 E0.02805
G1 X224.394 Y199.664 E0.02808
G1 X225.031 Y199.82 E0.02804
G1 X225.687 Y199.82 E0.02803
G1 X226.326 Y199.664 E0.02816
G1 X226.906 Y199.359 E0.02802
G1 X227.397 Y198.924 E0.02802
G1 X227.771 Y198.384 E0.0281
G1 X228.003 Y197.77 E0.02808
G1 X228.084 Y197.118 E0.02807
G1 X228.003 Y196.464 E0.02819
G1 X227.771 Y195.852 E0.02797
G1 X227.397 Y195.311 E0.02814
G1 X226.906 Y194.875 E0.02806
G1 X226.326 Y194.57 E0.02802
G1 X226.275 Y194.557 E0.00225
G1 X226.173 Y194.974 F9000
;TYPE:External perimeter
G1 F1800
G1 X225.635 Y194.842 E0.0237
G1 X225.083 Y194.842 E0.02361
G1 X224.547 Y194.974 E0.0236
G1 X224.057 Y195.23 E0.02362
G1 X223.644 Y195.597 E0.02364
G1 X223.329 Y196.053 E0.02369
G1 X223.133 Y196.568 E0.02357
G1 X223.067 Y197.118 E0.02367
G1 X223.133 Y197.665 E0.02357
G1 X223.329 Y198.183 E0.02367
G1 X223.644 Y198.637 E0.02363
G1 X224.057 Y199.004 E0.02363
G1 X224.547 Y199.26 E0.02362
G1 X225.083 Y199.392 E0.0236
G1 X225.635 Y199.392 E0.02361
G1 X226.173 Y199.26 E0.0237
G1 X226.661 Y199.004 E0.02355
G1 X227.074 Y198.637 E0.02361
G1 X227.389 Y198.183 E0.02363
G1 X227.584 Y197.666 E0.02364
G1 X227.653 Y197.118 E0.02361
G1 X227.584 Y196.568 E0.02371
G1 X227.389 Y196.053 E0.02354
G1 X227.074 Y195.597 E0.02369
G1 X226.661 Y195.23 E0.02363
G1 X226.173 Y194.974 E0.02355
;WIPE_START
M204 S4000
G1 X226.093 Y194.582 F9000
;WIPE_END
G1 E-0.5 F3000
; acceleration to travel
M204 S3000
G1 X227.929 Y190.098 F9000
; decel to extrusion
M204 S1000
G1 X228.541 Y188.603
; end travel
G1 E0.5 F1800
;TYPE:Internal perimeter
G1 X228.541 Y197.071 E0.36205
G1 X228.442 Y197.876 E0.03469
G1 X228.17 Y198.595 E0.03285
G1 X227.736 Y199.225 E0.03271
G1 X227.165 Y199.731 E0.03264
G1 X226.486 Y200.086 E0.03277
G1 X225.742 Y200.269 E0.03273
G1 X224.977 Y200.269 E0.03272
G1 X224.232 Y200.086 E0.03279
G1 X223.555 Y199.731 E0.03271
G1 X222.981 Y199.224 E0.03275
G1 X222.546 Y198.595 E0.0327
G1 X222.276 Y197.878 E0.03275
G1 X222.178 Y197.072 E0.03471
G1 X222.178 Y188.288 E0.37554
G1 X219.774 Y187.538 E0.10771
G1 X218.032 Y186.756 E0.08163
G1 X216.398 Y185.769 E0.08163
G1 X215.009 Y184.69 E0.07518
G1 X214.757 Y184.464 E0.0145
G1 X213.62 Y183.326 E0.06876
G1 X212.366 Y181.742 E0.08637
G1 X211.386 Y180.124 E0.08091
G1 X210.596 Y178.37 E0.08223
G1 X210.027 Y176.548 E0.08159
G1 X209.683 Y174.671 E0.08158
G1 X209.567 Y172.76 E0.08187
G1 X209.632 Y171.346 E0.06052
G1 X209.847 Y169.804 E0.06658
G1 X210.336 Y167.768 E0.08953
G1 X202.72 Y163.369 E0.37606
G1 X202.07 Y162.884 E0.03468
G1 X201.588 Y162.291 E0.03267
G1 X201.258 Y161.597 E0.03286
G1 X201.106 Y160.848 E0.03268
G1 X201.136 Y160.083 E0.03274
G1 X201.35 Y159.348 E0.03273
G1 X201.733 Y158.683 E0.03279
G1 X202.262 Y158.133 E0.03262
G1 X202.91 Y157.721 E0.03284
G1 X203.634 Y157.481 E0.03261
G1 X204.401 Y157.419 E0.03288
G1 X205.154 Y157.542 E0.03265
G1 X205.902 Y157.861 E0.03474
G1 X213.509 Y162.253 E0.3756
G1 X215.289 Y160.602 E0.1038
G1 X216.756 Y159.525 E0.07781
G1 X218.337 Y158.623 E0.07782
G1 X219.911 Y157.947 E0.07322
G1 X221.716 Y157.403 E0.08062
G1 X223.543 Y157.08 E0.07933
G1 X225.453 Y156.977 E0.08176
G1 X225.861 Y157.001 E0.01751
G1 X227.175 Y157.08 E0.05625
G1 X228.967 Y157.394 E0.07779
G1 X230.709 Y157.911 E0.07771
G1 X232.366 Y158.615 E0.07698
G1 X233.962 Y159.525 E0.07853
G1 X235.427 Y160.602 E0.07774
G1 X237.206 Y162.254 E0.10379
G1 X244.816 Y157.861 E0.37571
G1 X245.563 Y157.542 E0.03474
G1 X246.319 Y157.419 E0.03273
G1 X247.082 Y157.481 E0.03273
G1 X247.807 Y157.721 E0.03268
G1 X248.455 Y158.134 E0.03281
G1 X248.987 Y158.684 E0.03273
G1 X249.368 Y159.347 E0.0327
G1 X249.582 Y160.083 E0.03276
G1 X249.612 Y160.848 E0.03274
G1 X249.459 Y161.597 E0.03271
G1 X249.131 Y162.291 E0.0328
G1 X248.648 Y162.883 E0.03267
G1 X247.996 Y163.369 E0.03477
G1 X240.385 Y167.767 E0.37586
G1 X240.871 Y169.804 E0.08954
G1 X241.081 Y171.279 E0.0637
G1 X241.151 Y172.761 E0.06342
G1 X241.036 Y174.672 E0.08183
G1 X240.691 Y176.549 E0.08163
G1 X240.188 Y178.178 E0.07289
G1 X240.072 Y178.496 E0.01448
G1 X239.339 Y180.111 E0.07579
G1 X238.351 Y181.743 E0.08159
G1 X237.22 Y183.188 E0.07846
G1 X235.839 Y184.58 E0.08383
G1 X234.319 Y185.769 E0.0825
G1 X232.687 Y186.756 E0.08158
G1 X230.944 Y187.538 E0.08163
G1 X228.541 Y188.288 E0.10763
G1 X228.541 Y188.603 E0.01347
G1 X228.97 Y188.603 F9000
;TYPE:External perimeter
G1 F1800
G1 X228.97 Y197.097 E0.36318
G1 X228.861 Y197.98 E0.03802
G1 X228.553 Y198.795 E0.03727
G1 X228.059 Y199.511 E0.03717
G1 X227.41 Y200.086 E0.0371
G1 X226.639 Y200.49 E0.03721
G1 X225.795 Y200.698 E0.03717
G1 X224.925 Y200.698 E0.03717
G1 X224.079 Y200.49 E0.03724
G1 X223.31 Y200.086 E0.03714
G1 X222.658 Y199.51 E0.03719
G1 X222.163 Y198.795 E0.03719
G1 X221.857 Y197.981 E0.03721
G1 X221.75 Y197.098 E0.03803
G1 X221.75 Y188.603 E0.36317
G1 X219.622 Y187.939 E0.09533
G1 X217.832 Y187.136 E0.08384
G1 X216.154 Y186.122 E0.08382
G1 X214.734 Y185.019 E0.07691
G1 X214.462 Y184.774 E0.01564
G1 X213.299 Y183.612 E0.07031
G1 X212.013 Y181.987 E0.08857
G1 X211.006 Y180.323 E0.08317
G1 X210.195 Y178.522 E0.08444
G1 X209.61 Y176.651 E0.08381
G1 X209.257 Y174.723 E0.0838
G1 X209.138 Y172.763 E0.08395
G1 X209.205 Y171.307 E0.06235
G1 X209.425 Y169.724 E0.06832
G1 X209.845 Y167.979 E0.07674
G1 X202.483 Y163.728 E0.36347
M73 P3 R29
G1 X201.771 Y163.195 E0.03803
