; generated by SuperSlicer 2.4 on 2022-05-26 at 03:27:08 UTC


;
;

;
;
; 

; external perimeters extrusion width = 0.40mm
; perimeters extrusion width = 0.40mm
; infill extrusion width = 0.72mm
; solid infill extrusion width = 0.56mm
; top infill extrusion width = 0.40mm
; first layer extrusion width = 0.48mm

; object:{"name":"CableTiev6v1SMALL8COUNT","id":"CableTiev6v1SMALL8COUNT.stl id:0 copy 0","object_center":[165.000001,165.000000,0.000000],"boundingbox_center":[165.000001,165.000000,0.394471],"boundingbox_size":[100.595535,91.204231,0.788941]}
; plater:{"center":[165.000001,165.000000,0.000000],"boundingbox_center":[165.000001,165.000000,0.394471],"boundingbox_size":[100.595535,91.204231,0.788941]}

M73 P0 R35
;TYPE:Custom
START_PRINT T_BED=60 T_EXTRUDER=220
M107
G21 ; set units to millimeters
G90 ; use absolute coordinates
M83 ; use relative distances for extrusion
; Filament gcode
M104 S220 ; set temperature
M109 S220 ; set temperature and wait for it to be reached
M190 S60 ; set bed temperature and wait for it to be reached
M107
;LAYER_CHANGE
;Z:0.24
;HEIGHT:0.24
G1 Z0.24 F9000
G92 E0
M204 S1000
M73 P0 R34
G1 X115.055 Y116.782
;TYPE:Skirt
;WIDTH:0.52
M73 P1 R34
G1 F1800
G1 X113.916 Y118.055 E0.07988
G1 X113.471 Y119.705 E0.07988
G1 X111.104 Y197.81 E3.65283
G1 X111.103 Y203.245 E0.25405
G1 X111.293 Y204.415 E0.0554
G1 X113.659 Y211.515 E0.34988
G1 X114.193 Y212.543 E0.05413
G1 X115.498 Y213.646 E0.07988
G1 X117.159 Y214.045 E0.07988
G1 X188.001 Y214.202 E3.31163
G1 X212.898 Y213.751 E1.16403
G1 X214.945 Y213.088 E0.1006
G1 X216.084 Y211.814 E0.07988
G1 X216.529 Y210.164 E0.07988
G1 X218.896 Y132.059 E3.65283
G1 X218.897 Y126.624 E0.25405
G1 X218.707 Y125.454 E0.0554
G1 X216.341 Y118.354 E0.34988
G1 X215.806 Y117.324 E0.05422
G1 X214.5 Y116.222 E0.07988
G1 X212.839 Y115.824 E0.07988
G1 X200.489 Y115.798 E0.57731
G1 X117.153 Y116.118 E3.8957
G1 X115.055 Y116.782 E0.10288
G1 X115.413 Y117.135 F9000
G1 F1800
G1 X114.378 Y118.186 E0.06895
G1 X113.937 Y119.719 E0.0746
G1 X111.571 Y197.825 E3.65283
G1 X111.569 Y203.245 E0.25339
G1 X111.735 Y204.267 E0.04842
G1 X114.102 Y211.368 E0.34988
G1 X115.615 Y213.181 E0.1104
G1 X117.161 Y213.579 E0.0746
G1 X188.06 Y213.735 E3.31432
G1 X212.89 Y213.284 E1.16089
G1 X214.502 Y212.82 E0.07843
G1 X215.622 Y211.684 E0.0746
G1 X216.063 Y210.15 E0.0746
G1 X218.429 Y132.045 E3.65283
M73 P2 R34
G1 X218.431 Y126.624 E0.25339
G1 X218.265 Y125.602 E0.04842
G1 X215.898 Y118.501 E0.34988
G1 X215.551 Y117.775 E0.03762
G1 X214.383 Y116.687 E0.0746
G1 X212.838 Y116.29 E0.0746
G1 X200.488 Y116.265 E0.57731
G1 X117.155 Y116.584 E3.89556
G1 X115.498 Y117.049 E0.08045
G1 X115.413 Y117.135 E0.00565
; printing object CableTiev6v1SMALL8COUNT.stl id:0 copy 0
; acceleration to travel
M204 S3000
G1 X163.757 Y152.661 F9000
; decel to extrusion
M204 S1000
G1 X179.872 Y164.504
; end travel
;TYPE:External perimeter
;WIDTH:0.48
G1 F1800
G1 X179.872 Y166.761 E0.09654
G1 X186.863 Y166.761 E0.29893
G1 X186.863 Y164.504 E0.09654
G1 X179.872 Y164.504 E0.29893
;WIPE_START
M204 S4000
G1 X179.472 Y164.504 F9000
;WIPE_END
; acceleration to travel
M204 S3000
G1 X179.772 Y166.87
; decel to extrusion
M204 S1000
G1 X179.872 Y167.659
; end travel
G1 F1800
G1 X179.872 Y169.917 E0.09654
G1 X186.863 Y169.917 E0.29893
G1 X186.863 Y167.659 E0.09654
G1 X179.872 Y167.659 E0.29893
;WIPE_START
M204 S4000
G1 X179.472 Y167.659 F9000
;WIPE_END
; acceleration to travel
M204 S3000
G1 X179.772 Y170.026
; decel to extrusion
M204 S1000
G1 X179.872 Y170.815
; end travel
G1 F1800
G1 X179.872 Y173.073 E0.09654
G1 X186.863 Y173.073 E0.29893
G1 X186.863 Y170.815 E0.09654
G1 X179.872 Y170.815 E0.29893
;WIPE_START
M204 S4000
G1 X179.472 Y170.815 F9000
;WIPE_END
; acceleration to travel
M204 S3000
G1 X179.772 Y173.182
; decel to extrusion
M204 S1000
G1 X179.872 Y173.971
; end travel
G1 F1800
G1 X179.872 Y176.229 E0.09654
G1 X186.863 Y176.229 E0.29893
G1 X186.863 Y173.971 E0.09654
G1 X179.872 Y173.971 E0.29893
;WIPE_START
M204 S4000
G1 X179.472 Y173.971 F9000
;WIPE_END
; acceleration to travel
M204 S3000
G1 X179.772 Y176.338
; decel to extrusion
M204 S1000
G1 X179.872 Y177.127
; end travel
G1 F1800
G1 X179.872 Y179.384 E0.09654
G1 X186.863 Y179.384 E0.29893
G1 X186.863 Y177.127 E0.09654
G1 X179.872 Y177.127 E0.29893
;WIPE_START
M204 S4000
G1 X179.472 Y177.127 F9000
;WIPE_END
; acceleration to travel
M204 S3000
G1 X179.772 Y179.493
; decel to extrusion
M204 S1000
G1 X179.872 Y180.282
; end travel
G1 F1800
G1 X179.872 Y182.54 E0.09654
G1 X186.863 Y182.54 E0.29893
G1 X186.863 Y180.282 E0.09654
G1 X179.872 Y180.282 E0.29893
;WIPE_START
M204 S4000
G1 X179.472 Y180.282 F9000
;WIPE_END
; acceleration to travel
M204 S3000
G1 X179.772 Y182.649
; decel to extrusion
M204 S1000
G1 X179.872 Y183.438
; end travel
G1 F1800
G1 X179.872 Y185.696 E0.09654
G1 X186.863 Y185.696 E0.29893
G1 X186.863 Y183.438 E0.09654
G1 X179.872 Y183.438 E0.29893
;WIPE_START
M204 S4000
G1 X179.472 Y183.438 F9000
;WIPE_END
; acceleration to travel
M204 S3000
G1 X179.772 Y185.805
; decel to extrusion
M204 S1000
G1 X179.872 Y186.594
; end travel
G1 F1800
G1 X179.872 Y188.852 E0.09654
G1 X186.863 Y188.852 E0.29893
G1 X186.863 Y186.594 E0.09654
G1 X179.872 Y186.594 E0.29893
;WIPE_START
M204 S4000
G1 X179.472 Y186.594 F9000
;WIPE_END
; acceleration to travel
M204 S3000
G1 X179.772 Y188.961
; decel to extrusion
M204 S1000
G1 X179.872 Y189.75
; end travel
G1 F1800
G1 X179.872 Y192.008 E0.09654
G1 X186.863 Y192.008 E0.29893
G1 X186.863 Y189.75 E0.09654
G1 X179.872 Y189.75 E0.29893
;WIPE_START
M204 S4000
G1 X179.472 Y189.75 F9000
;WIPE_END
; acceleration to travel
M204 S3000
G1 X179.772 Y192.116
; decel to extrusion
M204 S1000
G1 X179.872 Y192.905
; end travel
G1 F1800
G1 X179.872 Y195.163 E0.09654
G1 X186.863 Y195.163 E0.29893
G1 X186.863 Y192.905 E0.09654
G1 X179.872 Y192.905 E0.29893
;WIPE_START
M204 S4000
G1 X179.472 Y192.905 F9000
;WIPE_END
; acceleration to travel
M204 S3000
G1 X179.772 Y195.272
; decel to extrusion
M204 S1000
G1 X179.872 Y196.061
; end travel
G1 F1800
G1 X179.872 Y198.319 E0.09654
G1 X186.863 Y198.319 E0.29893
G1 X186.863 Y196.061 E0.09654
G1 X179.872 Y196.061 E0.29893
;WIPE_START
M204 S4000
G1 X179.472 Y196.061 F9000
;WIPE_END
; acceleration to travel
M204 S3000
G1 X179.772 Y198.428
; decel to extrusion
M204 S1000
G1 X179.872 Y199.217
; end travel
G1 F1800
G1 X179.872 Y201.475 E0.09654
G1 X186.863 Y201.475 E0.29893
G1 X186.863 Y199.217 E0.09654
G1 X179.872 Y199.217 E0.29893
;WIPE_START
M204 S4000
G1 X179.472 Y199.217 F9000
;WIPE_END
; acceleration to travel
M204 S3000
G1 X179.772 Y172.508
; decel to extrusion
M204 S1000
G1 X179.872 Y163.606
; end travel
G1 F1800
G1 X186.863 Y163.606 E0.29893
G1 X186.863 Y161.348 E0.09654
G1 X179.872 Y161.348 E0.29893
G1 X179.872 Y163.606 E0.09654
;WIPE_START
M204 S4000
G1 X179.872 Y164.006 F9000
;WIPE_END
; acceleration to travel
M204 S3000
G1 X179.872 Y161.339
; decel to extrusion
M204 S1000
G1 X179.872 Y160.45
; end travel
G1 F1800
G1 X186.863 Y160.45 E0.29893
G1 X186.863 Y158.192 E0.09654
G1 X179.872 Y158.192 E0.29893
G1 X179.872 Y160.45 E0.09654
;WIPE_START
M204 S4000
G1 X179.872 Y160.85 F9000
;WIPE_END
; acceleration to travel
M204 S3000
G1 X179.872 Y158.183
; decel to extrusion
M204 S1000
G1 X179.872 Y157.294
; end travel
G1 F1800
G1 X186.863 Y157.294 E0.29893
G1 X186.863 Y155.036 E0.09654
G1 X179.872 Y155.036 E0.29893
G1 X179.872 Y157.294 E0.09654
;WIPE_START
M204 S4000
G1 X179.872 Y157.694 F9000
;WIPE_END
; acceleration to travel
M204 S3000
G1 X179.872 Y155.027
; decel to extrusion
M204 S1000
G1 X179.872 Y154.138
; end travel
G1 F1800
G1 X186.863 Y154.138 E0.29893
G1 X186.863 Y151.88 E0.09654
G1 X179.872 Y151.88 E0.29893
G1 X179.872 Y154.138 E0.09654
;WIPE_START
M204 S4000
G1 X179.872 Y154.538 F9000
;WIPE_END
; acceleration to travel
M204 S3000
G1 X179.872 Y151.872
; decel to extrusion
M204 S1000
G1 X179.872 Y150.983
; end travel
G1 F1800
G1 X186.863 Y150.983 E0.29893
G1 X186.863 Y148.725 E0.09654
G1 X179.872 Y148.725 E0.29893
G1 X179.872 Y150.983 E0.09654
;WIPE_START
M204 S4000
G1 X179.872 Y151.383 F9000
;WIPE_END
; acceleration to travel
M204 S3000
G1 X179.872 Y148.716
; decel to extrusion
M204 S1000
G1 X179.872 Y147.827
; end travel
G1 F1800
G1 X186.863 Y147.827 E0.29893
G1 X186.863 Y145.569 E0.09654
G1 X179.872 Y145.569 E0.29893
G1 X179.872 Y147.827 E0.09654
;WIPE_START
M204 S4000
G1 X179.872 Y148.227 F9000
;WIPE_END
; acceleration to travel
M204 S3000
G1 X179.872 Y145.56
; decel to extrusion
M204 S1000
G1 X179.872 Y144.671
; end travel
G1 F1800
G1 X186.863 Y144.671 E0.29893
G1 X186.863 Y142.413 E0.09654
G1 X179.872 Y142.413 E0.29893
G1 X179.872 Y144.671 E0.09654
;WIPE_START
M204 S4000
G1 X179.872 Y145.071 F9000
;WIPE_END
; acceleration to travel
M204 S3000
G1 X179.872 Y142.404
; decel to extrusion
M204 S1000
G1 X179.872 Y141.515
; end travel
G1 F1800
G1 X186.863 Y141.515 E0.29893
G1 X186.863 Y139.257 E0.09654
G1 X179.872 Y139.257 E0.29893
M73 P3 R34
G1 X179.872 Y141.515 E0.09654
;WIPE_START
M204 S4000
G1 X179.872 Y141.915 F9000
;WIPE_END
; acceleration to travel
M204 S3000
G1 X179.872 Y139.248
; decel to extrusion
M204 S1000
G1 X179.872 Y138.36
; end travel
G1 F1800
G1 X186.863 Y138.36 E0.29893
G1 X186.863 Y136.102 E0.09654
G1 X179.872 Y136.102 E0.29893
G1 X179.872 Y138.36 E0.09654
;WIPE_START
M204 S4000
G1 X179.872 Y138.76 F9000
;WIPE_END
; acceleration to travel
M204 S3000
G1 X179.872 Y136.414
; decel to extrusion
M204 S1000
G1 X179.872 Y135.632
; end travel
;TYPE:Internal perimeter
G1 F1800
G1 X187.292 Y135.632 E0.31725
G1 X187.292 Y132.946 E0.11486
G1 X187.333 Y132.946 E0.00175
G1 X187.333 Y204.631 E3.06491
G1 X187.292 Y204.631 E0.00175
G1 X187.292 Y201.944 E0.11486
G1 X179.443 Y201.944 E0.33557
M73 P3 R33
G1 X179.443 Y204.631 E0.11486
G1 X179.403 Y204.631 E0.00175
G1 X179.403 Y132.946 E3.06491
G1 X179.443 Y132.946 E0.00175
G1 X179.443 Y135.632 E0.11486
G1 X179.872 Y135.632 E0.01832
; acceleration to travel
M204 S3000
G1 X178.367 Y132.352 F9000
; decel to extrusion
M204 S1000
G1 X177.866 Y131.259
; end travel
G1 F1800
G1 X177.866 Y131.728 E0.02007
G1 X177.036 Y131.728 E0.03548
G1 X177.036 Y127.743 E0.17041
G1 X177.866 Y127.743 E0.03548
G1 X177.866 Y131.259 E0.15034
; acceleration to travel
M204 S3000
G1 X181.115 Y131.31 F9000
; decel to extrusion
M204 S1000
G1 X182.198 Y131.327
; end travel
G1 F1800
G1 X184.538 Y131.327 E0.10003
G1 X184.538 Y132.089 E0.03257
G1 X182.198 Y132.089 E0.10003
G1 X182.198 Y131.327 E0.03257
G1 X181.341 Y131.688 F9000
G1 F1800
G1 X181.769 Y131.688 E0.01832
G1 X181.769 Y130.899 E0.03373
G1 X184.966 Y130.899 E0.13667
G1 X184.966 Y131.688 E0.03373
G1 X187.333 Y131.688 E0.10119
G1 X187.333 Y132.517 E0.03548
G1 X179.403 Y132.517 E0.33906
G1 X179.403 Y131.688 E0.03548
G1 X181.341 Y131.688 E0.08287
; acceleration to travel
M204 S3000
G1 X181.984 Y129.326 F9000
; decel to extrusion
M204 S1000
G1 X182.198 Y128.539
; end travel
G1 F1800
G1 X182.198 Y127.355 E0.0506
G1 X179.831 Y127.355 E0.10119
G1 X179.831 Y121.071 E0.26869
G1 X186.904 Y121.071 E0.30242
G1 X186.904 Y127.355 E0.26869
G1 X184.538 Y127.355 E0.10119
G1 X184.538 Y128.539 E0.0506
G1 X182.198 Y128.539 E0.10003
G1 X181.769 Y128.967 F9000
G1 F1800
G1 X181.769 Y127.784 E0.0506
G1 X179.403 Y127.784 E0.10119
G1 X179.403 Y120.642 E0.30533
G1 X187.333 Y120.642 E0.33906
G1 X187.333 Y127.784 E0.30533
G1 X184.966 Y127.784 E0.10119
G1 X184.966 Y128.967 E0.0506
G1 X181.769 Y128.967 E0.13667
; acceleration to travel
M204 S3000
G1 X187.095 Y130.686 F9000
; decel to extrusion
M204 S1000
G1 X188.87 Y131.259
; end travel
G1 F1800
G1 X188.87 Y127.743 E0.15034
G1 X189.7 Y127.743 E0.03548
G1 X189.7 Y131.728 E0.17041
G1 X188.87 Y131.728 E0.03548
G1 X188.87 Y131.259 E0.02007
; acceleration to travel
M204 S3000
G1 X182.091 Y189.869 F9000
; decel to extrusion
M204 S1000
G1 X179.831 Y209.405
; end travel
G1 F1800
G1 X179.831 Y205.488 E0.1675
G1 X186.904 Y205.488 E0.30242
G1 X186.904 Y209.405 E0.1675
G1 X179.831 Y209.405 E0.30242
G1 X179.403 Y209.834 F9000
G1 F1800
G1 X179.403 Y205.059 E0.20414
G1 X187.333 Y205.059 E0.33906
G1 X187.333 Y209.834 E0.20414
G1 X179.403 Y209.834 E0.33906
; acceleration to travel
M204 S3000
G1 X179.755 Y153.861 F9000
; decel to extrusion
M204 S1000
G1 X179.872 Y135.204
; end travel
;TYPE:External perimeter
G1 F1800
G1 X186.863 Y135.204 E0.29893
G1 X186.863 Y132.946 E0.09654
G1 X179.872 Y132.946 E0.29893
G1 X179.872 Y135.204 E0.09654
;WIPE_START
M204 S4000
G1 X179.872 Y135.604 F9000
;WIPE_END
; acceleration to travel
M204 S3000
G1 X180.974 Y132.345
; decel to extrusion
M204 S1000
G1 X181.341 Y131.259
; end travel
G1 F1800
G1 X181.341 Y130.47 E0.03373
G1 X185.395 Y130.47 E0.17332
G1 X185.395 Y131.259 E0.03373
G1 X188.441 Y131.259 E0.13027
G1 X188.441 Y128.212 E0.13027
G1 X185.395 Y128.212 E0.13027
G1 X185.395 Y129.396 E0.0506
G1 X181.341 Y129.396 E0.17332
G1 X181.341 Y128.212 E0.0506
G1 X178.294 Y128.212 E0.13027
G1 X178.294 Y131.259 E0.13027
G1 X181.341 Y131.259 E0.13027
;WIPE_START
M204 S4000
G1 X181.741 Y131.259 F9000
;WIPE_END
; acceleration to travel
M204 S3000
G1 X180.339 Y184.594
; decel to extrusion
M204 S1000
G1 X179.872 Y202.373
; end travel
G1 F1800
G1 X179.872 Y204.631 E0.09654
G1 X186.863 Y204.631 E0.29893
G1 X186.863 Y202.373 E0.09654
G1 X179.872 Y202.373 E0.29893
;WIPE_START
M204 S4000
G1 X179.472 Y202.373 F9000
;WIPE_END
; acceleration to travel
M204 S3000
G1 X179.099 Y208.29
; decel to extrusion
M204 S1000
G1 X178.974 Y210.262
; end travel
G1 F1800
G1 X178.974 Y132.157 E3.33942
G1 X176.607 Y132.157 E0.10119
G1 X176.607 Y127.314 E0.20705
G1 X178.974 Y127.314 E0.10119
G1 X178.974 Y120.214 E0.30358
G1 X187.761 Y120.214 E0.3757
M73 P4 R33
G1 X187.761 Y127.314 E0.30358
G1 X190.128 Y127.314 E0.10119
G1 X190.128 Y132.157 E0.20705
G1 X187.761 Y132.157 E0.10119
G1 X187.761 Y210.262 E3.33942
G1 X178.974 Y210.262 E0.3757
;WIPE_START
M204 S4000
G1 X179.174 Y209.916 F9000
;WIPE_END
; acceleration to travel
M204 S3000
G1 X184.274 Y206.643
; decel to extrusion
M204 S1000
G1 X185.974 Y205.552
; end travel
;TYPE:Solid infill
;WIDTH:0.456782
G1 F1800
G1 X186.656 Y206.234 E0.03924
G1 X186.656 Y206.84 E0.02466
G1 X185.552 Y205.736 E0.06351
G1 X184.946 Y205.736 E0.02466
G1 X186.656 Y207.446 E0.09837
G1 X186.656 Y208.052 E0.02466
G1 X184.34 Y205.736 E0.13324
G1 X183.734 Y205.736 E0.02466
G1 X186.656 Y208.658 E0.16811
G1 X186.656 Y209.157 E0.0203
G1 X186.549 Y209.157 E0.00436
G1 X183.128 Y205.736 E0.19682
G1 X182.522 Y205.736 E0.02466
G1 X185.943 Y209.157 E0.19682
G1 X185.337 Y209.157 E0.02466
G1 X181.916 Y205.736 E0.19682
G1 X181.31 Y205.736 E0.02466
G1 X184.731 Y209.157 E0.19682
G1 X184.125 Y209.157 E0.02466
G1 X180.704 Y205.736 E0.19682
G1 X180.098 Y205.736 E0.02466
G1 X183.519 Y209.157 E0.19682
G1 X182.913 Y209.157 E0.02466
G1 X180.08 Y206.323 E0.16303
G1 X180.08 Y206.929 E0.02466
G1 X182.307 Y209.157 E0.12817
G1 X181.701 Y209.157 E0.02466
G1 X180.08 Y207.535 E0.0933
G1 X180.08 Y208.141 E0.02466
G1 X181.095 Y209.157 E0.05843
G1 X180.489 Y209.157 E0.02466
G1 X179.895 Y208.563 E0.03416
; acceleration to travel
M204 S3000
G1 X179.673 Y201.217 F9000
; decel to extrusion
M204 S1000
G1 X179.6 Y198.768
; end travel
;TYPE:Gap fill
;WIDTH:0.555449
G1 F1800
G1 X179.726 Y198.768 E0.00634
G1 X179.852 Y198.768 E0.00634
G1 X187.136 Y198.768 E0.36629
; acceleration to travel
M204 S3000
G1 X187.136 Y196.401 F9000
; decel to extrusion
M204 S1000
G1 X187.136 Y195.612
; end travel
;WIDTH:0.555451
G1 F1800
G1 X187.01 Y195.612 E0.00634
G1 X186.884 Y195.612 E0.00634
G1 X179.6 Y195.612 E0.36629
; acceleration to travel
M204 S3000
G1 X179.6 Y193.245 F9000
; decel to extrusion
M204 S1000
G1 X179.6 Y192.456
; end travel
;WIDTH:0.555453
G1 F1800
G1 X187.136 Y192.456 E0.37896
; acceleration to travel
M204 S3000
G1 X187.136 Y190.09 F9000
; decel to extrusion
M204 S1000
G1 X187.136 Y189.301
; end travel
;WIDTH:0.555451
G1 F1800
G1 X187.01 Y189.301 E0.00634
G1 X186.884 Y189.301 E0.00634
G1 X179.6 Y189.301 E0.36629
; acceleration to travel
M204 S3000
G1 X179.6 Y186.934 F9000
; decel to extrusion
M204 S1000
G1 X179.6 Y186.145
; end travel
G1 F1800
