; generated by SuperSlicer 2.3.56 on 2021-12-10 at 22:37:50 UTC


;
;

;
;
; 

; external perimeters extrusion width = 0.40mm
; perimeters extrusion width = 0.40mm
; infill extrusion width = 0.40mm
; solid infill extrusion width = 0.40mm
; top infill extrusion width = 0.40mm
; first layer extrusion width = 0.48mm


;TYPE:Custom
START_PRINT T_BED=70 T_EXTRUDER=235
M107
G21 ; set units to millimeters
G90 ; use absolute coordinates
M83 ; use relative distances for extrusion
M104 S235 ; set temperature
M109 S235 ; set temperature and wait for it to be reached
M190 S70 ; set bed temperature and wait for it to be reached
M107
;LAYER_CHANGE
;Z:0.24
;HEIGHT:0.24
G1 Z0.240000 F12000.000
G1 E-1.50000 F3000.000
G1 X155.915 Y137.876 F12000.000
G1 E1.50000 F1800.000
;TYPE:Skirt
;WIDTH:0.48
G1 F600.000
G1 X156.311 Y137.468 E0.02434
G1 X156.785 Y137.153 E0.02434
G1 X157.316 Y136.947 E0.02434
G1 X157.878 Y136.860 E0.02434
G1 X178.004 Y136.857 E0.86048
G1 X178.980 Y137.046 E0.04250
G1 X179.817 Y137.581 E0.04250
G1 X180.396 Y138.385 E0.04233
G1 X180.638 Y139.349 E0.04250
G1 X180.642 Y171.544 E1.37652
G1 X180.491 Y172.382 E0.03642
G1 X180.084 Y173.126 E0.03625
G1 X179.672 Y173.547 E0.02519
G1 X179.177 Y173.866 E0.02519
G1 X178.623 Y174.068 E0.02519
G1 X178.039 Y174.142 E0.02519
G1 X150.948 Y174.142 E1.15828
G1 X150.118 Y173.991 E0.03608
G1 X149.374 Y173.584 E0.03625
G1 X148.968 Y173.190 E0.02417
G1 X148.655 Y172.720 E0.02417
G1 X148.449 Y172.189 E0.02434
G1 X148.361 Y171.631 E0.02417
G1 X148.400 Y154.025 E0.75277
G1 X148.603 Y153.387 E0.02860
G1 X155.610 Y138.372 E0.70847
G1 X155.883 Y137.928 E0.02228
G1 X156.247 Y138.152 F12000.000
G1 F600.000
G1 X156.261 Y138.129 E0.00114
G1 X156.598 Y137.787 E0.02055
G1 X156.997 Y137.526 E0.02039
G1 X157.443 Y137.357 E0.02039
G1 X157.915 Y137.287 E0.02039
G1 X178.004 Y137.286 E0.85890
G1 X178.825 Y137.445 E0.03578
G1 X179.529 Y137.898 E0.03578
G1 X180.014 Y138.580 E0.03578
G1 X180.212 Y139.393 E0.03578
G1 X180.214 Y171.533 E1.37416
G1 X180.087 Y172.239 E0.03067
G1 X179.739 Y172.871 E0.03083
G1 X179.394 Y173.220 E0.02102
G1 X178.980 Y173.486 E0.02102
G1 X178.518 Y173.653 E0.02102
G1 X178.026 Y173.714 E0.02117
G1 X150.963 Y173.714 E1.15709
G1 X150.257 Y173.586 E0.03067
G1 X149.629 Y173.239 E0.03067
G1 X149.289 Y172.905 E0.02039
G1 X149.028 Y172.506 E0.02039
G1 X148.859 Y172.064 E0.02024
G1 X148.788 Y171.592 E0.02039
G1 X148.824 Y154.091 E0.74829
G1 X148.993 Y153.564 E0.02367
G1 X155.997 Y138.557 E0.70804
G1 X156.215 Y138.203 E0.01778
G1 E-1.50000 F3000.000
G1 X158.668 Y140.168 F12000.000
G1 E1.50000 F1800.000
;TYPE:Internal perimeter
G1 F600.000
G1 X177.332 Y140.168 E0.79795
G1 X177.332 Y155.832 E0.66968
G1 X152.332 Y155.832 E1.06889
G1 X152.332 Y170.168 E0.61298
G1 X177.332 Y170.168 E1.06889
G1 X177.332 Y170.832 E0.02835
G1 X151.668 Y170.832 E1.09723
G1 X151.668 Y155.168 E0.66968
G1 X176.668 Y155.168 E1.06889
G1 X176.668 Y140.832 E0.61298
G1 X158.668 Y140.832 E0.76960
G1 X158.668 Y140.228 E0.02578
G1 E-1.50000 F3000.000
G1 X152.760 Y156.260 F12000.000
G1 E1.50000 F1800.000
;TYPE:External perimeter
G1 F600.000
G1 X152.760 Y169.740 E0.57634
G1 X177.760 Y169.740 E1.06889
G1 X177.760 Y171.260 E0.06499
G1 X151.240 Y171.260 E1.13387
G1 X151.240 Y154.740 E0.70632
G1 X176.240 Y154.740 E1.06889
G1 X176.240 Y141.260 E0.57634
G1 X158.240 Y141.260 E0.76960
G1 X158.240 Y139.740 E0.06499
G1 X177.760 Y139.740 E0.83459
G1 X177.760 Y156.260 E0.70632
G1 X152.820 Y156.260 E1.06632
G1 X152.360 Y156.260 F12000.000
G1 X152.079 Y155.512
;TYPE:Gap fill
;WIDTH:0.366747
G1 F600.000
G1 X152.023 Y155.523 E0.00179
G1 X152.012 Y155.579 E0.00179
;WIDTH:0.32058
G1 X152.000 Y155.635 E0.00153
G1 X152.000 Y170.365 E0.39550
G1 X152.012 Y170.421 E0.00153
;WIDTH:0.366747
G1 X152.023 Y170.477 E0.00179
G1 X152.079 Y170.488 E0.00179
;WIDTH:0.320578
G1 X152.135 Y170.500 E0.00153
G1 X177.000 Y170.500 E0.66759
G1 X177.135 Y170.500 E0.00361
G1 E-1.50000 F3000.000
G1 X176.921 Y155.488 F12000.000
G1 E1.50000 F1800.000
;WIDTH:0.366747
G1 F600.000
G1 X176.977 Y155.477 E0.00179
G1 X176.988 Y155.421 E0.00179
;WIDTH:0.32058
G1 X177.000 Y155.365 E0.00153
G1 X177.000 Y140.635 E0.39550
G1 X176.988 Y140.579 E0.00153
;WIDTH:0.366747
G1 X176.977 Y140.523 E0.00179
G1 X176.921 Y140.512 E0.00179
;WIDTH:0.320578
G1 X176.865 Y140.500 E0.00153
G1 X167.933 Y140.500 E0.23983
G1 X158.865 Y140.500 E0.24344
G1 E-1.50000 F3000.000
G1 X152.079 Y155.512 F12000.000
G1 E1.50000 F1800.000
G1 F600.000
G1 X152.135 Y155.500 E0.00153
G1 X176.865 Y155.500 E0.66398
G1 X176.921 Y155.488 E0.00153
;LAYER_CHANGE
;Z:0.44
;HEIGHT:0.2
G1 Z0.440000 F12000.000
G1 E-1.50000 F3000.000
G1 X152.443 Y155.943 F12000.000
G1 E1.50000 F1800.000
;TYPE:Internal perimeter
;WIDTH:0.4
G1 F5400.000
G1 X152.443 Y170.057 E0.41907
G1 X177.443 Y170.057 E0.74228
G1 X177.443 Y170.943 E0.02630
G1 X151.557 Y170.943 E0.76858
G1 X151.557 Y155.057 E0.47167
G1 X176.557 Y155.057 E0.74228
G1 X176.557 Y140.943 E0.41907
G1 X158.557 Y140.943 E0.53444
G1 X158.557 Y140.057 E0.02630
G1 X177.443 Y140.057 E0.56075
G1 X177.443 Y155.943 E0.47167
G1 X152.503 Y155.943 E0.74050
G1 X152.800 Y156.300 F12000.000
;TYPE:External perimeter
G1 F4200.000
G1 X152.800 Y169.700 E0.39786
G1 X177.800 Y169.700 E0.74228
G1 X177.800 Y171.300 E0.04751
G1 X151.200 Y171.300 E0.78979
G1 X151.200 Y154.700 E0.49288
G1 X176.200 Y154.700 E0.74228
G1 X176.200 Y141.300 E0.39786
G1 X158.200 Y141.300 E0.53444
G1 X158.200 Y139.700 E0.04751
G1 X177.800 Y139.700 E0.58195
G1 X177.800 Y156.300 E0.49288
G1 X152.860 Y156.300 E0.74050
G1 X152.400 Y156.300 F12000.000
G1 X152.163 Y155.524
;TYPE:Gap fill
;WIDTH:0.696146
G1 F1200.000
G1 X152.048 Y155.548 E0.00641
G1 X152.024 Y155.663 E0.00641
;WIDTH:0.600484
G1 X152.000 Y155.779 E0.00547
G1 X152.000 Y170.221 E0.66958
G1 X152.024 Y170.337 E0.00547
;WIDTH:0.696146
G1 X152.048 Y170.452 E0.00641
G1 X152.163 Y170.476 E0.00641
;WIDTH:0.600482
G1 X152.279 Y170.500 E0.00547
G1 X177.000 Y170.500 E1.14611
G1 X177.279 Y170.500 E0.01292
G1 E-1.50000 F3000.000
G1 X176.837 Y155.476 F12000.000
G1 E1.50000 F1800.000
;WIDTH:0.696146
G1 F1200.000
G1 X176.952 Y155.452 E0.00641
G1 X176.976 Y155.337 E0.00641
;WIDTH:0.600484
G1 X177.000 Y155.221 E0.00547
G1 X177.000 Y140.779 E0.66958
G1 X176.976 Y140.663 E0.00547
;WIDTH:0.696146
G1 X176.952 Y140.548 E0.00641
G1 X176.837 Y140.524 E0.00641
;WIDTH:0.600482
G1 X176.721 Y140.500 E0.00547
G1 X159.000 Y140.500 E0.82158
G1 X158.721 Y140.500 E0.01292
G1 E-1.50000 F3000.000
G1 X152.163 Y155.524 F12000.000
G1 E1.50000 F1800.000
G1 F1200.000
G1 X152.279 Y155.500 E0.00547
G1 X176.721 Y155.500 E1.13319
G1 X176.837 Y155.476 E0.00547
;LAYER_CHANGE
;Z:0.64
;HEIGHT:0.2
G1 Z0.640000 F12000.000
G1 E-1.50000 F3000.000
G1 X152.443 Y155.943 F12000.000
G1 E1.50000 F1800.000
;TYPE:Internal perimeter
;WIDTH:0.4
G1 F5400.000
G1 X152.443 Y170.057 E0.41907
G1 X177.443 Y170.057 E0.74228
G1 X177.443 Y170.943 E0.02630
G1 X151.557 Y170.943 E0.76858
G1 X151.557 Y155.057 E0.47167
G1 X176.557 Y155.057 E0.74228
G1 X176.557 Y140.943 E0.41907
G1 X158.557 Y140.943 E0.53444
G1 X158.557 Y140.057 E0.02630
G1 X177.443 Y140.057 E0.56075
G1 X177.443 Y155.943 E0.47167
G1 X152.503 Y155.943 E0.74050
G1 X152.800 Y156.300 F12000.000
;TYPE:External perimeter
G1 F4200.000
G1 X152.800 Y169.700 E0.39786
G1 X177.800 Y169.700 E0.74228
G1 X177.800 Y171.300 E0.04751
G1 X151.200 Y171.300 E0.78979
G1 X151.200 Y154.700 E0.49288
G1 X176.200 Y154.700 E0.74228
G1 X176.200 Y141.300 E0.39786
G1 X158.200 Y141.300 E0.53444
G1 X158.200 Y139.700 E0.04751
G1 X177.800 Y139.700 E0.58195
G1 X177.800 Y156.300 E0.49288
G1 X152.860 Y156.300 E0.74050
G1 X152.400 Y156.300 F12000.000
G1 X152.163 Y155.524
;TYPE:Gap fill
;WIDTH:0.696146
G1 F1200.000
G1 X152.048 Y155.548 E0.00641
G1 X152.024 Y155.663 E0.00641
;WIDTH:0.600484
G1 X152.000 Y155.779 E0.00547
G1 X152.000 Y170.221 E0.66958
G1 X152.024 Y170.337 E0.00547
;WIDTH:0.696146
G1 X152.048 Y170.452 E0.00641
G1 X152.163 Y170.476 E0.00641
;WIDTH:0.600482
G1 X152.279 Y170.500 E0.00547
G1 X177.000 Y170.500 E1.14611
G1 X177.279 Y170.500 E0.01292
G1 E-1.50000 F3000.000
G1 X176.837 Y155.476 F12000.000
G1 E1.50000 F1800.000
;WIDTH:0.696146
G1 F1200.000
G1 X176.952 Y155.452 E0.00641
G1 X176.976 Y155.337 E0.00641
;WIDTH:0.600484
G1 X177.000 Y155.221 E0.00547
G1 X177.000 Y140.779 E0.66958
G1 X176.976 Y140.663 E0.00547
;WIDTH:0.696146
G1 X176.952 Y140.548 E0.00641
G1 X176.837 Y140.524 E0.00641
;WIDTH:0.600482
G1 X176.721 Y140.500 E0.00547
G1 X159.000 Y140.500 E0.82158
G1 X158.721 Y140.500 E0.01292
G1 E-1.50000 F3000.000
G1 X152.163 Y155.524 F12000.000
G1 E1.50000 F1800.000
G1 F1200.000
G1 X152.279 Y155.500 E0.00547
G1 X176.721 Y155.500 E1.13319
G1 X176.837 Y155.476 E0.00547
M106 S201.45
;LAYER_CHANGE
;Z:0.84
;HEIGHT:0.2
G1 Z0.840000 F12000.000
G1 E-1.50000 F3000.000
G1 X152.443 Y155.943 F12000.000
G1 E1.50000 F1800.000
;TYPE:Internal perimeter
;WIDTH:0.4
G1 F5400.000
G1 X152.443 Y170.057 E0.41907
G1 X177.443 Y170.057 E0.74228
G1 X177.443 Y170.943 E0.02630
G1 X151.557 Y170.943 E0.76858
G1 X151.557 Y155.057 E0.47167
G1 X176.557 Y155.057 E0.74228
G1 X176.557 Y140.943 E0.41907
G1 X158.557 Y140.943 E0.53444
G1 X158.557 Y140.057 E0.02630
G1 X177.443 Y140.057 E0.56075
G1 X177.443 Y155.943 E0.47167
G1 X152.503 Y155.943 E0.74050
G1 X152.800 Y156.300 F12000.000
;TYPE:External perimeter
G1 F4200.000
G1 X152.800 Y169.700 E0.39786
G1 X177.800 Y169.700 E0.74228
G1 X177.800 Y171.300 E0.04751
G1 X151.200 Y171.300 E0.78979
G1 X151.200 Y154.700 E0.49288
G1 X176.200 Y154.700 E0.74228
G1 X176.200 Y141.300 E0.39786
G1 X158.200 Y141.300 E0.53444
G1 X158.200 Y139.700 E0.04751
G1 X177.800 Y139.700 E0.58195
G1 X177.800 Y156.300 E0.49288
G1 X152.860 Y156.300 E0.74050
G1 X152.400 Y156.300 F12000.000
G1 X152.163 Y155.524
;TYPE:Gap fill
;WIDTH:0.696146
G1 F1200.000
G1 X152.048 Y155.548 E0.00641
G1 X152.024 Y155.663 E0.00641
;WIDTH:0.600484
G1 X152.000 Y155.779 E0.00547
G1 X152.000 Y170.221 E0.66958
G1 X152.024 Y170.337 E0.00547
;WIDTH:0.696146
G1 X152.048 Y170.452 E0.00641
G1 X152.163 Y170.476 E0.00641
;WIDTH:0.600482
G1 X152.279 Y170.500 E0.00547
G1 X177.000 Y170.500 E1.14611
G1 X177.279 Y170.500 E0.01292
G1 E-1.50000 F3000.000
G1 X176.837 Y155.476 F12000.000
G1 E1.50000 F1800.000
;WIDTH:0.696146
G1 F1200.000
G1 X176.952 Y155.452 E0.00641
G1 X176.976 Y155.337 E0.00641
;WIDTH:0.600484
G1 X177.000 Y155.221 E0.00547
G1 X177.000 Y140.779 E0.66958
G1 X176.976 Y140.663 E0.00547
;WIDTH:0.696146
G1 X176.952 Y140.548 E0.00641
G1 X176.837 Y140.524 E0.00641
;WIDTH:0.600482
G1 X176.721 Y140.500 E0.00547
G1 X159.000 Y140.500 E0.82158
G1 X158.721 Y140.500 E0.01292
G1 E-1.50000 F3000.000
G1 X152.163 Y155.524 F12000.000
G1 E1.50000 F1800.000
G1 F1200.000
G1 X152.279 Y155.500 E0.00547
G1 X176.721 Y155.500 E1.13319
G1 X176.837 Y155.476 E0.00547
;LAYER_CHANGE
;Z:1.04
;HEIGHT:0.2
G1 Z1.040000 F12000.000
G1 E-1.50000 F3000.000
G1 X152.443 Y155.943 F12000.000
G1 E1.50000 F1800.000
;TYPE:Internal perimeter
;WIDTH:0.4
G1 F5400.000
G1 X152.443 Y170.057 E0.41907
G1 X177.443 Y170.057 E0.74228
G1 X177.443 Y170.943 E0.02630
G1 X151.557 Y170.943 E0.76858
G1 X151.557 Y155.057 E0.47167
G1 X176.557 Y155.057 E0.74228
G1 X176.557 Y140.943 E0.41907
G1 X158.557 Y140.943 E0.53444
G1 X158.557 Y140.057 E0.02630
G1 X177.443 Y140.057 E0.56075
G1 X177.443 Y155.943 E0.47167
G1 X152.503 Y155.943 E0.74050
G1 X152.800 Y156.300 F12000.000
;TYPE:External perimeter
G1 F4200.000
G1 X152.800 Y169.700 E0.39786
G1 X177.800 Y169.700 E0.74228
G1 X177.800 Y171.300 E0.04751
G1 X151.200 Y171.300 E0.78979
G1 X151.200 Y154.700 E0.49288
G1 X176.200 Y154.700 E0.74228
G1 X176.200 Y141.300 E0.39786
G1 X158.200 Y141.300 E0.53444
G1 X158.200 Y139.700 E0.04751
G1 X177.800 Y139.700 E0.58195
G1 X177.800 Y156.300 E0.49288
G1 X152.860 Y156.300 E0.74050
G1 X152.400 Y156.300 F12000.000
G1 X152.163 Y155.524
;TYPE:Gap fill
;WIDTH:0.696146
G1 F1200.000
G1 X152.048 Y155.548 E0.00641
G1 X152.024 Y155.663 E0.00641
;WIDTH:0.600484
G1 X152.000 Y155.779 E0.00547
G1 X152.000 Y170.221 E0.66958
G1 X152.024 Y170.337 E0.00547
;WIDTH:0.696146
G1 X152.048 Y170.452 E0.00641
G1 X152.163 Y170.476 E0.00641
;WIDTH:0.600482
G1 X152.279 Y170.500 E0.00547
G1 X177.000 Y170.500 E1.14611
G1 X177.279 Y170.500 E0.01292
G1 E-1.50000 F3000.000
G1 X176.837 Y155.476 F12000.000
G1 E1.50000 F1800.000
;WIDTH:0.696146
G1 F1200.000
G1 X176.952 Y155.452 E0.00641
G1 X176.976 Y155.337 E0.00641
;WIDTH:0.600484
G1 X177.000 Y155.221 E0.00547
G1 X177.000 Y140.779 E0.66958
G1 X176.976 Y140.663 E0.00547
;WIDTH:0.696146
G1 X176.952 Y140.548 E0.00641
G1 X176.837 Y140.524 E0.00641
;WIDTH:0.600482
G1 X176.721 Y140.500 E0.00547
G1 X159.000 Y140.500 E0.82158
G1 X158.721 Y140.500 E0.01292
G1 E-1.50000 F3000.000
G1 X152.163 Y155.524 F12000.000
G1 E1.50000 F1800.000
G1 F1200.000
G1 X152.279 Y155.500 E0.00547
G1 X176.721 Y155.500 E1.13319
G1 X176.837 Y155.476 E0.00547
;LAYER_CHANGE
;Z:1.24
;HEIGHT:0.2
G1 Z1.240000 F12000.000
G1 E-1.50000 F3000.000
G1 X152.443 Y155.943 F12000.000
G1 E1.50000 F1800.000
;TYPE:Internal perimeter
;WIDTH:0.4
G1 F5400.000
G1 X152.443 Y170.057 E0.41907
G1 X177.443 Y170.057 E0.74228
G1 X177.443 Y170.943 E0.02630
G1 X151.557 Y170.943 E0.76858
G1 X151.557 Y155.057 E0.47167
G1 X176.557 Y155.057 E0.74228
G1 X176.557 Y140.943 E0.41907
G1 X158.557 Y140.943 E0.53444
G1 X158.557 Y140.057 E0.02630
G1 X177.443 Y140.057 E0.56075
G1 X177.443 Y155.943 E0.47167
G1 X152.503 Y155.943 E0.74050
G1 X152.800 Y156.300 F12000.000
;TYPE:External perimeter
G1 F4200.000
G1 X152.800 Y169.700 E0.39786
G1 X177.800 Y169.700 E0.74228
G1 X177.800 Y171.300 E0.04751
G1 X151.200 Y171.300 E0.78979
G1 X151.200 Y154.700 E0.49288
G1 X176.200 Y154.700 E0.74228
G1 X176.200 Y141.300 E0.39786
G1 X158.200 Y141.300 E0.53444
G1 X158.200 Y139.700 E0.04751
G1 X177.800 Y139.700 E0.58195
G1 X177.800 Y156.300 E0.49288
G1 X152.860 Y156.300 E0.74050
G1 X152.400 Y156.300 F12000.000
G1 X152.163 Y155.524
;TYPE:Gap fill
;WIDTH:0.696146
G1 F1200.000
G1 X152.048 Y155.548 E0.00641
G1 X152.024 Y155.663 E0.00641
;WIDTH:0.600484
G1 X152.000 Y155.779 E0.00547
G1 X152.000 Y170.221 E0.66958
G1 X152.024 Y170.337 E0.00547
;WIDTH:0.696146
G1 X152.048 Y170.452 E0.00641
G1 X152.163 Y170.476 E0.00641
;WIDTH:0.600482
G1 X152.279 Y170.500 E0.00547
G1 X177.000 Y170.500 E1.14611
G1 X177.279 Y170.500 E0.01292
G1 E-1.50000 F3000.000
G1 X176.837 Y155.476 F12000.000
G1 E1.50000 F1800.000
;WIDTH:0.696146
G1 F1200.000
G1 X176.952 Y155.452 E0.00641
G1 X176.976 Y155.337 E0.00641
;WIDTH:0.600484
G1 X177.000 Y155.221 E0.00547
G1 X177.000 Y140.779 E0.66958
G1 X176.976 Y140.663 E0.00547
;WIDTH:0.696146
G1 X176.952 Y140.548 E0.00641
G1 X176.837 Y140.524 E0.00641
;WIDTH:0.600482
G1 X176.721 Y140.500 E0.00547
G1 X159.000 Y140.500 E0.82158
G1 X158.721 Y140.500 E0.01292
G1 E-1.50000 F3000.000
G1 X152.163 Y155.524 F12000.000
G1 E1.50000 F1800.000
G1 F1200.000
G1 X152.279 Y155.500 E0.00547
G1 X176.721 Y155.500 E1.13319
G1 X176.837 Y155.476 E0.00547
;LAYER_CHANGE
;Z:1.44
;HEIGHT:0.2
G1 Z1.440000 F12000.000
G1 E-1.50000 F3000.000
G1 X152.443 Y155.943 F12000.000
G1 E1.50000 F1800.000
;TYPE:Internal perimeter
;WIDTH:0.4
G1 F5400.000
G1 X152.443 Y170.057 E0.41907
G1 X177.443 Y170.057 E0.74228
G1 X177.443 Y170.943 E0.02630
G1 X151.557 Y170.943 E0.76858
G1 X151.557 Y155.057 E0.47167
G1 X176.557 Y155.057 E0.74228
G1 X176.557 Y140.943 E0.41907
G1 X158.557 Y140.943 E0.53444
G1 X158.557 Y140.057 E0.02630
G1 X177.443 Y140.057 E0.56075
G1 X177.443 Y155.943 E0.47167
G1 X152.503 Y155.943 E0.74050
G1 X152.800 Y156.300 F12000.000
;TYPE:External perimeter
G1 F4200.000
G1 X152.800 Y169.700 E0.39786
G1 X177.800 Y169.700 E0.74228
G1 X177.800 Y171.300 E0.04751
G1 X151.200 Y171.300 E0.78979
G1 X151.200 Y154.700 E0.49288
G1 X176.200 Y154.700 E0.74228
G1 X176.200 Y141.300 E0.39786
G1 X158.200 Y141.300 E0.53444
G1 X158.200 Y139.700 E0.04751
G1 X177.800 Y139.700 E0.58195
G1 X177.800 Y156.300 E0.49288
G1 X152.860 Y156.300 E0.74050
G1 X152.400 Y156.300 F12000.000
G1 X152.163 Y155.524
;TYPE:Gap fill
;WIDTH:0.696146
G1 F1200.000
G1 X152.048 Y155.548 E0.00641
G1 X152.024 Y155.663 E0.00641
;WIDTH:0.600484
G1 X152.000 Y155.779 E0.00547
