;FLAVOR:Marlin
;TIME:4065
;Filament used: 3.23165m
;Layer height: 0.2
;MINX:125.757
;MINY:138.671
;MINZ:0.2
;MAXX:196.22
;MAXY:191.328
;MAXZ:27
;Generated with Cura_SteamEngine 5.0.0-beta+1
M82 ;absolute extrusion mode
START_PRINT T_BED=110 T_EXTRUDER=245
G92 E0
G92 E0
G1 F3000 E-0.5
;LAYER_COUNT:135
;LAYER:0
M107
M204 S150
G1 F300 Z0.4
G0 F2700 X129.744 Y143.913 Z0.4
G1 F300 Z0.4
G0 F2700 X126.495 Y151.984
M204 S1000
;TYPE:SKIRT
G1 F300 Z0.2
G1 F1800 E0
G1 X126.509 Y151.316 E0.02048
G1 X126.569 Y150.397 E0.04871
G1 X126.707 Y149.487 E0.07692
G1 X126.925 Y148.592 E0.10516
G1 X127.219 Y147.72 E0.13337
G1 X127.587 Y146.876 E0.16159
G1 X128.028 Y146.068 E0.18981
G1 X128.536 Y145.301 E0.218
G1 X129.11 Y144.58 E0.24625
G1 X129.744 Y143.913 E0.27446
G1 X130.433 Y143.303 E0.30267
G1 X131.173 Y142.755 E0.33089
G1 X131.958 Y142.273 E0.35913
G1 X132.781 Y141.861 E0.38734
G1 X133.637 Y141.522 E0.41556
G1 X134.398 Y141.287 E0.43998
G1 X135.292 Y141.068 E0.46819
G1 X136.317 Y140.916 E0.49995
G1 X136.55 Y140.893 E0.50713
G1 X137.3 Y140.846 E0.53016
G1 X139.777 Y140.778 E0.60612
G1 X142.313 Y140.639 E0.68397
G1 X144.796 Y140.432 E0.76034
G1 X147.338 Y140.148 E0.83875
G1 X149.868 Y139.792 E0.91706
G1 X152.307 Y139.379 E0.99289
G1 X153.401 Y139.155 E1.02712
G1 X154.855 Y138.88 E1.07248
G1 X155.766 Y138.744 E1.10071
G1 X156.687 Y138.689 E1.12899
G1 X157.803 Y138.671 E1.16321
G1 X172.393 Y138.671 E1.61043
G1 X173.268 Y138.683 E1.63725
G1 X174.187 Y138.737 E1.66547
G1 X175.098 Y138.871 E1.69369
G1 X175.931 Y139.066 E1.71992
G1 X176.375 Y139.189 E1.73404
G1 X178.924 Y139.851 E1.81476
G1 X181.391 Y140.417 E1.89235
G1 X183.835 Y140.907 E1.96875
G1 X186.415 Y141.348 E2.04898
G1 X187.157 Y141.464 E2.07201
G1 X188.059 Y141.645 E2.1002
G1 X188.943 Y141.904 E2.12844
G1 X189.801 Y142.239 E2.15667
G1 X190.626 Y142.647 E2.18489
G1 X191.413 Y143.125 E2.21311
G1 X192.155 Y143.669 E2.24131
G1 X192.848 Y144.276 E2.26955
G1 X193.485 Y144.94 E2.29776
G1 X194.062 Y145.658 E2.32599
G1 X194.575 Y146.422 E2.3542
G1 X195.215 Y147.646 E2.39654
G1 X195.554 Y148.502 E2.42476
G1 X195.827 Y149.421 E2.45414
G1 X195.9 Y149.715 E2.46343
G1 X196.082 Y150.617 E2.49164
G1 X196.205 Y151.885 E2.53069
G1 X196.22 Y152.628 E2.55346
G1 X195.96 Y177.346 E3.31118
G1 X195.94 Y178.084 E3.33381
G1 X195.875 Y179.003 E3.36205
G1 X195.703 Y180.047 E3.39448
G1 X195.66 Y180.245 E3.40069
G1 X195.425 Y181.135 E3.42891
G1 X195.083 Y182.077 E3.45962
G1 X195.03 Y182.204 E3.46384
G1 X194.639 Y183.038 E3.49208
G1 X194.177 Y183.834 E3.52029
G1 X193.648 Y184.587 E3.5485
G1 X193.055 Y185.292 E3.57673
G1 X192.404 Y185.942 E3.60493
G1 X191.698 Y186.534 E3.63317
G1 X190.944 Y187.062 E3.66139
G1 X190.147 Y187.522 E3.6896
G1 X189.312 Y187.912 E3.71785
G1 X188.448 Y188.228 E3.74605
G1 X187.559 Y188.467 E3.77426
G1 X186.943 Y188.586 E3.79349
G1 X185.778 Y188.775 E3.82967
G1 X183.235 Y189.223 E3.90882
G1 X180.824 Y189.718 E3.98427
G1 X178.251 Y190.324 E4.06529
G1 X175.807 Y190.964 E4.14273
G1 X174.908 Y191.161 E4.17094
G1 X173.995 Y191.28 E4.19917
G1 X173.271 Y191.317 E4.22139
G1 X172.568 Y191.328 E4.24294
G1 X157.403 Y191.324 E4.70779
G1 X156.676 Y191.311 E4.73007
G1 X155.758 Y191.255 E4.75826
G1 X155.004 Y191.148 E4.78161
G1 X154.359 Y191.031 E4.8017
G1 X152.459 Y190.651 E4.86109
G1 X149.979 Y190.226 E4.93822
G1 X147.492 Y189.874 E5.01521
G1 X144.943 Y189.585 E5.09385
G1 X142.446 Y189.374 E5.17066
G1 X139.945 Y189.235 E5.24744
G1 X137.389 Y189.162 E5.32582
G1 X136.646 Y189.15 E5.3486
G1 X135.385 Y189.053 E5.38737
G1 X135.151 Y189.021 E5.3946
G1 X133.994 Y188.797 E5.43073
G1 X133.772 Y188.741 E5.43775
G1 X132.89 Y188.477 E5.46597
G1 X132.034 Y188.138 E5.49419
G1 X131.211 Y187.726 E5.5224
G1 X130.427 Y187.244 E5.55061
G1 X129.687 Y186.695 E5.57885
G1 X128.998 Y186.085 E5.60706
G1 X128.365 Y185.417 E5.63527
G1 X127.791 Y184.696 E5.66352
G1 X127.283 Y183.929 E5.69172
G1 X126.843 Y183.12 E5.71995
G1 X126.475 Y182.276 E5.74817
G1 X126.181 Y181.404 E5.77638
G1 X125.964 Y180.509 E5.80461
G1 X125.826 Y179.599 E5.83282
G1 X125.766 Y178.586 E5.86392
G1 X125.757 Y177.749 E5.88958
G1 X125.76 Y176.663 E5.92287
G1 X125.771 Y176.006 E5.94301
G1 X125.825 Y175.106 E5.97065
G1 X125.968 Y173.72 E6.01336
G1 X126.018 Y173.298 E6.02638
G1 X126.241 Y170.792 E6.1035
G1 X126.395 Y168.252 E6.1815
G1 X126.477 Y165.694 E6.25995
G1 X126.492 Y164.025 E6.31111
G1 X126.495 Y151.984 E6.6802
M204 S150
G0 F2700 X126.895 Y151.992
M204 S1000
G1 F1800 X126.909 Y151.324 E6.70068
G1 X126.968 Y150.423 E6.72836
G1 X127.106 Y149.531 E6.75603
G1 X127.323 Y148.654 E6.78372
G1 X127.617 Y147.8 E6.8114
G1 X127.985 Y146.975 E6.83909
G1 X128.424 Y146.186 E6.86677
G1 X128.931 Y145.439 E6.89444
G1 X129.503 Y144.74 E6.92213
G1 X130.134 Y144.094 E6.94981
G1 X130.82 Y143.506 E6.97751
G1 X131.555 Y142.981 E7.00519
G1 X132.333 Y142.524 E7.03285
G1 X133.15 Y142.137 E7.06056
G1 X134.258 Y141.744 E7.0966
G1 X134.509 Y141.671 E7.10461
G1 X135.387 Y141.457 E7.13231
G1 X136.356 Y141.314 E7.16233
G1 X136.589 Y141.291 E7.16951
G1 X137.311 Y141.246 E7.19168
G1 X139.774 Y141.178 E7.26721
G1 X142.332 Y141.038 E7.34574
G1 X144.873 Y140.826 E7.4239
G1 X147.372 Y140.547 E7.50097
G1 X149.92 Y140.189 E7.57984
G1 X152.393 Y139.77 E7.65673
G1 X153.481 Y139.547 E7.69077
G1 X153.67 Y139.517 E7.69664
G1 X154.931 Y139.273 E7.73601
G1 X155.824 Y139.141 E7.76368
G1 X156.693 Y139.088 E7.79036
G1 X157.803 Y139.071 E7.82439
G1 X172.551 Y139.072 E8.27645
G1 X173.262 Y139.083 E8.29825
G1 X174.163 Y139.137 E8.32592
G1 X175.056 Y139.271 E8.3536
G1 X175.825 Y139.452 E8.37781
G1 X176.236 Y139.566 E8.39089
G1 X178.806 Y140.233 E8.47227
G1 X181.333 Y140.813 E8.55175
G1 X183.767 Y141.301 E8.62784
G1 X186.352 Y141.743 E8.70823
G1 X187.095 Y141.859 E8.73128
G1 X187.98 Y142.038 E8.75895
G1 X188.846 Y142.294 E8.78663
G1 X189.686 Y142.626 E8.81432
G1 X190.494 Y143.031 E8.84203
G1 X191.262 Y143.505 E8.86969
G1 X191.985 Y144.046 E8.89737
G1 X192.658 Y144.649 E8.92507
G1 X193.275 Y145.308 E8.95274
G1 X193.83 Y146.02 E8.98041
G1 X194.321 Y146.778 E9.00809
G1 X194.85 Y147.81 E9.04364
G1 X195.182 Y148.65 E9.07133
G1 X195.438 Y149.517 E9.09904
G1 X195.511 Y149.811 E9.10832
G1 X195.69 Y150.696 E9.136
G1 X195.805 Y151.899 E9.17304
G1 X195.82 Y152.624 E9.19527
G1 X195.56 Y177.335 E9.95277
G1 X195.54 Y178.073 E9.9754
G1 X195.476 Y178.974 E10.00308
G1 X195.312 Y179.962 E10.03378
G1 X195.269 Y180.16 E10.03999
G1 X195.038 Y181.033 E10.06768
G1 X194.714 Y181.923 E10.09671
G1 X194.661 Y182.05 E10.10093
G1 X194.277 Y182.868 E10.12862
G1 X193.822 Y183.648 E10.1563
G1 X193.299 Y184.384 E10.18398
G1 X192.714 Y185.072 E10.21166
G1 X192.07 Y185.705 E10.23934
G1 X191.372 Y186.279 E10.26704
G1 X190.627 Y186.788 E10.2947
G1 X189.839 Y187.23 E10.32239
G1 X189.016 Y187.601 E10.35007
G1 X188.162 Y187.897 E10.37777
G1 X186.879 Y188.191 E10.41812
G1 X185.723 Y188.378 E10.45401
G1 X183.185 Y188.826 E10.53301
G1 X180.69 Y189.338 E10.61108
G1 X178.2 Y189.925 E10.6895
G1 X175.705 Y190.577 E10.76855
G1 X174.823 Y190.77 E10.79622
G1 X173.927 Y190.884 E10.82391
G1 X173.264 Y190.917 E10.84426
G1 X172.568 Y190.928 E10.86559
G1 X157.411 Y190.924 E11.33019
G1 X156.684 Y190.911 E11.35248
G1 X155.782 Y190.855 E11.38018
G1 X155.075 Y190.754 E11.40207
G1 X154.438 Y190.639 E11.42192
G1 X152.534 Y190.258 E11.48144
G1 X150.037 Y189.831 E11.55909
G1 X147.521 Y189.474 E11.63698
G1 X145.021 Y189.191 E11.7141
G1 X142.468 Y188.976 E11.79263
G1 X139.941 Y188.834 E11.87021
G1 X137.408 Y188.762 E11.94789
G1 X136.653 Y188.75 E11.97103
G1 X135.439 Y188.657 E12.00836
G1 X135.205 Y188.625 E12.0156
G1 X134.092 Y188.409 E12.05035
G1 X133.87 Y188.353 E12.05737
G1 X133.005 Y188.094 E12.08504
G1 X132.166 Y187.759 E12.11274
G1 X131.361 Y187.351 E12.1404
G1 X130.594 Y186.874 E12.16809
G1 X129.873 Y186.33 E12.19577
G1 X129.202 Y185.725 E12.22346
G1 X128.588 Y185.063 E12.25114
G1 X128.035 Y184.349 E12.27882
G1 X127.547 Y183.589 E12.30651
G1 X127.128 Y182.789 E12.33419
G1 X126.781 Y181.955 E12.36188
G1 X126.51 Y181.094 E12.38955
G1 X126.316 Y180.212 E12.41723
G1 X126.201 Y179.316 E12.44492
G1 X126.166 Y178.581 E12.46747
G1 X126.157 Y177.75 E12.49295
G1 X126.16 Y176.669 E12.52608
G1 X126.171 Y176.012 E12.54622
G1 X126.223 Y175.147 E12.57279
G1 X126.365 Y173.767 E12.61531
G1 X126.415 Y173.344 E12.62837
G1 X126.643 Y170.784 E12.70715
G1 X126.794 Y168.289 E12.78377
G1 X126.877 Y165.71 E12.86286
G1 X126.892 Y164.029 E12.91439
G1 X126.895 Y151.992 E13.28335
M204 S150
G1 F3000 E12.78335
G1 F300 Z0.4
;MESH:probe.stl
G0 F2700 X137.965 Y158.171 Z0.4
M204 S1000
;TYPE:WALL-OUTER
G1 F300 Z0.2
G1 F1800 E13.28335
G1 F1290.3 X137.999 Y158.134 E13.2855
G1 F1541.8 X138.134 Y157.916 E13.29468
G1 F1800 X138.143 Y157.892 E13.29546
G1 X138.258 Y157.639 E13.30398
G1 X138.41 Y157.406 E13.31251
G1 X138.427 Y157.384 E13.31336
G1 X138.601 Y157.187 E13.32142
G1 X138.622 Y157.166 E13.32233
G1 X138.825 Y156.996 E13.33045
G1 X139.073 Y156.84 E13.33943
G1 X139.099 Y156.826 E13.34033
G1 X139.338 Y156.723 E13.34831
G1 X139.617 Y156.645 E13.35719
G1 X139.646 Y156.639 E13.3581
G1 X139.922 Y156.607 E13.36661
G1 X140.2 Y156.616 E13.37514
G1 X140.227 Y156.618 E13.37597
G1 X140.502 Y156.665 E13.38452
G1 X140.534 Y156.674 E13.38554
G1 X140.779 Y156.759 E13.39349
G1 X140.805 Y156.77 E13.39435
G1 X141.069 Y156.907 E13.40347
G1 X141.281 Y157.06 E13.41149
G1 X141.303 Y157.079 E13.41238
G1 X141.492 Y157.262 E13.42044
G1 X141.511 Y157.283 E13.42131
G1 X141.67 Y157.488 E13.42926
G1 X141.815 Y157.74 E13.43817
G1 X141.827 Y157.767 E13.43908
G1 X141.926 Y158.029 E13.44766
G1 X141.992 Y158.326 E13.45699
G1 X142.01 Y158.591 E13.46513
G1 X141.991 Y158.892 E13.47438
G1 X141.929 Y159.181 E13.48344
G1 X141.827 Y159.445 E13.49211
G1 X141.815 Y159.47 E13.49296
G1 X141.681 Y159.706 E13.50128
G1 X141.519 Y159.917 E13.50943
G1 X141.5 Y159.938 E13.5103
G1 X141.287 Y160.144 E13.51939
G1 X141.063 Y160.306 E13.52786
G1 X140.805 Y160.44 E13.53677
G1 X140.534 Y160.535 E13.54557
G1 X140.505 Y160.543 E13.54649
G1 X140.243 Y160.591 E13.55466
G1 X139.968 Y160.604 E13.5631
G1 X139.937 Y160.603 E13.56405
G1 X139.673 Y160.575 E13.57219
G1 X139.644 Y160.57 E13.57309
G1 X139.367 Y160.496 E13.58188
G1 X139.125 Y160.398 E13.58988
G1 X139.097 Y160.384 E13.59084
G1 X138.872 Y160.248 E13.5989
G1 X138.849 Y160.232 E13.59976
G1 X138.643 Y160.064 E13.60791
G1 X138.445 Y159.849 E13.61686
G1 X138.426 Y159.826 E13.61778
G1 X138.274 Y159.599 E13.62615
G1 X138.259 Y159.572 E13.6271
G1 F1795.5 X138.137 Y159.306 E13.63609
G1 F1531.9 X138 Y159.087 E13.6454
G1 F1281.1 X137.968 Y159.054 E13.64738
G1 F1252.2 X137.937 Y158.782 E13.65944
G1 F1278.9 X137.935 Y158.735 E13.66147
G1 F1276.6 X137.938 Y158.42 E13.67508
G1 F1254.4 X137.965 Y158.171 E13.6861
M204 S150
G1 F3000 E13.1861
G0 F2700 X137.821 Y157.315
G0 X138.666 Y153.008
G0 X151.867 Y153.009
G0 X151.86 Y155.51
G0 X148.053 Y156.749
G0 X147.919 Y158.849
G1 F1800 E13.6861
G0 F2700 X148.521 Y158.759
M204 S1000
G1 F1800 X148.52 Y158.478 E13.69471
G1 X148.521 Y158.458 E13.69533
G1 X148.562 Y158.174 E13.70412
G1 X148.638 Y157.917 E13.71234
G1 X148.648 Y157.891 E13.71319
G1 X148.772 Y157.626 E13.72216
G1 X148.939 Y157.372 E13.73148
G1 X149.114 Y157.176 E13.73953
G1 X149.136 Y157.155 E13.74046
G1 X149.33 Y156.995 E13.74817
G1 X149.577 Y156.84 E13.75711
G1 X149.603 Y156.826 E13.75802
G1 X149.842 Y156.723 E13.76599
G1 X150.122 Y156.644 E13.77491
G1 X150.151 Y156.639 E13.77581
G1 X150.415 Y156.608 E13.78396
G1 X150.704 Y156.616 E13.79282
G1 X150.731 Y156.618 E13.79365
G1 X151.007 Y156.665 E13.80223
G1 X151.039 Y156.674 E13.80325
G1 X151.283 Y156.759 E13.81117
G1 X151.309 Y156.77 E13.81204
G1 X151.547 Y156.892 E13.82024
G1 X151.572 Y156.907 E13.82113
G1 X151.785 Y157.06 E13.82917
G1 X151.808 Y157.079 E13.83008
G1 X151.997 Y157.262 E13.83815
G1 X152.167 Y157.478 E13.84657
G1 X152.182 Y157.501 E13.84742
G1 X152.318 Y157.739 E13.85582
G1 F1769 X152.426 Y157.993 E13.86443
G1 F1662.8 X152.451 Y158.016 E13.86555
G1 F1398.1 X152.578 Y158.275 E13.87694
G1 F1260.9 X152.596 Y158.582 E13.89039
G1 F1278.9 X152.596 Y158.623 E13.89216
G1 F1265.4 X152.58 Y158.919 E13.90509
G1 X152.571 Y158.929 E13.90567
G1 F1417.3 X152.464 Y159.165 E13.91576
G1 F1666.7 X152.435 Y159.19 E13.91703
G1 F1773.4 X152.319 Y159.469 E13.92643
G1 F1800 X152.182 Y159.71 E13.93493
G1 X152.024 Y159.916 E13.94289
G1 X152.005 Y159.938 E13.94378
G1 X151.808 Y160.13 E13.95221
G1 X151.785 Y160.149 E13.95312
G1 X151.572 Y160.302 E13.96116
G1 X151.547 Y160.317 E13.96206
G1 X151.309 Y160.439 E13.97025
G1 X151.283 Y160.45 E13.97112
G1 X151.039 Y160.535 E13.97904
G1 X151.009 Y160.543 E13.97999
G1 X150.746 Y160.591 E13.98819
G1 X150.473 Y160.604 E13.99656
G1 X150.442 Y160.603 E13.99751
G1 X150.178 Y160.575 E14.00565
G1 X150.149 Y160.57 E14.00655
G1 X149.871 Y160.496 E14.01537
G1 X149.629 Y160.398 E14.02337
G1 X149.389 Y160.256 E14.03192
G1 X149.353 Y160.232 E14.03325
G1 X149.125 Y160.043 E14.04233
G1 X148.942 Y159.84 E14.0507
G1 X148.786 Y159.609 E14.05925
G1 X148.781 Y159.601 E14.05954
G1 X148.658 Y159.345 E14.06824
G1 X148.647 Y159.317 E14.06917
G1 X148.565 Y159.048 E14.07779
G1 X148.521 Y158.759 E14.08675
M204 S150
G1 F3000 E13.58675
G0 F2700 X147.919 Y158.849
G0 X148.896 Y161.547
G0 X151.86 Y161.699
G0 X152.527 Y176.979
G0 X138.039 Y176.978
G0 X137.901 Y175.741
G1 F1800 E14.08675
G0 F2700 X137.292 Y175.74
M204 S1000
G1 F1800 X137.255 Y175.856 E14.09048
G1 X137.091 Y175.94 E14.09613
G1 X136.801 Y175.94 E14.10502
G1 X136.618 Y176.018 E14.11111
G1 X136.56 Y176.197 E14.11688
G1 X136.556 Y178.308 E14.18159
G1 X136.883 Y178.364 E14.19176
G1 X145.264 Y178.365 E14.44866
G1 X153.855 Y178.368 E14.71199
G1 X154.244 Y178.307 E14.72406
G1 X154.24 Y176.192 E14.78889
G1 X154.188 Y176.037 E14.7939
G1 X154.083 Y175.951 E14.79806
G1 X153.981 Y175.939 E14.80121
G1 X153.438 Y175.938 E14.81786
G1 X153.291 Y175.874 E14.82277
G1 X153.239 Y175.738 E14.82723
G1 X153.239 Y159.611 E15.32157
G1 F1773.4 X153.233 Y159.338 E15.33006
G1 F1666.7 X153.213 Y159.245 E15.33321
G1 F1417.3 X153.158 Y158.992 E15.34329
G1 F1267.6 X153.153 Y158.91 E15.34687
G1 F1269.8 X153.158 Y158.562 E15.36199
G1 F1260.9 X153.15 Y158.209 E15.37744
G1 F1398.1 X153.214 Y157.928 E15.38881
G1 F1690.1 X153.239 Y157.599 E15.39958
G1 F1800 X153.239 Y151.677 E15.58111
G1 X153.002 Y151.637 E15.58848
G1 X137.516 Y151.636 E16.06316
G1 X137.293 Y151.679 E16.07012
G1 X137.293 Y157.792 E16.2575
G1 F1541.8 X137.359 Y158.039 E16.26665
G1 F1290.3 X137.384 Y158.13 E16.27069
G1 F1256.5 X137.374 Y158.454 E16.28492
G1 F1276.6 X137.375 Y158.825 E16.30096
G1 F1252.2 X137.386 Y159.099 E16.31304
G1 F1281.1 X137.362 Y159.181 E16.31672
G1 F1531.9 X137.294 Y159.43 E16.32601
G1 F1795.5 X137.293 Y161.633 E16.39371
G1 F1800 X137.292 Y175.74 E16.82613
M204 S150
G0 F2700 X137.901 Y175.741
G0 X138.039 Y176.978
G0 X152.527 Y176.979
G0 X152.629 Y176.145
G0 X152.997 Y176.145
M204 S1000
;TYPE:WALL-INNER
G1 F1800 X152.87 Y175.929 E16.83381
G1 X152.839 Y175.738 E16.83974
G1 X152.839 Y159.611 E17.33407
G1 F1773.4 X152.82 Y159.338 E17.34259
G1 X152.667 Y159.665 E17.35382
G1 F1800 X152.5 Y159.952 E17.364
G1 X152.342 Y160.158 E17.37195
G1 X152.284 Y160.224 E17.37465
G1 X152.087 Y160.416 E17.38308
G1 X152.019 Y160.474 E17.38582
G1 X151.806 Y160.627 E17.39386
G1 X151.73 Y160.673 E17.39658
G1 X151.491 Y160.795 E17.40481
G1 X151.415 Y160.828 E17.40735
G1 X151.171 Y160.913 E17.41527
G1 X151.081 Y160.937 E17.41812
G1 X150.818 Y160.985 E17.42632
G1 X150.489 Y161.004 E17.43642
G1 X150.4 Y161.001 E17.43915
G1 X150.136 Y160.973 E17.44728
G1 X150.048 Y160.957 E17.45003
G1 X149.795 Y160.891 E17.45804
G1 X149.721 Y160.867 E17.46043
G1 X149.479 Y160.769 E17.46843
G1 X149.182 Y160.598 E17.47893
G1 X149.1 Y160.542 E17.48198
G1 X148.863 Y160.346 E17.4914
G1 X148.829 Y160.312 E17.49288
G1 X148.631 Y160.092 E17.50195
G1 X148.599 Y160.048 E17.50362
G1 X148.439 Y159.807 E17.51249
G1 X148.411 Y159.756 E17.51427
G1 X148.287 Y159.495 E17.52313
G1 X148.265 Y159.434 E17.52511
G1 X148.178 Y159.148 E17.53428
G1 X148.165 Y159.087 E17.53619
G1 X148.123 Y158.8 E17.54508
G1 X148.12 Y158.487 E17.55467
G1 X148.125 Y158.402 E17.55728
G1 X148.169 Y158.099 E17.56667
