;FLAVOR:Marlin
;TIME:5503
;Filament used: 3.55053m
;Layer height: 0.2
;MINX:139.08
;MINY:139.079
;MINZ:0.24
;MAXX:190.92
;MAXY:190.921
;MAXZ:30.04
;Generated with Cura_SteamEngine 4.13.0
M82 ;absolute extrusion mode
START_PRINT T_BED=70 T_EXTRUDER=230
G92 E0
G92 E0
G1 F3000 E-1.2
;LAYER_COUNT:150
;LAYER:0
M107
G0 F2700 X142.629 Y147.768 Z0.24
;TYPE:SKIRT
G1 F1800 E0.10394
G1 F900 X147.73 Y142.669 E0.3918
G1 X148.215 Y142.198 E0.41879
G1 X148.915 Y141.574 E0.45621
G1 X149.665 Y141.011 E0.49364
G1 X150.461 Y140.515 E0.53108
G1 X151.296 Y140.089 E0.56849
G1 X152.165 Y139.735 E0.60594
G1 X153.06 Y139.456 E0.64336
G1 X153.976 Y139.255 E0.68079
G1 X154.906 Y139.132 E0.71823
G1 X155.507 Y139.095 E0.74226
G1 X155.892 Y139.085 E0.75763
G1 X156.436 Y139.079 E0.77935
G1 X173.594 Y139.081 E1.46416
G1 X174.295 Y139.092 E1.49214
G1 X175.231 Y139.147 E1.52956
G1 X176.159 Y139.281 E1.56699
G1 X177.072 Y139.494 E1.60441
G1 X177.964 Y139.784 E1.64184
G1 X178.828 Y140.149 E1.67928
G1 X179.658 Y140.586 E1.71671
G1 X180.448 Y141.092 E1.75416
G1 X181.191 Y141.663 E1.79156
G1 X181.625 Y142.047 E1.81469
G1 X181.927 Y142.333 E1.83129
G1 X182.278 Y142.677 E1.8509
G1 X187.322 Y147.722 E2.13564
G1 X187.793 Y148.206 E2.16259
G1 X188.418 Y148.906 E2.20005
G1 X188.981 Y149.656 E2.23748
G1 X189.478 Y150.451 E2.2749
G1 X189.906 Y151.286 E2.31235
G1 X190.261 Y152.154 E2.34977
G1 X190.54 Y153.049 E2.38719
G1 X190.742 Y153.965 E2.42463
G1 X190.866 Y154.895 E2.46208
G1 X190.904 Y155.512 E2.48675
G1 X190.914 Y155.894 E2.502
G1 X190.92 Y156.437 E2.52367
G1 X190.919 Y173.575 E3.20769
G1 X190.909 Y174.277 E3.23571
G1 X190.856 Y175.213 E3.27313
G1 X190.723 Y176.141 E3.31054
G1 X190.511 Y177.055 E3.34799
G1 X190.223 Y177.948 E3.38544
G1 X189.859 Y178.812 E3.42286
G1 X189.423 Y179.643 E3.46032
G1 X188.918 Y180.433 E3.49774
G1 X188.348 Y181.177 E3.53515
G1 X187.993 Y181.581 E3.55661
G1 X187.873 Y181.711 E3.56367
G1 X187.642 Y181.954 E3.57705
G1 X187.31 Y182.292 E3.59596
G1 X182.462 Y187.143 E3.86969
G1 X181.794 Y187.794 E3.90692
G1 X181.094 Y188.419 E3.94437
G1 X180.344 Y188.982 E3.9818
G1 X179.549 Y189.479 E4.01922
G1 X178.714 Y189.907 E4.05667
G1 X177.846 Y190.261 E4.09409
G1 X176.951 Y190.541 E4.13151
G1 X176.035 Y190.743 E4.16895
G1 X175.105 Y190.867 E4.2064
G1 X174.532 Y190.903 E4.22931
G1 X174.076 Y190.916 E4.24752
G1 X173.577 Y190.921 E4.26744
G1 X156.405 Y190.919 E4.95281
G1 X155.705 Y190.908 E4.98075
G1 X154.769 Y190.853 E5.01817
G1 X153.841 Y190.719 E5.0556
G1 X152.927 Y190.506 E5.09305
G1 X152.035 Y190.216 E5.13049
G1 X151.171 Y189.851 E5.16793
G1 X150.342 Y189.414 E5.20533
G1 X149.552 Y188.908 E5.24277
G1 X148.808 Y188.336 E5.28023
G1 X148.375 Y187.953 E5.3033
G1 X148.069 Y187.663 E5.32013
G1 X147.711 Y187.312 E5.34014
G1 X142.662 Y182.261 E5.62518
G1 X142.191 Y181.775 E5.65219
G1 X141.567 Y181.075 E5.68962
G1 X141.006 Y180.323 E5.72707
G1 X140.511 Y179.527 E5.76448
G1 X140.085 Y178.691 E5.80193
G1 X139.732 Y177.822 E5.83936
G1 X139.454 Y176.927 E5.87677
G1 X139.254 Y176.01 E5.91423
G1 X139.132 Y175.081 E5.95163
G1 X139.096 Y174.491 E5.97522
G1 X139.086 Y174.106 E5.99059
G1 X139.08 Y173.562 E6.0123
G1 X139.08 Y156.427 E6.6962
G1 X139.09 Y155.723 E6.7243
G1 X139.143 Y154.786 E6.76176
G1 X139.276 Y153.858 E6.79917
G1 X139.488 Y152.944 E6.83662
G1 X139.776 Y152.052 E6.87403
G1 X140.14 Y151.187 E6.91149
G1 X140.576 Y150.357 E6.94891
G1 X141.081 Y149.567 E6.98633
G1 X141.651 Y148.822 E7.02377
G1 X142.015 Y148.409 E7.04574
G1 X142.151 Y148.262 E7.05373
G1 X142.363 Y148.039 E7.06602
G1 X142.629 Y147.768 E7.08117
G0 F2700 X142.912 Y148.051
G1 F900 X148.008 Y142.956 E7.36878
G1 X148.493 Y142.485 E7.39577
G1 X149.181 Y141.873 E7.43252
G1 X149.919 Y141.322 E7.46928
G1 X150.702 Y140.838 E7.50602
G1 X151.525 Y140.424 E7.54279
G1 X152.38 Y140.083 E7.57953
G1 X153.261 Y139.817 E7.61626
G1 X154.162 Y139.629 E7.65299
G1 X155.52 Y139.495 E7.70745
G1 X155.896 Y139.485 E7.72247
G1 X156.436 Y139.479 E7.74402
G1 X173.587 Y139.481 E8.42855
G1 X174.288 Y139.492 E8.45654
G1 X175.207 Y139.547 E8.49328
G1 X176.118 Y139.681 E8.53003
G1 X177.014 Y139.893 E8.56678
G1 X177.888 Y140.183 E8.60353
G1 X178.734 Y140.547 E8.64029
G1 X179.544 Y140.983 E8.67701
G1 X180.314 Y141.488 E8.71376
G1 X181.352 Y142.34 E8.76736
G1 X181.648 Y142.619 E8.78359
G1 X181.907 Y142.872 E8.79804
G1 X187.036 Y148.001 E9.08755
G1 X187.507 Y148.485 E9.1145
G1 X188.119 Y149.172 E9.15122
G1 X188.67 Y149.91 E9.18798
G1 X189.155 Y150.693 E9.22474
G1 X189.57 Y151.515 E9.26149
G1 X189.912 Y152.369 E9.29821
G1 X190.179 Y153.25 E9.33495
G1 X190.368 Y154.151 E9.3717
G1 X190.504 Y155.525 E9.4268
G1 X190.514 Y155.898 E9.4417
G1 X190.52 Y156.437 E9.46321
G1 X190.519 Y173.569 E10.14699
G1 X190.509 Y174.271 E10.17501
G1 X190.456 Y175.19 E10.21175
G1 X190.323 Y176.101 E10.24849
G1 X190.112 Y176.997 E10.28523
G1 X189.824 Y177.872 E10.322
G1 X189.461 Y178.718 E10.35874
G1 X189.026 Y179.529 E10.39547
G1 X188.522 Y180.3 E10.43224
G1 X187.699 Y181.31 E10.48424
G1 X187.579 Y181.44 E10.4913
G1 X187.356 Y181.674 E10.5042
G1 X187.027 Y182.009 E10.52294
G1 X182.074 Y186.964 E10.80256
G1 X181.515 Y187.508 E10.83369
G1 X180.828 Y188.12 E10.87042
G1 X180.09 Y188.671 E10.90718
G1 X179.307 Y189.156 E10.94394
G1 X178.486 Y189.571 E10.98065
G1 X177.631 Y189.913 E11.01741
G1 X176.75 Y190.18 E11.05415
G1 X175.849 Y190.369 E11.09089
G1 X174.517 Y190.504 E11.14433
G1 X174.356 Y190.51 E11.15076
G1 X174.072 Y190.516 E11.16209
G1 X173.577 Y190.521 E11.18185
G1 X156.411 Y190.519 E11.86698
G1 X155.711 Y190.508 E11.89493
G1 X154.792 Y190.453 E11.93167
G1 X153.882 Y190.319 E11.96838
G1 X152.986 Y190.107 E12.00513
G1 X152.112 Y189.817 E12.04189
G1 X151.266 Y189.453 E12.07864
G1 X150.455 Y189.017 E12.11539
G1 X149.686 Y188.512 E12.15211
G1 X148.648 Y187.66 E12.20571
G1 X148.348 Y187.377 E12.22217
G1 X148.078 Y187.113 E12.23724
G1 X142.949 Y181.983 E12.52677
G1 X142.478 Y181.497 E12.55379
G1 X141.867 Y180.809 E12.59051
G1 X141.317 Y180.07 E12.62728
G1 X140.834 Y179.286 E12.66403
G1 X140.421 Y178.464 E12.70075
G1 X140.08 Y177.608 E12.73752
G1 X139.815 Y176.726 E12.77428
G1 X139.628 Y175.825 E12.81101
G1 X139.496 Y174.478 E12.86503
G1 X139.486 Y174.101 E12.88008
G1 X139.48 Y173.562 E12.90159
G1 X139.48 Y156.432 E13.58529
G1 X139.49 Y155.728 E13.61339
G1 X139.543 Y154.809 E13.65013
G1 X139.676 Y153.898 E13.68687
G1 X139.887 Y153.002 E13.72361
G1 X140.175 Y152.128 E13.76034
G1 X140.538 Y151.282 E13.79708
G1 X140.973 Y150.47 E13.83385
G1 X141.477 Y149.7 E13.87058
G1 X142.308 Y148.68 E13.92309
G1 X142.444 Y148.533 E13.93108
G1 X142.649 Y148.319 E13.94291
G1 X142.912 Y148.051 E13.9579
G0 F2700 X143.117 Y148.412
G1 F900 X148.287 Y143.243 E14.24969
G1 X148.772 Y142.772 E14.27667
G1 X149.447 Y142.172 E14.31272
G1 X150.172 Y141.634 E14.34875
G1 X150.943 Y141.162 E14.38483
G1 X151.752 Y140.761 E14.42087
G1 X152.593 Y140.432 E14.45691
G1 X153.46 Y140.18 E14.49295
G1 X154.346 Y140.005 E14.52899
G1 X155.534 Y139.895 E14.57661
G1 X155.901 Y139.885 E14.59126
G1 X156.436 Y139.879 E14.61262
G1 X173.581 Y139.881 E15.29691
G1 X174.282 Y139.892 E15.3249
G1 X175.184 Y139.946 E15.36096
G1 X176.077 Y140.08 E15.397
G1 X176.955 Y140.292 E15.43305
G1 X177.81 Y140.581 E15.46907
G1 X178.637 Y140.945 E15.50514
G1 X179.428 Y141.38 E15.54117
G1 X180.178 Y141.883 E15.57721
G1 X181.079 Y142.632 E15.62397
G1 X181.368 Y142.905 E15.63984
G1 X181.627 Y143.158 E15.65429
G1 X186.749 Y148.28 E15.9434
G1 X187.22 Y148.764 E15.97035
G1 X187.821 Y149.439 E16.00642
G1 X188.359 Y150.164 E16.04246
G1 X188.831 Y150.934 E16.0785
G1 X189.234 Y151.742 E16.11454
G1 X189.563 Y152.583 E16.15058
G1 X189.817 Y153.45 E16.18664
G1 X189.993 Y154.336 E16.2227
G1 X190.104 Y155.538 E16.27087
G1 X190.114 Y155.903 E16.28545
G1 X190.12 Y156.437 E16.30676
G1 X190.119 Y173.563 E16.9903
G1 X190.109 Y174.265 E17.01832
G1 X190.056 Y175.167 E17.05438
G1 X189.924 Y176.06 E17.09041
G1 X189.713 Y176.938 E17.12645
G1 X189.425 Y177.794 E17.1625
G1 X189.063 Y178.622 E17.19857
G1 X188.629 Y179.414 E17.23461
G1 X188.126 Y180.164 E17.27065
G1 X187.405 Y181.038 E17.31588
G1 X187.285 Y181.168 E17.32294
G1 X187.071 Y181.394 E17.33536
G1 X186.744 Y181.726 E17.35396
G1 X181.795 Y186.677 E17.63336
G1 X181.236 Y187.221 E17.66449
G1 X180.561 Y187.821 E17.70053
G1 X179.836 Y188.36 E17.73659
G1 X179.067 Y188.832 E17.7726
G1 X178.258 Y189.235 E17.80868
G1 X177.417 Y189.564 E17.84472
G1 X176.55 Y189.818 E17.88078
G1 X175.665 Y189.994 E17.91679
G1 X174.502 Y190.104 E17.96342
G1 X174.341 Y190.11 E17.96985
G1 X174.068 Y190.116 E17.98075
G1 X173.577 Y190.121 E18.00035
G1 X156.418 Y190.119 E18.6852
G1 X155.718 Y190.108 E18.71314
G1 X154.816 Y190.054 E18.74921
G1 X153.923 Y189.92 E18.78525
G1 X153.045 Y189.708 E18.8213
G1 X152.19 Y189.419 E18.85732
G1 X151.363 Y189.055 E18.89338
G1 X150.572 Y188.62 E18.92941
G1 X149.822 Y188.117 E18.96545
G1 X148.921 Y187.368 E19.01222
G1 X148.628 Y187.091 E19.02831
G1 X148.358 Y186.827 E19.04338
G1 X143.236 Y181.705 E19.33249
G1 X142.765 Y181.219 E19.3595
G1 X142.166 Y180.543 E19.39555
G1 X141.629 Y179.817 E19.43159
G1 X141.158 Y179.046 E19.46765
G1 X140.758 Y178.237 E19.50367
G1 X140.43 Y177.395 E19.53974
G1 X140.178 Y176.528 E19.57577
G1 X140.004 Y175.642 E19.61181
G1 X139.896 Y174.464 E19.65902
G1 X139.886 Y174.096 E19.67372
G1 X139.88 Y173.562 E19.69503
G1 X139.88 Y156.438 E20.37849
G1 X139.89 Y155.734 E20.40659
G1 X139.943 Y154.833 E20.44261
G1 X140.075 Y153.939 E20.47868
G1 X140.286 Y153.061 E20.51472
G1 X140.574 Y152.205 E20.55077
G1 X140.936 Y151.378 E20.5868
G1 X141.37 Y150.586 E20.62284
G1 X141.872 Y149.835 E20.6589
G1 X142.602 Y148.952 E20.70462
G1 X142.738 Y148.805 E20.71262
G1 X142.935 Y148.598 E20.72402
G1 X143.117 Y148.412 E20.73441
G1 F3000 E19.53441
;MESH:Voron_Design_Cube_v7.stl
G0 F2700 X158.272 Y162.846
G0 X156.888 Y162.397
G0 X156.841 Y165.422
G0 X157.004 Y166.679
G0 X157.361 Y167.895
G0 X157.9 Y169.042
G0 X158.612 Y170.092
G0 X159.475 Y171.017
G0 X160.472 Y171.801
G0 X161.578 Y172.42
G0 X162.766 Y172.857
G0 X165.278 Y173.325
;TYPE:WALL-INNER
G1 F1800 E20.83835
G1 F900 X165.71 Y173.3 E20.85562
G1 X166.139 Y173.251 E20.87285
G1 X166.564 Y173.182 E20.89004
G1 X166.985 Y173.09 E20.90724
G1 X167.4 Y172.977 E20.9244
G1 X167.811 Y172.842 E20.94167
G1 X168.211 Y172.686 E20.9588
G1 X168.606 Y172.51 E20.97606
G1 X168.989 Y172.313 E20.99325
G1 X169.362 Y172.097 E21.01046
G1 X169.722 Y171.862 E21.02762
G1 X170.071 Y171.609 E21.04482
G1 X170.408 Y171.336 E21.06213
G1 X170.727 Y171.049 E21.07926
G1 X171.033 Y170.744 E21.0965
G1 X171.321 Y170.425 E21.11365
G1 X171.595 Y170.09 E21.13093
G1 X171.848 Y169.742 E21.1481
G1 X172.083 Y169.383 E21.16522
G1 X172.302 Y169.011 E21.18245
G1 X172.499 Y168.626 E21.19971
G1 X172.678 Y168.233 E21.21695
G1 X172.834 Y167.831 E21.23416
G1 X172.969 Y167.423 E21.25131
G1 X173.084 Y167.006 E21.26858
G1 X173.177 Y166.586 E21.28575
G1 X173.248 Y166.161 E21.30294
G1 X173.298 Y165.732 E21.32018
G1 X173.324 Y165.302 E21.33738
G1 X173.328 Y164.873 E21.3545
G1 X173.311 Y164.443 E21.37168
G1 X173.271 Y164.01 E21.38903
G1 X173.208 Y163.585 E21.40618
G1 X173.124 Y163.164 E21.42331
G1 X173.018 Y162.745 E21.44056
G1 X172.891 Y162.335 E21.45769
G1 X172.742 Y161.93 E21.47492
G1 X172.574 Y161.532 E21.49216
G1 X172.385 Y161.145 E21.50935
G1 X172.174 Y160.767 E21.52663
G1 X171.945 Y160.403 E21.54379
G1 X171.699 Y160.05 E21.56096
G1 X171.433 Y159.709 E21.57823
G1 X171.152 Y159.385 E21.59534
G1 X170.853 Y159.073 E21.61259
G1 X170.538 Y158.779 E21.62979
G1 X170.21 Y158.501 E21.64695
G1 X169.866 Y158.239 E21.66421
G1 X169.509 Y157.996 E21.68144
G1 X169.142 Y157.774 E21.69856
G1 X168.763 Y157.569 E21.71576
G1 X168.372 Y157.383 E21.73304
G1 X167.974 Y157.219 E21.75022
G1 X167.567 Y157.076 E21.76744
G1 X167.154 Y156.954 E21.78463
G1 X166.734 Y156.854 E21.80186
G1 X166.311 Y156.775 E21.81903
G1 X165.884 Y156.718 E21.83623
G1 X165.453 Y156.683 E21.85349
G1 X165.024 Y156.672 E21.87062
G1 X164.594 Y156.681 E21.88778
G1 X164.164 Y156.713 E21.90499
G1 X163.735 Y156.768 E21.92225
G1 X163.311 Y156.844 E21.93945
G1 X162.892 Y156.943 E21.95663
G1 X162.478 Y157.062 E21.97382
G1 X162.07 Y157.205 E21.99108
G1 X161.672 Y157.365 E22.0082
G1 X161.28 Y157.548 E22.02546
G1 X160.9 Y157.751 E22.04266
G1 X160.53 Y157.972 E22.05986
G1 X160.173 Y158.213 E22.07705
G1 X159.828 Y158.471 E22.09425
G1 X159.497 Y158.749 E22.1115
G1 X159.183 Y159.042 E22.12864
G1 X158.881 Y159.35 E22.14586
G1 X158.601 Y159.67 E22.16283
G1 X158.485 Y159.811 E22.17011
G1 X158.227 Y160.153 E22.18721
G1 X157.984 Y160.511 E22.20448
G1 X157.761 Y160.879 E22.22166
G1 X157.557 Y161.261 E22.23894
G1 X157.374 Y161.649 E22.25606
G1 X157.212 Y162.049 E22.27329
G1 X157.069 Y162.455 E22.29047
G1 X156.948 Y162.87 E22.30772
G1 X156.848 Y163.29 E22.32495
G1 X156.771 Y163.712 E22.34207
G1 X156.715 Y164.14 E22.3593
G1 X156.681 Y164.57 E22.37652
G1 X156.671 Y165 E22.39368
G1 X156.68 Y165.431 E22.41089
G1 X156.714 Y165.86 E22.42807
G1 X156.77 Y166.289 E22.44533
G1 X156.847 Y166.713 E22.46253
G1 X156.947 Y167.131 E22.47969
G1 X157.068 Y167.546 E22.49694
G1 X157.211 Y167.952 E22.51412
G1 X157.373 Y168.352 E22.53134
G1 X157.556 Y168.74 E22.54847
G1 X157.76 Y169.122 E22.56575
G1 X157.984 Y169.491 E22.58298
G1 X158.225 Y169.847 E22.60014
G1 X158.486 Y170.193 E22.61744
G1 X158.762 Y170.521 E22.63455
G1 X159.057 Y170.836 E22.65177
G1 X159.366 Y171.135 E22.66893
G1 X159.69 Y171.419 E22.68613
G1 X160.03 Y171.686 E22.70338
G1 X160.384 Y171.934 E22.72063
G1 X160.748 Y172.163 E22.7378
G1 X161.123 Y172.373 E22.75495
G1 X161.51 Y172.565 E22.77219
G1 X161.908 Y172.735 E22.78947
G1 X162.311 Y172.884 E22.80662
G1 X162.721 Y173.012 E22.82376
G1 X163.139 Y173.12 E22.84099
G1 X163.562 Y173.205 E22.85821
G1 X163.988 Y173.269 E22.8754
G1 X164.419 Y173.31 E22.89268
G1 X164.85 Y173.328 E22.9099
G1 X165.278 Y173.325 E22.92698
G0 F2700 X165.265 Y172.925
;TYPE:WALL-OUTER
G1 F900 X165.676 Y172.901 E22.94341
G1 X166.084 Y172.855 E22.9598
G1 X166.489 Y172.789 E22.97618
G1 X166.89 Y172.701 E22.99257
G1 X167.285 Y172.594 E23.0089
G1 X167.676 Y172.465 E23.02533
G1 X168.057 Y172.317 E23.04165
G1 X168.433 Y172.149 E23.05808
G1 X168.797 Y171.962 E23.07442
G1 X169.152 Y171.756 E23.0908
G1 X169.495 Y171.532 E23.10715
G1 X169.828 Y171.291 E23.12355
G1 X170.148 Y171.032 E23.13998
G1 X170.452 Y170.759 E23.15629
G1 X170.743 Y170.468 E23.17272
G1 X171.017 Y170.164 E23.18905
G1 X171.278 Y169.845 E23.2055
G1 X171.519 Y169.515 E23.22181
G1 X171.743 Y169.172 E23.23816
G1 X171.951 Y168.818 E23.25455
G1 X172.139 Y168.452 E23.27097
G1 X172.309 Y168.078 E23.28737
G1 X172.457 Y167.696 E23.30372
G1 X172.586 Y167.307 E23.32008
G1 X172.696 Y166.91 E23.33652
G1 X172.784 Y166.51 E23.35287
G1 X172.852 Y166.105 E23.36926
G1 X172.899 Y165.697 E23.38565
G1 X172.924 Y165.288 E23.402
G1 X172.928 Y164.879 E23.41833
G1 X172.912 Y164.469 E23.4347
G1 X172.874 Y164.058 E23.45118
G1 X172.814 Y163.653 E23.46752
G1 X172.734 Y163.252 E23.48384
G1 X172.633 Y162.853 E23.50027
G1 X172.512 Y162.463 E23.51656
G1 X172.37 Y162.077 E23.53298
G1 X172.21 Y161.698 E23.5494
G1 X172.03 Y161.33 E23.56575
G1 X171.83 Y160.971 E23.58215
G1 X171.612 Y160.624 E23.59851
G1 X171.377 Y160.288 E23.61487
G1 X171.124 Y159.963 E23.63131
G1 X170.856 Y159.655 E23.64761
G1 X170.572 Y159.358 E23.66401
G1 X170.272 Y159.078 E23.68039
G1 X169.959 Y158.813 E23.69675
G1 X169.632 Y158.564 E23.71316
G1 X169.293 Y158.333 E23.72953
G1 X168.943 Y158.121 E23.74586
G1 X168.582 Y157.926 E23.76224
G1 X168.21 Y157.749 E23.77868
G1 X167.831 Y157.593 E23.79504
G1 X167.444 Y157.457 E23.81141
G1 X167.051 Y157.341 E23.82777
G1 X166.651 Y157.245 E23.84418
G1 X166.248 Y157.17 E23.86055
G1 X165.842 Y157.116 E23.87689
G1 X165.432 Y157.083 E23.89331
G1 X165.023 Y157.072 E23.90964
G1 X164.613 Y157.081 E23.92601
G1 X164.204 Y157.111 E23.94238
G1 X163.796 Y157.163 E23.95879
G1 X163.392 Y157.236 E23.97518
G1 X162.993 Y157.33 E23.99154
G1 X162.599 Y157.443 E24.0079
G1 X162.211 Y157.579 E24.02431
G1 X161.832 Y157.732 E24.04062
G1 X161.459 Y157.906 E24.05705
G1 X161.097 Y158.099 E24.07342
G1 X160.745 Y158.31 E24.0898
G1 X160.405 Y158.539 E24.10616
