;FLAVOR:Marlin
;TIME:8211
;Filament used: 8.89302m
;Layer height: 0.2
;MINX:102.713
;MINY:104.469
;MINZ:0.2
;MAXX:227.282
;MAXY:225.526
;MAXZ:11.8
;Generated with Cura_SteamEngine 4.13.0
M82 ;absolute extrusion mode
START_PRINT T_BED=70 T_EXTRUDER=240
G92 E0
G92 E0
G1 F3000 E-1.2
;LAYER_COUNT:59
;LAYER:0
M107
G0 F2700 X123.174 Y115.258 Z0.2
;TYPE:SKIRT
G1 F1800 E0
G1 X123.595 Y114.82 E0.0198
G1 X124.029 Y114.393 E0.03965
G1 X124.251 Y114.181 E0.04965
G1 X124.74 Y113.726 E0.07142
G1 X125.453 Y113.117 E0.10199
G1 X125.953 Y112.748 E0.12224
G1 X126.488 Y112.376 E0.14348
G1 X126.745 Y112.203 E0.15358
G1 X127.26 Y111.866 E0.17364
G1 X128.066 Y111.386 E0.20422
G1 X128.62 Y111.107 E0.22444
G1 X129.184 Y110.843 E0.24474
G1 X129.457 Y110.72 E0.25449
G1 X130.052 Y110.461 E0.27565
G1 X130.927 Y110.124 E0.30621
G1 X131.527 Y109.94 E0.32667
G1 X132.142 Y109.771 E0.34745
G1 X132.445 Y109.693 E0.35765
G1 X133.071 Y109.54 E0.37866
G1 X133.991 Y109.356 E0.40924
G1 X134.608 Y109.278 E0.42951
G1 X135.209 Y109.219 E0.44919
G1 X135.5 Y109.194 E0.45871
G1 X136.172 Y109.146 E0.48067
G1 X136.49 Y109.128 E0.49106
G1 X136.939 Y109.109 E0.5057
G1 X139.542 Y108.96 E0.59069
G1 X142.046 Y108.745 E0.6726
G1 X144.563 Y108.458 E0.75518
G1 X147.031 Y108.105 E0.83644
G1 X149.509 Y107.68 E0.91839
G1 X151.969 Y107.186 E1.00017
G1 X154.467 Y106.609 E1.08374
G1 X156.857 Y105.986 E1.16425
G1 X157.946 Y105.67 E1.20121
G1 X159.618 Y105.207 E1.25776
G1 X160.072 Y105.09 E1.27304
G1 X160.746 Y104.925 E1.29565
G1 X161.666 Y104.741 E1.32624
G1 X162.25 Y104.665 E1.34543
G1 X163.078 Y104.582 E1.37256
G1 X163.474 Y104.549 E1.38551
G1 X164.168 Y104.498 E1.40819
G1 X165.105 Y104.469 E1.43875
G1 X165.775 Y104.497 E1.4606
G1 X166.72 Y104.566 E1.49149
G1 X167.039 Y104.594 E1.50193
G1 X167.772 Y104.669 E1.52594
G1 X168.16 Y104.716 E1.53868
G1 X169.338 Y104.942 E1.57778
G1 X170.081 Y105.129 E1.60275
G1 X170.544 Y105.251 E1.61836
G1 X172.197 Y105.712 E1.67429
G1 X172.888 Y105.915 E1.69777
G1 X175.357 Y106.565 E1.78099
G1 X177.828 Y107.142 E1.8637
G1 X180.288 Y107.645 E1.94554
G1 X182.705 Y108.064 E2.0255
G1 X185.261 Y108.436 E2.10969
G1 X187.739 Y108.724 E2.191
G1 X190.217 Y108.943 E2.27209
G1 X193.176 Y109.115 E2.3687
G1 X193.538 Y109.13 E2.38051
G1 X193.858 Y109.148 E2.39095
G1 X194.45 Y109.19 E2.4103
G1 X194.781 Y109.218 E2.42113
G1 X195.442 Y109.285 E2.44278
G1 X196.371 Y109.419 E2.47338
G1 X196.944 Y109.543 E2.49248
G1 X197.562 Y109.694 E2.51322
G1 X197.875 Y109.776 E2.52377
G1 X198.488 Y109.945 E2.54449
G1 X199.38 Y110.232 E2.57504
G1 X199.966 Y110.468 E2.59563
G1 X200.55 Y110.723 E2.6164
G1 X200.803 Y110.837 E2.62544
G1 X201.364 Y111.099 E2.64563
G1 X202.196 Y111.532 E2.6762
G1 X202.717 Y111.852 E2.69613
G1 X203.243 Y112.195 E2.71659
G1 X203.519 Y112.381 E2.72744
G1 X204.052 Y112.752 E2.74861
G1 X204.798 Y113.32 E2.77917
G1 X205.247 Y113.714 E2.79864
G1 X205.7 Y114.134 E2.81878
G1 X205.941 Y114.364 E2.82964
G1 X206.413 Y114.829 E2.85123
G1 X207.052 Y115.515 E2.88179
G1 X207.44 Y115.995 E2.90191
G1 X207.819 Y116.492 E2.92228
G1 X207.982 Y116.711 E2.93118
G1 X208.352 Y117.222 E2.95174
G1 X208.869 Y118.004 E2.9823
G1 X209.192 Y118.58 E3.00383
G1 X209.495 Y119.16 E3.02515
G1 X209.633 Y119.433 E3.03513
G1 X209.905 Y119.991 E3.05536
G1 X210.273 Y120.835 E3.08537
G1 X210.371 Y121.088 E3.09421
G1 X211.366 Y123.557 E3.18098
G1 X212.366 Y125.849 E3.26249
G1 X213.442 Y128.139 E3.34496
G1 X214.58 Y130.391 E3.4272
G1 X215.787 Y132.621 E3.50985
G1 X216.512 Y133.884 E3.55732
G1 X216.838 Y134.466 E3.57907
G1 X219.108 Y138.611 E3.73311
G1 X219.52 Y139.388 E3.76177
G1 X219.653 Y139.647 E3.77126
G1 X219.767 Y139.877 E3.77963
G1 X219.894 Y140.143 E3.78924
G1 X220.019 Y140.413 E3.79894
G1 X221.947 Y144.657 E3.95087
G1 X222.312 Y145.491 E3.98055
G1 X222.416 Y145.736 E3.98922
G1 X222.487 Y145.91 E3.99535
G1 X222.598 Y146.195 E4.00532
G1 X222.729 Y146.544 E4.01747
G1 X224.38 Y151.047 E4.1738
G1 X224.579 Y151.61 E4.19326
G1 X224.791 Y152.275 E4.21601
G1 X225.059 Y153.22 E4.24803
G1 X225.902 Y156.384 E4.35476
G1 X226.066 Y157.041 E4.37683
G1 X226.184 Y157.571 E4.39453
G1 X226.22 Y157.753 E4.40057
G1 X226.28 Y158.083 E4.41151
G1 X226.361 Y158.577 E4.42782
G1 X226.875 Y161.91 E4.53775
G1 X226.979 Y162.652 E4.56217
G1 X227.065 Y163.512 E4.59034
G1 X227.11 Y164.274 E4.61522
G1 X227.258 Y167.56 E4.72244
G1 X227.282 Y168.325 E4.74738
G1 X227.282 Y169.001 E4.76942
G1 X227.269 Y169.348 E4.78074
G1 X227.242 Y169.888 E4.79836
G1 X227.03 Y173.282 E4.9092
G1 X226.976 Y173.989 E4.93231
G1 X226.919 Y174.55 E4.95069
G1 X226.904 Y174.667 E4.95454
G1 X226.854 Y175.012 E4.9659
G1 X226.756 Y175.619 E4.98594
G1 X226.199 Y178.859 E5.0931
G1 X226.06 Y179.61 E5.11799
G1 X225.862 Y180.48 E5.14708
G1 X225.68 Y181.153 E5.1698
G1 X224.803 Y184.237 E5.27431
G1 X224.54 Y185.114 E5.30415
G1 X224.263 Y185.918 E5.33187
G1 X223.997 Y186.603 E5.35582
G1 X222.793 Y189.578 E5.46043
G1 X222.454 Y190.38 E5.48881
G1 X222.204 Y190.93 E5.50851
G1 X222.037 Y191.263 E5.52065
G1 X221.748 Y191.816 E5.54099
G1 X220.143 Y194.806 E5.6516
G1 X219.808 Y195.408 E5.67405
G1 X219.493 Y195.939 E5.69418
G1 X219.279 Y196.272 E5.70708
G1 X218.969 Y196.735 E5.72524
G1 X217.041 Y199.552 E5.83651
G1 X216.639 Y200.121 E5.85922
G1 X216.242 Y200.649 E5.88075
G1 X215.993 Y200.96 E5.89373
G1 X215.819 Y201.171 E5.90265
G1 X213.289 Y204.174 E6.03064
G1 X212.867 Y204.661 E6.05164
G1 X212.409 Y205.157 E6.07365
G1 X211.577 Y206.004 E6.11235
G1 X209.095 Y208.448 E6.22589
G1 X208.687 Y208.839 E6.24431
G1 X208.183 Y209.293 E6.26642
G1 X207.375 Y209.977 E6.30092
G1 X204.727 Y212.143 E6.41243
G1 X204.097 Y212.645 E6.43869
G1 X203.56 Y213.046 E6.46053
G1 X202.742 Y213.618 E6.49307
G1 X199.83 Y215.58 E6.60752
G1 X199.196 Y215.994 E6.6322
G1 X198.638 Y216.334 E6.6535
G1 X197.556 Y216.949 E6.69406
G1 X194.585 Y218.568 E6.80435
G1 X194.005 Y218.874 E6.82572
G1 X193.408 Y219.166 E6.84739
G1 X192.302 Y219.665 E6.88693
G1 X189.256 Y220.976 E6.99502
G1 X188.574 Y221.259 E7.01909
G1 X187.948 Y221.496 E7.04091
G1 X186.799 Y221.89 E7.0805
G1 X183.542 Y222.946 E7.1921
G1 X182.933 Y223.134 E7.21288
G1 X182.297 Y223.309 E7.23438
G1 X181.31 Y223.55 E7.2675
G1 X181.113 Y223.596 E7.27409
G1 X177.684 Y224.366 E7.38864
G1 X177.137 Y224.48 E7.40685
G1 X176.505 Y224.592 E7.42777
G1 X175.333 Y224.764 E7.46638
G1 X172.025 Y225.19 E7.5751
G1 X171.268 Y225.277 E7.59994
G1 X170.613 Y225.332 E7.62136
G1 X169.589 Y225.387 E7.65479
G1 X169.387 Y225.396 E7.66138
G1 X165.983 Y225.515 E7.7724
G1 X165.574 Y225.524 E7.78573
G1 X165.174 Y225.526 E7.79877
G1 X163.783 Y225.506 E7.84411
G1 X163.552 Y225.5 E7.85165
G1 X160.246 Y225.382 E7.95947
G1 X159.667 Y225.354 E7.97837
G1 X158.993 Y225.301 E8.00041
G1 X157.792 Y225.167 E8.0398
G1 X154.467 Y224.738 E8.14907
G1 X153.759 Y224.637 E8.17238
G1 X153.097 Y224.522 E8.19428
G1 X151.942 Y224.283 E8.23273
G1 X148.688 Y223.552 E8.34144
G1 X147.955 Y223.377 E8.366
G1 X147.317 Y223.204 E8.38755
G1 X146.318 Y222.9 E8.42158
G1 X146.124 Y222.839 E8.42821
G1 X143.04 Y221.838 E8.5339
G1 X142.294 Y221.585 E8.55957
G1 X141.666 Y221.351 E8.58142
G1 X140.739 Y220.972 E8.61406
G1 X140.551 Y220.893 E8.62071
G1 X137.355 Y219.515 E8.73415
G1 X136.809 Y219.27 E8.75366
G1 X136.228 Y218.989 E8.77469
G1 X135.33 Y218.521 E8.8077
G1 X135.145 Y218.422 E8.81454
G1 X132.13 Y216.776 E8.9265
G1 X131.582 Y216.467 E8.94701
G1 X131.014 Y216.124 E8.96864
G1 X130.197 Y215.596 E9.00035
G1 X130.026 Y215.483 E9.00703
G1 X127.116 Y213.523 E9.12139
G1 X126.633 Y213.188 E9.14055
G1 X126.097 Y212.792 E9.16227
G1 X125.321 Y212.181 E9.19446
G1 X122.624 Y209.979 E9.30795
G1 X122.002 Y209.457 E9.33442
G1 X121.513 Y209.019 E9.35581
G1 X120.63 Y208.178 E9.39556
G1 X118.209 Y205.791 E9.50638
G1 X117.748 Y205.324 E9.52777
G1 X117.294 Y204.836 E9.54949
G1 X116.641 Y204.089 E9.58183
G1 X114.395 Y201.426 E9.69538
G1 X113.809 Y200.711 E9.72552
G1 X113.432 Y200.222 E9.74564
G1 X113.243 Y199.962 E9.75612
G1 X113.061 Y199.703 E9.76644
G1 X111.027 Y196.728 E9.8839
G1 X110.629 Y196.128 E9.90737
G1 X110.271 Y195.549 E9.92956
G1 X110.104 Y195.257 E9.94053
G1 X109.843 Y194.783 E9.95816
G1 X108.215 Y191.745 E10.07051
G1 X107.909 Y191.155 E10.09217
G1 X107.613 Y190.538 E10.11448
G1 X107.466 Y190.201 E10.12646
G1 X107.26 Y189.707 E10.14391
G1 X105.983 Y186.55 E10.25491
G1 X105.731 Y185.901 E10.2776
G1 X105.514 Y185.29 E10.29874
G1 X105.391 Y184.897 E10.31216
G1 X105.241 Y184.39 E10.32939
G1 X104.35 Y181.26 E10.43547
G1 X104.126 Y180.427 E10.46358
G1 X103.988 Y179.85 E10.48292
G1 X103.904 Y179.433 E10.49679
G1 X103.804 Y178.884 E10.51498
G1 X103.237 Y175.571 E10.62453
G1 X103.124 Y174.852 E10.64826
G1 X103.049 Y174.273 E10.66729
G1 X103.008 Y173.829 E10.68182
G1 X102.969 Y173.292 E10.69937
G1 X102.758 Y169.873 E10.81102
G1 X102.725 Y169.176 E10.83377
G1 X102.713 Y168.576 E10.85333
G1 X102.72 Y168.157 E10.86699
G1 X102.738 Y167.623 E10.8844
G1 X102.886 Y164.361 E10.99084
G1 X102.94 Y163.47 E11.01993
G1 X102.994 Y162.869 E11.0396
G1 X103.04 Y162.501 E11.05169
G1 X103.128 Y161.889 E11.07184
G1 X103.609 Y158.766 E11.17484
G1 X103.759 Y157.877 E11.20422
G1 X103.868 Y157.32 E11.22272
G1 X103.974 Y156.864 E11.23798
G1 X104.101 Y156.366 E11.25474
G1 X104.978 Y153.08 E11.36559
G1 X105.151 Y152.466 E11.38638
G1 X105.347 Y151.843 E11.40767
G1 X105.668 Y150.918 E11.43959
G1 X105.733 Y150.736 E11.44588
G1 X107.253 Y146.594 E11.5897
G1 X107.498 Y145.952 E11.61209
G1 X107.639 Y145.602 E11.62439
G1 X107.808 Y145.204 E11.63849
G1 X107.935 Y144.916 E11.64875
G1 X109.972 Y140.435 E11.80919
G1 X110.25 Y139.846 E11.83042
G1 X110.383 Y139.574 E11.84029
G1 X110.507 Y139.329 E11.84924
G1 X110.673 Y139.014 E11.86084
G1 X113.099 Y134.585 E12.02544
G1 X113.977 Y133.035 E12.08351
G1 X115.22 Y130.765 E12.16787
G1 X116.355 Y128.546 E12.24911
G1 X117.454 Y126.241 E12.33234
G1 X118.452 Y123.984 E12.41278
G1 X119.603 Y121.153 E12.51239
G1 X119.741 Y120.798 E12.5248
G1 X120.102 Y119.975 E12.5541
G1 X120.371 Y119.423 E12.57411
G1 X120.517 Y119.135 E12.58464
G1 X120.809 Y118.578 E12.60514
G1 X121.279 Y117.766 E12.63572
G1 X121.623 Y117.259 E12.65569
G1 X122.011 Y116.72 E12.67733
G1 X122.202 Y116.463 E12.68777
G1 X122.573 Y115.978 E12.70767
G1 X123.174 Y115.258 E12.73824
G0 F2700 X123.481 Y115.514
G1 F1800 X123.876 Y115.105 E12.75678
G1 X124.31 Y114.678 E12.77662
G1 X124.523 Y114.474 E12.78624
G1 X125.012 Y114.019 E12.80801
G1 X125.713 Y113.421 E12.83804
G1 X126.182 Y113.076 E12.85702
G1 X126.717 Y112.704 E12.87826
G1 X126.964 Y112.537 E12.88798
G1 X127.479 Y112.2 E12.90804
G1 X128.27 Y111.73 E12.93803
G1 X128.789 Y111.47 E12.95695
G1 X129.353 Y111.206 E12.97725
G1 X129.616 Y111.087 E12.98666
G1 X130.211 Y110.828 E13.00781
G1 X131.071 Y110.497 E13.03784
G1 X131.633 Y110.326 E13.05699
G1 X132.248 Y110.157 E13.07778
G1 X132.54 Y110.081 E13.08762
G1 X133.166 Y109.928 E13.10862
G1 X134.069 Y109.749 E13.13863
G1 X134.647 Y109.676 E13.15762
G1 X135.248 Y109.617 E13.1773
G1 X135.529 Y109.593 E13.18649
G1 X136.201 Y109.545 E13.20845
G1 X136.507 Y109.527 E13.21844
G1 X136.979 Y109.507 E13.23384
G1 X139.598 Y109.357 E13.31935
G1 X142.054 Y109.147 E13.39969
G1 X144.633 Y108.852 E13.4843
G1 X147.084 Y108.502 E13.565
G1 X149.584 Y108.072 E13.64769
G1 X152.066 Y107.574 E13.7302
G1 X154.553 Y107 E13.8134
G1 X156.965 Y106.371 E13.89464
G1 X158.053 Y106.055 E13.93157
G1 X159.72 Y105.594 E13.98795
G1 X160.167 Y105.478 E14.003
G1 X160.841 Y105.313 E14.02562
G1 X161.744 Y105.133 E14.05563
G1 X162.29 Y105.063 E14.07357
G1 X163.113 Y104.981 E14.10053
G1 X163.503 Y104.948 E14.11329
G1 X164.197 Y104.897 E14.13597
G1 X165.117 Y104.869 E14.16597
G1 X165.746 Y104.896 E14.18649
G1 X166.691 Y104.965 E14.21738
G1 X166.998 Y104.992 E14.22742
G1 X167.731 Y105.067 E14.25144
G1 X168.106 Y105.112 E14.26375
G1 X169.241 Y105.331 E14.30143
G1 X169.98 Y105.516 E14.32626
G1 X170.437 Y105.636 E14.34166
G1 X172.085 Y106.095 E14.39742
G1 X172.812 Y106.309 E14.42212
G1 X175.279 Y106.958 E14.50527
G1 X177.693 Y107.522 E14.58607
G1 X180.237 Y108.042 E14.67071
G1 X182.657 Y108.462 E14.75077
G1 X185.189 Y108.83 E14.83417
G1 X187.698 Y109.122 E14.9165
G1 X190.222 Y109.345 E14.99909
G1 X193.076 Y109.51 E15.09227
G1 X193.521 Y109.529 E15.10679
G1 X193.83 Y109.547 E15.11688
G1 X194.422 Y109.589 E15.13622
G1 X194.741 Y109.616 E15.14666
G1 X195.402 Y109.683 E15.16831
G1 X196.313 Y109.816 E15.19832
G1 X196.849 Y109.932 E15.2162
G1 X197.467 Y110.083 E15.23693
G1 X197.768 Y110.161 E15.24707
G1 X198.381 Y110.33 E15.26779
G1 X199.257 Y110.613 E15.2978
G1 X199.806 Y110.835 E15.3171
G1 X200.39 Y111.09 E15.33787
G1 X200.633 Y111.2 E15.34657
G1 X201.194 Y111.462 E15.36675
G1 X202.011 Y111.887 E15.39677
G1 X202.499 Y112.187 E15.41544
G1 X203.025 Y112.53 E15.43591
G1 X203.291 Y112.709 E15.44636
G1 X203.824 Y113.08 E15.46752
G1 X204.556 Y113.638 E15.49753
G1 X204.975 Y114.007 E15.51572
G1 X205.428 Y114.427 E15.53586
G1 X205.66 Y114.649 E15.54633
G1 X206.132 Y115.114 E15.56792
G1 X206.759 Y115.788 E15.59793
G1 X207.122 Y116.237 E15.61675
G1 X207.501 Y116.734 E15.63712
G1 X207.658 Y116.945 E15.64569
G1 X208.028 Y117.456 E15.66626
G1 X208.535 Y118.225 E15.69628
G1 X208.837 Y118.765 E15.71645
G1 X209.14 Y119.345 E15.73778
G1 X209.273 Y119.608 E15.74738
G1 X209.545 Y120.166 E15.76762
G1 X209.9 Y120.979 E15.79653
G1 X210.01 Y121.262 E15.80643
G1 X211.004 Y123.73 E15.89315
G1 X211.995 Y126 E15.97389
G1 X213.087 Y128.325 E16.05761
G1 X214.221 Y130.568 E16.13953
G1 X215.431 Y132.803 E16.22237
G1 X216.163 Y134.08 E16.27035
G1 X216.487 Y134.658 E16.29195
G1 X218.83 Y138.938 E16.45099
G1 X219.167 Y139.575 E16.47448
G1 X219.408 Y140.055 E16.49199
G1 X219.531 Y140.311 E16.50125
G1 X219.655 Y140.579 E16.51087
G1 X221.647 Y144.967 E16.66795
G1 X221.946 Y145.652 E16.69231
G1 X222.116 Y146.061 E16.70674
G1 X222.224 Y146.336 E16.71637
G1 X222.354 Y146.682 E16.72842
G1 X224.003 Y151.18 E16.88458
G1 X224.202 Y151.743 E16.90404
G1 X224.406 Y152.384 E16.92597
G1 X224.719 Y153.493 E16.96353
G1 X225.472 Y156.32 E17.05888
G1 X225.677 Y157.138 E17.08637
G1 X225.792 Y157.648 E17.10341
G1 X225.828 Y157.83 E17.10946
G1 X225.886 Y158.149 E17.12003
G1 X225.966 Y158.638 E17.13618
G1 X226.478 Y161.966 E17.24593
G1 X226.582 Y162.708 E17.27035
G1 X226.666 Y163.537 E17.29751
G1 X226.702 Y164.13 E17.31688
G1 X226.858 Y167.573 E17.42922
G1 X226.882 Y168.338 E17.45416
G1 X226.882 Y168.989 E17.47538
G1 X226.87 Y169.328 E17.48644
G1 X226.843 Y169.863 E17.5039
G1 X226.642 Y173.101 E17.60965
G1 X226.577 Y173.958 E17.63766
G1 X226.522 Y174.499 E17.65538
G1 X226.459 Y174.949 E17.67019
G1 X226.362 Y175.551 E17.69007
G1 X225.806 Y178.786 E17.79706
G1 X225.667 Y179.537 E17.82196
G1 X225.476 Y180.376 E17.85
G1 X225.295 Y181.043 E17.87253
G1 X224.372 Y184.284 E17.98237
G1 X224.157 Y184.998 E18.00667
G1 X223.89 Y185.773 E18.03339
G1 X223.626 Y186.453 E18.05717
G1 X222.422 Y189.428 E18.16178
G1 X222.086 Y190.224 E18.18994
G1 X221.844 Y190.754 E18.20893
G1 X221.682 Y191.079 E18.22077
G1 X221.396 Y191.627 E18.24092
G1 X219.872 Y194.468 E18.346
G1 X219.458 Y195.213 E18.37378
G1 X219.155 Y195.725 E18.39317
G1 X218.946 Y196.05 E18.40577
G1 X218.639 Y196.509 E18.42377
G1 X216.807 Y199.188 E18.52956
G1 X216.312 Y199.89 E18.55755
G1 X215.93 Y200.399 E18.5783
G1 X215.681 Y200.71 E18.59128
G1 X215.513 Y200.914 E18.5999
G1 X212.987 Y203.912 E18.72768
G1 X212.565 Y204.399 E18.74868
G1 X212.123 Y204.877 E18.7699
G1 X211.296 Y205.719 E18.80837
G1 X208.818 Y208.159 E18.92173
G1 X208.41 Y208.55 E18.94015
G1 X207.925 Y208.987 E18.96142
G1 X207.117 Y209.671 E18.99593
G1 X204.474 Y211.833 E19.10723
G1 X203.848 Y212.332 E19.13332
G1 X203.33 Y212.718 E19.15438
G1 X202.358 Y213.396 E19.19301
G1 X199.471 Y215.338 E19.30642
G1 X198.978 Y215.659 E19.32559
G1 X198.44 Y215.987 E19.34613
G1 X197.364 Y216.598 E19.38647
G1 X194.528 Y218.145 E19.49176
G1 X193.818 Y218.52 E19.51793
G1 X193.243 Y218.802 E19.53881
G1 X192.324 Y219.218 E19.57169
G1 X189.098 Y220.608 E19.68619
G1 X188.421 Y220.89 E19.71009
G1 X187.818 Y221.118 E19.7311
G1 X186.675 Y221.51 E19.77049
G1 X183.424 Y222.563 E19.88188
G1 X182.815 Y222.751 E19.90265
G1 X182.202 Y222.92 E19.92338
