;FLAVOR:Marlin
;TIME:1580
;Filament used: 0.523618m
;Layer height: 0.2
;MINX:148.573
;MINY:143.893
;MINZ:0.2
;MAXX:181.418
;MAXY:186.125
;MAXZ:10.6
;Generated with Cura_SteamEngine 5.0.0-beta+1
M82 ;absolute extrusion mode
START_PRINT T_BED=110 T_EXTRUDER=245
G92 E0
G92 E0
G1 F3000 E-0.5
;LAYER_COUNT:53
;LAYER:0
M107
M204 S150
G1 F300 Z0.4
G0 F2700 X152.041 Y149.692 Z0.4
G1 F300 Z0.4
G0 F2700 X148.573 Y158.089
M204 S1000
;TYPE:SKIRT
G1 F300 Z0.2
G1 F1800 E0
G1 F1673.6 X148.605 Y157.152 E0.02874
G1 X148.79 Y155.819 E0.06999
G1 X148.843 Y155.556 E0.07821
G1 X149.067 Y154.645 E0.10697
G1 X149.368 Y153.757 E0.13571
G1 X149.744 Y152.898 E0.16445
G1 X150.191 Y152.073 E0.19321
G1 X150.667 Y151.347 E0.21982
G1 X150.828 Y151.121 E0.22833
G1 X151.404 Y150.381 E0.25707
G1 X152.041 Y149.692 E0.28584
G1 X152.595 Y149.179 E0.30898
G1 X153.325 Y148.59 E0.33773
G1 X153.924 Y148.177 E0.36004
G1 X154.785 Y147.627 E0.39135
G1 X157.65 Y145.857 E0.49458
G1 X158.226 Y145.513 E0.51514
G1 X159.051 Y145.067 E0.54389
G1 X159.911 Y144.693 E0.57264
G1 X160.646 Y144.437 E0.59649
G1 X161.549 Y144.184 E0.62524
G1 X162.47 Y144.009 E0.65398
G1 X163.403 Y143.914 E0.68272
G1 X164.246 Y143.893 E0.70857
G1 X165.183 Y143.929 E0.73731
G1 X166.114 Y144.045 E0.76607
G1 X167.031 Y144.239 E0.7948
G1 X168.271 Y144.638 E0.83473
G1 X168.503 Y144.728 E0.84236
G1 X169.363 Y145.104 E0.87113
G1 X170.186 Y145.552 E0.89985
G1 X170.969 Y146.068 E0.9286
G1 X171.698 Y146.643 E0.95706
G1 X171.891 Y146.809 E0.96486
G1 X172.575 Y147.451 E0.99361
G1 X173.202 Y148.148 E1.02235
G1 X174.012 Y149.266 E1.06467
G1 X174.388 Y149.881 E1.08676
G1 X175.014 Y150.987 E1.12572
G1 X175.28 Y151.489 E1.14313
G1 X175.8 Y152.621 E1.18132
G1 X176.246 Y153.757 E1.21873
G1 X177.205 Y156.102 E1.29639
G1 X178.439 Y158.879 E1.38953
G1 X178.692 Y159.476 E1.40941
G1 X178.799 Y159.751 E1.41845
G1 X179.019 Y160.369 E1.43856
G1 X179.233 Y161.045 E1.4603
G1 X179.534 Y162.083 E1.49342
G1 X179.943 Y163.647 E1.54298
G1 X180.3 Y165.199 E1.59179
G1 X180.634 Y166.883 E1.64442
G1 X180.886 Y168.408 E1.6918
G1 X181.103 Y170.023 E1.74174
G1 X181.276 Y171.699 E1.79339
G1 X181.369 Y172.939 E1.83151
G1 X181.418 Y173.997 E1.86397
G1 X181.391 Y175.334 E1.90496
G1 X181.28 Y176.265 E1.9337
G1 X180.979 Y177.595 E1.9755
G1 X180.909 Y177.834 E1.98314
G1 X180.607 Y178.722 E2.01189
G1 X180.23 Y179.581 E2.04064
G1 X179.782 Y180.405 E2.06939
G1 X179.182 Y181.302 E2.10247
G1 X179.049 Y181.481 E2.1093
G1 X178.458 Y182.21 E2.13807
G1 X177.807 Y182.885 E2.16682
G1 X177.101 Y183.502 E2.19556
G1 X176.331 Y184.066 E2.22481
G1 X176.135 Y184.197 E2.23204
G1 X175.334 Y184.685 E2.26079
G1 X174.494 Y185.102 E2.28954
G1 X173.622 Y185.447 E2.31828
G1 X172.867 Y185.68 E2.3425
G1 X171.956 Y185.899 E2.37122
G1 X171.029 Y186.04 E2.39996
G1 X170.043 Y186.103 E2.43025
G1 X168.761 Y186.125 E2.46955
G1 X161.384 Y186.12 E2.69567
G1 X160.752 Y186.111 E2.71505
G1 X159.816 Y186.058 E2.74379
G1 X158.523 Y185.85 E2.78393
G1 X158.325 Y185.806 E2.79015
G1 X157.419 Y185.564 E2.81889
G1 X156.537 Y185.245 E2.84764
G1 X155.685 Y184.853 E2.87639
G1 X154.941 Y184.436 E2.90253
G1 X154.153 Y183.927 E2.93129
G1 X153.412 Y183.353 E2.96002
G1 X152.722 Y182.718 E2.98876
G1 X152.1 Y182.04 E3.01696
G1 X151.955 Y181.868 E3.02386
G1 X151.381 Y181.126 E3.05261
G1 X150.873 Y180.338 E3.08135
G1 X150.434 Y179.509 E3.11011
G1 X149.988 Y178.426 E3.14601
G1 X149.898 Y178.17 E3.15433
G1 X149.625 Y177.273 E3.18307
G1 X149.429 Y176.356 E3.21181
G1 X149.32 Y175.521 E3.23762
G1 X149.132 Y173.322 E3.30527
G1 X149.1 Y172.103 E3.34265
G1 X149.114 Y171.609 E3.3578
G1 X149.156 Y168.946 E3.43944
G1 X149.124 Y166.45 E3.51595
G1 X149.022 Y163.941 E3.59292
G1 X148.843 Y161.369 E3.67195
G1 X148.622 Y159.026 E3.74409
G1 X148.573 Y158.089 E3.77285
M204 S150
G0 F2700 X148.973 Y158.069
M204 S1000
G1 F1673.6 X149.007 Y157.149 E3.80107
G1 X149.182 Y155.898 E3.83979
G1 X149.235 Y155.635 E3.84801
G1 X149.456 Y154.741 E3.87624
G1 X149.753 Y153.87 E3.90445
G1 X150.125 Y153.028 E3.93267
G1 X150.569 Y152.221 E3.9609
G1 X150.993 Y151.579 E3.98448
G1 X151.154 Y151.353 E3.99299
G1 X151.72 Y150.627 E4.02121
G1 X152.347 Y149.953 E4.04942
G1 X152.859 Y149.479 E4.07081
G1 X153.576 Y148.902 E4.09902
G1 X154.14 Y148.514 E4.12
G1 X154.995 Y147.968 E4.1511
G1 X157.855 Y146.2 E4.25417
G1 X158.431 Y145.856 E4.27473
G1 X159.241 Y145.419 E4.30294
G1 X160.086 Y145.054 E4.33116
G1 X160.77 Y144.817 E4.35335
G1 X161.656 Y144.57 E4.38154
G1 X162.561 Y144.4 E4.40977
G1 X163.478 Y144.31 E4.43801
G1 X164.248 Y144.293 E4.46162
G1 X165.168 Y144.329 E4.48984
G1 X166.081 Y144.445 E4.51805
G1 X166.981 Y144.639 E4.54627
G1 X168.127 Y145.011 E4.5832
G1 X168.359 Y145.101 E4.59083
G1 X169.202 Y145.47 E4.61904
G1 X170.01 Y145.912 E4.64727
G1 X170.776 Y146.422 E4.67548
G1 X171.437 Y146.947 E4.70135
G1 X171.63 Y147.113 E4.70915
G1 X172.301 Y147.743 E4.73737
G1 X172.915 Y148.429 E4.76559
G1 X173.675 Y149.48 E4.80534
G1 X174.041 Y150.079 E4.82686
G1 X174.66 Y151.174 E4.86542
G1 X174.926 Y151.676 E4.88283
G1 X175.427 Y152.767 E4.91963
G1 X175.857 Y153.862 E4.95569
G1 X176.846 Y156.28 E5.03577
G1 X177.887 Y158.634 E5.11466
G1 X178.076 Y159.046 E5.12856
G1 X178.32 Y159.621 E5.14771
G1 X178.427 Y159.896 E5.15675
G1 X178.638 Y160.492 E5.17613
G1 X178.849 Y161.158 E5.19754
G1 X179.147 Y162.185 E5.23032
G1 X179.554 Y163.738 E5.27953
G1 X179.908 Y165.278 E5.32797
G1 X180.24 Y166.95 E5.38022
G1 X180.49 Y168.462 E5.4272
G1 X180.706 Y170.066 E5.47681
G1 X180.877 Y171.729 E5.52805
G1 X180.992 Y173.338 E5.5775
G1 X181.019 Y174.013 E5.59821
G1 X180.992 Y175.304 E5.63779
G1 X180.882 Y176.218 E5.666
G1 X180.595 Y177.482 E5.70574
G1 X180.525 Y177.721 E5.71337
G1 X180.228 Y178.593 E5.74161
G1 X179.856 Y179.435 E5.76982
G1 X179.413 Y180.242 E5.79804
G1 X178.86 Y181.064 E5.82841
G1 X178.727 Y181.243 E5.83524
G1 X178.147 Y181.957 E5.86344
G1 X177.506 Y182.619 E5.89169
G1 X176.811 Y183.222 E5.91989
G1 X176.109 Y183.734 E5.94652
G1 X175.913 Y183.865 E5.95375
G1 X175.126 Y184.343 E5.98198
G1 X174.301 Y184.75 E6.01017
G1 X173.443 Y185.085 E6.03841
G1 X172.757 Y185.295 E6.0604
G1 X171.862 Y185.51 E6.08861
G1 X170.952 Y185.646 E6.11682
G1 X170.036 Y185.703 E6.14495
G1 X168.761 Y185.725 E6.18404
G1 X161.39 Y185.72 E6.40998
G1 X160.758 Y185.711 E6.42935
G1 X159.839 Y185.658 E6.45757
G1 X158.61 Y185.46 E6.49572
G1 X158.412 Y185.416 E6.50194
G1 X157.522 Y185.177 E6.53019
G1 X156.657 Y184.862 E6.55841
G1 X155.823 Y184.474 E6.5866
G1 X155.144 Y184.091 E6.6105
G1 X154.371 Y183.591 E6.63872
G1 X153.644 Y183.026 E6.66694
G1 X152.969 Y182.399 E6.69518
G1 X152.406 Y181.782 E6.72078
G1 X152.261 Y181.61 E6.72768
G1 X151.698 Y180.881 E6.75591
G1 X151.201 Y180.106 E6.78413
G1 X150.774 Y179.291 E6.81234
G1 X150.365 Y178.294 E6.84537
G1 X150.275 Y178.038 E6.85369
G1 X150.008 Y177.157 E6.8819
G1 X149.818 Y176.256 E6.91013
G1 X149.719 Y175.485 E6.93396
G1 X149.53 Y173.289 E7.00152
G1 X149.499 Y172.114 E7.03755
G1 X149.515 Y171.552 E7.05478
G1 X149.556 Y168.947 E7.13464
G1 X149.524 Y166.429 E7.21183
G1 X149.421 Y163.896 E7.28954
G1 X149.246 Y161.383 E7.36675
G1 X149.02 Y158.988 E7.44049
G1 X148.973 Y158.069 E7.4687
M204 S150
G0 F2700 X149.373 Y158.049
M204 S1000
G1 F1673.6 X149.408 Y157.146 E7.4964
G1 X149.574 Y155.977 E7.53259
G1 X149.627 Y155.714 E7.54081
G1 X149.844 Y154.837 E7.56851
G1 X150.139 Y153.984 E7.59617
G1 X150.507 Y153.159 E7.62386
G1 X150.947 Y152.37 E7.65156
G1 X151.318 Y151.811 E7.67212
G1 X151.479 Y151.585 E7.68063
G1 X152.036 Y150.873 E7.70834
G1 X152.652 Y150.214 E7.73599
G1 X153.124 Y149.78 E7.75564
G1 X153.827 Y149.214 E7.78331
G1 X154.356 Y148.851 E7.80297
G1 X155.205 Y148.308 E7.83386
G1 X158.06 Y146.544 E7.93673
G1 X158.636 Y146.2 E7.9573
G1 X159.431 Y145.772 E7.98497
G1 X160.261 Y145.415 E8.01267
G1 X160.894 Y145.198 E8.03318
G1 X161.764 Y144.956 E8.06086
G1 X162.652 Y144.792 E8.08854
G1 X163.551 Y144.707 E8.11622
G1 X164.249 Y144.693 E8.13762
G1 X165.152 Y144.729 E8.16532
G1 X166.047 Y144.845 E8.19298
G1 X166.929 Y145.04 E8.22067
G1 X167.982 Y145.383 E8.25462
G1 X168.214 Y145.473 E8.26225
G1 X169.041 Y145.837 E8.28994
G1 X169.832 Y146.272 E8.31761
G1 X170.582 Y146.776 E8.34531
G1 X171.176 Y147.25 E8.36861
G1 X171.369 Y147.416 E8.37641
G1 X172.027 Y148.035 E8.4041
G1 X172.628 Y148.709 E8.43178
G1 X173.337 Y149.694 E8.46898
G1 X173.694 Y150.278 E8.48996
G1 X174.307 Y151.361 E8.52811
G1 X174.573 Y151.863 E8.54552
G1 X175.055 Y152.913 E8.58094
G1 X175.495 Y154.035 E8.61788
G1 X176.476 Y156.431 E8.69724
G1 X177.529 Y158.813 E8.77707
G1 X177.712 Y159.212 E8.79053
G1 X177.947 Y159.766 E8.80897
G1 X178.054 Y160.041 E8.81802
G1 X178.257 Y160.614 E8.83665
G1 X178.465 Y161.27 E8.85775
G1 X178.761 Y162.288 E8.89024
G1 X179.164 Y163.829 E8.93907
G1 X179.516 Y165.357 E8.98713
G1 X179.845 Y167.017 E9.039
G1 X180.094 Y168.517 E9.08561
G1 X180.308 Y170.108 E9.13482
G1 X180.478 Y171.759 E9.18569
G1 X180.592 Y173.354 E9.23471
G1 X180.619 Y174.029 E9.25542
G1 X180.593 Y175.274 E9.29359
G1 X180.485 Y176.17 E9.32125
G1 X180.211 Y177.37 E9.35898
G1 X180.141 Y177.609 E9.36661
G1 X179.849 Y178.464 E9.39431
G1 X179.482 Y179.289 E9.42199
G1 X179.044 Y180.079 E9.44967
G1 X178.539 Y180.825 E9.47729
G1 X178.406 Y181.004 E9.48412
G1 X177.836 Y181.705 E9.51182
G1 X177.206 Y182.352 E9.5395
G1 X176.522 Y182.941 E9.56717
G1 X175.887 Y183.401 E9.5912
G1 X175.691 Y183.532 E9.59843
G1 X174.919 Y184 E9.6261
G1 X174.108 Y184.398 E9.65379
G1 X173.265 Y184.723 E9.68149
G1 X172.647 Y184.911 E9.70129
G1 X171.769 Y185.121 E9.72896
G1 X170.875 Y185.252 E9.75665
G1 X170.028 Y185.303 E9.78266
G1 X168.761 Y185.325 E9.82151
G1 X161.396 Y185.32 E10.04726
G1 X160.764 Y185.311 E10.06664
G1 X159.862 Y185.258 E10.09433
G1 X158.696 Y185.069 E10.13054
G1 X158.498 Y185.025 E10.13676
G1 X157.626 Y184.79 E10.16444
G1 X156.778 Y184.479 E10.19213
G1 X155.961 Y184.095 E10.2198
G1 X155.346 Y183.746 E10.24147
G1 X154.588 Y183.255 E10.26916
G1 X153.877 Y182.699 E10.29682
G1 X153.217 Y182.082 E10.32452
G1 X152.711 Y181.524 E10.34761
G1 X152.566 Y181.352 E10.3545
G1 X152.015 Y180.637 E10.38217
G1 X151.53 Y179.875 E10.40986
G1 X151.114 Y179.074 E10.43752
G1 X150.742 Y178.161 E10.46774
G1 X150.652 Y177.905 E10.47606
G1 X150.391 Y177.041 E10.50373
G1 X150.207 Y176.156 E10.53144
G1 X150.117 Y175.449 E10.55328
G1 X149.929 Y173.257 E10.62072
G1 X149.899 Y172.126 E10.6554
G1 X149.915 Y171.571 E10.67242
G1 X149.956 Y168.948 E10.75283
G1 X149.924 Y166.443 E10.82962
G1 X149.819 Y163.851 E10.90914
G1 X149.646 Y161.361 E10.98565
G1 X149.418 Y158.951 E11.05985
G1 X149.373 Y158.049 E11.08753
M204 S150
G1 F3000 E10.58753
G1 F300 Z0.4
;MESH:latch_shuttle.stl
G0 F2700 X162.842 Y159.281 Z0.4
M204 S1000
;TYPE:WALL-OUTER
G1 F300 Z0.2
G1 F1800 E11.08753
G1 F1673.6 X162.876 Y159.054 E11.09457
G1 X162.945 Y158.789 E11.10296
G1 X163.124 Y158.387 E11.11645
G1 X163.138 Y158.36 E11.11738
G1 X163.292 Y158.124 E11.12602
G1 X163.397 Y157.997 E11.13107
G1 X163.617 Y157.775 E11.14065
G1 X163.774 Y157.651 E11.14678
G1 X163.994 Y157.505 E11.15488
G1 X165.343 Y156.853 E11.2008
G1 X165.383 Y156.737 E11.20456
G1 X165.363 Y156.672 E11.20665
G1 X164.867 Y155.773 E11.23812
G1 X164.572 Y155.272 E11.25594
G1 X164.369 Y155.119 E11.26374
G1 X164.159 Y155.08 E11.27028
G1 X163.879 Y155.174 E11.27934
G1 X159.99 Y157.577 E11.41946
G1 X159.804 Y157.808 E11.42855
G1 X159.785 Y158.084 E11.43704
G1 X159.851 Y158.279 E11.44335
G1 X160.114 Y158.744 E11.45972
G1 X160.653 Y159.744 E11.49454
G1 X161.162 Y160.762 E11.52943
G1 F1677.8 X161.644 Y161.814 E11.56481
G1 X162.079 Y162.842 E11.59894
G1 F1673.6 X162.487 Y163.902 E11.63376
G1 X162.866 Y164.982 E11.66884
G1 X162.989 Y165.404 E11.68231
G1 X163.061 Y165.724 E11.69237
G1 X163.128 Y166.143 E11.70538
G1 X163.159 Y166.457 E11.71505
G1 X163.177 Y166.896 E11.72851
G1 X163.171 Y167.21 E11.73814
G1 X163.137 Y167.636 E11.75124
G1 X163.09 Y167.959 E11.76125
G1 X163.002 Y168.394 E11.77485
G1 X162.862 Y168.882 E11.79041
G1 X162.686 Y169.346 E11.80562
G1 X162.473 Y169.798 E11.82094
G1 X162.222 Y170.235 E11.83639
G1 X161.938 Y170.648 E11.85175
G1 X161.62 Y171.038 E11.86718
G1 X161.271 Y171.4 E11.88259
G1 X160.898 Y171.732 E11.8979
G1 X160.449 Y172.073 E11.91518
G1 X160.336 Y172.228 E11.92106
G1 X160.296 Y172.528 E11.93033
G1 X160.377 Y173.357 E11.95587
G1 X160.469 Y174.524 E11.99175
G1 X160.548 Y174.703 E11.99775
G1 X160.702 Y174.847 E12.00421
G1 X161.003 Y174.921 E12.01371
G1 X169.742 Y174.924 E12.28158
G1 X170.012 Y174.833 E12.29032
G1 X170.19 Y174.635 E12.29848
G1 X170.224 Y174.45 E12.30424
G1 X170.234 Y174.31 E12.30855
G1 X170.16 Y173.106 E12.34552
G1 X170.043 Y171.818 E12.38516
G1 X169.893 Y170.593 E12.42299
G1 X169.708 Y169.382 E12.46054
G1 X169.479 Y168.132 E12.4995
G1 X169.391 Y167.72 E12.51241
G1 X169.196 Y166.83 E12.54034
G1 X168.876 Y165.551 E12.58075
G1 X168.577 Y164.489 E12.61457
G1 X168.354 Y163.759 E12.63797
G1 X168.255 Y163.528 E12.64567
G1 X168.071 Y163.243 E12.65607
G1 X167.822 Y163.012 E12.66648
G1 X167.539 Y162.839 E12.67665
G1 X164.333 Y161.663 E12.78132
G1 X164.097 Y161.563 E12.78918
G1 X163.88 Y161.434 E12.79692
G1 X163.677 Y161.291 E12.80453
G1 X163.464 Y161.095 E12.8134
G1 X163.255 Y160.837 E12.82358
G1 X163.113 Y160.612 E12.83173
G1 X162.98 Y160.326 E12.8414
G1 F1677.8 X162.914 Y160.116 E12.84813
G1 X162.855 Y159.841 E12.85673
G1 F1673.6 X162.831 Y159.554 E12.86556
G1 X162.842 Y159.281 E12.87394
M204 S150
G0 F2700 X162.234 Y159.252
G0 X162.355 Y160.072
G0 X162.596 Y160.934
G0 X162.774 Y160.825
M204 S1000
;TYPE:WALL-INNER
G1 F1673.6 X162.737 Y160.757 E12.87631
G1 X162.616 Y160.492 E12.88524
G1 X162.529 Y160.231 E12.89367
G1 F1677.8 X162.469 Y159.951 E12.90243
G1 X162.457 Y159.875 E12.90478
G1 F1673.6 X162.433 Y159.588 E12.91361
G1 X162.442 Y159.262 E12.9236
G1 X162.489 Y158.953 E12.93319
G1 X162.565 Y158.664 E12.94234
G1 X162.587 Y158.607 E12.94422
G1 X162.758 Y158.224 E12.95707
G1 X162.802 Y158.143 E12.9599
G1 X162.944 Y157.924 E12.9679
G1 X163.113 Y157.717 E12.97609
G1 X163.343 Y157.483 E12.98615
G1 X163.554 Y157.317 E12.99438
G1 X163.783 Y157.165 E13.0028
G1 X163.839 Y157.135 E13.00475
G1 X164.884 Y156.631 E13.04031
G1 X164.522 Y155.976 E13.06325
G1 X164.257 Y155.526 E13.07926
G1 X164.143 Y155.493 E13.0829
G1 X164.089 Y155.515 E13.08469
G1 X162.573 Y156.449 E13.13927
G1 X162.505 Y156.494 E13.14177
G1 X162.258 Y156.644 E13.15062
G1 X160.722 Y157.596 E13.20602
G1 X160.703 Y157.606 E13.20667
G1 X160.222 Y157.905 E13.22403
G1 X160.178 Y158.006 E13.22741
G1 X160.201 Y158.083 E13.22988
G1 X160.466 Y158.554 E13.24644
G1 X161.011 Y159.565 E13.28165
G1 X161.526 Y160.595 E13.31694
G1 X161.967 Y161.554 E13.3493
G1 X162.196 Y162.09 E13.36717
G1 X162.465 Y162.73 E13.38845
G1 X162.865 Y163.77 E13.4226
G1 X163.25 Y164.87 E13.45833
G1 X163.379 Y165.315 E13.47253
G1 X163.449 Y165.622 E13.48218
G1 X163.526 Y166.102 E13.49708
G1 X163.557 Y166.406 E13.50645
G1 X163.577 Y166.866 E13.52056
G1 X163.571 Y167.206 E13.53098
G1 X163.536 Y167.668 E13.54519
G1 X163.482 Y168.039 E13.55668
G1 X163.398 Y168.458 E13.56978
G1 X163.247 Y168.99 E13.58673
G1 X163.236 Y169.024 E13.58782
G1 X163.066 Y169.473 E13.60254
G1 X162.992 Y169.636 E13.60803
G1 X162.843 Y169.953 E13.61876
G1 X162.82 Y169.997 E13.62029
G1 X162.552 Y170.461 E13.63671
G1 X162.278 Y170.86 E13.65155
G1 X162.248 Y170.9 E13.65308
G1 X161.941 Y171.278 E13.66801
G1 X161.908 Y171.316 E13.66955
G1 X161.57 Y171.667 E13.68449
G1 X161.176 Y172.02 E13.7007
G1 X161.14 Y172.05 E13.70214
G1 X160.737 Y172.356 E13.71765
G1 X160.694 Y172.49 E13.72196
G1 X160.776 Y173.325 E13.74768
G1 X160.863 Y174.426 E13.78153
G1 X160.956 Y174.512 E13.78542
G1 X161.003 Y174.521 E13.78688
G1 X169.708 Y174.524 E14.05371
G1 X169.813 Y174.47 E14.05733
G1 X169.83 Y174.377 E14.06023
G1 X169.834 Y174.334 E14.06155
G1 X169.762 Y173.142 E14.09816
G1 X169.65 Y171.902 E14.13632
G1 X169.497 Y170.647 E14.17508
G1 X169.297 Y169.353 E14.21521
G1 X169.066 Y168.11 E14.25396
G1 X168.797 Y166.884 E14.29244
G1 X168.49 Y165.659 E14.33115
G1 X168.195 Y164.606 E14.36467
G1 X167.96 Y163.845 E14.38908
G1 X167.809 Y163.562 E14.39891
G1 X167.581 Y163.332 E14.40884
G1 X167.299 Y163.177 E14.41871
