;FLAVOR:Marlin
;TIME:16588
;Filament used: 18.7017m
;Layer height: 0.2
;MINX:77.8
;MINY:100.466
;MINZ:0.24
;MAXX:251.395
;MAXY:222.563
;MAXZ:25.44
;Generated with Cura_SteamEngine 4.13.0
M82 ;absolute extrusion mode
START_PRINT T_BED=60 T_EXTRUDER=200
G92 E0
G92 E0
G1 F3000 E-0.8
;LAYER_COUNT:127
;LAYER:0
M107
G0 F2700 X81.695 Y103.088 Z0.24
;TYPE:SKIRT
G1 F1800 E0.10394
G1 F900 X82.435 Y102.512 E0.14137
G1 X83.222 Y102.002 E0.1788
G1 X84.05 Y101.56 E0.21626
G1 X84.912 Y101.191 E0.25368
G1 X85.802 Y100.896 E0.2911
G1 X86.714 Y100.678 E0.32853
G1 X87.642 Y100.539 E0.36598
G1 X88.49 Y100.482 E0.3999
G1 X88.799 Y100.473 E0.41224
G1 X89.115 Y100.468 E0.42485
G1 X95.066 Y100.466 E0.66237
G1 X189.854 Y100.475 E4.44556
G1 X190.86 Y100.489 E4.48572
G1 X191.197 Y100.499 E4.49918
G1 X194.811 Y100.661 E4.64356
G1 X195.472 Y100.7 E4.66999
G1 X196.122 Y100.758 E4.69604
G1 X197.221 Y100.89 E4.74022
G1 X200.277 Y101.306 E4.86331
G1 X200.906 Y101.4 E4.8887
G1 X201.55 Y101.516 E4.91481
G1 X202.571 Y101.733 E4.95647
G1 X205.665 Y102.44 E5.08315
G1 X206.265 Y102.587 E5.1078
G1 X206.853 Y102.748 E5.13213
G1 X207.713 Y103.01 E5.16802
G1 X210.698 Y103.979 E5.29327
G1 X210.856 Y104.031 E5.29991
G1 X211.482 Y104.245 E5.32632
G1 X212.079 Y104.469 E5.35177
G1 X213.083 Y104.88 E5.39507
G1 X215.936 Y106.101 E5.51892
G1 X216.55 Y106.375 E5.54576
G1 X217.123 Y106.651 E5.57114
G1 X218.045 Y107.129 E5.6126
G1 X220.646 Y108.528 E5.73047
G1 X221.374 Y108.933 E5.76372
G1 X221.916 Y109.256 E5.7889
G1 X222.637 Y109.714 E5.82299
G1 X222.799 Y109.819 E5.8307
G1 X225.445 Y111.567 E5.95727
G1 X225.965 Y111.922 E5.9824
G1 X226.469 Y112.287 E6.00724
G1 X227.153 Y112.813 E6.04168
G1 X229.66 Y114.812 E6.16965
G1 X230.25 Y115.295 E6.20008
G1 X230.728 Y115.711 E6.22537
G1 X231.387 Y116.319 E6.26116
G1 X233.663 Y118.493 E6.38678
G1 X234.251 Y119.071 E6.41969
G1 X234.678 Y119.517 E6.44433
G1 X235.403 Y120.32 E6.48751
G1 X237.486 Y122.707 E6.61396
G1 X237.865 Y123.154 E6.63735
G1 X238.268 Y123.658 E6.6631
G1 X238.911 Y124.516 E6.7059
G1 X240.653 Y126.914 E6.8242
G1 X241.111 Y127.563 E6.8559
G1 X241.466 Y128.098 E6.88153
G1 X241.938 Y128.858 E6.91723
G1 X243.553 Y131.561 E7.04291
G1 X243.933 Y132.215 E7.07309
G1 X244.246 Y132.793 E7.09933
G1 X244.681 Y133.658 E7.13797
G1 X244.765 Y133.829 E7.14558
G1 X246.112 Y136.63 E7.26963
G1 X246.35 Y137.143 E7.2922
G1 X246.604 Y137.735 E7.31791
G1 X247.019 Y138.79 E7.36316
G1 X248.116 Y141.718 E7.48795
G1 X248.311 Y142.26 E7.51094
G1 X248.512 Y142.873 E7.53669
G1 X248.824 Y143.937 E7.58094
G1 X249.642 Y146.909 E7.70397
G1 X249.814 Y147.571 E7.73127
G1 X249.954 Y148.185 E7.75641
G1 X250.159 Y149.218 E7.79844
G1 X250.715 Y152.284 E7.92281
G1 X250.823 Y152.933 E7.94907
G1 X250.91 Y153.571 E7.97477
G1 X251.023 Y154.645 E8.01787
G1 X251.289 Y157.607 E8.13656
G1 X251.348 Y158.377 E8.16739
G1 X251.378 Y159.024 E8.19324
G1 X251.395 Y160.097 E8.23607
G1 X251.394 Y163.215 E8.36051
G1 X251.385 Y163.856 E8.3861
G1 X251.357 Y164.505 E8.41203
G1 X251.276 Y165.592 E8.45553
G1 X251.014 Y168.497 E8.57195
G1 X250.928 Y169.324 E8.60513
G1 X250.842 Y169.963 E8.63087
G1 X250.665 Y171.03 E8.67404
G1 X250.145 Y173.9 E8.79045
G1 X249.985 Y174.719 E8.82375
G1 X249.84 Y175.36 E8.84998
G1 X249.573 Y176.385 E8.89226
G1 X248.782 Y179.252 E9.01096
G1 X248.565 Y179.998 E9.04197
G1 X248.365 Y180.615 E9.06786
G1 X248 Y181.634 E9.11106
G1 X246.917 Y184.517 E9.23398
G1 X246.673 Y185.141 E9.26072
G1 X246.414 Y185.747 E9.28702
G1 X245.976 Y186.694 E9.32867
G1 X244.624 Y189.498 E9.45291
G1 X244.33 Y190.087 E9.47918
G1 X244.026 Y190.654 E9.50486
G1 X243.579 Y191.432 E9.54067
G1 X241.931 Y194.192 E9.66897
G1 X241.564 Y194.79 E9.69698
G1 X241.198 Y195.344 E9.72348
G1 X240.575 Y196.228 E9.76664
G1 X238.768 Y198.713 E9.88927
G1 X238.379 Y199.235 E9.91526
G1 X237.956 Y199.767 E9.94238
G1 X237.249 Y200.601 E9.98602
G1 X235.2 Y202.945 E10.11028
G1 X234.802 Y203.389 E10.13408
G1 X234.334 Y203.88 E10.16115
G1 X233.575 Y204.627 E10.20366
G1 X231.433 Y206.675 E10.32194
G1 X230.853 Y207.214 E10.35354
G1 X230.369 Y207.638 E10.37922
G1 X229.531 Y208.328 E10.42255
G1 X227.109 Y210.258 E10.54615
G1 X226.587 Y210.662 E10.5725
G1 X226.075 Y211.035 E10.59778
G1 X225.343 Y211.537 E10.6332
G1 X222.708 Y213.278 E10.75926
G1 X222.032 Y213.711 E10.7913
G1 X221.479 Y214.042 E10.81702
G1 X220.568 Y214.55 E10.85865
G1 X217.824 Y216.025 E10.98299
G1 X217.271 Y216.314 E11.00789
G1 X216.655 Y216.612 E11.03521
G1 X215.64 Y217.063 E11.07954
G1 X212.83 Y218.263 E11.20149
G1 X212.222 Y218.513 E11.22772
G1 X211.608 Y218.744 E11.25391
G1 X210.58 Y219.095 E11.29726
G1 X207.632 Y220.052 E11.42097
G1 X207.009 Y220.244 E11.44699
G1 X206.396 Y220.414 E11.47238
G1 X205.352 Y220.669 E11.51527
G1 X202.333 Y221.356 E11.63885
G1 X201.68 Y221.495 E11.66549
G1 X201.053 Y221.609 E11.69093
G1 X199.976 Y221.773 E11.73441
G1 X197.013 Y222.174 E11.85375
G1 X196.284 Y222.262 E11.88305
G1 X195.663 Y222.319 E11.90794
G1 X194.511 Y222.39 E11.95401
G1 X191.449 Y222.526 E12.07634
G1 X190.391 Y222.558 E12.11859
G1 X190.057 Y222.563 E12.13192
G1 X89.51 Y222.555 E16.14497
G1 X88.629 Y222.541 E16.18013
G1 X87.693 Y222.485 E16.21756
G1 X86.765 Y222.349 E16.25499
G1 X85.852 Y222.135 E16.29242
G1 X84.96 Y221.844 E16.32987
G1 X84.097 Y221.477 E16.3673
G1 X83.268 Y221.039 E16.40472
G1 X82.479 Y220.531 E16.44217
G1 X81.736 Y219.959 E16.4796
G1 X81.045 Y219.325 E16.51703
G1 X80.411 Y218.634 E16.55446
G1 X79.837 Y217.892 E16.5919
G1 X79.329 Y217.104 E16.62932
G1 X78.89 Y216.275 E16.66676
G1 X78.523 Y215.412 E16.70419
G1 X78.231 Y214.521 E16.74161
G1 X78.016 Y213.608 E16.77905
G1 X77.879 Y212.68 E16.81649
G1 X77.822 Y211.762 E16.8532
G1 X77.802 Y210.757 E16.89332
G1 X77.8 Y210.538 E16.90206
G1 X77.801 Y112.006 E20.83468
G1 X77.811 Y111.317 E20.86218
G1 X77.865 Y110.381 E20.8996
G1 X77.998 Y109.453 E20.93702
G1 X78.21 Y108.539 E20.97447
G1 X78.498 Y107.647 E21.01188
G1 X78.862 Y106.782 E21.04934
G1 X79.298 Y105.952 E21.08676
G1 X79.803 Y105.162 E21.12418
G1 X80.374 Y104.418 E21.16161
G1 X81.006 Y103.725 E21.19904
G1 X81.695 Y103.088 E21.2365
G0 F2700 X82.083 Y103.285
G1 F900 X82.82 Y102.732 E21.27327
G1 X83.601 Y102.245 E21.31001
G1 X84.422 Y101.828 E21.34676
G1 X85.276 Y101.484 E21.3835
G1 X86.156 Y101.215 E21.42023
G1 X87.057 Y101.023 E21.457
G1 X87.97 Y100.91 E21.49372
G1 X88.501 Y100.881 E21.51494
G1 X88.81 Y100.872 E21.52728
G1 X89.115 Y100.868 E21.53946
G1 X95.066 Y100.866 E21.77697
G1 X189.849 Y100.875 E25.55997
G1 X190.855 Y100.889 E25.60012
G1 X191.179 Y100.899 E25.61306
G1 X194.787 Y101.06 E25.75721
G1 X195.448 Y101.099 E25.78363
G1 X196.075 Y101.155 E25.80876
G1 X197.167 Y101.286 E25.85266
G1 X200.218 Y101.701 E25.97555
G1 X200.847 Y101.795 E26.00093
G1 X201.467 Y101.907 E26.02608
G1 X202.311 Y102.085 E26.06051
G1 X205.405 Y102.79 E26.18716
G1 X205.569 Y102.828 E26.19388
G1 X206.169 Y102.975 E26.21853
G1 X206.736 Y103.131 E26.242
G1 X207.596 Y103.393 E26.27789
G1 X207.783 Y103.452 E26.28571
G1 X210.727 Y104.41 E26.40928
G1 X211.353 Y104.624 E26.43568
G1 X211.927 Y104.839 E26.46015
G1 X212.926 Y105.248 E26.50323
G1 X215.773 Y106.466 E26.62682
G1 X216.387 Y106.74 E26.65366
G1 X216.94 Y107.006 E26.67815
G1 X217.707 Y107.403 E26.71262
G1 X220.596 Y108.957 E26.84355
G1 X221.179 Y109.282 E26.87019
G1 X221.702 Y109.594 E26.8945
G1 X222.579 Y110.153 E26.93601
G1 X225.22 Y111.898 E27.06234
G1 X225.74 Y112.253 E27.08747
G1 X226.225 Y112.604 E27.11137
G1 X226.909 Y113.13 E27.14581
G1 X229.411 Y115.125 E27.27353
G1 X229.996 Y115.604 E27.3037
G1 X230.457 Y116.005 E27.32809
G1 X231.116 Y116.613 E27.36388
G1 X233.387 Y118.782 E27.48922
G1 X233.97 Y119.356 E27.52187
G1 X234.381 Y119.785 E27.54558
G1 X234.975 Y120.441 E27.5809
G1 X235.102 Y120.584 E27.58854
G1 X237.181 Y122.966 E27.71473
G1 X237.56 Y123.413 E27.73812
G1 X237.948 Y123.898 E27.76291
G1 X238.484 Y124.611 E27.79851
G1 X240.329 Y127.149 E27.92374
G1 X240.785 Y127.793 E27.95524
G1 X241.126 Y128.309 E27.97992
G1 X241.695 Y129.228 E28.02306
G1 X243.276 Y131.879 E28.14626
G1 X243.587 Y132.415 E28.17099
G1 X243.889 Y132.973 E28.19631
G1 X244.405 Y134.002 E28.24226
G1 X245.75 Y136.798 E28.36609
G1 X245.988 Y137.311 E28.38866
G1 X246.232 Y137.882 E28.41345
G1 X246.645 Y138.931 E28.45844
G1 X247.691 Y141.719 E28.57729
G1 X247.935 Y142.396 E28.60601
G1 X248.128 Y142.986 E28.63079
G1 X248.438 Y144.043 E28.67475
G1 X249.254 Y147.009 E28.79753
G1 X249.426 Y147.671 E28.82483
G1 X249.562 Y148.263 E28.84907
G1 X249.765 Y149.289 E28.89082
G1 X250.32 Y152.35 E29.01498
G1 X250.428 Y152.999 E29.04124
G1 X250.512 Y153.614 E29.06601
G1 X250.625 Y154.681 E29.10884
G1 X250.903 Y157.788 E29.23334
G1 X250.95 Y158.407 E29.25812
G1 X250.978 Y159.031 E29.28305
G1 X250.995 Y160.097 E29.3256
G1 X250.994 Y163.21 E29.44985
G1 X250.985 Y163.851 E29.47543
G1 X250.958 Y164.476 E29.5004
G1 X250.892 Y165.378 E29.5365
G1 X250.615 Y168.461 E29.66004
G1 X250.53 Y169.282 E29.69299
G1 X250.447 Y169.898 E29.71779
G1 X250.271 Y170.959 E29.76072
G1 X249.723 Y173.979 E29.88322
G1 X249.593 Y174.642 E29.91019
G1 X249.452 Y175.26 E29.93549
G1 X249.187 Y176.278 E29.97747
G1 X248.353 Y179.297 E30.10248
G1 X248.181 Y179.886 E30.12697
G1 X247.988 Y180.48 E30.1519
G1 X247.625 Y181.493 E30.19485
G1 X246.544 Y184.371 E30.31755
G1 X246.3 Y184.995 E30.34429
G1 X246.051 Y185.579 E30.36963
G1 X245.615 Y186.52 E30.41102
G1 X244.266 Y189.319 E30.53504
G1 X243.972 Y189.908 E30.56131
G1 X243.679 Y190.455 E30.58608
G1 X243.14 Y191.39 E30.62915
G1 X241.511 Y194.113 E30.75579
G1 X241.223 Y194.58 E30.77769
G1 X240.871 Y195.114 E30.80322
G1 X240.252 Y195.993 E30.84613
G1 X238.523 Y198.372 E30.96351
G1 X238.058 Y198.996 E30.99457
G1 X237.651 Y199.509 E31.0207
G1 X236.948 Y200.338 E31.06409
G1 X234.902 Y202.678 E31.18815
G1 X234.504 Y203.122 E31.21194
G1 X234.053 Y203.595 E31.23803
G1 X233.298 Y204.338 E31.28031
G1 X231.156 Y206.386 E31.39859
G1 X230.581 Y206.921 E31.42994
G1 X230.115 Y207.33 E31.45468
G1 X229.422 Y207.902 E31.49055
G1 X226.984 Y209.847 E31.61502
G1 X226.342 Y210.346 E31.64748
G1 X225.849 Y210.705 E31.67182
G1 X224.961 Y211.312 E31.71475
G1 X222.487 Y212.945 E31.83306
G1 X221.817 Y213.374 E31.86482
G1 X221.284 Y213.693 E31.88961
G1 X220.531 Y214.114 E31.92404
G1 X217.75 Y215.611 E32.0501
G1 X217.086 Y215.959 E32.08002
G1 X216.493 Y216.246 E32.10631
G1 X215.482 Y216.695 E32.15046
G1 X212.678 Y217.893 E32.27216
G1 X212.07 Y218.143 E32.2984
G1 X211.478 Y218.366 E32.32365
G1 X210.456 Y218.715 E32.36675
G1 X207.514 Y219.67 E32.4902
G1 X206.891 Y219.862 E32.51622
G1 X206.301 Y220.025 E32.54065
G1 X205.263 Y220.279 E32.58331
G1 X202.25 Y220.965 E32.70664
G1 X201.597 Y221.104 E32.73328
G1 X200.993 Y221.214 E32.75779
G1 X199.923 Y221.376 E32.80098
G1 X196.802 Y221.797 E32.92668
G1 X196.236 Y221.865 E32.94943
G1 X195.638 Y221.92 E32.9734
G1 X194.685 Y221.98 E33.01151
G1 X191.59 Y222.12 E33.13516
G1 X190.378 Y222.158 E33.18356
G1 X190.057 Y222.163 E33.19637
G1 X89.51 Y222.155 E37.20942
G1 X88.636 Y222.141 E37.24431
G1 X87.717 Y222.085 E37.28106
G1 X86.806 Y221.95 E37.31781
G1 X85.911 Y221.736 E37.35454
G1 X85.037 Y221.445 E37.39131
G1 X84.192 Y221.08 E37.42804
G1 X83.382 Y220.642 E37.4648
G1 X82.613 Y220.136 E37.50154
G1 X81.891 Y219.565 E37.53828
G1 X81.221 Y218.933 E37.57504
G1 X80.609 Y218.246 E37.61176
G1 X80.058 Y217.508 E37.64852
G1 X79.573 Y216.726 E37.68525
G1 X79.159 Y215.904 E37.72198
G1 X78.817 Y215.049 E37.75873
G1 X78.55 Y214.168 E37.79548
G1 X78.361 Y213.267 E37.83222
G1 X78.251 Y212.353 E37.86896
G1 X78.222 Y211.754 E37.8929
G1 X78.202 Y210.749 E37.93302
G1 X78.2 Y210.538 E37.94144
G1 X78.201 Y112.012 E41.87382
G1 X78.211 Y111.323 E41.90133
G1 X78.264 Y110.404 E41.93807
G1 X78.397 Y109.493 E41.97481
G1 X78.609 Y108.597 E42.01156
G1 X78.897 Y107.723 E42.04829
G1 X79.26 Y106.877 E42.08503
G1 X79.695 Y106.065 E42.1218
G1 X80.199 Y105.295 E42.15853
G1 X80.768 Y104.571 E42.19528
G1 X81.398 Y103.899 E42.23205
G1 X82.083 Y103.285 E42.26876
G0 F2700 X82.471 Y103.486
G1 F900 X83.203 Y102.956 E42.30483
G1 X83.979 Y102.494 E42.34088
G1 X84.792 Y102.102 E42.3769
G1 X85.637 Y101.783 E42.41295
G1 X86.507 Y101.54 E42.449
G1 X87.395 Y101.376 E42.48504
G1 X88.513 Y101.281 E42.52983
G1 X88.822 Y101.272 E42.54216
G1 X89.116 Y101.268 E42.5539
G1 X95.066 Y101.266 E42.79138
G1 X189.843 Y101.275 E46.57413
G1 X190.849 Y101.289 E46.61429
G1 X191.161 Y101.298 E46.62674
G1 X194.764 Y101.46 E46.77069
G1 X195.425 Y101.499 E46.79712
G1 X196.028 Y101.552 E46.82128
G1 X196.945 Y101.661 E46.85814
G1 X200.159 Y102.097 E46.98759
G1 X200.788 Y102.191 E47.01297
G1 X201.385 Y102.299 E47.03719
G1 X202.393 Y102.513 E47.07832
G1 X205.474 Y103.217 E47.20446
G1 X206.074 Y103.364 E47.22911
G1 X206.62 Y103.514 E47.25171
G1 X207.659 Y103.832 E47.29508
G1 X210.597 Y104.788 E47.41839
G1 X211.223 Y105.002 E47.4448
G1 X211.776 Y105.209 E47.46836
G1 X212.612 Y105.55 E47.5044
G1 X215.462 Y106.767 E47.62809
G1 X215.61 Y106.831 E47.63452
G1 X216.224 Y107.105 E47.66136
G1 X216.756 Y107.362 E47.68494
G1 X217.666 Y107.834 E47.72585
G1 X220.402 Y109.307 E47.84987
G1 X220.985 Y109.632 E47.87651
G1 X221.487 Y109.931 E47.89983
G1 X222.208 Y110.389 E47.93392
G1 X224.862 Y112.14 E48.06083
G1 X225.514 Y112.583 E48.09229
G1 X225.981 Y112.921 E48.1153
G1 X226.665 Y113.447 E48.14974
G1 X229.273 Y115.528 E48.2829
G1 X229.743 Y115.914 E48.30718
G1 X230.186 Y116.299 E48.3306
G1 X230.845 Y116.907 E48.36639
G1 X233.11 Y119.071 E48.49142
G1 X233.689 Y119.641 E48.52385
G1 X234.085 Y120.054 E48.54668
G1 X234.801 Y120.847 E48.58933
G1 X236.876 Y123.225 E48.71529
G1 X237.255 Y123.672 E48.73868
G1 X237.628 Y124.139 E48.76253
G1 X238.263 Y124.986 E48.80479
G1 X240.09 Y127.502 E48.92889
G1 X240.458 Y128.024 E48.95438
G1 X240.786 Y128.52 E48.97811
G1 X241.258 Y129.28 E49.01382
G1 X242.866 Y131.971 E49.13894
G1 X243.241 Y132.616 E49.16871
G1 X243.532 Y133.152 E49.19306
G1 X243.967 Y134.017 E49.2317
G1 X245.325 Y136.835 E49.35655
G1 X245.625 Y137.479 E49.38491
G1 X245.86 Y138.028 E49.40874
G1 X246.27 Y139.071 E49.45347
G1 X247.364 Y141.989 E49.57785
G1 X247.559 Y142.531 E49.60084
G1 X247.745 Y143.099 E49.6247
G1 X248.003 Y143.974 E49.66111
G1 X248.828 Y146.965 E49.78494
G1 X249.039 Y147.772 E49.81823
G1 X249.17 Y148.341 E49.84154
G1 X249.372 Y149.361 E49.88304
G1 X249.926 Y152.416 E50.00696
G1 X250.034 Y153.065 E50.03322
G1 X250.114 Y153.656 E50.05702
G1 X250.226 Y154.717 E50.0996
G1 X250.504 Y157.819 E50.22391
G1 X250.551 Y158.438 E50.24868
G1 X250.579 Y159.038 E50.27266
G1 X250.594 Y159.925 E50.30806
G1 X250.595 Y163.061 E50.43323
G1 X250.585 Y163.845 E50.46452
G1 X250.559 Y164.446 E50.48853
G1 X250.479 Y165.52 E50.53152
G1 X250.217 Y168.425 E50.64793
G1 X250.132 Y169.241 E50.68068
G1 X250.053 Y169.833 E50.70451
G1 X249.878 Y170.887 E50.74716
G1 X249.358 Y173.757 E50.86357
G1 X249.2 Y174.565 E50.89643
G1 X249.065 Y175.16 E50.92078
G1 X248.802 Y176.172 E50.96251
G1 X248.011 Y179.039 E51.08122
G1 X247.797 Y179.774 E51.11177
G1 X247.612 Y180.346 E51.13576
G1 X247.251 Y181.353 E51.17846
G1 X246.172 Y184.226 E51.30095
G1 X245.928 Y184.85 E51.32769
G1 X245.688 Y185.412 E51.35208
G1 X245.255 Y186.347 E51.39321
G1 X243.972 Y189.011 E51.51122
G1 X243.614 Y189.729 E51.54324
G1 X243.332 Y190.255 E51.56706
G1 X242.797 Y191.184 E51.60985
G1 X241.171 Y193.903 E51.73629
G1 X240.883 Y194.37 E51.75819
G1 X240.544 Y194.884 E51.78277
G1 X239.928 Y195.758 E51.82545
G1 X238.127 Y198.235 E51.94768
G1 X237.738 Y198.757 E51.97366
G1 X237.346 Y199.251 E51.99883
G1 X236.647 Y200.075 E52.04196
G1 X234.691 Y202.314 E52.16062
G1 X234.206 Y202.855 E52.18962
G1 X233.772 Y203.311 E52.21474
G1 X233.134 Y203.94 E52.2505
G1 X230.88 Y206.096 E52.37499
G1 X230.309 Y206.628 E52.40614
G1 X229.86 Y207.021 E52.42996
G1 X229.032 Y207.703 E52.47277
G1 X226.619 Y209.625 E52.5959
G1 X226.097 Y210.029 E52.62224
G1 X225.623 Y210.375 E52.64566
G1 X224.741 Y210.978 E52.68831
G1 X222.139 Y212.694 E52.81271
G1 X221.602 Y213.037 E52.83814
G1 X221.089 Y213.344 E52.862
G1 X220.19 Y213.845 E52.90308
G1 X217.453 Y215.316 E53.02709
G1 X216.9 Y215.605 E53.052
G1 X216.33 Y215.881 E53.07728
G1 X215.471 Y216.264 E53.11481
