; generated by SuperSlicer 2.3.56 on 2021-12-10 at 23:40:36 UTC


;
;

;
;
; 

; external perimeters extrusion width = 0.40mm
; perimeters extrusion width = 0.40mm
; infill extrusion width = 0.40mm
; solid infill extrusion width = 0.40mm
; top infill extrusion width = 0.40mm
; first layer extrusion width = 0.48mm


;TYPE:Custom
START_PRINT T_BED=70 T_EXTRUDER=235
M107
G21 ; set units to millimeters
G90 ; use absolute coordinates
M83 ; use relative distances for extrusion
M104 S235 ; set temperature
M109 S235 ; set temperature and wait for it to be reached
M190 S70 ; set bed temperature and wait for it to be reached
M107
;LAYER_CHANGE
;Z:0.24
;HEIGHT:0.24
G1 Z0.240000 F12000.000
G1 E-1.50000 F3000.000
G1 X154.797 Y118.435 F12000.000
G1 E1.50000 F1800.000
;TYPE:Skirt
;WIDTH:0.48
G1 F600.000
G1 X155.653 Y117.315 E0.06025
G1 X156.972 Y115.870 E0.08364
G1 X158.449 Y114.527 E0.08535
G1 X159.862 Y113.446 E0.07609
G1 X161.358 Y112.489 E0.07592
G1 X163.126 Y111.561 E0.08535
G1 X164.976 Y110.802 E0.08552
G1 X166.675 Y110.269 E0.07609
G1 X168.404 Y109.884 E0.07575
G1 X170.382 Y109.615 E0.08535
G1 X172.280 Y109.532 E0.08124
G1 X174.270 Y109.626 E0.08518
G1 X176.034 Y109.861 E0.07609
G1 X177.765 Y110.242 E0.07575
G1 X179.671 Y110.835 E0.08535
G1 X181.423 Y111.561 E0.08107
G1 X183.190 Y112.489 E0.08535
G1 X184.690 Y113.447 E0.07609
G1 X186.097 Y114.524 E0.07575
G1 X187.574 Y115.866 E0.08535
G1 X188.860 Y117.270 E0.08141
G1 X190.065 Y118.852 E0.08501
G1 X191.019 Y120.355 E0.07609
G1 X191.839 Y121.925 E0.07575
G1 X192.610 Y123.766 E0.08535
G1 X193.185 Y125.590 E0.08175
G1 X193.606 Y127.525 E0.08467
G1 X193.835 Y129.290 E0.07609
G1 X193.916 Y131.088 E0.07695
G1 X193.831 Y133.106 E0.08638
G1 X193.643 Y134.530 E0.06142
G1 X193.502 Y135.041 E0.02263
G1 X159.618 Y200.047 E3.13428
G1 X159.281 Y200.545 E0.02570
G1 X158.886 Y200.920 E0.02331
G1 X158.418 Y201.208 E0.02348
G1 X157.901 Y201.393 E0.02348
G1 X157.361 Y201.466 E0.02331
G1 X137.701 Y201.468 E0.84056
G1 X136.771 Y201.290 E0.04048
G1 X136.093 Y200.904 E0.03336
G1 X135.559 Y200.340 E0.03319
G1 X135.211 Y199.641 E0.03336
G1 X135.083 Y198.872 E0.03336
G1 X135.781 Y156.027 E1.83209
G1 X135.958 Y155.129 E0.03912
G1 X153.476 Y120.455 E1.66099
G1 X154.540 Y118.770 E0.08518
G1 X154.760 Y118.482 E0.01550
G1 X155.100 Y118.742 F12000.000
G1 F600.000
G1 X155.984 Y117.588 E0.06215
G1 X157.276 Y116.172 E0.08195
G1 X158.710 Y114.867 E0.08289
G1 X160.106 Y113.798 E0.07520
G1 X161.588 Y112.851 E0.07520
G1 X163.305 Y111.950 E0.08289
G1 X165.025 Y111.238 E0.07960
G1 X166.878 Y110.661 E0.08298
G1 X168.590 Y110.283 E0.07495
G1 X170.334 Y110.052 E0.07520
G1 X172.278 Y109.961 E0.08321
G1 X174.218 Y110.052 E0.08305
G1 X175.958 Y110.283 E0.07504
G1 X177.672 Y110.661 E0.07504
G1 X179.526 Y111.239 E0.08305
G1 X181.243 Y111.949 E0.07944
G1 X182.960 Y112.850 E0.08289
G1 X184.442 Y113.797 E0.07520
G1 X185.836 Y114.863 E0.07504
G1 X187.272 Y116.171 E0.08305
G1 X188.530 Y117.544 E0.07960
G1 X189.705 Y119.086 E0.08289
G1 X190.647 Y120.567 E0.07504
G1 X191.459 Y122.123 E0.07504
G1 X192.208 Y123.915 E0.08305
G1 X192.769 Y125.694 E0.07976
G1 X193.181 Y127.585 E0.08274
G1 X193.408 Y129.325 E0.07504
G1 X193.488 Y131.097 E0.07583
G1 X193.405 Y133.056 E0.08383
G1 X193.101 Y134.890 E0.07951
G1 X159.238 Y199.849 E3.13204
G1 X158.962 Y200.260 E0.02117
G1 X158.627 Y200.579 E0.01977
G1 X158.230 Y200.823 E0.01992
G1 X157.794 Y200.978 E0.01977
G1 X157.336 Y201.038 E0.01977
G1 X137.710 Y201.039 E0.83910
G1 X136.924 Y200.889 E0.03423
G1 X136.354 Y200.564 E0.02803
G1 X135.905 Y200.087 E0.02803
G1 X135.616 Y199.498 E0.02803
G1 X135.511 Y198.851 E0.02803
G1 X136.209 Y156.039 E1.83071
G1 X136.360 Y155.278 E0.03315
G1 X153.856 Y120.653 E1.65871
G1 X154.893 Y119.014 E0.08289
G1 X155.064 Y118.790 E0.01206
G1 E-1.50000 F3000.000
G1 X188.258 Y132.989 F12000.000
G1 E1.50000 F1800.000
;TYPE:Internal perimeter
G1 F600.000
G1 X188.312 Y132.578 E0.01773
G1 X188.373 Y131.175 E0.06004
G1 X188.312 Y129.772 E0.06004
G1 X188.128 Y128.380 E0.06004
G1 X187.825 Y127.009 E0.06004
G1 X187.402 Y125.669 E0.06004
G1 X186.865 Y124.372 E0.06004
G1 X186.216 Y123.126 E0.06004
G1 X185.462 Y121.942 E0.06004
G1 X184.607 Y120.827 E0.06004
G1 X183.658 Y119.792 E0.06004
G1 X182.623 Y118.843 E0.06004
G1 X181.508 Y117.988 E0.06004
G1 X180.324 Y117.234 E0.06004
G1 X179.078 Y116.585 E0.06004
G1 X177.781 Y116.048 E0.06004
G1 X176.441 Y115.625 E0.06004
G1 X175.070 Y115.322 E0.06004
G1 X173.678 Y115.138 E0.06004
G1 X172.275 Y115.077 E0.06004
G1 X170.872 Y115.138 E0.06004
G1 X169.480 Y115.322 E0.06004
G1 X168.109 Y115.625 E0.06004
G1 X166.769 Y116.048 E0.06004
G1 X165.472 Y116.585 E0.06004
G1 X164.226 Y117.234 E0.06004
G1 X163.042 Y117.988 E0.06004
G1 X161.927 Y118.843 E0.06004
G1 X160.892 Y119.792 E0.06004
G1 X159.943 Y120.827 E0.06004
G1 X159.088 Y121.942 E0.06004
G1 X158.334 Y123.126 E0.06004
G1 X157.685 Y124.372 E0.06004
G1 X157.148 Y125.669 E0.06004
G1 X156.725 Y127.009 E0.06004
G1 X156.422 Y128.380 E0.06004
G1 X156.238 Y129.772 E0.06004
G1 X156.178 Y131.151 E0.05902
G1 X156.178 Y197.728 E2.84653
G1 X138.822 Y197.728 E0.74206
G1 X138.822 Y196.085 E0.07027
G1 X139.501 Y157.197 E1.66291
G1 X140.057 Y157.207 E0.02377
G1 X139.359 Y197.172 E1.70899
G1 X154.372 Y197.172 E0.64188
G1 X154.372 Y131.199 E2.82072
G1 X154.441 Y129.615 E0.06778
G1 X154.645 Y128.066 E0.06677
G1 X154.983 Y126.542 E0.06677
G1 X155.453 Y125.052 E0.06677
G1 X156.050 Y123.609 E0.06677
G1 X156.771 Y122.224 E0.06677
G1 X157.611 Y120.907 E0.06677
G1 X158.561 Y119.668 E0.06677
G1 X159.616 Y118.516 E0.06677
G1 X160.768 Y117.461 E0.06677
G1 X162.007 Y116.511 E0.06677
G1 X163.324 Y115.671 E0.06677
G1 X164.709 Y114.950 E0.06677
G1 X166.152 Y114.353 E0.06677
G1 X167.642 Y113.883 E0.06677
G1 X169.166 Y113.545 E0.06677
G1 X170.715 Y113.341 E0.06677
G1 X172.275 Y113.273 E0.06677
G1 X173.835 Y113.341 E0.06677
G1 X175.384 Y113.545 E0.06677
G1 X176.908 Y113.883 E0.06677
G1 X178.398 Y114.353 E0.06677
G1 X179.841 Y114.950 E0.06677
G1 X181.226 Y115.671 E0.06677
G1 X182.543 Y116.511 E0.06677
G1 X183.782 Y117.461 E0.06677
G1 X184.934 Y118.516 E0.06677
G1 X185.989 Y119.668 E0.06677
G1 X186.939 Y120.907 E0.06677
G1 X187.779 Y122.224 E0.06677
G1 X188.500 Y123.609 E0.06677
G1 X189.097 Y125.052 E0.06677
G1 X189.567 Y126.542 E0.06677
G1 X189.905 Y128.066 E0.06677
G1 X190.109 Y129.615 E0.06677
G1 X190.177 Y131.175 E0.06677
G1 X190.109 Y132.735 E0.06677
G1 X190.075 Y132.989 E0.01095
G1 X188.318 Y132.989 E0.07515
G1 X187.769 Y133.418 F12000.000
G1 F600.000
G1 X187.885 Y132.541 E0.03782
G1 X187.944 Y131.175 E0.05844
G1 X187.885 Y129.809 E0.05844
G1 X187.706 Y128.454 E0.05844
G1 X187.410 Y127.120 E0.05844
G1 X186.999 Y125.816 E0.05844
G1 X186.476 Y124.553 E0.05844
G1 X185.845 Y123.340 E0.05844
G1 X185.110 Y122.188 E0.05844
G1 X184.278 Y121.103 E0.05844
G1 X183.355 Y120.095 E0.05844
G1 X182.347 Y119.172 E0.05845
G1 X181.262 Y118.340 E0.05844
G1 X180.110 Y117.605 E0.05844
G1 X178.897 Y116.974 E0.05844
G1 X177.634 Y116.451 E0.05844
G1 X176.330 Y116.040 E0.05844
G1 X174.996 Y115.744 E0.05844
G1 X173.641 Y115.565 E0.05844
G1 X172.275 Y115.506 E0.05844
G1 X170.909 Y115.565 E0.05844
G1 X169.554 Y115.744 E0.05844
G1 X168.220 Y116.040 E0.05844
G1 X166.916 Y116.451 E0.05844
G1 X165.653 Y116.974 E0.05844
G1 X164.440 Y117.605 E0.05844
G1 X163.288 Y118.340 E0.05844
G1 X162.203 Y119.172 E0.05844
G1 X161.195 Y120.095 E0.05845
G1 X160.272 Y121.103 E0.05844
G1 X159.440 Y122.188 E0.05844
G1 X158.705 Y123.340 E0.05844
G1 X158.074 Y124.553 E0.05844
G1 X157.551 Y125.816 E0.05844
G1 X157.140 Y127.120 E0.05844
G1 X156.844 Y128.454 E0.05844
G1 X156.665 Y129.809 E0.05844
G1 X156.607 Y131.160 E0.05782
G1 X156.607 Y198.157 E2.86445
G1 X138.393 Y198.157 E0.77871
G1 X138.393 Y196.081 E0.08875
G1 X139.080 Y156.761 E1.68139
G1 X140.493 Y156.786 E0.06041
G1 X139.795 Y196.743 E1.70867
G1 X153.943 Y196.743 E0.60492
G1 X153.944 Y131.189 E2.80280
G1 X154.014 Y129.577 E0.06898
G1 X154.223 Y127.992 E0.06837
G1 X154.569 Y126.431 E0.06837
G1 X155.050 Y124.905 E0.06837
G1 X155.662 Y123.428 E0.06837
G1 X156.400 Y122.010 E0.06837
G1 X157.259 Y120.661 E0.06837
G1 X158.233 Y119.392 E0.06837
G1 X159.313 Y118.213 E0.06837
G1 X160.492 Y117.133 E0.06837
G1 X161.761 Y116.159 E0.06837
G1 X163.110 Y115.300 E0.06837
G1 X164.528 Y114.562 E0.06837
G1 X166.005 Y113.950 E0.06837
G1 X167.531 Y113.469 E0.06837
G1 X169.092 Y113.123 E0.06837
G1 X170.677 Y112.914 E0.06837
G1 X172.275 Y112.844 E0.06837
G1 X173.873 Y112.914 E0.06837
G1 X175.458 Y113.123 E0.06837
G1 X177.019 Y113.469 E0.06837
G1 X178.545 Y113.950 E0.06837
G1 X180.022 Y114.562 E0.06837
G1 X181.440 Y115.300 E0.06837
G1 X182.789 Y116.159 E0.06837
G1 X184.058 Y117.133 E0.06837
G1 X185.237 Y118.213 E0.06837
G1 X186.317 Y119.392 E0.06837
G1 X187.291 Y120.661 E0.06837
G1 X188.150 Y122.010 E0.06837
G1 X188.888 Y123.428 E0.06837
G1 X189.500 Y124.905 E0.06837
G1 X189.981 Y126.431 E0.06837
G1 X190.327 Y127.992 E0.06837
G1 X190.536 Y129.577 E0.06837
G1 X190.606 Y131.175 E0.06837
G1 X190.536 Y132.773 E0.06837
G1 X190.451 Y133.418 E0.02782
G1 X187.829 Y133.418 E0.11211
G1 X187.278 Y133.846 F12000.000
;TYPE:External perimeter
G1 F600.000
G1 X187.284 Y133.821 E0.00109
G1 X187.457 Y132.503 E0.05685
G1 X187.515 Y131.175 E0.05685
G1 X187.457 Y129.847 E0.05685
G1 X187.284 Y128.529 E0.05685
G1 X186.996 Y127.231 E0.05685
G1 X186.596 Y125.963 E0.05685
G1 X186.087 Y124.734 E0.05684
G1 X185.473 Y123.555 E0.05685
G1 X184.759 Y122.434 E0.05685
G1 X183.950 Y121.379 E0.05685
G1 X183.051 Y120.399 E0.05684
G1 X182.071 Y119.500 E0.05685
G1 X181.016 Y118.691 E0.05684
G1 X179.895 Y117.977 E0.05684
G1 X178.716 Y117.363 E0.05684
G1 X177.487 Y116.854 E0.05685
G1 X176.219 Y116.454 E0.05684
G1 X174.921 Y116.166 E0.05685
G1 X173.603 Y115.993 E0.05684
G1 X172.275 Y115.935 E0.05684
G1 X170.947 Y115.993 E0.05685
G1 X169.629 Y116.166 E0.05684
G1 X168.331 Y116.454 E0.05685
G1 X167.063 Y116.854 E0.05684
G1 X165.834 Y117.363 E0.05685
G1 X164.655 Y117.977 E0.05684
G1 X163.534 Y118.691 E0.05685
G1 X162.479 Y119.500 E0.05684
G1 X161.499 Y120.399 E0.05685
G1 X160.600 Y121.379 E0.05684
G1 X159.791 Y122.434 E0.05685
G1 X159.077 Y123.555 E0.05685
G1 X158.463 Y124.734 E0.05685
G1 X157.954 Y125.963 E0.05684
G1 X157.554 Y127.231 E0.05685
G1 X157.266 Y128.529 E0.05685
G1 X157.093 Y129.847 E0.05685
G1 X157.035 Y131.170 E0.05662
G1 X157.035 Y198.585 E2.88237
G1 X137.965 Y198.585 E0.81535
G1 X137.965 Y196.077 E0.10723
G1 X138.659 Y156.325 E1.69987
G1 X140.929 Y156.365 E0.09705
G1 X140.231 Y196.315 E1.70835
G1 X153.515 Y196.315 E0.56796
G1 X153.515 Y131.180 E2.78488
G1 X153.587 Y129.540 E0.07018
G1 X153.800 Y127.917 E0.06997
G1 X154.154 Y126.320 E0.06997
G1 X154.647 Y124.759 E0.06997
G1 X155.273 Y123.247 E0.06997
G1 X156.029 Y121.795 E0.06997
G1 X156.908 Y120.415 E0.06997
G1 X157.904 Y119.116 E0.06997
G1 X159.010 Y117.910 E0.06997
G1 X160.216 Y116.804 E0.06997
G1 X161.515 Y115.808 E0.06997
G1 X162.895 Y114.929 E0.06997
G1 X164.347 Y114.173 E0.06997
G1 X165.859 Y113.547 E0.06997
G1 X167.420 Y113.054 E0.06997
G1 X169.017 Y112.700 E0.06997
G1 X170.640 Y112.487 E0.06997
G1 X172.275 Y112.415 E0.06997
G1 X173.910 Y112.487 E0.06997
G1 X175.533 Y112.700 E0.06997
G1 X177.130 Y113.054 E0.06997
G1 X178.691 Y113.547 E0.06997
G1 X180.203 Y114.173 E0.06997
G1 X181.655 Y114.929 E0.06997
G1 X183.035 Y115.808 E0.06997
G1 X184.334 Y116.804 E0.06997
G1 X185.540 Y117.910 E0.06997
G1 X186.646 Y119.116 E0.06997
G1 X187.642 Y120.415 E0.06997
G1 X188.521 Y121.795 E0.06997
G1 X189.277 Y123.247 E0.06997
G1 X189.903 Y124.759 E0.06997
G1 X190.396 Y126.320 E0.06997
G1 X190.750 Y127.917 E0.06997
G1 X190.963 Y129.540 E0.06997
G1 X191.035 Y131.175 E0.06997
G1 X190.963 Y132.810 E0.06997
G1 X190.827 Y133.846 E0.04469
G1 X187.338 Y133.846 E0.14916
G1 X187.294 Y133.826 F12000.000
G1 E-1.50000 F3000.000
G1 X181.102 Y115.776 F12000.000
G1 E1.50000 F1800.000
;TYPE:Solid infill
;WIDTH:0.547762
G1 X187.674 Y122.348 E0.45344
G1 X188.332 Y123.612 F12000.000
G1 F1800.000
G1 X180.292 Y115.572 E0.55477
G1 X179.696 Y115.261 E0.03279
G1 X179.149 Y115.035 E0.02887
G1 X188.415 Y124.301 E0.63937
G1 X188.775 Y125.170 E0.04587
G1 X188.820 Y125.311 E0.00726
G1 X185.973 Y122.464 E0.19645
G1 E-1.50000 F3000.000
G1 X186.773 Y123.871 F12000.000
G1 E1.50000 F1800.000
G1 X189.099 Y126.196 E0.16047
G1 X189.236 Y126.630 E0.02220
G1 X189.324 Y127.027 E0.01983
G1 X187.637 Y125.341 E0.11635
G1 X187.725 Y125.552 E0.01113
G1 X187.947 Y126.257 E0.03605
G1 X189.496 Y127.806 E0.10690
G1 X189.567 Y128.126 E0.01600
G1 X189.621 Y128.537 E0.02022
G1 X188.199 Y127.115 E0.09812
G1 X188.372 Y127.893 E0.03891
G1 X189.713 Y129.235 E0.09255
G1 X189.767 Y129.645 E0.02017
G1 X189.778 Y129.906 E0.01277
G1 X188.508 Y128.636 E0.08767
G1 X188.600 Y129.333 E0.03434
G1 X189.806 Y130.540 E0.08324
G1 X189.834 Y131.173 E0.03095
G1 X188.665 Y130.005 E0.08064
G1 X188.693 Y130.638 E0.03095
G1 X189.809 Y131.754 E0.07700
G1 X189.783 Y132.335 E0.02836
G1 X188.712 Y131.264 E0.07390
G1 X188.687 Y131.844 E0.02836
G1 X189.489 Y132.646 E0.05534
G1 X188.883 Y132.646 E0.02957
G1 X188.477 Y132.240 E0.02803
G1 E-1.50000 F3000.000
G1 X180.986 Y117.477 F12000.000
G1 E1.50000 F1800.000
G1 X178.139 Y114.630 E0.19645
G1 X177.254 Y114.351 E0.04528
G1 X179.143 Y116.241 E0.13040
G1 X178.109 Y115.813 E0.05463
G1 X176.423 Y114.126 E0.11635
G1 X175.644 Y113.954 E0.03891
G1 X177.193 Y115.503 E0.10690
G1 X176.530 Y115.294 E0.03393
G1 X176.335 Y115.251 E0.00975
G1 X174.913 Y113.829 E0.09812
G1 X174.215 Y113.737 E0.03434
G1 X175.557 Y115.078 E0.09255
G1 X175.130 Y114.984 E0.02132
G1 X174.814 Y114.942 E0.01553
G1 X173.544 Y113.672 E0.08767
G1 X172.910 Y113.644 E0.03095
G1 X174.117 Y114.850 E0.08324
G1 X173.708 Y114.796 E0.02011
G1 X173.445 Y114.785 E0.01282
G1 X172.277 Y113.616 E0.08064
G1 X172.275 Y113.616 E0.00008
G1 X171.696 Y113.641 E0.02829
G1 X172.812 Y114.757 E0.07700
G1 X172.275 Y114.734 E0.02621
G1 X172.186 Y114.738 E0.00434
G1 X171.115 Y113.667 E0.07390
G1 X170.745 Y113.683 E0.01810
G1 X170.551 Y113.708 E0.00953
G1 X171.606 Y114.763 E0.07277
G1 X171.025 Y114.788 E0.02836
G1 X170.015 Y113.779 E0.06965
G1 X169.480 Y113.849 E0.02635
G1 X170.475 Y114.845 E0.06867
G1 X169.940 Y114.915 E0.02635
G1 X168.965 Y113.941 E0.06724
G1 X168.469 Y114.051 E0.02479
G1 X169.405 Y114.987 E0.06460
G1 X168.909 Y115.097 E0.02479
G1 X167.973 Y114.161 E0.06460
G1 X167.730 Y114.214 E0.01213
G1 X167.495 Y114.289 E0.01204
G1 X168.413 Y115.207 E0.06336
G1 X168.020 Y115.294 E0.01967
G1 X167.925 Y115.324 E0.00487
G1 X167.034 Y114.434 E0.06142
G1 X166.574 Y114.579 E0.02357
G1 X167.464 Y115.469 E0.06142
G1 X167.003 Y115.615 E0.02357
G1 X166.124 Y114.735 E0.06067
G1 X165.695 Y114.913 E0.02263
G1 X166.550 Y115.767 E0.05897
G1 X166.122 Y115.945 E0.02263
G1 X165.267 Y115.090 E0.05897
G1 X164.854 Y115.261 E0.02179
G1 X164.840 Y115.269 E0.00081
G1 X165.693 Y116.122 E0.05889
G1 X165.327 Y116.274 E0.01935
G1 X165.269 Y116.304 E0.00317
G1 X164.441 Y115.476 E0.05713
G1 X164.043 Y115.684 E0.02192
G1 X164.870 Y116.512 E0.05713
G1 X164.472 Y116.719 E0.02192
G1 X163.644 Y115.891 E0.05713
G1 X163.496 Y115.969 E0.00816
G1 X163.263 Y116.117 E0.01344
G1 X164.073 Y116.927 E0.05590
G1 X164.054 Y116.937 E0.00104
G1 X163.702 Y117.161 E0.02040
G1 X162.893 Y116.352 E0.05581
G1 X162.523 Y116.588 E0.02141
G1 X163.332 Y117.397 E0.05581
G1 X162.962 Y117.633 E0.02141
G1 X162.157 Y116.828 E0.05555
G1 X161.814 Y117.091 E0.02109
G1 X162.610 Y117.887 E0.05495
G1 X162.267 Y118.150 E0.02109
G1 X161.471 Y117.354 E0.05495
G1 X161.128 Y117.617 E0.02109
G1 X161.924 Y118.413 E0.05495
G1 X161.707 Y118.580 E0.01337
G1 X161.591 Y118.686 E0.00766
G1 X160.801 Y117.896 E0.05453
G1 X160.485 Y118.186 E0.02093
G1 X161.275 Y118.976 E0.05453
G1 X160.959 Y119.266 E0.02093
G1 X160.168 Y118.476 E0.05453
G1 X159.859 Y118.759 E0.02047
G1 X159.853 Y118.766 E0.00045
G1 X160.643 Y119.556 E0.05453
G1 X160.353 Y119.872 E0.02093
G1 X159.563 Y119.082 E0.05453
G1 X159.273 Y119.398 E0.02093
G1 X160.064 Y120.189 E0.05453
G1 X159.774 Y120.505 E0.02093
G1 X158.983 Y119.715 E0.05453
G1 X158.824 Y119.888 E0.01151
G1 X158.706 Y120.043 E0.00949
G1 X159.502 Y120.839 E0.05495
