; generated by SuperSlicer 2.3.56 on 2021-12-08 at 20:13:57 UTC


;
;

;
;
; 

; external perimeters extrusion width = 0.60mm
; perimeters extrusion width = 0.60mm
; infill extrusion width = 0.60mm
; solid infill extrusion width = 0.60mm
; top infill extrusion width = 0.60mm
; first layer extrusion width = 0.72mm


;TYPE:Custom
START_PRINT T_BED=60 T_EXTRUDER=200
M107
G21 ; set units to millimeters
G90 ; use absolute coordinates
M83 ; use relative distances for extrusion
; Filament gcode
M109 S200 ; set temperature and wait for it to be reached
M190 S60 ; set bed temperature and wait for it to be reached
;LAYER_CHANGE
;Z:0.44
;HEIGHT:0.44
G1 Z0.440000 F12000.000
G1 E-0.80000 F3000.000
G1 X57.117 Y97.444 F12000.000
G1 E0.80000 F1500.000
;TYPE:Skirt
;WIDTH:0.72
G1 F600.000
G1 X58.571 Y96.837 E0.18030
G1 X59.454 Y96.698 E0.10234
G1 X268.504 Y96.562 E23.92305
G1 X270.618 Y96.905 E0.24505
G1 X271.984 Y97.500 E0.17058
G1 X273.239 Y98.439 E0.17931
G1 X274.566 Y100.135 E0.24648
G1 X275.156 Y101.551 E0.17548
G1 X275.301 Y102.378 E0.09611
G1 X275.301 Y208.624 E12.15849
G1 X275.127 Y209.536 E0.10617
G1 X274.379 Y211.174 E0.20605
G1 X273.357 Y212.454 E0.18749
G1 X271.883 Y213.556 E0.21059
G1 X270.279 Y214.206 E0.19814
G1 X268.512 Y214.438 E0.20392
G1 X59.427 Y214.302 E23.92708
G1 X58.485 Y214.134 E0.10952
G1 X56.837 Y213.386 E0.20705
G1 X55.549 Y212.360 E0.18846
G1 X54.444 Y210.883 E0.21109
G1 X53.837 Y209.429 E0.18030
G1 X53.698 Y208.554 E0.10138
G1 X53.699 Y102.397 E12.14831
G1 X53.871 Y101.472 E0.10761
G1 X54.618 Y99.830 E0.20654
G1 X55.643 Y98.546 E0.18796
G1 X57.045 Y97.497 E0.20032
G1 X57.414 Y97.994 F12000.000
G1 F600.000
G1 X58.742 Y97.439 E0.16465
G1 X59.454 Y97.324 E0.08264
G1 X268.504 Y97.187 E23.92297
G1 X270.392 Y97.488 E0.21881
G1 X271.664 Y98.038 E0.15860
G1 X272.821 Y98.905 E0.16548
G1 X274.008 Y100.417 E0.21997
G1 X274.556 Y101.727 E0.16251
G1 X274.676 Y102.402 E0.07839
G1 X274.676 Y208.599 E12.15289
G1 X274.536 Y209.330 E0.08519
G1 X273.857 Y210.829 E0.18824
G1 X272.930 Y211.997 E0.17060
G1 X271.586 Y213.006 E0.19239
G1 X270.121 Y213.601 E0.18091
G1 X268.506 Y213.813 E0.18646
G1 X59.439 Y213.676 E23.92494
G1 X58.681 Y213.540 E0.08816
G1 X57.181 Y212.864 E0.18836
G1 X56.003 Y211.930 E0.17189
G1 X54.994 Y210.586 E0.19240
G1 X54.439 Y209.258 E0.16465
G1 X54.324 Y208.549 E0.08222
G1 X54.324 Y102.416 E12.14559
G1 X54.463 Y101.673 E0.08646
G1 X55.141 Y100.174 E0.18824
G1 X56.069 Y99.004 E0.17102
G1 X57.342 Y98.048 E0.18211
G1 E-0.80000 F3000.000
G1 X172.651 Y114.269 F12000.000
G1 E0.80000 F1500.000
;TYPE:Internal perimeter
G1 F600.000
G1 X172.651 Y196.731 E9.43677
G1 X173.175 Y197.997 E0.15678
G1 X173.969 Y199.031 E0.14920
G1 X175.003 Y199.825 E0.14919
G1 X176.207 Y200.324 E0.14919
G1 X177.435 Y200.486 E0.14174
G1 X179.041 Y200.486 E0.18377
G1 X231.101 Y200.354 E5.95756
G1 X231.737 Y200.347 E0.07277
G1 X232.477 Y200.041 E0.09165
G1 X232.997 Y199.825 E0.06446
G1 X234.031 Y199.031 E0.14919
G1 X234.825 Y197.997 E0.14919
G1 X235.349 Y196.731 E0.15678
G1 X235.349 Y114.269 E9.43677
G1 X234.825 Y113.003 E0.15678
G1 X234.031 Y111.969 E0.14919
G1 X232.997 Y111.175 E0.14919
G1 X231.737 Y110.653 E0.15611
G1 X231.101 Y110.646 E0.07277
G1 X179.041 Y110.514 E5.95756
G1 X177.435 Y110.514 E0.18377
G1 X176.207 Y110.676 E0.14174
G1 X175.317 Y111.045 E0.11024
G1 X175.003 Y111.175 E0.03895
G1 X173.969 Y111.969 E0.14919
G1 X173.175 Y113.003 E0.14919
G1 X172.685 Y114.186 E0.14648
G1 X173.276 Y114.393 F12000.000
;TYPE:External perimeter
G1 F600.000
G1 X173.276 Y196.607 E9.40829
G1 X173.721 Y197.682 E0.13311
G1 X174.415 Y198.585 E0.13035
G1 X175.318 Y199.279 E0.13034
G1 X176.371 Y199.714 E0.13034
G1 X177.476 Y199.860 E0.12762
G1 X179.040 Y199.860 E0.17898
G1 X231.096 Y199.729 E5.95715
G1 X231.609 Y199.723 E0.05864
G1 X232.237 Y199.463 E0.07783
G1 X232.682 Y199.279 E0.05504
G1 X233.585 Y198.585 E0.13034
G1 X234.279 Y197.682 E0.13035
G1 X234.724 Y196.607 E0.13311
G1 X234.724 Y114.393 E9.40829
G1 X234.279 Y113.318 E0.13311
G1 X233.585 Y112.415 E0.13034
G1 X232.682 Y111.721 E0.13034
G1 X232.682 Y111.721 E0.00000
G1 X231.609 Y111.277 E0.13287
G1 X231.096 Y111.271 E0.05864
G1 X179.040 Y111.140 E5.95715
G1 X177.476 Y111.140 E0.17899
G1 X176.371 Y111.286 E0.12762
G1 X175.557 Y111.623 E0.10081
G1 X175.318 Y111.721 E0.02953
G1 X174.415 Y112.415 E0.13034
G1 X173.721 Y113.318 E0.13035
G1 X173.311 Y114.310 E0.12282
G1 X172.722 Y114.623 F12000.000
G1 E-0.80000 F3000.000
G1 X208.113 Y108.085 F12000.000
G1 E0.80000 F1500.000
;TYPE:Internal perimeter
G1 F600.000
G1 X179.044 Y108.012 E3.32651
G1 X177.271 Y108.012 E0.20290
G1 X175.554 Y108.238 E0.19821
G1 X174.360 Y108.733 E0.14794
G1 X173.741 Y108.989 E0.07666
G1 X172.184 Y110.184 E0.22458
G1 X170.989 Y111.741 E0.22459
G1 X170.148 Y113.771 E0.25144
G1 X170.148 Y197.229 E9.55069
G1 X170.989 Y199.259 E0.25144
G1 X172.184 Y200.816 E0.22459
G1 X173.741 Y202.011 E0.22458
G1 X175.554 Y202.762 E0.22459
G1 X177.271 Y202.988 E0.19821
G1 X179.044 Y202.988 E0.20290
G1 X208.113 Y202.915 E3.32651
G1 X207.687 Y203.943 E0.12733
G1 X207.482 Y205.500 E0.17977
G1 X207.687 Y207.057 E0.17976
G1 X208.067 Y207.974 E0.11352
G1 X118.957 Y207.916 E10.19739
G1 X119.313 Y207.057 E0.10631
G1 X119.518 Y205.500 E0.17977
G1 X119.313 Y203.942 E0.17978
G1 X118.918 Y202.988 E0.11824
G1 X150.729 Y202.988 E3.64036
G1 X152.446 Y202.762 E0.19821
G1 X154.259 Y202.011 E0.22459
G1 X155.816 Y200.816 E0.22459
G1 X157.011 Y199.259 E0.22459
G1 X157.852 Y197.229 E0.25144
G1 X157.852 Y113.771 E9.55069
G1 X157.011 Y111.741 E0.25144
G1 X155.816 Y110.184 E0.22459
G1 X154.259 Y108.989 E0.22459
G1 X152.236 Y108.151 E0.25056
G1 X150.373 Y108.143 E0.21327
G1 X118.897 Y108.063 E3.60202
G1 X119.313 Y107.058 E0.12448
G1 X119.518 Y105.500 E0.17978
G1 X119.313 Y103.942 E0.17978
G1 X118.957 Y103.084 E0.10631
G1 X208.067 Y103.026 E10.19738
G1 X207.687 Y103.943 E0.11351
G1 X207.588 Y104.695 E0.08686
G1 X207.482 Y105.500 E0.09291
G1 X207.588 Y106.305 E0.09291
G1 X207.687 Y107.057 E0.08686
G1 X208.078 Y108.002 E0.11703
G1 E-0.80000 F3000.000
G1 X209.003 Y102.400 F12000.000
G1 E0.80000 F1500.000
G1 F600.000
G1 X208.297 Y104.106 E0.21129
G1 X208.208 Y104.777 E0.07744
G1 X208.113 Y105.500 E0.08349
G1 X208.208 Y106.223 E0.08349
G1 X208.297 Y106.894 E0.07744
G1 X208.835 Y108.193 E0.16092
G1 X209.234 Y108.714 E0.07507
G1 X179.044 Y108.638 E3.45490
G1 X177.312 Y108.638 E0.19812
G1 X175.717 Y108.848 E0.18409
G1 X174.599 Y109.311 E0.13851
G1 X174.056 Y109.536 E0.06723
G1 X172.630 Y110.630 E0.20574
G1 X171.536 Y112.056 E0.20574
G1 X170.774 Y113.895 E0.22778
G1 X170.774 Y197.105 E9.52221
G1 X171.536 Y198.944 E0.22778
G1 X172.630 Y200.370 E0.20574
G1 X174.056 Y201.464 E0.20573
G1 X175.717 Y202.152 E0.20574
G1 X177.312 Y202.362 E0.18409
G1 X179.044 Y202.362 E0.19811
G1 X209.234 Y202.286 E3.45490
G1 X208.835 Y202.807 E0.07507
G1 X208.297 Y204.106 E0.16092
G1 X208.113 Y205.500 E0.16093
G1 X208.297 Y206.894 E0.16091
G1 X208.528 Y207.453 E0.06928
G1 X209.003 Y208.600 E0.14202
G1 X118.021 Y208.541 E10.41165
G1 X118.703 Y206.894 E0.20395
G1 X118.887 Y205.500 E0.16092
G1 X118.703 Y204.106 E0.16093
G1 X117.981 Y202.362 E0.21595
G1 X150.688 Y202.362 E3.74281
G1 X152.282 Y202.152 E0.18409
G1 X153.944 Y201.464 E0.20574
G1 X155.370 Y200.370 E0.20574
G1 X156.464 Y198.944 E0.20574
G1 X157.226 Y197.105 E0.22777
G1 X157.226 Y113.895 E9.52221
G1 X156.464 Y112.056 E0.22777
G1 X155.370 Y110.630 E0.20574
G1 X153.944 Y109.536 E0.20574
G1 X152.110 Y108.776 E0.22705
G1 X150.370 Y108.769 E0.19913
G1 X117.788 Y108.685 E3.72865
G1 X118.165 Y108.193 E0.07094
G1 X118.703 Y106.894 E0.16093
G1 X118.887 Y105.500 E0.16093
G1 X118.703 Y104.106 E0.16093
G1 X118.021 Y102.459 E0.20394
G1 X208.913 Y102.400 E10.40136
G1 E-0.80000 F3000.000
G1 X210.416 Y101.773 F12000.000
G1 E0.80000 F1500.000
G1 F600.000
G1 X209.381 Y103.122 E0.19453
G1 X208.906 Y104.269 E0.14207
G1 X208.828 Y104.858 E0.06801
G1 X208.744 Y105.500 E0.07406
G1 X208.828 Y106.142 E0.07406
G1 X208.906 Y106.731 E0.06801
G1 X209.381 Y107.878 E0.14207
G1 X210.505 Y109.343 E0.21127
G1 X179.043 Y109.263 E3.60044
G1 X177.353 Y109.263 E0.19333
G1 X175.881 Y109.457 E0.16997
G1 X174.839 Y109.889 E0.12909
G1 X174.372 Y110.082 E0.05780
G1 X173.076 Y111.076 E0.18689
G1 X172.082 Y112.372 E0.18689
G1 X171.400 Y114.020 E0.20411
G1 X171.400 Y196.980 E9.49373
G1 X172.082 Y198.628 E0.20411
G1 X173.076 Y199.924 E0.18689
G1 X174.372 Y200.918 E0.18689
G1 X175.881 Y201.543 E0.18689
G1 X177.353 Y201.737 E0.16998
G1 X179.043 Y201.737 E0.19333
G1 X210.505 Y201.657 E3.60044
G1 X209.381 Y203.122 E0.21127
G1 X208.906 Y204.269 E0.14207
G1 X208.744 Y205.500 E0.14208
G1 X208.906 Y206.731 E0.14207
G1 X209.106 Y207.214 E0.05986
G1 X209.381 Y207.878 E0.08222
G1 X210.416 Y209.227 E0.19454
G1 X116.631 Y209.165 E10.73245
G1 X117.619 Y207.878 E0.18571
G1 X118.094 Y206.731 E0.14208
G1 X118.256 Y205.500 E0.14207
G1 X118.094 Y204.269 E0.14208
G1 X117.619 Y203.122 E0.14208
G1 X116.556 Y201.737 E0.19982
G1 X150.647 Y201.737 E3.90124
G1 X152.119 Y201.543 E0.16997
G1 X153.628 Y200.918 E0.18689
G1 X154.924 Y199.924 E0.18689
G1 X155.918 Y198.628 E0.18689
G1 X156.600 Y196.980 E0.20411
G1 X156.600 Y114.020 E9.49373
G1 X155.918 Y112.372 E0.20411
G1 X154.924 Y111.076 E0.18689
G1 X153.628 Y110.082 E0.18689
G1 X151.985 Y109.401 E0.20354
G1 X150.368 Y109.395 E0.18499
G1 X116.522 Y109.308 E3.87329
G1 X117.619 Y107.878 E0.20621
G1 X118.094 Y106.731 E0.14208
G1 X118.256 Y105.500 E0.14208
G1 X118.094 Y104.269 E0.14208
G1 X117.619 Y103.122 E0.14208
G1 X116.631 Y101.835 E0.18570
G1 X210.326 Y101.773 E10.72216
G1 E-0.80000 F3000.000
G1 X212.072 Y101.147 F12000.000
G1 E0.80000 F1500.000
G1 F600.000
G1 X212.167 Y101.625 E0.05583
G1 X211.438 Y101.928 E0.09041
G1 X210.583 Y102.583 E0.12324
G1 X209.928 Y103.438 E0.12324
G1 X209.516 Y104.432 E0.12323
G1 X209.449 Y104.940 E0.05859
G1 X209.375 Y105.500 E0.06463
G1 X209.449 Y106.060 E0.06463
G1 X209.516 Y106.568 E0.05859
G1 X209.928 Y107.562 E0.12323
G1 X210.583 Y108.417 E0.12324
G1 X211.049 Y108.775 E0.06725
G1 X211.438 Y109.072 E0.05598
G1 X211.746 Y109.200 E0.03822
G1 X212.455 Y109.494 E0.08786
G1 X212.360 Y109.973 E0.05589
G1 X179.042 Y109.889 E3.81277
G1 X177.394 Y109.889 E0.18855
G1 X176.044 Y110.067 E0.15586
G1 X175.078 Y110.467 E0.11966
G1 X174.687 Y110.629 E0.04838
G1 X173.523 Y111.522 E0.16804
G1 X172.629 Y112.687 E0.16804
G1 X172.025 Y114.144 E0.18045
G1 X172.025 Y196.856 E9.46525
G1 X172.629 Y198.313 E0.18045
G1 X173.523 Y199.478 E0.16804
G1 X174.687 Y200.371 E0.16804
G1 X176.044 Y200.933 E0.16804
G1 X177.394 Y201.111 E0.15586
G1 X179.042 Y201.111 E0.18855
G1 X212.360 Y201.027 E3.81277
G1 X212.455 Y201.506 E0.05589
G1 X212.078 Y201.662 E0.04675
G1 X211.438 Y201.928 E0.07933
G1 X211.010 Y202.255 E0.06162
G1 X210.583 Y202.583 E0.06162
G1 X209.928 Y203.438 E0.12324
G1 X209.516 Y204.432 E0.12323
G1 X209.375 Y205.500 E0.12323
G1 X209.516 Y206.568 E0.12322
G1 X209.684 Y206.975 E0.05044
G1 X209.928 Y207.562 E0.07279
G1 X210.583 Y208.417 E0.12325
G1 X211.438 Y209.072 E0.12325
G1 X212.167 Y209.375 E0.09040
G1 X212.072 Y209.853 E0.05583
G1 X115.080 Y209.790 E11.09951
G1 X114.985 Y209.312 E0.05580
G1 X115.562 Y209.072 E0.07156
G1 X116.417 Y208.417 E0.12324
G1 X117.072 Y207.562 E0.12324
G1 X117.484 Y206.568 E0.12323
G1 X117.625 Y205.500 E0.12322
G1 X117.484 Y204.432 E0.12323
G1 X117.072 Y203.437 E0.12323
G1 X116.417 Y202.583 E0.12323
G1 X115.563 Y201.928 E0.12323
G1 X114.746 Y201.590 E0.10110
G1 X114.841 Y201.111 E0.05581
G1 X150.606 Y201.111 E4.09274
G1 X151.956 Y200.933 E0.15585
G1 X153.313 Y200.371 E0.16804
G1 X154.478 Y199.478 E0.16804
G1 X155.371 Y198.313 E0.16804
G1 X155.975 Y196.856 E0.18044
G1 X155.975 Y114.144 E9.46525
G1 X155.371 Y112.687 E0.18044
G1 X154.478 Y111.522 E0.16804
G1 X153.313 Y110.629 E0.16804
G1 X151.859 Y110.027 E0.18004
G1 X150.366 Y110.020 E0.17084
G1 X114.743 Y109.929 E4.07656
G1 X114.649 Y109.451 E0.05574
G1 X114.975 Y109.316 E0.04036
G1 X115.563 Y109.072 E0.07279
G1 X116.417 Y108.417 E0.12323
G1 X117.072 Y107.563 E0.12324
G1 X117.484 Y106.568 E0.12323
G1 X117.625 Y105.500 E0.12323
G1 X117.484 Y104.432 E0.12323
G1 X117.072 Y103.437 E0.12323
G1 X116.417 Y102.583 E0.12323
G1 X115.563 Y101.928 E0.12323
G1 X114.985 Y101.688 E0.07158
G1 X115.080 Y101.210 E0.05580
G1 X211.982 Y101.147 E11.08922
G1 X212.418 Y102.199 F12000.000
G1 F600.000
G1 X211.753 Y102.474 E0.08234
G1 X211.029 Y103.029 E0.10439
G1 X210.474 Y103.753 E0.10439
G1 X210.125 Y104.596 E0.10438
G1 X210.069 Y105.022 E0.04917
G1 X210.006 Y105.500 E0.05521
G1 X210.069 Y105.978 E0.05521
G1 X210.125 Y106.404 E0.04917
G1 X210.474 Y107.247 E0.10438
G1 X211.029 Y107.971 E0.10439
G1 X211.430 Y108.278 E0.05783
G1 X211.753 Y108.526 E0.04656
G1 X211.986 Y108.622 E0.02880
G1 X212.596 Y108.875 E0.07558
G1 X213.500 Y108.994 E0.10438
G1 X214.404 Y108.875 E0.10438
G1 X215.014 Y108.622 E0.07558
G1 X215.247 Y108.526 E0.02880
G1 X215.570 Y108.278 E0.04656
G1 X215.971 Y107.971 E0.05783
G1 X216.526 Y107.247 E0.10439
G1 X216.875 Y106.404 E0.10438
G1 X216.931 Y105.978 E0.04917
G1 X216.994 Y105.500 E0.05521
G1 X216.931 Y105.022 E0.05521
G1 X216.875 Y104.596 E0.04917
G1 X216.526 Y103.753 E0.10438
G1 X215.971 Y103.029 E0.10439
G1 X215.247 Y102.474 E0.10439
G1 X214.404 Y102.125 E0.10438
G1 X213.500 Y102.006 E0.10438
G1 X212.596 Y102.125 E0.10438
G1 X212.501 Y102.164 E0.01174
G1 X212.759 Y102.734 F12000.000
;TYPE:External perimeter
G1 F600.000
G1 X212.068 Y103.020 E0.08554
G1 X211.475 Y103.475 E0.08554
G1 X211.020 Y104.068 E0.08553
G1 X211.020 Y104.068 E0.00000
G1 X210.734 Y104.759 E0.08553
G1 X210.689 Y105.103 E0.03975
G1 X210.637 Y105.500 E0.04578
G1 X210.689 Y105.897 E0.04578
G1 X210.734 Y106.241 E0.03975
G1 X211.020 Y106.932 E0.08553
G1 X211.020 Y106.932 E0.00000
G1 X211.475 Y107.525 E0.08553
G1 X211.811 Y107.782 E0.04840
G1 X212.068 Y107.980 E0.03714
G1 X212.225 Y108.044 E0.01938
G1 X212.759 Y108.266 E0.06616
G1 X213.500 Y108.363 E0.08553
G1 X214.241 Y108.266 E0.08553
G1 X214.775 Y108.044 E0.06616
G1 X214.932 Y107.980 E0.01938
G1 X215.189 Y107.782 E0.03714
G1 X215.525 Y107.525 E0.04840
G1 X215.980 Y106.932 E0.08553
G1 X215.980 Y106.932 E0.00000
G1 X216.266 Y106.241 E0.08553
G1 X216.311 Y105.897 E0.03975
G1 X216.363 Y105.500 E0.04578
G1 X216.311 Y105.103 E0.04578
G1 X216.266 Y104.759 E0.03975
G1 X215.980 Y104.068 E0.08553
G1 X215.980 Y104.068 E0.00000
G1 X215.525 Y103.475 E0.08553
G1 X214.932 Y103.020 E0.08554
G1 X214.241 Y102.734 E0.08554
G1 X213.500 Y102.637 E0.08553
G1 X212.848 Y102.723 E0.07523
G1 X212.317 Y102.329 F12000.000
G1 E-0.80000 F3000.000
G1 X218.930 Y103.019 F12000.000
G1 E0.80000 F1500.000
;TYPE:Internal perimeter
G1 F600.000
G1 X258.080 Y102.993 E4.48017
G1 X257.687 Y103.943 E0.11755
G1 X257.482 Y105.500 E0.17977
G1 X257.687 Y107.057 E0.17977
G1 X258.101 Y108.058 E0.12392
G1 X252.725 Y108.144 E0.61537
G1 X251.744 Y108.159 E0.11223
G1 X249.741 Y108.989 E0.24813
G1 X248.184 Y110.184 E0.22459
G1 X246.989 Y111.741 E0.22459
G1 X246.148 Y113.771 E0.25144
G1 X246.148 Y197.229 E9.55069
G1 X246.989 Y199.259 E0.25144
G1 X248.184 Y200.816 E0.22459
G1 X249.741 Y202.011 E0.22459
G1 X250.879 Y202.482 E0.14101
G1 X251.744 Y202.841 E0.10712
G1 X258.101 Y202.942 E0.72759
G1 X257.687 Y203.943 E0.12392
G1 X257.482 Y205.500 E0.17977
G1 X257.687 Y207.057 E0.17976
G1 X258.080 Y208.007 E0.11755
G1 X218.930 Y207.981 E4.48017
G1 X219.313 Y207.057 E0.11439
G1 X219.518 Y205.500 E0.17976
G1 X219.313 Y203.943 E0.17977
G1 X218.876 Y202.887 E0.13069
G1 X231.118 Y202.857 E1.40096
G1 X232.248 Y202.844 E0.12931
G1 X233.434 Y202.352 E0.14693
G1 X234.259 Y202.011 E0.10216
G1 X235.816 Y200.816 E0.22458
G1 X237.011 Y199.259 E0.22459
G1 X237.852 Y197.229 E0.25144
G1 X237.852 Y113.771 E9.55069
G1 X237.011 Y111.741 E0.25144
G1 X235.816 Y110.184 E0.22459
G1 X234.259 Y108.989 E0.22459
G1 X232.248 Y108.156 E0.24909
G1 X231.118 Y108.143 E0.12931
G1 X218.876 Y108.113 E1.40096
G1 X219.313 Y107.057 E0.13069
G1 X219.412 Y106.305 E0.08686
G1 X219.518 Y105.500 E0.09291
G1 X219.412 Y104.695 E0.09291
G1 X219.313 Y103.943 E0.08686
G1 X218.965 Y103.102 E0.10409
G1 X217.995 Y102.394 F12000.000
G1 F600.000
