; generated by SuperSlicer 2.4 on 2022-09-02 at 20:37:29 UTC


;
;

;
;
; 

; external perimeters extrusion width = 0.40mm
; perimeters extrusion width = 0.50mm
; infill extrusion width = 0.72mm
; solid infill extrusion width = 0.56mm
; top infill extrusion width = 0.40mm
; support material extrusion width = 0.50mm

; external perimeters extrusion width = 0.40mm
; perimeters extrusion width = 0.50mm
; infill extrusion width = 0.72mm
; solid infill extrusion width = 0.56mm
; top infill extrusion width = 0.40mm
; support material extrusion width = 0.50mm

; object:{"name":"wallet_top","id":"wallet_top.stl id:0 copy 0","object_center":[165.000001,135.501598,0.000000],"boundingbox_center":[165.000001,135.501598,1.501000],"boundingbox_size":[85.746002,53.947998,3.002000]}
; object:{"name":"wallet_bottom","id":"wallet_bottom.stl id:1 copy 0","object_center":[165.000000,194.974000,0.000000],"boundingbox_center":[165.000000,194.974000,1.998000],"boundingbox_size":[85.998001,52.996803,3.996000]}
; plater:{"center":[165.000000,165.000000,0.000000],"boundingbox_center":[165.000000,165.000000,1.998000],"boundingbox_size":[85.998001,112.944803,3.996000]}

M73 P0 R56
;TYPE:Custom
START_PRINT T_BED=60 T_EXTRUDER=200
M107
G21 ; set units to millimeters
G90 ; use absolute coordinates
M83 ; use relative distances for extrusion
; Filament gcode
;_TOOLCHANGE 0
M109 S200 ; set temperature and wait for it to be reached
M190 S60 ; set bed temperature and wait for it to be reached
M107
;LAYER_CHANGE
;Z:0.24
;HEIGHT:0.24
G1 Z0.24 F9000
G92 E0
M73 P0 R56
G1 E-0.8 F3000
M204 S1000
G1 X119.275 Y107.73 F9000
G1 E0.8 F1800
;TYPE:Skirt
;WIDTH:0.52
G1 X119.163 Y107.855 E0.00767
G1 X118.714 Y108.938 E0.05371
G1 X118.527 Y110.091 E0.05351
G1 X118.402 Y211.435 E4.64275
G1 X118.5 Y217.557 E0.28049
G1 X119.229 Y219.703 E0.10383
G1 X120.536 Y220.802 E0.07828
G1 X122.199 Y221.197 E0.07828
G1 X207.799 Y221.197 E3.92149
G1 X209.957 Y220.503 E0.10383
G1 X211.077 Y219.213 E0.07828
G1 X211.498 Y217.557 E0.07828
G1 X211.597 Y211.376 E0.2832
G1 X211.473 Y110.479 E4.62227
G1 X211.382 Y109.564 E0.04213
G1 X211.211 Y108.849 E0.03364
G1 X210.854 Y107.975 E0.04326
G1 X209.206 Y106.328 E0.10673
G1 X207.544 Y105.934 E0.07828
G1 X122.406 Y105.934 E3.90028
M73 P0 R56
G1 X120.308 Y106.587 E0.10068
G1 X119.275 Y107.73 E0.07061
G1 X119.607 Y108.041 F9000
G1 F1800
G1 X119.571 Y108.079 E0.0024
G1 X119.157 Y109.084 E0.04981
G1 X118.994 Y110.092 E0.04676
G1 X118.868 Y211.427 E4.64237
G1 X118.966 Y217.549 E0.28049
G1 X119.483 Y219.251 E0.08149
G1 X120.653 Y220.337 E0.07311
G1 X122.199 Y220.731 E0.07311
G1 X207.799 Y220.731 E3.92149
G1 X209.509 Y220.241 E0.08149
G1 X210.613 Y219.089 E0.07311
G1 X211.032 Y217.549 E0.07311
G1 X211.13 Y211.376 E0.28286
G1 X211.006 Y110.48 E4.62222
G1 X210.771 Y109.002 E0.06856
G1 X210.445 Y108.2 E0.03967
G1 X209.09 Y106.794 E0.08944
G1 X207.544 Y106.4 E0.07311
G1 X122.406 Y106.4 E3.90028
G1 X120.66 Y106.912 E0.08336
G1 X119.607 Y108.041 E0.07071
G1 E-0.8 F3000
; printing object wallet_top.stl id:0 copy 0
; acceleration to travel
M204 S3000
G1 X122.694 Y110.357 F9000
; decel to extrusion
M204 S1000
G1 X123.722 Y111.129
; end travel
G1 E0.8 F1800
;TYPE:Internal perimeter
;WIDTH:0.5
G1 X206.278 Y111.129 E3.62054
G1 X206.278 Y160.456 E2.1633
G1 X206.26 Y160.616 E0.00704
G1 X206.23 Y160.699 E0.00388
G1 X206.184 Y160.774 E0.00386
G1 X206.121 Y160.836 E0.00387
G1 X206.051 Y160.88 E0.00362
G1 X151.434 Y160.878 E2.39528
G1 X151.359 Y160.828 E0.00397
G1 X151.297 Y160.762 E0.00397
G1 X151.251 Y160.682 E0.00405
G1 X151.186 Y160.459 E0.01016
G1 X150.996 Y159.623 E0.03759
G1 X150.917 Y159.132 E0.02183
G1 X150.742 Y158.792 E0.01677
G1 X150.499 Y158.097 E0.03228
G1 X149.935 Y156.924 E0.05708
G1 X149.244 Y155.821 E0.05708
G1 X148.432 Y154.803 E0.05713
G1 X147.512 Y153.883 E0.05703
G1 X146.496 Y153.072 E0.05704
G1 X145.394 Y152.378 E0.05709
G1 X144.222 Y151.814 E0.05705
G1 X142.994 Y151.383 E0.05708
G1 X141.895 Y151.132 E0.04943
G1 X137.667 Y151.132 E0.18544
G1 X136.568 Y151.383 E0.04943
G1 X135.34 Y151.813 E0.05707
G1 X134.167 Y152.378 E0.05709
G1 X133.066 Y153.072 E0.0571
G1 X132.049 Y153.883 E0.05704
G1 X131.129 Y154.803 E0.05706
G1 X130.318 Y155.821 E0.05707
G1 X129.626 Y156.923 E0.05707
G1 X129.28 Y157.645 E0.0351
G1 X129.28 Y157.782 E0.00604
G1 X128.583 Y159.132 E0.06659
G1 X128.365 Y160.488 E0.06027
G1 X128.309 Y160.684 E0.00892
G1 X128.264 Y160.762 E0.00395
G1 X128.202 Y160.828 E0.00397
G1 X128.124 Y160.88 E0.00413
G1 X123.899 Y160.88 E0.18529
G1 X123.829 Y160.836 E0.00363
G1 X123.766 Y160.774 E0.00387
G1 X123.722 Y160.704 E0.00363
G1 X123.722 Y111.129 E2.17416
G1 X123.274 Y110.68 F9000
G1 F1800
G1 X206.726 Y110.68 E3.65988
G1 X206.726 Y160.481 E2.18407
G1 X206.7 Y160.716 E0.01036
G1 X206.637 Y160.895 E0.00832
G1 X206.536 Y161.055 E0.00829
G1 X206.402 Y161.189 E0.00831
G1 X206.242 Y161.29 E0.00829
G1 X206.131 Y161.329 E0.00518
G1 X151.353 Y161.327 E2.40233
M73 P1 R55
G1 X151.232 Y161.282 E0.00566
G1 X151.067 Y161.173 E0.00866
G1 X150.933 Y161.03 E0.00861
G1 X150.835 Y160.858 E0.00867
G1 X150.752 Y160.572 E0.01306
G1 X150.555 Y159.709 E0.03883
G1 X150.486 Y159.274 E0.01932
G1 X150.329 Y158.97 E0.015
G1 X150.084 Y158.269 E0.03256
G1 X149.542 Y157.141 E0.05488
G1 X148.877 Y156.081 E0.05486
G1 X148.097 Y155.102 E0.05491
G1 X147.213 Y154.218 E0.05483
G1 X146.235 Y153.438 E0.05484
G1 X145.176 Y152.772 E0.05488
G1 X144.05 Y152.228 E0.05484
G1 X142.869 Y151.815 E0.05487
G1 X141.845 Y151.581 E0.0461
G1 X137.717 Y151.581 E0.181
G1 X136.693 Y151.815 E0.0461
G1 X135.512 Y152.228 E0.05486
G1 X134.385 Y152.771 E0.05487
G1 X133.326 Y153.438 E0.05489
G1 X132.348 Y154.218 E0.05484
G1 X131.464 Y155.102 E0.05484
G1 X130.685 Y156.081 E0.05487
G1 X130.019 Y157.14 E0.05486
G1 X129.728 Y157.747 E0.0295
G1 X129.728 Y157.891 E0.00634
G1 X129.015 Y159.274 E0.06822
G1 X128.804 Y160.587 E0.05832
G1 X128.725 Y160.859 E0.01245
G1 X128.628 Y161.03 E0.0086
G1 X128.494 Y161.173 E0.00861
G1 X128.333 Y161.279 E0.00845
G1 X128.196 Y161.329 E0.0064
G1 X123.819 Y161.329 E0.19194
G1 X123.708 Y161.29 E0.00518
G1 X123.548 Y161.189 E0.00829
G1 X123.414 Y161.055 E0.00831
G1 X123.313 Y160.895 E0.00829
G1 X123.274 Y160.783 E0.00518
G1 X123.274 Y110.68 E2.19733
M73 P1 R55
G1 X122.825 Y110.232 F9000
G1 F1800
G1 X207.135 Y110.232 E3.69747
G1 X207.175 Y110.527 E0.01304
G1 X207.175 Y160.506 E2.19191
G1 X207.14 Y160.816 E0.01368
G1 X207.044 Y161.091 E0.01275
G1 X206.889 Y161.336 E0.01272
G1 X206.684 Y161.542 E0.01275
G1 X206.438 Y161.696 E0.01272
G1 X206.207 Y161.777 E0.01074
G1 X151.273 Y161.775 E2.40918
G1 X151.028 Y161.685 E0.01145
G1 X150.776 Y161.518 E0.01327
G1 X150.569 Y161.298 E0.01325
G1 X150.419 Y161.034 E0.01329
G1 X150.317 Y160.685 E0.01596
G1 X150.115 Y159.794 E0.04007
G1 X150.054 Y159.416 E0.01681
G1 X149.916 Y159.147 E0.01324
G1 X149.669 Y158.44 E0.03285
G1 X149.149 Y157.358 E0.05267
G1 X148.511 Y156.341 E0.05264
G1 X147.762 Y155.401 E0.0527
G1 X146.913 Y154.553 E0.05262
G1 X145.975 Y153.804 E0.05264
G1 X144.959 Y153.165 E0.05267
G1 X143.878 Y152.643 E0.05262
G1 X142.745 Y152.246 E0.05266
G1 X141.794 Y152.029 E0.04278
G1 X137.768 Y152.029 E0.17656
G1 X136.817 Y152.246 E0.04278
G1 X135.684 Y152.643 E0.05265
G1 X134.602 Y153.164 E0.05266
G1 X133.586 Y153.804 E0.05268
G1 X132.648 Y154.553 E0.05264
G1 X131.799 Y155.402 E0.05263
G1 X131.051 Y156.341 E0.05266
G1 X130.413 Y157.357 E0.05265
G1 X130.177 Y157.849 E0.02391
G1 X130.177 Y158 E0.00664
G1 X129.446 Y159.416 E0.06985
G1 X129.242 Y160.685 E0.05638
G1 X129.141 Y161.035 E0.01599
G1 X128.992 Y161.298 E0.01325
G1 X128.785 Y161.518 E0.01325
G1 X128.535 Y161.683 E0.01314
G1 X128.274 Y161.777 E0.01219
G1 X123.743 Y161.777 E0.19869
G1 X123.512 Y161.696 E0.01074
G1 X123.266 Y161.542 E0.01272
G1 X123.061 Y161.336 E0.01275
G1 X122.906 Y161.091 E0.01272
G1 X122.825 Y160.86 E0.01074
G1 X122.825 Y110.232 E2.22034
G1 X122.525 Y109.833 F9000
;TYPE:External perimeter
;WIDTH:0.4
G1 F1800
G1 X207.426 Y109.833 E2.89321
G1 X207.52 Y110.106 E0.00982
G1 X207.573 Y110.5 E0.01356
G1 X207.573 Y160.529 E1.70486
G1 X207.531 Y160.905 E0.01292
G1 X207.405 Y161.265 E0.01297
G1 X207.203 Y161.586 E0.01295
G1 X206.934 Y161.856 E0.01297
G1 X206.612 Y162.058 E0.01295
G1 X206.275 Y162.176 E0.01218
G1 X151.202 Y162.174 E1.87673
G1 X150.847 Y162.043 E0.01289
G1 X150.517 Y161.825 E0.01349
G1 X150.246 Y161.535 E0.0135
G1 X150.05 Y161.191 E0.01352
G1 X149.931 Y160.785 E0.0144
G1 X149.723 Y159.87 E0.03199
G1 X149.671 Y159.542 E0.01133
G1 X149.549 Y159.305 E0.00906
G1 X149.3 Y158.593 E0.02572
G1 X148.799 Y157.55 E0.0394
G1 X148.185 Y156.572 E0.03937
G1 X147.464 Y155.667 E0.03942
G1 X146.647 Y154.851 E0.03936
G1 X145.744 Y154.13 E0.03938
G1 X144.766 Y153.514 E0.0394
G1 X143.725 Y153.012 E0.03936
G1 X142.634 Y152.63 E0.03939
G1 X141.749 Y152.428 E0.03095
G1 X137.813 Y152.428 E0.13413
G1 X136.928 Y152.63 E0.03095
G1 X135.837 Y153.012 E0.03939
G1 X134.796 Y153.514 E0.03939
G1 X133.817 Y154.13 E0.0394
G1 X132.914 Y154.851 E0.03938
G1 X132.097 Y155.667 E0.03937
G1 X131.377 Y156.572 E0.03939
G1 X130.762 Y157.55 E0.03938
G1 X130.575 Y157.94 E0.01472
G1 X130.575 Y158.097 E0.00537
G1 X129.829 Y159.542 E0.0554
G1 X129.632 Y160.772 E0.04247
G1 X129.511 Y161.191 E0.01486
G1 X129.315 Y161.535 E0.0135
G1 X129.044 Y161.825 E0.0135
G1 X128.715 Y162.042 E0.01345
G1 X128.343 Y162.176 E0.01347
G1 X123.675 Y162.176 E0.15906
G1 X123.338 Y162.058 E0.01218
G1 X123.016 Y161.856 E0.01295
G1 X122.747 Y161.586 E0.01297
G1 X122.545 Y161.265 E0.01295
G1 X122.427 Y160.927 E0.01218
G1 X122.427 Y110.13 E1.73106
G1 X122.525 Y109.833 E0.01063
;WIPE_START
M204 S4000
G1 X122.848 Y110.069 F9000
;WIPE_END
G1 E-0.8 F3000
; acceleration to travel
M204 S3000
G1 X182.476 Y110.879 F9000
; decel to extrusion
M204 S1000
G1 X205.191 Y111.187
; end travel
G1 E0.8 F1800
;TYPE:Solid infill
;WIDTH:0.55608
G1 F3600
G1 X206.001 Y111.996 E0.05651
G1 X206.001 Y112.715 E0.03551
G1 X204.691 Y111.406 E0.09145
G1 X203.972 Y111.406 E0.03551
G1 X206.001 Y113.435 E0.14167
G1 X206.001 Y114.154 E0.03551
G1 X203.253 Y111.406 E0.19188
G1 X202.534 Y111.406 E0.03551
G1 X206.001 Y114.873 E0.2421
G1 X206.001 Y115.592 E0.03551
G1 X201.814 Y111.406 E0.29231
G1 X201.095 Y111.406 E0.03551
G1 X206.001 Y116.311 E0.34252
G1 X206.001 Y117.03 E0.03551
G1 X200.376 Y111.406 E0.39274
G1 X199.657 Y111.406 E0.03551
G1 X206.001 Y117.749 E0.44295
G1 X206.001 Y118.468 E0.03551
G1 X198.938 Y111.406 E0.49317
G1 X198.219 Y111.406 E0.03551
G1 X206.001 Y119.188 E0.54338
G1 X206.001 Y119.907 E0.03551
G1 X197.5 Y111.406 E0.59359
G1 X196.781 Y111.406 E0.03551
G1 X206.001 Y120.626 E0.64381
G1 X206.001 Y121.345 E0.03551
G1 X196.061 Y111.406 E0.69402
G1 X195.342 Y111.406 E0.03551
G1 X206.001 Y122.064 E0.74423
G1 X206.001 Y122.783 E0.03551
G1 X194.623 Y111.406 E0.79445
G1 X193.904 Y111.406 E0.03551
G1 X206.001 Y123.502 E0.84466
G1 X206.001 Y124.221 E0.03551
G1 X193.185 Y111.406 E0.89488
G1 X192.466 Y111.406 E0.03551
G1 X206.001 Y124.94 E0.94509
G1 X206.001 Y125.66 E0.03551
G1 X191.747 Y111.406 E0.9953
G1 X191.028 Y111.406 E0.03551
G1 X206.001 Y126.379 E1.04552
G1 X206.001 Y127.098 E0.03551
G1 X190.308 Y111.406 E1.09573
G1 X189.589 Y111.406 E0.03551
G1 X206.001 Y127.817 E1.14595
G1 X206.001 Y128.536 E0.03551
G1 X188.87 Y111.406 E1.19616
G1 X188.151 Y111.406 E0.03551
G1 X206.001 Y129.255 E1.24637
G1 X206.001 Y129.974 E0.03551
G1 X187.432 Y111.406 E1.29659
G1 X186.713 Y111.406 E0.03551
G1 X206.001 Y130.693 E1.3468
G1 X206.001 Y131.413 E0.03551
G1 X185.994 Y111.406 E1.39702
G1 X185.275 Y111.406 E0.03551
G1 X206.001 Y132.132 E1.44723
G1 X206.001 Y132.851 E0.03551
G1 X184.556 Y111.406 E1.49744
G1 X183.836 Y111.406 E0.03551
G1 X206.001 Y133.57 E1.54766
G1 X206.001 Y134.289 E0.03551
G1 X183.117 Y111.406 E1.59787
G1 X182.398 Y111.406 E0.03551
G1 X206.001 Y135.008 E1.64809
G1 X206.001 Y135.727 E0.03551
G1 X181.679 Y111.406 E1.6983
M73 P2 R55
G1 X180.96 Y111.406 E0.03551
G1 X206.001 Y136.446 E1.74851
G1 X206.001 Y137.166 E0.03551
G1 X180.241 Y111.406 E1.79873
G1 X179.522 Y111.406 E0.03551
G1 X206.001 Y137.885 E1.84894
G1 X206.001 Y138.604 E0.03551
G1 X178.803 Y111.406 E1.89916
G1 X178.083 Y111.406 E0.03551
G1 X206.001 Y139.323 E1.94937
G1 X206.001 Y140.042 E0.03551
G1 X177.364 Y111.406 E1.99958
G1 X176.645 Y111.406 E0.03551
G1 X206.001 Y140.761 E2.0498
G1 X206.001 Y141.48 E0.03551
G1 X175.926 Y111.406 E2.10001
G1 X175.207 Y111.406 E0.03551
G1 X206.001 Y142.199 E2.15022
G1 X206.001 Y142.918 E0.03551
G1 X174.488 Y111.406 E2.20044
G1 X173.769 Y111.406 E0.03551
G1 X206.001 Y143.638 E2.25065
G1 X206.001 Y144.357 E0.03551
G1 X173.05 Y111.406 E2.30087
G1 X172.33 Y111.406 E0.03551
G1 X206.001 Y145.076 E2.35108
G1 X206.001 Y145.795 E0.03551
G1 X171.611 Y111.406 E2.40129
G1 X170.892 Y111.406 E0.03551
G1 X206.001 Y146.514 E2.45151
G1 X206.001 Y147.233 E0.03551
G1 X170.173 Y111.406 E2.50172
G1 X169.454 Y111.406 E0.03551
G1 X206.001 Y147.952 E2.55194
G1 X206.001 Y148.671 E0.03551
G1 X168.735 Y111.406 E2.60215
G1 X168.016 Y111.406 E0.03551
G1 X206.001 Y149.391 E2.65236
G1 X206.001 Y150.11 E0.03551
G1 X167.297 Y111.406 E2.70258
G1 X166.578 Y111.406 E0.03551
G1 X206.001 Y150.829 E2.75279
G1 X206.001 Y151.548 E0.03551
G1 X165.858 Y111.406 E2.80301
G1 X165.139 Y111.406 E0.03551
G1 X206.001 Y152.267 E2.85322
G1 X206.001 Y152.986 E0.03551
G1 X164.42 Y111.406 E2.90343
G1 X163.701 Y111.406 E0.03551
G1 X206.001 Y153.705 E2.95365
G1 X206.001 Y154.424 E0.03551
G1 X162.982 Y111.406 E3.00386
G1 X162.263 Y111.406 E0.03551
G1 X206.001 Y155.144 E3.05408
G1 X206.001 Y155.863 E0.03551
G1 X161.544 Y111.406 E3.10429
M73 P3 R54
G1 X160.825 Y111.406 E0.03551
G1 X206.001 Y156.582 E3.1545
G1 X206.001 Y157.301 E0.03551
G1 X160.105 Y111.406 E3.20472
G1 X159.386 Y111.406 E0.03551
G1 X206.001 Y158.02 E3.25493
G1 X206.001 Y158.739 E0.03551
G1 X158.667 Y111.406 E3.30515
G1 X157.948 Y111.406 E0.03551
G1 X206.001 Y159.458 E3.35536
G1 X206.001 Y160.177 E0.03551
G1 X157.229 Y111.406 E3.40557
G1 X156.51 Y111.406 E0.03551
G1 X205.707 Y160.603 E3.43531
M73 P3 R54
G1 X204.988 Y160.603 E0.03551
G1 X155.791 Y111.406 E3.4353
G1 X155.072 Y111.406 E0.03551
G1 X204.269 Y160.603 E3.4353
G1 X203.55 Y160.603 E0.03551
G1 X154.352 Y111.406 E3.4353
G1 X153.633 Y111.406 E0.03551
G1 X202.831 Y160.603 E3.4353
G1 X202.112 Y160.603 E0.03551
G1 X152.914 Y111.406 E3.4353
G1 X152.195 Y111.406 E0.03551
G1 X201.392 Y160.603 E3.4353
G1 X200.673 Y160.603 E0.03551
G1 X151.476 Y111.406 E3.43529
G1 X150.757 Y111.406 E0.03551
G1 X199.954 Y160.603 E3.43529
G1 X199.235 Y160.603 E0.03551
G1 X150.038 Y111.406 E3.43529
G1 X149.319 Y111.406 E0.03551
G1 X198.516 Y160.603 E3.43529
G1 X197.797 Y160.603 E0.03551
G1 X148.599 Y111.406 E3.43529
G1 X147.88 Y111.406 E0.03551
G1 X197.078 Y160.603 E3.43528
G1 X196.358 Y160.603 E0.03551
G1 X147.161 Y111.406 E3.43528
G1 X146.442 Y111.406 E0.03551
G1 X195.639 Y160.603 E3.43528
G1 X194.92 Y160.603 E0.03551
G1 X145.723 Y111.406 E3.43528
G1 X145.004 Y111.406 E0.03551
G1 X194.201 Y160.603 E3.43528
G1 X193.482 Y160.603 E0.03551
G1 X144.285 Y111.406 E3.43528
G1 X143.566 Y111.406 E0.03551
G1 X192.763 Y160.603 E3.43527
G1 X192.044 Y160.603 E0.03551
G1 X142.847 Y111.406 E3.43527
G1 X142.127 Y111.406 E0.03551
G1 X191.324 Y160.603 E3.43527
G1 X190.605 Y160.603 E0.03551
G1 X141.408 Y111.406 E3.43527
G1 X140.689 Y111.406 E0.03551
G1 X189.886 Y160.603 E3.43527
G1 X189.167 Y160.603 E0.03551
G1 X139.97 Y111.406 E3.43526
G1 X139.251 Y111.406 E0.03551
G1 X188.448 Y160.603 E3.43526
G1 X187.729 Y160.603 E0.03551
G1 X138.532 Y111.406 E3.43526
G1 X137.813 Y111.406 E0.03551
G1 X187.009 Y160.603 E3.43526
G1 X186.29 Y160.602 E0.03551
G1 X137.094 Y111.406 E3.43526
M73 P4 R54
G1 X136.374 Y111.406 E0.03551
G1 X185.571 Y160.602 E3.43526
G1 X184.852 Y160.602 E0.03551
G1 X135.655 Y111.406 E3.43525
G1 X134.936 Y111.406 E0.03551
G1 X184.133 Y160.602 E3.43525
G1 X183.414 Y160.602 E0.03551
G1 X134.217 Y111.406 E3.43525
G1 X133.498 Y111.406 E0.03551
G1 X182.695 Y160.602 E3.43525
G1 X181.975 Y160.602 E0.03551
G1 X132.779 Y111.406 E3.43525
G1 X132.06 Y111.406 E0.03551
G1 X181.256 Y160.602 E3.43524
G1 X180.537 Y160.602 E0.03551
