; generated by SuperSlicer 2.4 on 2022-09-04 at 19:53:38 UTC


;
;

;
;
; 

; external perimeters extrusion width = 0.40mm
; perimeters extrusion width = 0.50mm
; infill extrusion width = 0.72mm
; solid infill extrusion width = 0.56mm
; top infill extrusion width = 0.40mm
; support material extrusion width = 0.50mm

; external perimeters extrusion width = 0.40mm
; perimeters extrusion width = 0.50mm
; infill extrusion width = 0.72mm
; solid infill extrusion width = 0.56mm
; top infill extrusion width = 0.40mm
; support material extrusion width = 0.50mm

; external perimeters extrusion width = 0.40mm
; perimeters extrusion width = 0.50mm
; infill extrusion width = 0.72mm
; solid infill extrusion width = 0.56mm
; top infill extrusion width = 0.40mm
; support material extrusion width = 0.50mm

; external perimeters extrusion width = 0.40mm
; perimeters extrusion width = 0.50mm
; infill extrusion width = 0.72mm
; solid infill extrusion width = 0.56mm
; top infill extrusion width = 0.40mm
; support material extrusion width = 0.50mm

; object:{"name":"2B","id":"2B.stl id:0 copy 0","object_center":[211.000008,136.592953,0.000000],"boundingbox_center":[211.000008,136.592953,1.500000],"boundingbox_size":[82.800003,50.799999,3.000000]}
; object:{"name":"1B","id":"1B.stl id:1 copy 0","object_center":[210.999997,193.392953,0.000000],"boundingbox_center":[210.999997,193.392953,1.500000],"boundingbox_size":[82.799995,50.799999,3.000000]}
; object:{"name":"2A","id":"2A.stl id:2 copy 0","object_center":[120.600000,135.000000,0.000000],"boundingbox_center":[120.600000,135.000000,2.500000],"boundingbox_size":[86.000015,54.000000,5.000000]}
; object:{"name":"1A","id":"1A.stl id:3 copy 0","object_center":[120.600001,195.000000,0.000000],"boundingbox_center":[120.600001,195.000000,2.500000],"boundingbox_size":[86.000000,54.000000,5.000000]}
; plater:{"center":[165.000001,165.000000,0.000000],"boundingbox_center":[165.000001,165.000000,2.500000],"boundingbox_size":[174.800017,114.000000,5.000000]}

M73 P0 R110
;TYPE:Custom
START_PRINT T_BED=60 T_EXTRUDER=200
M107
G21 ; set units to millimeters
G90 ; use absolute coordinates
M83 ; use relative distances for extrusion
; Filament gcode
;_TOOLCHANGE 0
M104 S200 ; set temperature
M109 S200 ; set temperature and wait for it to be reached
M190 S60 ; set bed temperature and wait for it to be reached
M107
;LAYER_CHANGE
;Z:0.24
;HEIGHT:0.24
G1 Z0.24 F9000
G92 E0
M73 P0 R110
G1 E-0.8 F3000
M204 S1000
G1 X77.056 Y106.64 F9000
G1 E0.8 F1800
;TYPE:Skirt
;WIDTH:0.52
G1 X76.226 Y107.478 E0.054
G1 X75.71 Y108.378 E0.04754
G1 X75.428 Y109.4 E0.0486
G1 X75.28 Y112 E0.11929
G1 X75.28 Y218 E4.85604
G1 X75.428 Y220.6 E0.11929
G1 X75.71 Y221.624 E0.04868
G1 X76.241 Y222.545 E0.04869
G1 X76.983 Y223.303 E0.0486
G1 X77.984 Y223.89 E0.05314
G1 X79.136 Y224.19 E0.05457
G1 X81.449 Y224.316 E0.10608
G1 X159.6 Y224.32 E3.58025
G1 X252.071 Y222.392 E4.23716
G1 X252.56 Y222.35 E0.02252
G1 X253.493 Y222.1 E0.04425
G1 X254.464 Y221.539 E0.05133
G1 X255.147 Y220.857 E0.04424
G1 X255.677 Y219.958 E0.04779
G1 X255.957 Y218.953 E0.04781
G1 X256 Y218.386 E0.02603
G1 X256 Y111.6 E4.89209
G1 X255.957 Y111.032 E0.02606
G1 X255.707 Y110.1 E0.04421
G1 X255.147 Y109.129 E0.05136
G1 X254.463 Y108.446 E0.04425
G1 X253.566 Y107.916 E0.04777
G1 X252.56 Y107.636 E0.04781
G1 X252.07 Y107.594 E0.02254
G1 X159.72 Y105.681 E4.23164
G1 X81.438 Y105.684 E3.58624
G1 X78.996 Y105.831 E0.11207
G1 X78.022 Y106.091 E0.04617
G1 X77.056 Y106.64 E0.0509
G1 X77.332 Y107.016 F9000
G1 F1800
G1 X76.594 Y107.764 E0.04813
G1 X76.143 Y108.551 E0.04155
G1 X75.89 Y109.459 E0.04321
G1 X75.747 Y112 E0.11657
G1 X75.747 Y218 E4.85604
G1 X75.89 Y220.54 E0.11657
G1 X76.143 Y221.451 E0.04329
G1 X76.617 Y222.269 E0.0433
G1 X77.278 Y222.942 E0.04322
G1 X78.171 Y223.463 E0.04738
G1 X79.196 Y223.727 E0.04847
G1 X81.6 Y223.853 E0.11029
G1 X159.6 Y223.853 E3.57332
G1 X252.061 Y221.925 E4.23671
G1 X253.315 Y221.669 E0.05864
G1 X254.18 Y221.17 E0.04575
G1 X254.777 Y220.573 E0.03866
G1 X255.246 Y219.78 E0.04221
G1 X255.494 Y218.892 E0.04223
G1 X255.533 Y218.386 E0.02324
G1 X255.533 Y111.6 E4.89209
G1 X255.494 Y111.093 E0.02326
G1 X255.276 Y110.279 E0.03863
G1 X254.777 Y109.413 E0.04578
G1 X254.18 Y108.816 E0.03868
G1 X253.387 Y108.347 E0.04219
G1 X252.499 Y108.098 E0.04223
G1 X252.06 Y108.06 E0.02018
G1 X159.71 Y106.148 E4.23164
G1 X81.595 Y106.147 E3.57858
G1 X79.073 Y106.291 E0.11573
G1 X78.2 Y106.522 E0.04134
G1 X77.332 Y107.016 E0.04578
G1 E-0.8 F3000
; printing object 2B.stl id:0 copy 0
; acceleration to travel
M204 S3000
G1 X184.432 Y145.283 F9000
; decel to extrusion
M204 S1000
G1 X220.132 Y158.039
; end travel
G1 E0.8 F1800
;TYPE:Internal perimeter
;WIDTH:0.5
G1 X220.112 Y158.087 E0.0023
G1 X220.045 Y158.593 E0.02238
G1 X220.112 Y159.099 E0.02238
G1 X220.307 Y159.57 E0.02238
G1 X220.618 Y159.975 E0.02238
G1 X221.023 Y160.286 E0.02238
G1 X221.494 Y160.481 E0.02238
G1 X222 Y160.547 E0.02238
G1 X222.506 Y160.481 E0.02238
G1 X222.977 Y160.286 E0.02238
G1 X223.382 Y159.975 E0.02238
G1 X223.693 Y159.57 E0.02238
G1 X223.888 Y159.099 E0.02238
G1 X223.955 Y158.593 E0.02238
G1 X223.888 Y158.087 E0.02238
G1 X223.693 Y157.616 E0.02238
G1 X223.382 Y157.211 E0.02238
G1 X222.977 Y156.9 E0.02238
G1 X222.506 Y156.705 E0.02238
G1 X222 Y156.638 E0.02238
G1 X221.494 Y156.705 E0.02238
G1 X221.023 Y156.9 E0.02238
G1 X220.618 Y157.211 E0.02238
G1 X220.307 Y157.616 E0.02238
G1 X220.132 Y158.039 E0.02008
G1 X220.5 Y158.191 F9000
;TYPE:External perimeter
;WIDTH:0.4
G1 F1800
G1 X220.447 Y158.593 E0.01381
G1 X220.5 Y158.995 E0.01381
G1 X220.655 Y159.369 E0.01381
G1 X220.902 Y159.691 E0.01381
G1 X221.224 Y159.938 E0.01381
G1 X221.598 Y160.093 E0.01381
G1 X222 Y160.146 E0.01381
G1 X222.402 Y160.093 E0.01381
G1 X222.776 Y159.938 E0.01381
G1 X223.098 Y159.691 E0.01381
G1 X223.345 Y159.369 E0.01381
G1 X223.5 Y158.995 E0.01381
G1 X223.553 Y158.593 E0.01381
G1 X223.5 Y158.191 E0.01381
G1 X223.345 Y157.817 E0.01381
G1 X223.098 Y157.495 E0.01381
G1 X222.776 Y157.248 E0.01381
G1 X222.402 Y157.093 E0.01381
G1 X222 Y157.04 E0.01381
G1 X221.598 Y157.093 E0.01381
G1 X221.224 Y157.248 E0.01381
G1 X220.902 Y157.495 E0.01381
G1 X220.655 Y157.817 E0.01381
G1 X220.5 Y158.191 E0.01381
;WIPE_START
M204 S4000
G1 X220.119 Y158.311 F9000
;WIPE_END
G1 E-0.8 F3000
; acceleration to travel
M204 S3000
G1 X206.49 Y158.484 F9000
; decel to extrusion
M204 S1000
G1 X201.948 Y158.541
; end travel
G1 E0.8 F1800
;TYPE:Internal perimeter
;WIDTH:0.5
G1 X201.888 Y158.087 E0.02008
G1 X201.693 Y157.616 E0.02238
G1 X201.382 Y157.211 E0.02238
G1 X200.977 Y156.9 E0.02238
G1 X200.506 Y156.705 E0.02238
G1 X200 Y156.638 E0.02238
G1 X199.494 Y156.705 E0.02238
G1 X199.023 Y156.9 E0.02238
G1 X198.618 Y157.211 E0.02238
G1 X198.307 Y157.616 E0.02238
G1 X198.112 Y158.087 E0.02238
G1 X198.045 Y158.593 E0.02238
G1 X198.112 Y159.099 E0.02238
G1 X198.307 Y159.57 E0.02238
G1 X198.618 Y159.975 E0.02238
M73 P1 R109
G1 X199.023 Y160.286 E0.02238
G1 X199.494 Y160.481 E0.02238
G1 X200 Y160.547 E0.02238
G1 X200.506 Y160.481 E0.02238
G1 X200.977 Y160.286 E0.02238
G1 X201.382 Y159.975 E0.02238
G1 X201.693 Y159.57 E0.02238
G1 X201.888 Y159.099 E0.02238
G1 X201.955 Y158.593 E0.02238
G1 X201.948 Y158.541 E0.0023
G1 X201.553 Y158.593 F9000
;TYPE:External perimeter
;WIDTH:0.4
G1 F1800
G1 X201.5 Y158.191 E0.01381
G1 X201.345 Y157.817 E0.01381
G1 X201.098 Y157.495 E0.01381
G1 X200.776 Y157.248 E0.01381
G1 X200.402 Y157.093 E0.01381
G1 X200 Y157.04 E0.01381
G1 X199.598 Y157.093 E0.01381
G1 X199.224 Y157.248 E0.01381
G1 X198.902 Y157.495 E0.01381
G1 X198.655 Y157.817 E0.01381
G1 X198.5 Y158.191 E0.01381
G1 X198.447 Y158.593 E0.01381
G1 X198.5 Y158.995 E0.01381
G1 X198.655 Y159.369 E0.01381
G1 X198.902 Y159.691 E0.01381
G1 X199.224 Y159.938 E0.01381
G1 X199.598 Y160.093 E0.01381
G1 X200 Y160.146 E0.01381
G1 X200.402 Y160.093 E0.01381
G1 X200.776 Y159.938 E0.01381
G1 X201.098 Y159.691 E0.01381
G1 X201.345 Y159.369 E0.01381
G1 X201.5 Y158.995 E0.01381
G1 X201.553 Y158.593 E0.01381
;WIPE_START
M204 S4000
G1 X201.89 Y158.378 F9000
;WIPE_END
G1 E-0.8 F3000
; acceleration to travel
M204 S3000
G1 X181.683 Y158.578 F9000
; decel to extrusion
M204 S1000
G1 X174.948 Y158.645
; end travel
G1 E0.8 F1800
;TYPE:Internal perimeter
;WIDTH:0.5
G1 X174.955 Y158.593 E0.0023
G1 X174.888 Y158.087 E0.02238
G1 X174.693 Y157.616 E0.02238
G1 X174.382 Y157.211 E0.02238
G1 X173.977 Y156.9 E0.02238
G1 X173.506 Y156.705 E0.02238
G1 X173 Y156.638 E0.02238
G1 X172.494 Y156.705 E0.02238
G1 X172.023 Y156.9 E0.02238
G1 X171.618 Y157.211 E0.02238
G1 X171.307 Y157.616 E0.02238
G1 X171.112 Y158.087 E0.02238
G1 X171.045 Y158.593 E0.02238
G1 X171.112 Y159.099 E0.02238
G1 X171.307 Y159.57 E0.02238
G1 X171.618 Y159.975 E0.02238
G1 X172.023 Y160.286 E0.02238
G1 X172.494 Y160.481 E0.02238
G1 X173 Y160.547 E0.02238
G1 X173.506 Y160.481 E0.02238
G1 X173.977 Y160.286 E0.02238
G1 X174.382 Y159.975 E0.02238
G1 X174.693 Y159.57 E0.02238
G1 X174.888 Y159.099 E0.02238
G1 X174.948 Y158.645 E0.02008
G1 X174.553 Y158.593 F9000
;TYPE:External perimeter
;WIDTH:0.4
G1 F1800
G1 X174.5 Y158.191 E0.01381
G1 X174.345 Y157.817 E0.01381
G1 X174.098 Y157.495 E0.01381
G1 X173.776 Y157.248 E0.01381
G1 X173.402 Y157.093 E0.01381
M73 P1 R109
G1 X173 Y157.04 E0.01381
G1 X172.598 Y157.093 E0.01381
G1 X172.224 Y157.248 E0.01381
G1 X171.902 Y157.495 E0.01381
G1 X171.655 Y157.817 E0.01381
G1 X171.5 Y158.191 E0.01381
G1 X171.447 Y158.593 E0.01381
G1 X171.5 Y158.995 E0.01381
G1 X171.655 Y159.369 E0.01381
G1 X171.902 Y159.691 E0.01381
G1 X172.224 Y159.938 E0.01381
G1 X172.598 Y160.093 E0.01381
G1 X173 Y160.146 E0.01381
G1 X173.402 Y160.093 E0.01381
G1 X173.776 Y159.938 E0.01381
G1 X174.098 Y159.691 E0.01381
G1 X174.345 Y159.369 E0.01381
G1 X174.5 Y158.995 E0.01381
G1 X174.553 Y158.593 E0.01381
;WIPE_START
M204 S4000
G1 X174.89 Y158.378 F9000
;WIPE_END
G1 E-0.8 F3000
; acceleration to travel
M204 S3000
G1 X172.496 Y160.046 F9000
; decel to extrusion
M204 S1000
G1 X171.699 Y160.602
; end travel
G1 E0.8 F1800
;TYPE:Internal perimeter
;WIDTH:0.5
G1 X171.616 Y160.846 E0.01127
G1 X170.747 Y160.846 E0.03811
G1 X170.747 Y159.977 E0.03812
G1 X170.99 Y159.894 E0.01128
G1 X171.298 Y160.295 E0.02216
G1 X171.699 Y160.602 E0.02214
G1 E-0.8 F3000
; acceleration to travel
M204 S3000
G1 X172.714 Y127.556 F9000
; decel to extrusion
M204 S1000
G1 X173.052 Y116.541
; end travel
G1 E0.8 F1800
G1 X173.506 Y116.481 E0.02008
G1 X173.977 Y116.286 E0.02238
G1 X174.382 Y115.975 E0.02238
G1 X174.693 Y115.57 E0.02238
G1 X174.888 Y115.099 E0.02238
G1 X174.955 Y114.593 E0.02238
G1 X174.888 Y114.087 E0.02238
G1 X174.693 Y113.616 E0.02238
G1 X174.382 Y113.211 E0.02238
G1 X173.977 Y112.9 E0.02238
G1 X173.506 Y112.705 E0.02238
G1 X173 Y112.638 E0.02238
G1 X172.494 Y112.705 E0.02238
G1 X172.023 Y112.9 E0.02238
G1 X171.618 Y113.211 E0.02238
G1 X171.307 Y113.616 E0.02238
G1 X171.112 Y114.087 E0.02238
G1 X171.045 Y114.593 E0.02238
G1 X171.112 Y115.099 E0.02238
G1 X171.307 Y115.57 E0.02238
G1 X171.618 Y115.975 E0.02238
G1 X172.023 Y116.286 E0.02238
G1 X172.494 Y116.481 E0.02238
G1 X173 Y116.547 E0.02238
G1 X173.052 Y116.541 E0.0023
G1 X173 Y116.146 F9000
;TYPE:External perimeter
;WIDTH:0.4
G1 F1800
G1 X173.402 Y116.093 E0.01381
G1 X173.776 Y115.938 E0.01381
G1 X174.098 Y115.691 E0.01381
G1 X174.345 Y115.369 E0.01381
G1 X174.5 Y114.995 E0.01381
G1 X174.553 Y114.593 E0.01381
G1 X174.5 Y114.191 E0.01381
G1 X174.345 Y113.817 E0.01381
G1 X174.098 Y113.495 E0.01381
G1 X173.776 Y113.248 E0.01381
G1 X173.402 Y113.093 E0.01381
G1 X173 Y113.04 E0.01381
G1 X172.598 Y113.093 E0.01381
G1 X172.224 Y113.248 E0.01381
G1 X171.902 Y113.495 E0.01381
G1 X171.655 Y113.817 E0.01381
G1 X171.5 Y114.191 E0.01381
G1 X171.447 Y114.593 E0.01381
G1 X171.5 Y114.995 E0.01381
G1 X171.655 Y115.369 E0.01381
G1 X171.902 Y115.691 E0.01381
G1 X172.224 Y115.938 E0.01381
G1 X172.598 Y116.093 E0.01381
G1 X173 Y116.146 E0.01381
;WIPE_START
M204 S4000
G1 X173.215 Y116.483 F9000
;WIPE_END
G1 E-0.8 F3000
; acceleration to travel
M204 S3000
G1 X171.547 Y114.09 F9000
; decel to extrusion
M204 S1000
G1 X170.99 Y113.292
; end travel
G1 E0.8 F1800
;TYPE:Internal perimeter
;WIDTH:0.5
G1 X170.747 Y113.209 E0.01128
G1 X170.747 Y112.34 E0.03812
G1 X171.616 Y112.34 E0.03811
G1 X171.699 Y112.584 E0.01127
G1 X171.298 Y112.891 E0.02215
G1 X170.99 Y113.292 E0.02216
G1 E-0.8 F3000
; acceleration to travel
M204 S3000
G1 X207.536 Y146.723 F9000
; decel to extrusion
M204 S1000
G1 X219.718 Y157.867
; end travel
G1 E0.8 F1800
G1 X219.675 Y157.97 E0.00489
G1 X219.593 Y158.593 E0.02756
G1 X219.675 Y159.216 E0.02756
G1 X219.916 Y159.796 E0.02756
G1 X220.298 Y160.295 E0.02756
G1 X220.687 Y160.593 E0.02148
G1 X220.604 Y160.836 E0.01127
G1 X201.391 Y160.84 E0.84259
G1 X201.309 Y160.597 E0.01128
G1 X201.702 Y160.295 E0.02173
G1 X202.084 Y159.796 E0.02756
G1 X202.325 Y159.216 E0.02756
G1 X202.407 Y158.593 E0.02756
G1 X202.325 Y157.97 E0.02756
G1 X202.084 Y157.39 E0.02756
G1 X201.702 Y156.891 E0.02756
G1 X201.203 Y156.509 E0.02756
G1 X200.623 Y156.268 E0.02756
G1 X200 Y156.186 E0.02756
G1 X199.377 Y156.268 E0.02756
G1 X198.797 Y156.509 E0.02756
G1 X198.298 Y156.891 E0.02756
G1 X197.916 Y157.39 E0.02756
G1 X197.675 Y157.97 E0.02756
G1 X197.593 Y158.593 E0.02756
G1 X197.675 Y159.216 E0.02756
G1 X197.916 Y159.796 E0.02756
G1 X198.298 Y160.295 E0.02756
G1 X198.692 Y160.597 E0.02177
G1 X198.609 Y160.841 E0.01127
G1 X174.385 Y160.845 E1.06239
G1 X174.302 Y160.602 E0.01128
G1 X174.702 Y160.295 E0.0221
G1 X175.084 Y159.796 E0.02756
G1 X175.325 Y159.216 E0.02756
G1 X175.407 Y158.593 E0.02755
G1 X175.325 Y157.97 E0.02756
G1 X175.084 Y157.389 E0.02756
G1 X174.702 Y156.891 E0.02756
G1 X174.203 Y156.509 E0.02756
G1 X173.623 Y156.268 E0.02756
G1 X173 Y156.186 E0.02756
G1 X172.377 Y156.268 E0.02756
G1 X171.797 Y156.509 E0.02756
G1 X171.298 Y156.891 E0.02756
G1 X170.99 Y157.292 E0.02216
G1 X170.747 Y157.209 E0.01128
G1 X170.747 Y115.977 E1.8083
G1 X170.99 Y115.894 E0.01128
G1 X171.298 Y116.295 E0.02216
G1 X171.797 Y116.677 E0.02756
G1 X172.377 Y116.918 E0.02756
G1 X173 Y117 E0.02756
G1 X173.623 Y116.918 E0.02756
G1 X174.203 Y116.677 E0.02756
G1 X174.702 Y116.295 E0.02756
G1 X175.084 Y115.796 E0.02756
G1 X175.325 Y115.216 E0.02756
G1 X175.407 Y114.593 E0.02756
G1 X175.325 Y113.97 E0.02755
G1 X175.084 Y113.39 E0.02756
G1 X174.702 Y112.891 E0.02756
G1 X174.302 Y112.584 E0.02212
G1 X174.384 Y112.341 E0.01128
G1 X198.611 Y112.344 E1.06249
G1 X198.694 Y112.587 E0.01127
G1 X198.298 Y112.891 E0.02188
G1 X197.916 Y113.39 E0.02756
G1 X197.675 Y113.97 E0.02756
G1 X197.593 Y114.593 E0.02756
G1 X197.675 Y115.216 E0.02756
G1 X197.916 Y115.796 E0.02756
G1 X198.298 Y116.295 E0.02756
G1 X198.797 Y116.677 E0.02756
G1 X199.377 Y116.918 E0.02756
G1 X200 Y117 E0.02756
G1 X200.623 Y116.918 E0.02756
G1 X201.203 Y116.677 E0.02756
G1 X201.702 Y116.295 E0.02755
G1 X202.084 Y115.796 E0.02756
G1 X202.325 Y115.216 E0.02756
G1 X202.407 Y114.593 E0.02756
G1 X202.325 Y113.97 E0.02756
G1 X202.084 Y113.39 E0.02756
G1 X201.702 Y112.891 E0.02756
G1 X201.307 Y112.588 E0.02186
G1 X201.389 Y112.344 E0.01128
G1 X220.607 Y112.347 E0.84284
G1 X220.69 Y112.59 E0.01127
G1 X220.298 Y112.891 E0.02167
G1 X219.916 Y113.39 E0.02756
G1 X219.675 Y113.97 E0.02756
G1 X219.593 Y114.593 E0.02756
G1 X219.675 Y115.216 E0.02756
G1 X219.916 Y115.796 E0.02756
G1 X220.298 Y116.295 E0.02756
G1 X220.797 Y116.677 E0.02756
G1 X221.377 Y116.918 E0.02756
G1 X222 Y117 E0.02756
G1 X222.623 Y116.918 E0.02756
G1 X223.203 Y116.677 E0.02756
G1 X223.702 Y116.295 E0.02755
G1 X224.084 Y115.796 E0.02756
G1 X224.325 Y115.216 E0.02756
G1 X224.407 Y114.593 E0.02756
G1 X224.325 Y113.97 E0.02756
G1 X224.084 Y113.39 E0.02756
G1 X223.702 Y112.891 E0.02756
G1 X223.31 Y112.591 E0.02164
G1 X223.393 Y112.347 E0.01128
G1 X247.603 Y112.35 E1.06174
G1 X247.685 Y112.594 E0.01128
G1 X247.298 Y112.891 E0.02141
G1 X246.916 Y113.39 E0.02756
G1 X246.675 Y113.97 E0.02756
G1 X246.593 Y114.593 E0.02755
G1 X246.675 Y115.216 E0.02755
G1 X246.916 Y115.796 E0.02756
G1 X247.298 Y116.295 E0.02756
G1 X247.797 Y116.677 E0.02756
