; generated by SuperSlicer 2.4 on 2022-09-02 at 21:14:17 UTC


;
;

;
;
; 

; external perimeters extrusion width = 0.40mm
; perimeters extrusion width = 0.50mm
; infill extrusion width = 0.72mm
; solid infill extrusion width = 0.56mm
; top infill extrusion width = 0.40mm
; support material extrusion width = 0.50mm

; external perimeters extrusion width = 0.40mm
; perimeters extrusion width = 0.50mm
; infill extrusion width = 0.72mm
; solid infill extrusion width = 0.56mm
; top infill extrusion width = 0.40mm
; support material extrusion width = 0.50mm

; external perimeters extrusion width = 0.40mm
; perimeters extrusion width = 0.50mm
; infill extrusion width = 0.72mm
; solid infill extrusion width = 0.56mm
; top infill extrusion width = 0.40mm
; support material extrusion width = 0.50mm

; external perimeters extrusion width = 0.40mm
; perimeters extrusion width = 0.50mm
; infill extrusion width = 0.72mm
; solid infill extrusion width = 0.56mm
; top infill extrusion width = 0.40mm
; support material extrusion width = 0.50mm

; object:{"name":"ridge_wallet_4","id":"ridge_wallet_4.stl id:0 copy 0","object_center":[118.694396,134.500000,0.000000],"boundingbox_center":[118.694396,134.500000,1.500000],"boundingbox_size":[86.611206,55.000000,3.000000]}
; object:{"name":"ridge_wallet_2","id":"ridge_wallet_2.stl id:1 copy 0","object_center":[118.694396,195.500000,0.000000],"boundingbox_center":[118.694396,195.500000,1.500000],"boundingbox_size":[86.611206,55.000000,3.000000]}
; object:{"name":"ridge_wallet_1","id":"ridge_wallet_1.stl id:2 copy 0","object_center":[211.305604,134.500000,0.000000],"boundingbox_center":[211.305604,134.500000,0.475000],"boundingbox_size":[86.611206,55.000000,0.950000]}
; object:{"name":"ridge_wallet_3","id":"ridge_wallet_3.stl id:3 copy 0","object_center":[211.305604,195.500000,0.000000],"boundingbox_center":[211.305604,195.500000,0.475000],"boundingbox_size":[86.611206,55.000000,0.950000]}
; plater:{"center":[165.000000,165.000000,0.000000],"boundingbox_center":[165.000000,165.000000,1.500000],"boundingbox_size":[179.222414,116.000000,3.000000]}

M73 P0 R84
;TYPE:Custom
START_PRINT T_BED=60 T_EXTRUDER=200
M107
G21 ; set units to millimeters
G90 ; use absolute coordinates
M83 ; use relative distances for extrusion
; Filament gcode
;_TOOLCHANGE 0
M104 S200 ; set temperature
M109 S200 ; set temperature and wait for it to be reached
M190 S60 ; set bed temperature and wait for it to be reached
M107
;LAYER_CHANGE
;Z:0.24
;HEIGHT:0.24
G1 Z0.24 F9000
G92 E0
G1 E-0.8 F3000
M204 S1000
G1 X74.705 Y104.527 F9000
G1 E0.8 F1800
;TYPE:Skirt
;WIDTH:0.52
G1 X73.58 Y105.484 E0.06768
G1 X72.916 Y106.316 E0.04875
G1 X72.538 Y106.952 E0.03389
G1 X72.007 Y108.331 E0.06768
G1 X71.86 Y109.056 E0.03389
G1 X71.789 Y110.003 E0.04351
G1 X71.789 Y219.997 E5.03903
G1 X71.86 Y220.944 E0.04351
G1 X72.097 Y221.982 E0.04875
G1 X72.358 Y222.674 E0.03389
G1 X72.916 Y223.684 E0.05285
G1 X73.363 Y224.273 E0.03389
G1 X74.116 Y225.026 E0.04875
G1 X75.341 Y225.851 E0.06767
G1 X76.719 Y226.382 E0.06767
G1 X77.444 Y226.529 E0.03389
G1 X78.392 Y226.6 E0.04351
G1 X251.608 Y226.6 E7.93536
G1 X252.556 Y226.529 E0.04351
G1 X253.593 Y226.292 E0.04876
G1 X254.285 Y226.031 E0.03389
G1 X255.295 Y225.473 E0.05285
G1 X256.42 Y224.516 E0.06768
G1 X257.084 Y223.684 E0.04875
G1 X257.462 Y223.048 E0.03389
G1 X257.993 Y221.669 E0.06768
G1 X258.14 Y220.944 E0.03389
G1 X258.211 Y219.997 E0.04351
G1 X258.205 Y109.795 E5.04854
G1 X258.086 Y108.735 E0.04888
G1 X257.642 Y107.326 E0.06767
G1 X257.084 Y106.316 E0.05285
G1 X256.127 Y105.191 E0.06767
G1 X255.295 Y104.527 E0.04876
G1 X253.985 Y103.845 E0.06767
G1 X252.876 Y103.526 E0.05285
G1 X251.816 Y103.406 E0.04888
G1 X78.392 Y103.4 E7.94486
M73 P0 R84
G1 X77.444 Y103.471 E0.04351
G1 X76.407 Y103.708 E0.04876
G1 X75.715 Y103.969 E0.03389
G1 X74.705 Y104.527 E0.05285
G1 X74.975 Y104.908 F9000
G1 F1800
G1 X73.928 Y105.795 E0.06289
G1 X73.297 Y106.586 E0.04636
G1 X72.946 Y107.178 E0.03149
G1 X72.455 Y108.46 E0.06289
G1 X72.256 Y110.003 E0.07128
G1 X72.256 Y219.997 E5.03903
G1 X72.32 Y220.866 E0.03992
G1 X72.545 Y221.853 E0.04636
G1 X72.789 Y222.495 E0.0315
G1 X73.297 Y223.414 E0.04807
G1 X73.711 Y223.962 E0.03149
G1 X74.426 Y224.678 E0.04636
G1 X75.567 Y225.442 E0.06289
G1 X76.848 Y225.934 E0.06289
G1 X78.392 Y226.133 E0.07128
G1 X251.608 Y226.133 E7.93536
M73 P1 R84
G1 X252.477 Y226.069 E0.03992
G1 X253.464 Y225.844 E0.04636
G1 X254.107 Y225.6 E0.03149
G1 X255.025 Y225.092 E0.04806
G1 X256.072 Y224.205 E0.06289
G1 X256.703 Y223.414 E0.04636
G1 X257.054 Y222.822 E0.03149
G1 X257.545 Y221.54 E0.06289
G1 X257.744 Y219.997 E0.07128
G1 X257.744 Y110.003 E5.03903
G1 X257.626 Y108.813 E0.05477
G1 X257.335 Y107.805 E0.04807
G1 X256.896 Y106.893 E0.04636
G1 X256.072 Y105.795 E0.06289
G1 X255.29 Y105.096 E0.04807
G1 X254.107 Y104.4 E0.06289
G1 X252.798 Y103.985 E0.06289
G1 X251.79 Y103.872 E0.04649
G1 X78.392 Y103.867 E7.94367
G1 X77.523 Y103.931 E0.03992
G1 X76.536 Y104.156 E0.04636
G1 X75.893 Y104.4 E0.03149
G1 X74.975 Y104.908 E0.04806
G1 E-0.8 F3000
; printing object ridge_wallet_4.stl id:0 copy 0
; acceleration to travel
M204 S3000
G1 X104.964 Y109.331 F9000
; decel to extrusion
M204 S1000
G1 X114.961 Y110.805
; end travel
G1 E0.8 F1800
;TYPE:Internal perimeter
;WIDTH:0.5
G1 X114.961 Y111.409 E0.0265
G1 X115.167 Y111.977 E0.0265
G1 X115.556 Y112.44 E0.0265
G1 X116.035 Y112.716 E0.02425
G1 X116.423 Y112.82 E0.01764
G1 X116.925 Y112.82 E0.022
G1 X117.313 Y112.716 E0.01764
G1 X117.792 Y112.44 E0.02425
G1 X118.181 Y111.977 E0.0265
G1 X118.387 Y111.409 E0.0265
G1 X118.387 Y110.856 E0.02425
G1 X118.283 Y110.468 E0.01764
G1 X118.007 Y109.989 E0.02425
G1 X117.544 Y109.601 E0.0265
G1 X116.976 Y109.394 E0.0265
G1 X116.423 Y109.394 E0.02425
G1 X116.035 Y109.498 E0.01764
G1 X115.556 Y109.775 E0.02425
G1 X115.167 Y110.237 E0.0265
G1 X114.961 Y110.805 E0.0265
G1 X115.409 Y110.884 F9000
G1 F1800
G1 X115.409 Y111.33 E0.01956
G1 X115.562 Y111.749 E0.01956
G1 X115.848 Y112.091 E0.01956
G1 X116.208 Y112.298 E0.01819
G1 X116.482 Y112.372 E0.01246
G1 X116.866 Y112.372 E0.01682
G1 X117.14 Y112.298 E0.01246
G1 X117.499 Y112.091 E0.01819
G1 X117.786 Y111.749 E0.01956
G1 X117.939 Y111.33 E0.01956
G1 X117.939 Y110.915 E0.01819
G1 X117.865 Y110.641 E0.01246
G1 X117.658 Y110.282 E0.01819
G1 X117.316 Y109.995 E0.01956
G1 X116.897 Y109.842 E0.01956
G1 X116.482 Y109.842 E0.01819
G1 X116.208 Y109.916 E0.01246
G1 X115.848 Y110.123 E0.01819
G1 X115.562 Y110.465 E0.01956
G1 X115.409 Y110.884 E0.01956
G1 X115.808 Y110.954 F9000
;TYPE:External perimeter
;WIDTH:0.4
G1 F1800
G1 X115.808 Y111.26 E0.01041
G1 X115.912 Y111.547 E0.01041
G1 X116.109 Y111.781 E0.01041
G1 X116.362 Y111.927 E0.00995
G1 X116.535 Y111.973 E0.00611
G1 X116.813 Y111.973 E0.0095
G1 X116.986 Y111.927 E0.00611
G1 X117.239 Y111.781 E0.00995
G1 X117.436 Y111.547 E0.01041
G1 X117.54 Y111.26 E0.01041
G1 X117.54 Y110.968 E0.00995
G1 X117.494 Y110.795 E0.00611
G1 X117.348 Y110.542 E0.00995
G1 X117.114 Y110.345 E0.01041
G1 X116.827 Y110.241 E0.01041
G1 X116.535 Y110.241 E0.00995
G1 X116.362 Y110.287 E0.00611
G1 X116.109 Y110.433 E0.00995
G1 X115.912 Y110.667 E0.01041
G1 X115.808 Y110.954 E0.01041
;WIPE_START
M204 S4000
G1 X115.44 Y111.113 F9000
;WIPE_END
G1 E-0.8 F3000
; acceleration to travel
M204 S3000
G1 X128.181 Y144.74 F9000
; decel to extrusion
M204 S1000
G1 X132.427 Y155.949
; end travel
G1 E0.8 F1800
;TYPE:Internal perimeter
;WIDTH:0.5
G1 X132.001 Y156.247 E0.02282
G1 X131.557 Y156.776 E0.03031
G1 X131.296 Y157.493 E0.03343
G1 X131.296 Y158.255 E0.03343
G1 X131.557 Y158.972 E0.03343
G1 X132.001 Y159.501 E0.03031
G1 X132.427 Y159.799 E0.02282
G1 X133.077 Y160.036 E0.03031
G1 X133.768 Y160.036 E0.03031
G1 X134.271 Y159.901 E0.02282
G1 X134.869 Y159.556 E0.03031
G1 X135.359 Y158.972 E0.03343
G1 X135.62 Y158.255 E0.03343
G1 X135.62 Y157.493 E0.03343
G1 X135.383 Y156.843 E0.03031
G1 X135.085 Y156.417 E0.02282
G1 X134.556 Y155.973 E0.03031
G1 X133.839 Y155.712 E0.03343
G1 X133.077 Y155.712 E0.03343
G1 X132.427 Y155.949 E0.03031
G1 X132.545 Y156.414 F9000
G1 F1800
G1 X132.307 Y156.581 E0.01275
G1 X131.951 Y157.004 E0.02425
G1 X131.745 Y157.572 E0.0265
G1 X131.745 Y158.176 E0.0265
G1 X131.951 Y158.744 E0.0265
G1 X132.307 Y159.167 E0.02425
G1 X132.636 Y159.398 E0.01764
G1 X133.156 Y159.587 E0.02425
G1 X133.709 Y159.587 E0.02425
G1 X134.097 Y159.483 E0.01764
G1 X134.576 Y159.207 E0.02425
G1 X134.965 Y158.744 E0.0265
G1 X135.171 Y158.176 E0.0265
G1 X135.171 Y157.572 E0.0265
G1 X134.982 Y157.052 E0.02425
G1 X134.751 Y156.723 E0.01764
G1 X134.328 Y156.367 E0.02425
G1 X133.76 Y156.161 E0.0265
G1 X133.156 Y156.161 E0.0265
G1 X132.636 Y156.35 E0.02425
G1 X132.545 Y156.414 E0.00489
G1 X132.802 Y156.781 F9000
G1 F1800
G1 X132.612 Y156.914 E0.01016
G1 X132.346 Y157.232 E0.01819
G1 X132.193 Y157.651 E0.01956
G1 X132.193 Y158.097 E0.01956
G1 X132.346 Y158.516 E0.01956
G1 X132.612 Y158.834 E0.01819
G1 X132.845 Y158.997 E0.01246
G1 X133.235 Y159.139 E0.01819
G1 X133.65 Y159.139 E0.01819
G1 X133.924 Y159.065 E0.01246
G1 X134.284 Y158.858 E0.01819
G1 X134.57 Y158.516 E0.01956
G1 X134.723 Y158.097 E0.01956
G1 X134.723 Y157.651 E0.01956
G1 X134.581 Y157.261 E0.01819
G1 X134.418 Y157.028 E0.01246
G1 X134.1 Y156.762 E0.01819
G1 X133.681 Y156.609 E0.01956
G1 X133.235 Y156.609 E0.01956
G1 X132.845 Y156.751 E0.01819
G1 X132.802 Y156.781 E0.0023
G1 X133.031 Y157.108 F9000
;TYPE:External perimeter
;WIDTH:0.4
G1 F1800
G1 X132.884 Y157.21 E0.00611
G1 X132.696 Y157.434 E0.00995
G1 X132.592 Y157.721 E0.01041
G1 X132.592 Y158.027 E0.01041
G1 X132.696 Y158.314 E0.01041
G1 X132.884 Y158.538 E0.00995
G1 X133.031 Y158.64 E0.00611
G1 X133.305 Y158.74 E0.00995
G1 X133.597 Y158.74 E0.00995
G1 X133.77 Y158.694 E0.00611
G1 X134.023 Y158.548 E0.00995
G1 X134.22 Y158.314 E0.01041
G1 X134.324 Y158.027 E0.01041
G1 X134.324 Y157.721 E0.01041
G1 X134.224 Y157.447 E0.00995
G1 X134.122 Y157.3 E0.00611
G1 X133.898 Y157.112 E0.00995
G1 X133.611 Y157.008 E0.01041
G1 X133.305 Y157.008 E0.01041
G1 X133.031 Y157.108 E0.00995
;WIPE_START
M204 S4000
G1 X132.684 Y156.908 F9000
;WIPE_END
G1 E-0.8 F3000
; acceleration to travel
M204 S3000
G1 X110.583 Y157.538 F9000
; decel to extrusion
M204 S1000
G1 X103.216 Y157.748
; end travel
G1 E0.8 F1800
;TYPE:Internal perimeter
;WIDTH:0.5
G1 X102.923 Y157.802 E0.01307
G1 X102.741 Y157.332 E0.02211
G1 X102.428 Y156.652 E0.03282
G1 X102.071 Y155.99 E0.03303
G1 X101.622 Y155.284 E0.03667
G1 X101.241 Y154.751 E0.02875
G1 X100.767 Y154.171 E0.03282
G1 X100.252 Y153.616 E0.0332
G1 X99.571 Y152.987 E0.04067
G1 X99.141 Y152.627 E0.02458
G1 X98.538 Y152.185 E0.03282
G1 X97.908 Y151.781 E0.03282
G1 X97.253 Y151.418 E0.03282
G1 X96.577 Y151.097 E0.03282
G1 X95.882 Y150.82 E0.03282
G1 X95.171 Y150.587 E0.03282
G1 X94.447 Y150.4 E0.03282
G1 X93.712 Y150.259 E0.03282
G1 X93.009 Y150.169 E0.03108
G1 X92.225 Y150.117 E0.03446
G1 X91.474 Y150.117 E0.03291
G1 X91.007 Y150.146 E0.02052
G1 X89.997 Y150.256 E0.04458
G1 X89.25 Y150.4 E0.03334
G1 X88.526 Y150.587 E0.03282
G1 X87.815 Y150.82 E0.03282
G1 X87.119 Y151.098 E0.03282
G1 X86.443 Y151.418 E0.03282
G1 X85.789 Y151.781 E0.03282
G1 X85.159 Y152.185 E0.03282
G1 X84.555 Y152.627 E0.03282
G1 X83.981 Y153.107 E0.03282
G1 X83.438 Y153.622 E0.03282
G1 X82.929 Y154.171 E0.03282
G1 X82.456 Y154.751 E0.03282
G1 X82.02 Y155.359 E0.03282
G1 X81.654 Y155.946 E0.03035
G1 X81.27 Y156.649 E0.03515
G1 X80.99 Y157.258 E0.02937
G1 X80.814 Y156.776 E0.02246
G1 X80.37 Y156.247 E0.03031
G1 X79.944 Y155.949 E0.02282
G1 X79.295 Y155.712 E0.03031
G1 X78.532 Y155.712 E0.03343
G1 X77.816 Y155.973 E0.03343
G1 X76.984 Y156.671 E0.04761
G1 X76.984 Y112.31 E1.94547
G1 X77.816 Y113.008 E0.04761
G1 X78.532 Y113.269 E0.03343
G1 X79.295 Y113.269 E0.03343
G1 X79.944 Y113.033 E0.03031
G1 X80.37 Y112.734 E0.02282
G1 X80.814 Y112.205 E0.03031
G1 X81.075 Y111.488 E0.03344
G1 X81.075 Y110.726 E0.03343
G1 X80.814 Y110.01 E0.03343
G1 X80.37 Y109.48 E0.03031
G1 X79.944 Y109.182 E0.02282
G1 X79.148 Y108.892 E0.03715
G1 X79.2 Y108.596 E0.0132
G1 X116.453 Y108.599 E1.63375
G1 X116.494 Y108.911 E0.0138
G1 X115.861 Y109.08 E0.02871
G1 X115.263 Y109.426 E0.03031
G1 X114.773 Y110.01 E0.03343
G1 X114.512 Y110.726 E0.03343
G1 X114.512 Y111.488 E0.03343
G1 X114.773 Y112.205 E0.03343
G1 X115.263 Y112.789 E0.03343
G1 X115.861 Y113.134 E0.03031
G1 X116.364 Y113.269 E0.02282
G1 X116.984 Y113.269 E0.02718
G1 X117.486 Y113.134 E0.02282
G1 X118.085 Y112.789 E0.03031
G1 X118.575 Y112.205 E0.03343
G1 X118.836 Y111.488 E0.03343
G1 X118.836 Y110.797 E0.03031
G1 X118.701 Y110.295 E0.02282
G1 X118.356 Y109.696 E0.03031
G1 X117.772 Y109.206 E0.03343
G1 X116.917 Y108.895 E0.03987
G1 X116.97 Y108.599 E0.0132
G1 X158.09 Y108.602 E1.8034
G1 X158.143 Y108.899 E0.0132
G1 X157.298 Y109.206 E0.03942
G1 X156.769 Y109.65 E0.03031
G1 X156.47 Y110.077 E0.02282
G1 X156.234 Y110.726 E0.03031
G1 X156.234 Y111.488 E0.03344
G1 X156.495 Y112.205 E0.03343
G1 X156.985 Y112.789 E0.03343
G1 X157.583 Y113.134 E0.03031
G1 X158.086 Y113.269 E0.02282
G1 X158.777 Y113.269 E0.03031
G1 X159.493 Y113.008 E0.03343
G1 X160.077 Y112.518 E0.03343
G1 X160.139 Y112.412 E0.00539
G1 X160.405 Y112.483 E0.01207
G1 X160.405 Y156.498 E1.93033
G1 X160.139 Y156.569 E0.01207
G1 X160.077 Y156.463 E0.00539
G1 X159.493 Y155.973 E0.03343
G1 X158.777 Y155.712 E0.03343
G1 X158.014 Y155.712 E0.03343
G1 X157.298 Y155.973 E0.03343
G1 X156.769 Y156.417 E0.03031
G1 X156.47 Y156.843 E0.02282
G1 X156.234 Y157.493 E0.03031
G1 X156.234 Y158.255 E0.03344
G1 X156.495 Y158.972 E0.03343
G1 X156.985 Y159.556 E0.03343
G1 X157.583 Y159.901 E0.03031
G1 X158.086 Y160.036 E0.02282
G1 X158.777 Y160.036 E0.03031
G1 X159.493 Y159.775 E0.03343
G1 X160.102 Y159.264 E0.03485
G1 X160.327 Y159.42 E0.012
G1 X160.261 Y159.607 E0.00872
G1 X160.094 Y159.873 E0.01375
G1 X159.864 Y160.103 E0.0143
G1 X159.746 Y160.187 E0.00634
G1 X159.619 Y160.257 E0.00634
G1 X159.312 Y160.364 E0.01426
G1 X158.944 Y160.405 E0.01627
G1 X105.739 Y160.395 E2.33333
G1 X103.571 Y160.395 E0.0951
G1 X103.546 Y160.199 E0.00867
G1 X103.415 Y159.47 E0.03245
G1 X103.365 Y159.27 E0.00904
G1 X103.618 Y159.141 E0.01245
G1 X103.98 Y159.564 E0.02443
G1 X104.564 Y159.9 E0.02957
G1 X105.062 Y160.035 E0.02261
G1 X105.74 Y160.037 E0.02973
G1 X105.74 Y160.041 E0.00018
G1 X106.473 Y159.777 E0.03416
G1 X107.064 Y159.279 E0.03391
G1 X107.401 Y158.693 E0.02963
G1 X107.537 Y158.197 E0.02255
G1 X107.542 Y157.503 E0.03046
G1 X107.276 Y156.771 E0.03417
G1 X106.781 Y156.186 E0.0336
G1 X106.182 Y155.844 E0.03024
G1 X105.684 Y155.712 E0.02259
G1 X105.009 Y155.711 E0.0296
G1 X104.282 Y155.971 E0.03384
G1 X103.75 Y156.418 E0.03049
G1 X103.452 Y156.843 E0.02279
G1 X103.216 Y157.493 E0.03031
G1 X103.216 Y157.748 E0.01118
G1 E-0.8 F3000
; acceleration to travel
M204 S3000
G1 X84.813 Y121.106 F9000
; decel to extrusion
M204 S1000
G1 X78.679 Y108.892
; end travel
G1 E0.8 F1800
G1 X77.816 Y109.206 E0.04029
G1 X77.365 Y109.585 E0.02582
G1 X77.134 Y109.383 E0.01346
G1 X77.301 Y109.116 E0.01381
G1 X77.389 Y109.018 E0.00579
G1 X77.654 Y108.807 E0.01486
G1 X77.769 Y108.743 E0.00579
G1 X78.076 Y108.636 E0.01426
G1 X78.445 Y108.595 E0.01627
G1 X78.627 Y108.596 E0.00797
G1 X78.679 Y108.892 E0.0132
G1 E-0.8 F3000
; acceleration to travel
M204 S3000
G1 X79.65 Y111.571 F9000
; decel to extrusion
M204 S1000
G1 X79.973 Y112.465
; end travel
G1 E0.8 F1800
G1 X80.065 Y112.401 E0.00489
G1 X80.42 Y111.977 E0.02425
G1 X80.627 Y111.409 E0.0265
G1 X80.627 Y110.805 E0.0265
G1 X80.42 Y110.237 E0.0265
G1 X80.065 Y109.814 E0.02425
G1 X79.735 Y109.583 E0.01764
G1 X79.216 Y109.394 E0.02425
G1 X78.611 Y109.394 E0.0265
G1 X78.044 Y109.601 E0.0265
G1 X77.62 Y109.956 E0.02425
G1 X77.389 Y110.285 E0.01764
G1 X77.2 Y110.805 E0.02425
G1 X77.2 Y111.409 E0.0265
G1 X77.389 Y111.929 E0.02425
G1 X77.62 Y112.258 E0.01764
G1 X78.044 Y112.614 E0.02425
G1 X78.611 Y112.82 E0.0265
G1 X79.216 Y112.82 E0.0265
G1 X79.735 Y112.631 E0.02425
G1 X79.973 Y112.465 E0.01275
G1 X79.716 Y112.097 F9000
G1 F1800
G1 X79.759 Y112.067 E0.0023
G1 X80.026 Y111.749 E0.01819
G1 X80.178 Y111.33 E0.01956
