; generated by SuperSlicer 2.4 on 2022-09-02 at 23:10:29 UTC


;
;

;
;
; 

; external perimeters extrusion width = 0.40mm
; perimeters extrusion width = 0.50mm
; infill extrusion width = 0.72mm
; solid infill extrusion width = 0.56mm
; top infill extrusion width = 0.40mm

; external perimeters extrusion width = 0.40mm
; perimeters extrusion width = 0.50mm
; infill extrusion width = 0.72mm
; solid infill extrusion width = 0.56mm
; top infill extrusion width = 0.40mm

; external perimeters extrusion width = 0.40mm
; perimeters extrusion width = 0.50mm
; infill extrusion width = 0.72mm
; solid infill extrusion width = 0.56mm
; top infill extrusion width = 0.40mm

; external perimeters extrusion width = 0.40mm
; perimeters extrusion width = 0.50mm
; infill extrusion width = 0.72mm
; solid infill extrusion width = 0.56mm
; top infill extrusion width = 0.40mm

; object:{"name":"1B","id":"1B.stl id:0 copy 0","object_center":[215.351684,114.439260,0.000000],"boundingbox_center":[215.351684,114.439260,1.500000],"boundingbox_size":[94.138092,94.138092,3.000000]}
; object:{"name":"2A","id":"2A.stl id:1 copy 0","object_center":[167.249575,171.554653,0.000000],"boundingbox_center":[167.249575,171.554653,2.500000],"boundingbox_size":[97.312954,97.312954,5.000000]}
; object:{"name":"2B","id":"2B.stl id:2 copy 0","object_center":[114.648316,118.938419,0.000000],"boundingbox_center":[114.648316,118.938419,1.500000],"boundingbox_size":[94.138098,94.138098,3.000000]}
; object:{"name":"1A","id":"1A.stl id:3 copy 0","object_center":[209.683725,213.973318,0.000000],"boundingbox_center":[209.683725,213.973318,2.500000],"boundingbox_size":[97.312943,97.312943,5.000000]}
; plater:{"center":[164.999999,165.000002,0.000000],"boundingbox_center":[164.999999,165.000002,2.500000],"boundingbox_size":[194.841463,195.259576,5.000000]}

M73 P0 R111
;TYPE:Custom
START_PRINT T_BED=60 T_EXTRUDER=200
M107
G21 ; set units to millimeters
G90 ; use absolute coordinates
M83 ; use relative distances for extrusion
; Filament gcode
;_TOOLCHANGE 0
M104 S200 ; set temperature
M109 S200 ; set temperature and wait for it to be reached
M190 S60 ; set bed temperature and wait for it to be reached
M107
;LAYER_CHANGE
;Z:0.24
;HEIGHT:0.24
G1 Z0.24 F9000
G92 E0
M73 P0 R111
G1 E-0.8 F3000
M204 S1000
G1 X84.974 Y84.974 F9000
G1 E0.8 F1800
;TYPE:Skirt
;WIDTH:0.52
G1 X65.156 Y104.792 E1.28397
G1 X64.785 Y105.223 E0.02604
G1 X64.302 Y106.06 E0.04425
G1 X64.012 Y107.142 E0.05132
G1 X64.022 Y108.185 E0.0478
G1 X64.272 Y109.118 E0.04425
G1 X64.683 Y109.887 E0.03993
G1 X117.47 Y185.719 E4.23282
G1 X118.926 Y187.323 E0.09924
G1 X193.916 Y262.297 E4.85789
G1 X195.844 Y264.017 E0.11834
G1 X196.768 Y264.541 E0.04868
G1 X197.793 Y264.817 E0.04864
G1 X198.972 Y264.812 E0.05401
G1 X200.092 Y264.49 E0.05338
G1 X201.005 Y263.933 E0.04899
G1 X202.83 Y262.291 E0.11246
G1 X258.001 Y207.12 E3.57443
G1 X259.643 Y205.295 E0.11246
G1 X260.2 Y204.382 E0.04899
G1 X260.508 Y203.364 E0.0487
G1 X260.561 Y202.938 E0.0197
G1 X266.01 Y126.014 E3.53281
G1 X265.978 Y125.193 E0.03766
G1 X265.728 Y124.26 E0.04424
G1 X265.215 Y123.351 E0.04781
G1 X264.844 Y122.92 E0.02603
G1 X206.871 Y64.947 E3.75596
G1 X206.44 Y64.576 E0.02603
G1 X205.603 Y64.093 E0.04426
G1 X204.521 Y63.803 E0.05133
G1 X203.873 Y63.775 E0.02972
G1 X103.169 Y68.274 E4.618
G1 X101.841 Y68.563 E0.06225
G1 X100.933 Y69.075 E0.04779
G1 X100.502 Y69.446 E0.02604
G1 X84.974 Y84.974 E1.00602
G1 X85.304 Y85.304 F9000
G1 F1800
G1 X65.486 Y105.122 E1.28397
G1 X65.155 Y105.507 E0.02325
G1 X64.733 Y106.238 E0.03867
G1 X64.475 Y107.203 E0.04575
G1 X64.485 Y108.124 E0.04222
G1 X64.703 Y108.939 E0.03867
G1 X65.066 Y109.62 E0.03534
G1 X117.817 Y185.407 E4.23013
G1 X119.256 Y186.993 E0.09814
G1 X194.246 Y261.967 E4.85789
G1 X196.129 Y263.648 E0.11563
G1 X196.952 Y264.112 E0.04329
G1 X197.864 Y264.356 E0.04325
G1 X198.915 Y264.349 E0.04814
G1 X199.908 Y264.061 E0.04739
G1 X200.72 Y263.564 E0.0436
G1 X202.5 Y261.961 E0.10974
G1 X257.672 Y206.79 E3.57443
G1 X259.274 Y205.009 E0.10974
G1 X259.771 Y204.198 E0.0436
G1 X260.096 Y202.905 E0.06108
G1 X265.545 Y125.981 E3.53281
G1 X265.515 Y125.254 E0.03337
G1 X265.297 Y124.438 E0.03867
G1 X264.845 Y123.635 E0.04223
G1 X264.514 Y123.25 E0.02324
G1 X206.541 Y65.277 E3.75596
G1 X206.156 Y64.946 E0.02324
G1 X205.425 Y64.524 E0.03868
G1 X204.46 Y64.266 E0.04575
G1 X103.19 Y68.74 E4.64387
G1 X102.02 Y68.993 E0.05486
G1 X101.217 Y69.445 E0.04222
G1 X100.832 Y69.776 E0.02325
G1 X85.304 Y85.304 E1.00602
G1 E-0.8 F3000
; printing object 1B.stl id:0 copy 0
; acceleration to travel
M204 S3000
G1 X175.721 Y123.96 F9000
; decel to extrusion
M204 S1000
G1 X205.861 Y136.845
; end travel
G1 E0.8 F1800
;TYPE:Internal perimeter
;WIDTH:0.5
G1 X205.686 Y137.268 E0.02008
G1 X205.619 Y137.774 E0.02238
G1 X205.686 Y138.28 E0.02238
G1 X205.881 Y138.751 E0.02238
G1 X206.191 Y139.156 E0.02238
G1 X206.596 Y139.466 E0.02238
G1 X207.068 Y139.662 E0.02238
G1 X207.574 Y139.728 E0.02238
G1 X208.079 Y139.662 E0.02238
G1 X208.551 Y139.466 E0.02238
G1 X208.956 Y139.156 E0.02238
G1 X209.266 Y138.751 E0.02238
G1 X209.461 Y138.28 E0.02238
G1 X209.528 Y137.774 E0.02238
G1 X209.461 Y137.268 E0.02238
G1 X209.266 Y136.797 E0.02238
G1 X208.956 Y136.392 E0.02238
G1 X208.551 Y136.081 E0.02238
G1 X208.079 Y135.886 E0.02238
G1 X207.574 Y135.819 E0.02238
G1 X207.068 Y135.886 E0.02238
G1 X206.596 Y136.081 E0.02238
G1 X206.191 Y136.392 E0.02238
G1 X205.881 Y136.797 E0.02238
G1 X205.861 Y136.845 E0.0023
G1 X206.229 Y136.997 F9000
;TYPE:External perimeter
;WIDTH:0.4
G1 F1800
G1 X206.074 Y137.372 E0.01381
G1 X206.021 Y137.774 E0.01381
G1 X206.074 Y138.176 E0.01381
G1 X206.229 Y138.55 E0.01381
G1 X206.476 Y138.872 E0.01381
G1 X206.797 Y139.118 E0.01381
G1 X207.172 Y139.273 E0.01381
G1 X207.574 Y139.326 E0.01381
G1 X207.975 Y139.273 E0.01381
G1 X208.35 Y139.118 E0.01381
G1 X208.671 Y138.872 E0.01381
G1 X208.918 Y138.55 E0.01381
G1 X209.073 Y138.176 E0.01381
G1 X209.126 Y137.774 E0.01381
G1 X209.073 Y137.372 E0.01381
G1 X208.918 Y136.997 E0.01381
G1 X208.671 Y136.676 E0.01381
G1 X208.35 Y136.429 E0.01381
G1 X207.975 Y136.274 E0.01381
G1 X207.574 Y136.221 E0.01381
G1 X207.172 Y136.274 E0.01381
G1 X206.797 Y136.429 E0.01381
G1 X206.476 Y136.676 E0.01381
G1 X206.229 Y136.997 E0.01381
;WIPE_START
M204 S4000
G1 X205.829 Y137.015 F9000
;WIPE_END
G1 E-0.8 F3000
; acceleration to travel
M204 S3000
G1 X196.531 Y126.922 F9000
; decel to extrusion
M204 S1000
M73 P1 R110
G1 X193.431 Y123.558
; end travel
G1 E0.8 F1800
;TYPE:Internal perimeter
;WIDTH:0.5
G1 X193.71 Y123.195 E0.02008
G1 X193.905 Y122.723 E0.02238
G1 X193.972 Y122.217 E0.02238
G1 X193.905 Y121.712 E0.02238
G1 X193.71 Y121.24 E0.02238
G1 X193.399 Y120.835 E0.02238
G1 X192.994 Y120.525 E0.02238
G1 X192.523 Y120.33 E0.02238
G1 X192.017 Y120.263 E0.02238
G1 X191.511 Y120.33 E0.02238
G1 X191.04 Y120.525 E0.02238
G1 X190.635 Y120.835 E0.02238
G1 X190.325 Y121.24 E0.02238
G1 X190.129 Y121.712 E0.02238
G1 X190.063 Y122.217 E0.02238
G1 X190.129 Y122.723 E0.02238
G1 X190.324 Y123.195 E0.02238
G1 X190.635 Y123.599 E0.02238
G1 X191.04 Y123.91 E0.02238
G1 X191.511 Y124.105 E0.02238
G1 X192.017 Y124.172 E0.02238
G1 X192.523 Y124.105 E0.02238
G1 X192.994 Y123.91 E0.02238
G1 X193.399 Y123.599 E0.02238
G1 X193.431 Y123.558 E0.0023
G1 X193.115 Y123.315 F9000
;TYPE:External perimeter
;WIDTH:0.4
G1 F1800
G1 X193.362 Y122.994 E0.01381
G1 X193.517 Y122.619 E0.01381
G1 X193.57 Y122.217 E0.01381
G1 X193.517 Y121.816 E0.01381
G1 X193.362 Y121.441 E0.01381
G1 X193.115 Y121.12 E0.01381
G1 X192.793 Y120.873 E0.01381
G1 X192.419 Y120.718 E0.01381
G1 X192.017 Y120.665 E0.01381
G1 X191.615 Y120.718 E0.01381
G1 X191.241 Y120.873 E0.01381
G1 X190.919 Y121.12 E0.01381
G1 X190.673 Y121.441 E0.01381
G1 X190.517 Y121.816 E0.01381
G1 X190.465 Y122.217 E0.01381
G1 X190.517 Y122.619 E0.01381
G1 X190.673 Y122.994 E0.01381
G1 X190.919 Y123.315 E0.01381
G1 X191.241 Y123.562 E0.01381
G1 X191.615 Y123.717 E0.01381
G1 X192.017 Y123.77 E0.01381
G1 X192.419 Y123.717 E0.01381
G1 X192.793 Y123.562 E0.01381
G1 X193.115 Y123.315 E0.01381
;WIPE_START
M204 S4000
G1 X193.506 Y123.402 F9000
;WIPE_END
G1 E-0.8 F3000
; acceleration to travel
M204 S3000
G1 X179.076 Y109.255 F9000
; decel to extrusion
M204 S1000
G1 X174.266 Y104.54
; end travel
G1 E0.8 F1800
;TYPE:Internal perimeter
;WIDTH:0.5
G1 X174.307 Y104.508 E0.0023
G1 X174.618 Y104.103 E0.02238
G1 X174.813 Y103.631 E0.02238
G1 X174.88 Y103.126 E0.02238
G1 X174.813 Y102.62 E0.02238
G1 X174.618 Y102.148 E0.02238
G1 X174.307 Y101.743 E0.02238
G1 X173.903 Y101.433 E0.02238
G1 X173.431 Y101.238 E0.02238
G1 X172.965 Y101.176 E0.0206
G1 X172.423 Y101.236 E0.02392
G1 X171.948 Y101.433 E0.02257
G1 X171.543 Y101.743 E0.02238
G1 X171.233 Y102.148 E0.02238
G1 X171.037 Y102.62 E0.02238
G1 X170.971 Y103.126 E0.02238
G1 X171.037 Y103.631 E0.02238
G1 X171.233 Y104.103 E0.02238
G1 X171.543 Y104.508 E0.02238
G1 X171.948 Y104.818 E0.02238
G1 X172.419 Y105.013 E0.02238
G1 X172.925 Y105.08 E0.02238
G1 X173.431 Y105.013 E0.02238
G1 X173.903 Y104.818 E0.02238
G1 X174.266 Y104.54 E0.02008
G1 X174.023 Y104.223 F9000
;TYPE:External perimeter
;WIDTH:0.4
G1 F1800
G1 X174.27 Y103.902 E0.01381
G1 X174.425 Y103.527 E0.01381
G1 X174.478 Y103.126 E0.01381
G1 X174.425 Y102.724 E0.01381
G1 X174.27 Y102.349 E0.01381
G1 X174.023 Y102.028 E0.01381
G1 X173.702 Y101.781 E0.01381
G1 X173.327 Y101.626 E0.01381
G1 X172.961 Y101.578 E0.01258
G1 X172.523 Y101.626 E0.01501
G1 X172.149 Y101.781 E0.01381
G1 X171.827 Y102.028 E0.01381
G1 X171.581 Y102.349 E0.01381
G1 X171.426 Y102.724 E0.01381
G1 X171.373 Y103.126 E0.01381
G1 X171.426 Y103.527 E0.01381
G1 X171.581 Y103.902 E0.01381
G1 X171.827 Y104.223 E0.01381
G1 X172.149 Y104.47 E0.01381
G1 X172.523 Y104.625 E0.01381
G1 X172.925 Y104.678 E0.01381
G1 X173.327 Y104.625 E0.01381
G1 X173.702 Y104.47 E0.01381
G1 X174.023 Y104.223 E0.01381
;WIPE_START
M204 S4000
G1 X174.414 Y104.31 F9000
;WIPE_END
G1 E-0.8 F3000
; acceleration to travel
M204 S3000
G1 X171.542 Y103.797 F9000
; decel to extrusion
M204 S1000
G1 X170.584 Y103.627
; end travel
G1 E0.8 F1800
;TYPE:Internal perimeter
;WIDTH:0.5
G1 X170.354 Y103.74 E0.01128
G1 X169.739 Y103.126 E0.03813
G1 X170.354 Y102.511 E0.03813
G1 X170.584 Y102.625 E0.01128
G1 X170.518 Y103.126 E0.02216
G1 X170.584 Y103.627 E0.02216
G1 E-0.8 F3000
; acceleration to travel
M204 S3000
G1 X234.463 Y118.705 F9000
; decel to extrusion
M204 S1000
G1 X255.756 Y123.731
; end travel
G1 E0.8 F1800
G1 X255.302 Y124.323 E0.03273
G1 X255.016 Y125.013 E0.03274
G1 X254.919 Y125.753 E0.03273
G1 X255.016 Y126.493 E0.03273
G1 X255.302 Y127.183 E0.03273
G1 X255.756 Y127.775 E0.03274
G1 X256.348 Y128.229 E0.03274
G1 X257.038 Y128.515 E0.03273
G1 X257.507 Y128.576 E0.02072
G1 X229.489 Y156.594 E1.73771
G1 X229.427 Y156.126 E0.02072
G1 X229.142 Y155.436 E0.03274
G1 X228.687 Y154.844 E0.03273
G1 X228.095 Y154.389 E0.03274
G1 X227.405 Y154.104 E0.03274
G1 X226.665 Y154.006 E0.03273
G1 X225.925 Y154.104 E0.03273
G1 X225.236 Y154.389 E0.03274
G1 X224.644 Y154.844 E0.03273
G1 X224.189 Y155.436 E0.03273
G1 X223.904 Y156.126 E0.03274
G1 X223.842 Y156.593 E0.02067
G1 X207.852 Y140.596 E0.99194
G1 X208.314 Y140.536 E0.02043
G1 X209.003 Y140.25 E0.03274
G1 X209.595 Y139.796 E0.03274
G1 X210.05 Y139.203 E0.03274
G1 X210.335 Y138.514 E0.03273
G1 X210.433 Y137.774 E0.03273
G1 X210.335 Y137.034 E0.03273
G1 X210.05 Y136.344 E0.03274
G1 X209.595 Y135.752 E0.03273
G1 X209.003 Y135.298 E0.03274
G1 X208.314 Y135.012 E0.03274
G1 X207.574 Y134.915 E0.03273
G1 X206.833 Y135.012 E0.03274
G1 X206.144 Y135.298 E0.03273
G1 X205.552 Y135.752 E0.03274
G1 X205.097 Y136.344 E0.03273
G1 X204.812 Y137.034 E0.03274
G1 X204.751 Y137.495 E0.02039
G1 X192.3 Y125.039 E0.77235
G1 X192.757 Y124.979 E0.02021
G1 X193.447 Y124.694 E0.03274
G1 X194.039 Y124.239 E0.03273
G1 X194.493 Y123.647 E0.03274
G1 X194.779 Y122.957 E0.03273
G1 X194.876 Y122.217 E0.03273
G1 X194.779 Y121.477 E0.03273
G1 X194.493 Y120.788 E0.03274
G1 X194.039 Y120.196 E0.03274
G1 X193.447 Y119.741 E0.03273
G1 X192.757 Y119.456 E0.03274
G1 X192.017 Y119.358 E0.03273
G1 X191.277 Y119.456 E0.03273
G1 X190.803 Y119.652 E0.02253
G1 X190.634 Y119.447 E0.01166
G1 X192.39 Y116.812 E0.13887
G1 X192.786 Y116.09 E0.0361
G1 X193.076 Y115.247 E0.03911
G1 X193.217 Y114.366 E0.03911
G1 X193.205 Y113.474 E0.03911
G1 X193.042 Y112.598 E0.03911
G1 X192.731 Y111.762 E0.03911
G1 X192.282 Y110.991 E0.03911
G1 X191.752 Y110.362 E0.0361
G1 X184.781 Y103.391 E0.43233
G1 X184.151 Y102.861 E0.0361
G1 X183.381 Y102.412 E0.03911
G1 X182.543 Y102.1 E0.0392
G1 X181.654 Y101.937 E0.03965
G1 X180.776 Y101.926 E0.03848
G1 X179.896 Y102.067 E0.03911
G1 X179.052 Y102.356 E0.03911
G1 X178.331 Y102.752 E0.0361
G1 X175.696 Y104.509 E0.13887
G1 X175.491 Y104.34 E0.01166
G1 X175.687 Y103.866 E0.02253
G1 X175.785 Y103.126 E0.03273
G1 X175.687 Y102.386 E0.03273
G1 X175.401 Y101.696 E0.03273
G1 X174.947 Y101.104 E0.03274
G1 X174.355 Y100.649 E0.03273
G1 X173.665 Y100.364 E0.03274
G1 X173.197 Y100.302 E0.02072
G1 X201.214 Y72.284 E1.73771
M73 P1 R110
G1 X201.276 Y72.753 E0.02072
G1 X201.562 Y73.442 E0.03273
G1 X202.016 Y74.035 E0.03273
G1 X202.608 Y74.489 E0.03274
G1 X203.298 Y74.775 E0.03273
G1 X204.038 Y74.872 E0.03273
G1 X204.778 Y74.775 E0.03273
G1 X205.468 Y74.489 E0.03273
G1 X206.06 Y74.035 E0.03274
G1 X206.514 Y73.442 E0.03273
G1 X206.8 Y72.753 E0.03273
G1 X206.861 Y72.284 E0.02072
G1 X222.858 Y88.281 E0.99215
G1 X222.39 Y88.343 E0.02072
G1 X221.7 Y88.629 E0.03273
G1 X221.108 Y89.083 E0.03273
G1 X220.654 Y89.675 E0.03273
G1 X220.368 Y90.365 E0.03274
G1 X220.271 Y91.105 E0.03274
G1 X220.368 Y91.845 E0.03273
G1 X220.654 Y92.534 E0.03273
G1 X221.108 Y93.127 E0.03274
G1 X221.7 Y93.581 E0.03274
G1 X222.39 Y93.867 E0.03274
G1 X223.13 Y93.964 E0.03273
G1 X223.87 Y93.867 E0.03273
G1 X224.559 Y93.581 E0.03273
G1 X225.152 Y93.127 E0.03274
G1 X225.606 Y92.534 E0.03274
G1 X225.892 Y91.845 E0.03273
G1 X225.953 Y91.376 E0.02072
G1 X238.415 Y103.838 E0.77287
G1 X237.946 Y103.899 E0.02072
G1 X237.257 Y104.185 E0.03273
G1 X236.664 Y104.639 E0.03273
G1 X236.21 Y105.231 E0.03273
G1 X235.924 Y105.921 E0.03273
G1 X235.827 Y106.661 E0.03274
G1 X235.924 Y107.401 E0.03273
G1 X236.21 Y108.091 E0.03274
G1 X236.664 Y108.683 E0.03273
G1 X237.257 Y109.137 E0.03274
G1 X237.946 Y109.423 E0.03273
G1 X238.686 Y109.52 E0.03273
G1 X239.426 Y109.423 E0.03273
G1 X240.116 Y109.137 E0.03273
G1 X240.708 Y108.683 E0.03274
G1 X241.162 Y108.091 E0.03274
G1 X241.448 Y107.401 E0.03273
G1 X241.51 Y106.933 E0.02072
G1 X257.507 Y122.929 E0.99215
G1 X257.038 Y122.991 E0.02072
G1 X256.348 Y123.277 E0.03274
G1 X255.756 Y123.731 E0.03273
G1 E-0.8 F3000
; acceleration to travel
M204 S3000
G1 X215.757 Y86.27 F9000
; decel to extrusion
M204 S1000
G1 X202.425 Y73.783
; end travel
G1 E0.8 F1800
G1 X202.835 Y74.097 E0.02267
G1 X203.415 Y74.338 E0.02756
G1 X204.038 Y74.42 E0.02756
G1 X204.661 Y74.338 E0.02756
G1 X205.241 Y74.097 E0.02756
G1 X205.74 Y73.715 E0.02756
G1 X206.122 Y73.216 E0.02756
G1 X206.363 Y72.636 E0.02756
G1 X206.445 Y72.013 E0.02756
G1 X206.379 Y71.512 E0.02216
G1 X206.61 Y71.398 E0.01128
G1 X223.745 Y88.533 E1.06275
G1 X223.631 Y88.764 E0.01128
G1 X223.13 Y88.698 E0.02216
G1 X222.507 Y88.78 E0.02756
G1 X221.926 Y89.02 E0.02756
G1 X221.428 Y89.403 E0.02756
G1 X221.045 Y89.901 E0.02756
G1 X220.805 Y90.482 E0.02756
G1 X220.723 Y91.105 E0.02756
G1 X220.805 Y91.728 E0.02755
G1 X221.045 Y92.308 E0.02756
G1 X221.428 Y92.807 E0.02756
G1 X221.926 Y93.189 E0.02756
G1 X222.507 Y93.43 E0.02756
G1 X223.13 Y93.512 E0.02756
G1 X223.753 Y93.43 E0.02756
G1 X224.333 Y93.189 E0.02756
G1 X224.832 Y92.807 E0.02756
G1 X225.214 Y92.308 E0.02756
G1 X225.455 Y91.728 E0.02756
G1 X225.537 Y91.105 E0.02756
G1 X225.471 Y90.604 E0.02216
G1 X225.701 Y90.49 E0.01128
G1 X239.301 Y104.09 E0.84347
G1 X239.187 Y104.32 E0.01128
G1 X238.686 Y104.254 E0.02216
G1 X238.063 Y104.336 E0.02756
G1 X237.483 Y104.577 E0.02756
G1 X236.984 Y104.959 E0.02756
G1 X236.602 Y105.458 E0.02756
G1 X236.361 Y106.038 E0.02756
G1 X236.279 Y106.661 E0.02756
G1 X236.361 Y107.284 E0.02755
