; generated by SuperSlicer 2.3.56 on 2021-12-09 at 19:51:33 UTC


;
;

;
;
; 

; external perimeters extrusion width = 0.40mm
; perimeters extrusion width = 0.40mm
; infill extrusion width = 0.40mm
; solid infill extrusion width = 0.40mm
; top infill extrusion width = 0.40mm
; support material extrusion width = 0.40mm
; first layer extrusion width = 0.48mm


;TYPE:Custom
START_PRINT T_BED=70 T_EXTRUDER=235
M107
G21 ; set units to millimeters
G90 ; use absolute coordinates
M83 ; use relative distances for extrusion
M109 S235 ; set temperature and wait for it to be reached
M190 S70 ; set bed temperature and wait for it to be reached
;LAYER_CHANGE
;Z:0.24
;HEIGHT:0.24
G1 Z0.240000 F12000.000
G1 E-1.50000 F3000.000
G1 X97.483 Y92.175 F12000.000
G1 E1.50000 F1800.000
;TYPE:Skirt
;WIDTH:0.48
G1 F600.000
G1 X98.359 Y91.299 E0.05297
G1 X99.250 Y90.622 E0.04782
G1 X100.524 Y89.904 E0.06255
G1 X101.905 Y89.409 E0.06272
G1 X102.996 Y89.179 E0.04765
G1 X104.195 Y89.090 E0.05143
G1 X213.692 Y89.089 E4.68156
G1 X214.967 Y89.181 E0.05469
G1 X216.217 Y89.452 E0.05469
G1 X217.420 Y89.900 E0.05486
G1 X218.532 Y90.506 E0.05417
G1 X219.570 Y91.281 E0.05537
G1 X220.468 Y92.175 E0.05417
G1 X221.240 Y93.200 E0.05486
G1 X221.798 Y94.206 E0.04920
G1 X236.380 Y131.438 E1.70961
G1 X236.555 Y132.255 E0.03574
G1 X236.514 Y172.569 E1.72361
G1 X222.277 Y215.573 E1.93683
G1 X221.869 Y216.650 E0.04924
G1 X221.339 Y217.635 E0.04783
G1 X220.468 Y218.825 E0.06306
G1 X219.592 Y219.701 E0.05297
G1 X218.701 Y220.378 E0.04782
G1 X217.423 Y221.098 E0.06272
G1 X216.042 Y221.592 E0.06272
G1 X214.947 Y221.822 E0.04782
G1 X213.707 Y221.911 E0.05315
G1 X104.211 Y221.910 E4.68156
G1 X102.814 Y221.789 E0.05998
G1 X101.730 Y221.546 E0.04748
G1 X100.691 Y221.166 E0.04731
G1 X99.425 Y220.498 E0.06118
G1 X98.356 Y219.698 E0.05708
G1 X97.480 Y218.822 E0.05297
G1 X96.804 Y217.932 E0.04782
G1 X96.083 Y216.654 E0.06272
G1 X95.589 Y215.273 E0.06272
G1 X95.360 Y214.178 E0.04782
G1 X95.271 Y212.938 E0.05314
G1 X95.271 Y98.034 E4.91278
G1 X95.392 Y96.632 E0.06015
G1 X95.635 Y95.548 E0.04748
G1 X96.015 Y94.509 E0.04731
G1 X96.683 Y93.244 E0.06118
G1 X97.447 Y92.223 E0.05452
G1 X97.789 Y92.479 F12000.000
G1 F600.000
G1 X97.808 Y92.454 E0.00133
G1 X98.644 Y91.619 E0.05052
G1 X99.506 Y90.965 E0.04628
G1 X100.702 Y90.293 E0.05866
G1 X101.997 Y89.827 E0.05881
G1 X103.052 Y89.604 E0.04612
G1 X104.208 Y89.518 E0.04958
G1 X213.691 Y89.518 E4.68099
G1 X214.906 Y89.605 E0.05209
G1 X216.100 Y89.865 E0.05224
G1 X217.242 Y90.290 E0.05209
G1 X218.305 Y90.869 E0.05177
G1 X219.293 Y91.607 E0.05271
G1 X220.148 Y92.460 E0.05162
G1 X220.884 Y93.439 E0.05240
G1 X221.424 Y94.415 E0.04769
G1 X235.981 Y131.594 E1.70707
G1 X236.128 Y132.281 E0.03005
G1 X236.094 Y172.487 E1.71905
G1 X221.873 Y215.432 E1.93417
G1 X221.479 Y216.472 E0.04755
G1 X220.966 Y217.425 E0.04628
G1 X220.143 Y218.546 E0.05944
G1 X219.307 Y219.381 E0.05052
G1 X218.445 Y220.035 E0.04628
G1 X217.245 Y220.708 E0.05881
G1 X215.947 Y221.174 E0.05897
G1 X214.892 Y221.397 E0.04612
G1 X213.702 Y221.482 E0.05099
G1 X104.223 Y221.482 E4.68083
G1 X102.900 Y221.369 E0.05677
G1 X101.851 Y221.135 E0.04596
G1 X100.845 Y220.766 E0.04581
G1 X99.649 Y220.133 E0.05787
G1 X98.636 Y219.373 E0.05413
G1 X97.798 Y218.535 E0.05067
G1 X97.147 Y217.675 E0.04612
G1 X96.473 Y216.476 E0.05881
G1 X96.007 Y215.178 E0.05897
G1 X95.784 Y214.122 E0.04612
G1 X95.699 Y212.933 E0.05099
G1 X95.700 Y98.045 E4.91207
G1 X95.812 Y96.718 E0.05693
G1 X96.046 Y95.669 E0.04596
G1 X96.415 Y94.663 E0.04581
G1 X97.049 Y93.467 E0.05787
G1 X97.753 Y92.527 E0.05023
G1 E-1.50000 F3000.000
G1 X233.916 Y172.085 F12000.000
G1 E1.50000 F1800.000
;TYPE:Support material
G1 F600.000
G1 X233.916 Y132.393 E1.69705
G1 X233.059 Y132.393 E0.03664
G1 X233.059 Y171.893 E1.68881
G1 X232.202 Y171.893 E0.03664
G1 X232.202 Y132.393 E1.68881
G1 X231.345 Y132.393 E0.03664
G1 X231.345 Y171.893 E1.68881
G1 X230.488 Y171.893 E0.03664
G1 X230.488 Y132.393 E1.68881
G1 X229.631 Y132.393 E0.03664
G1 X229.631 Y171.893 E1.68881
G1 X228.774 Y171.893 E0.03664
G1 X228.774 Y132.393 E1.68881
G1 X227.917 Y132.393 E0.03664
G1 X227.917 Y171.893 E1.68881
G1 X227.060 Y171.893 E0.03664
G1 X227.060 Y132.393 E1.68881
G1 X226.203 Y132.393 E0.03664
G1 X226.203 Y171.893 E1.68881
G1 X225.346 Y171.893 E0.03664
G1 X225.346 Y132.393 E1.68881
G1 X224.489 Y132.393 E0.03664
G1 X224.489 Y171.893 E1.68881
G1 X223.632 Y171.893 E0.03664
G1 X223.632 Y132.393 E1.68881
G1 X222.775 Y132.393 E0.03664
G1 X222.775 Y171.893 E1.68881
G1 X221.918 Y171.893 E0.03664
G1 X221.918 Y132.393 E1.68881
G1 X221.061 Y132.393 E0.03664
G1 X221.061 Y172.085 E1.69705
G1 E-1.50000 F3000.000
G1 X206.333 Y203.256 F12000.000
G1 E1.50000 F1800.000
;TYPE:Internal perimeter
G1 F600.000
G1 X206.060 Y203.128 E0.01286
G1 X205.674 Y203.025 E0.01709
G1 X205.342 Y202.996 E0.01424
G1 X203.736 Y202.997 E0.06868
G1 X197.673 Y202.997 E0.25919
G1 X196.558 Y201.881 E0.06743
G1 X194.335 Y199.659 E0.13440
G1 X194.282 Y199.610 E0.00307
G1 X194.213 Y199.546 E0.00405
G1 X194.049 Y199.421 E0.00878
G1 X193.882 Y199.314 E0.00850
G1 X193.702 Y199.221 E0.00866
G1 X193.516 Y199.144 E0.00863
G1 X193.324 Y199.083 E0.00861
G1 X193.127 Y199.040 E0.00858
G1 X192.929 Y199.014 E0.00857
G1 X192.762 Y199.007 E0.00714
G1 X179.512 Y199.007 E0.56651
G1 X179.512 Y213.557 E0.62213
G1 X192.763 Y213.557 E0.56653
G1 X192.929 Y213.550 E0.00714
G1 X193.128 Y213.524 E0.00858
G1 X193.324 Y213.481 E0.00859
G1 X193.516 Y213.420 E0.00861
G1 X193.703 Y213.343 E0.00863
G1 X193.879 Y213.251 E0.00849
G1 X194.046 Y213.145 E0.00843
G1 X194.144 Y213.071 E0.00529
G1 X194.211 Y213.019 E0.00362
G1 X194.299 Y212.939 E0.00505
G1 X194.346 Y212.894 E0.00280
G1 X197.673 Y209.567 E0.20118
G1 X205.342 Y209.568 E0.32788
G1 X205.674 Y209.539 E0.01423
G1 X206.060 Y209.436 E0.01709
G1 X206.422 Y209.267 E0.01709
G1 X206.750 Y209.037 E0.01709
G1 X207.032 Y208.755 E0.01709
G1 X207.262 Y208.427 E0.01709
G1 X207.390 Y208.151 E0.01304
G1 X207.846 Y208.607 E0.02756
G1 X208.550 Y209.099 E0.03672
G1 X209.328 Y209.462 E0.03672
G1 X210.158 Y209.684 E0.03672
G1 X211.014 Y209.759 E0.03672
G1 X211.869 Y209.684 E0.03672
G1 X212.699 Y209.462 E0.03672
G1 X213.477 Y209.099 E0.03672
G1 X214.181 Y208.607 E0.03672
G1 X214.788 Y207.999 E0.03672
G1 X215.281 Y207.296 E0.03672
G1 X215.644 Y206.517 E0.03672
G1 X215.866 Y205.688 E0.03672
G1 X215.941 Y204.832 E0.03672
G1 X215.866 Y203.976 E0.03672
G1 X215.644 Y203.147 E0.03672
G1 X215.281 Y202.368 E0.03672
G1 X214.788 Y201.665 E0.03672
G1 X214.181 Y201.057 E0.03672
G1 X213.477 Y200.565 E0.03672
G1 X212.699 Y200.202 E0.03672
G1 X211.869 Y199.980 E0.03672
G1 X211.014 Y199.905 E0.03672
G1 X210.158 Y199.980 E0.03672
G1 X209.328 Y200.202 E0.03672
G1 X208.550 Y200.565 E0.03672
G1 X207.846 Y201.057 E0.03672
G1 X207.239 Y201.665 E0.03672
G1 X206.746 Y202.368 E0.03672
G1 X206.358 Y203.201 E0.03929
G1 X206.611 Y203.953 F12000.000
G1 F600.000
G1 X206.207 Y203.670 E0.02108
G1 X205.913 Y203.533 E0.01389
G1 X205.599 Y203.449 E0.01389
G1 X205.323 Y203.424 E0.01184
G1 X203.736 Y203.425 E0.06788
G1 X197.496 Y203.425 E0.26678
G1 X196.255 Y202.184 E0.07502
G1 X194.039 Y199.969 E0.13399
G1 X193.992 Y199.926 E0.00271
G1 X193.937 Y199.874 E0.00324
G1 X193.804 Y199.773 E0.00715
G1 X193.667 Y199.686 E0.00693
G1 X193.521 Y199.609 E0.00705
G1 X193.369 Y199.547 E0.00702
G1 X193.213 Y199.497 E0.00700
G1 X193.053 Y199.462 E0.00699
G1 X192.892 Y199.441 E0.00697
G1 X192.753 Y199.435 E0.00594
G1 X179.941 Y199.435 E0.54779
G1 X179.941 Y213.129 E0.58549
G1 X192.753 Y213.129 E0.54781
G1 X192.892 Y213.123 E0.00594
G1 X193.054 Y213.102 E0.00698
G1 X193.213 Y213.066 E0.00699
G1 X193.370 Y213.017 E0.00700
G1 X193.521 Y212.954 E0.00702
G1 X193.665 Y212.879 E0.00692
G1 X193.801 Y212.793 E0.00689
G1 X193.883 Y212.731 E0.00443
G1 X193.936 Y212.690 E0.00282
G1 X194.007 Y212.625 E0.00412
G1 X194.047 Y212.587 E0.00236
G1 X197.496 Y209.139 E0.20854
G1 X205.323 Y209.139 E0.33467
G1 X205.599 Y209.115 E0.01183
G1 X205.913 Y209.031 E0.01389
G1 X206.207 Y208.894 E0.01389
G1 X206.473 Y208.708 E0.01389
G1 X206.703 Y208.478 E0.01389
G1 X206.889 Y208.212 E0.01388
G1 X207.026 Y207.918 E0.01389
G1 X207.214 Y207.217 E0.03103
G1 X207.568 Y207.723 E0.02641
G1 X208.123 Y208.277 E0.03352
G1 X208.765 Y208.727 E0.03352
G1 X209.475 Y209.058 E0.03352
G1 X210.233 Y209.261 E0.03352
G1 X211.014 Y209.329 E0.03352
G1 X211.794 Y209.261 E0.03352
G1 X212.552 Y209.058 E0.03352
G1 X213.262 Y208.727 E0.03352
G1 X213.904 Y208.277 E0.03352
G1 X214.459 Y207.723 E0.03352
G1 X214.908 Y207.081 E0.03352
G1 X215.239 Y206.370 E0.03352
G1 X215.442 Y205.613 E0.03352
G1 X215.511 Y204.832 E0.03352
G1 X215.442 Y204.051 E0.03352
G1 X215.239 Y203.294 E0.03352
G1 X214.908 Y202.583 E0.03352
G1 X214.459 Y201.941 E0.03352
G1 X213.904 Y201.387 E0.03352
G1 X213.262 Y200.937 E0.03352
G1 X212.552 Y200.606 E0.03352
G1 X211.794 Y200.403 E0.03352
G1 X211.014 Y200.335 E0.03352
G1 X210.233 Y200.403 E0.03352
G1 X209.475 Y200.606 E0.03352
G1 X208.765 Y200.937 E0.03352
G1 X208.123 Y201.387 E0.03352
G1 X207.568 Y201.941 E0.03352
G1 X207.119 Y202.583 E0.03352
G1 X206.788 Y203.294 E0.03352
G1 X206.627 Y203.895 E0.02660
G1 E-1.50000 F3000.000
G1 X207.060 Y205.731 F12000.000
G1 E1.50000 F1800.000
G1 F600.000
G1 X207.192 Y206.223 E0.02177
G1 X207.491 Y206.866 E0.03031
G1 X207.898 Y207.446 E0.03031
G1 X208.399 Y207.948 E0.03031
G1 X208.980 Y208.354 E0.03031
G1 X209.622 Y208.654 E0.03031
G1 X210.307 Y208.837 E0.03031
G1 X211.014 Y208.899 E0.03031
G1 X211.720 Y208.837 E0.03031
G1 X212.405 Y208.654 E0.03031
G1 X213.047 Y208.354 E0.03031
G1 X213.628 Y207.948 E0.03031
G1 X214.129 Y207.446 E0.03031
G1 X214.536 Y206.866 E0.03031
G1 X214.835 Y206.223 E0.03031
G1 X215.019 Y205.538 E0.03031
G1 X215.081 Y204.832 E0.03031
G1 X215.019 Y204.126 E0.03031
G1 X214.835 Y203.441 E0.03031
G1 X214.536 Y202.798 E0.03031
G1 X214.129 Y202.218 E0.03031
G1 X213.628 Y201.716 E0.03031
G1 X213.047 Y201.310 E0.03031
G1 X212.405 Y201.010 E0.03031
G1 X211.720 Y200.827 E0.03031
G1 X211.014 Y200.765 E0.03031
G1 X210.307 Y200.827 E0.03031
G1 X209.623 Y201.010 E0.03031
G1 X208.980 Y201.310 E0.03031
G1 X208.399 Y201.716 E0.03031
G1 X207.898 Y202.218 E0.03031
G1 X207.491 Y202.798 E0.03031
G1 X207.192 Y203.441 E0.03031
G1 X207.008 Y204.126 E0.03031
G1 X206.951 Y204.784 E0.02825
G1 X206.643 Y204.838 E0.01335
G1 X206.517 Y204.567 E0.01280
G1 X206.373 Y204.362 E0.01068
G1 X206.197 Y204.186 E0.01068
G1 X205.992 Y204.042 E0.01068
G1 X205.766 Y203.937 E0.01068
G1 X205.524 Y203.872 E0.01068
G1 X205.305 Y203.853 E0.00943
G1 X203.736 Y203.854 E0.06708
G1 X197.318 Y203.854 E0.27437
G1 X195.952 Y202.487 E0.08261
G1 X193.743 Y200.278 E0.13357
G1 X193.702 Y200.241 E0.00236
G1 X193.661 Y200.203 E0.00243
G1 X193.558 Y200.124 E0.00552
G1 X193.452 Y200.057 E0.00537
G1 X193.340 Y199.998 E0.00543
G1 X193.223 Y199.950 E0.00541
G1 X193.102 Y199.912 E0.00540
G1 X192.979 Y199.885 E0.00539
G1 X192.854 Y199.868 E0.00538
G1 X192.743 Y199.863 E0.00475
G1 X180.369 Y199.863 E0.52907
G1 X180.369 Y212.700 E0.54885
G1 X192.744 Y212.700 E0.52910
G1 X192.855 Y212.696 E0.00475
G1 X192.980 Y212.679 E0.00538
G1 X193.102 Y212.652 E0.00538
G1 X193.223 Y212.614 E0.00540
G1 X193.340 Y212.566 E0.00541
G1 X193.451 Y212.508 E0.00535
G1 X193.556 Y212.441 E0.00535
G1 X193.623 Y212.390 E0.00356
G1 X193.660 Y212.362 E0.00201
G1 X193.715 Y212.312 E0.00319
G1 X193.748 Y212.281 E0.00191
G1 X197.318 Y208.710 E0.21590
G1 X205.305 Y208.711 E0.34146
G1 X205.524 Y208.692 E0.00943
G1 X205.766 Y208.627 E0.01068
G1 X205.992 Y208.522 E0.01068
G1 X206.197 Y208.378 E0.01068
G1 X206.373 Y208.202 E0.01068
G1 X206.517 Y207.997 E0.01068
G1 X206.622 Y207.771 E0.01068
G1 X206.687 Y207.529 E0.01068
G1 X206.706 Y207.310 E0.00943
G1 X206.706 Y205.778 E0.06550
G1 X207.000 Y205.739 E0.01270
G1 E-1.50000 F3000.000
G1 X197.141 Y204.282 F12000.000
G1 E1.50000 F1800.000
;TYPE:External perimeter
G1 F600.000
G1 X195.649 Y202.790 E0.09020
G1 X193.447 Y200.588 E0.13315
G1 X193.412 Y200.557 E0.00201
G1 X193.385 Y200.531 E0.00162
G1 X193.312 Y200.476 E0.00388
G1 X193.237 Y200.428 E0.00380
G1 X193.158 Y200.387 E0.00382
G1 X193.076 Y200.353 E0.00381
G1 X192.991 Y200.326 E0.00380
G1 X192.905 Y200.307 E0.00379
G1 X192.817 Y200.296 E0.00378
G1 X192.734 Y200.292 E0.00355
G1 X180.798 Y200.292 E0.51036
G1 X180.798 Y212.272 E0.51221
G1 X192.735 Y212.272 E0.51038
G1 X192.818 Y212.268 E0.00355
G1 X192.905 Y212.257 E0.00378
G1 X192.992 Y212.238 E0.00378
G1 X193.076 Y212.211 E0.00379
G1 X193.158 Y212.177 E0.00380
G1 X193.237 Y212.136 E0.00378
G1 X193.312 Y212.088 E0.00381
G1 X193.385 Y212.033 E0.00391
G1 X193.424 Y211.998 E0.00226
G1 X193.448 Y211.974 E0.00147
G1 X197.141 Y208.282 E0.22326
G1 X205.286 Y208.282 E0.34825
G1 X205.450 Y208.268 E0.00702
G1 X205.619 Y208.223 E0.00747
G1 X205.777 Y208.149 E0.00747
G1 X205.920 Y208.049 E0.00747
G1 X206.044 Y207.925 E0.00748
G1 X206.144 Y207.782 E0.00747
G1 X206.218 Y207.624 E0.00747
G1 X206.263 Y207.455 E0.00747
G1 X206.278 Y207.291 E0.00702
G1 X206.278 Y205.273 E0.08628
G1 X206.263 Y205.109 E0.00702
G1 X206.218 Y204.940 E0.00747
G1 X206.144 Y204.782 E0.00747
G1 X206.044 Y204.639 E0.00747
G1 X205.920 Y204.515 E0.00747
G1 X205.777 Y204.415 E0.00747
G1 X205.619 Y204.341 E0.00747
G1 X205.450 Y204.296 E0.00747
G1 X205.286 Y204.281 E0.00703
G1 X203.736 Y204.282 E0.06628
G1 X197.201 Y204.282 E0.27940
G1 X197.141 Y203.882 F12000.000
G1 E-1.50000 F3000.000
G1 X207.377 Y204.832 F12000.000
G1 E1.50000 F1800.000
G1 F600.000
G1 X207.432 Y205.464 E0.02711
G1 X207.596 Y206.076 E0.02710
G1 X207.864 Y206.650 E0.02710
G1 X208.227 Y207.170 E0.02711
G1 X208.676 Y207.618 E0.02710
G1 X209.195 Y207.982 E0.02711
G1 X209.770 Y208.250 E0.02711
G1 X210.382 Y208.414 E0.02710
G1 X211.014 Y208.469 E0.02711
G1 X211.645 Y208.414 E0.02711
G1 X212.257 Y208.250 E0.02710
G1 X212.832 Y207.982 E0.02711
G1 X213.351 Y207.618 E0.02711
G1 X213.800 Y207.170 E0.02710
G1 X214.163 Y206.650 E0.02711
G1 X214.431 Y206.076 E0.02711
G1 X214.595 Y205.464 E0.02710
G1 X214.650 Y204.832 E0.02711
G1 X214.595 Y204.200 E0.02711
G1 X214.431 Y203.588 E0.02710
G1 X214.163 Y203.014 E0.02711
G1 X213.800 Y202.494 E0.02711
G1 X213.351 Y202.046 E0.02710
G1 X212.832 Y201.682 E0.02711
G1 X212.257 Y201.414 E0.02711
G1 X211.645 Y201.250 E0.02710
G1 X211.014 Y201.195 E0.02711
G1 X210.382 Y201.250 E0.02711
G1 X209.770 Y201.414 E0.02710
G1 X209.195 Y201.682 E0.02711
G1 X208.676 Y202.046 E0.02711
G1 X208.227 Y202.494 E0.02711
G1 X207.864 Y203.014 E0.02711
G1 X207.596 Y203.588 E0.02711
G1 X207.432 Y204.200 E0.02710
G1 X207.382 Y204.772 E0.02454
G1 X207.036 Y205.042 F12000.000
G1 E-1.50000 F3000.000
G1 X129.780 Y202.997 F12000.000
G1 E1.50000 F1800.000
;TYPE:Internal perimeter
G1 F600.000
G1 X128.664 Y201.881 E0.06743
G1 X126.444 Y199.661 E0.13426
G1 X126.398 Y199.619 E0.00265
G1 X126.334 Y199.558 E0.00379
G1 X126.187 Y199.444 E0.00797
G1 X126.041 Y199.346 E0.00752
G1 X125.881 Y199.256 E0.00781
G1 X125.716 Y199.180 E0.00778
G1 X125.546 Y199.118 E0.00776
G1 X125.371 Y199.069 E0.00773
G1 X125.194 Y199.033 E0.00772
G1 X125.015 Y199.012 E0.00771
G1 X124.865 Y199.007 E0.00642
G1 X111.618 Y199.007 E0.56637
G1 X111.618 Y213.557 E0.62213
G1 X124.869 Y213.557 E0.56653
G1 X125.036 Y213.550 E0.00714
G1 X125.235 Y213.524 E0.00858
G1 X125.431 Y213.481 E0.00859
G1 X125.623 Y213.420 E0.00861
G1 X125.809 Y213.343 E0.00863
G1 X125.985 Y213.251 E0.00849
G1 X126.152 Y213.145 E0.00843
G1 X126.251 Y213.071 E0.00530
G1 X126.318 Y213.019 E0.00362
G1 X126.405 Y212.939 E0.00505
G1 X126.452 Y212.894 E0.00280
G1 X129.780 Y209.567 E0.20118
G1 X137.442 Y209.568 E0.32761
G1 X137.774 Y209.539 E0.01424
G1 X138.160 Y209.436 E0.01709
G1 X138.522 Y209.267 E0.01709
G1 X138.850 Y209.037 E0.01709
G1 X139.132 Y208.755 E0.01709
G1 X139.362 Y208.427 E0.01709
G1 X139.531 Y208.065 E0.01709
G1 X139.634 Y207.679 E0.01709
G1 X139.663 Y207.347 E0.01423
G1 X139.663 Y205.217 E0.09108
G1 X139.634 Y204.885 E0.01423
G1 X139.531 Y204.499 E0.01709
G1 X139.362 Y204.137 E0.01709
G1 X139.132 Y203.809 E0.01709
G1 X138.850 Y203.527 E0.01709
G1 X138.522 Y203.297 E0.01709
G1 X138.160 Y203.128 E0.01709
