; generated by SuperSlicer 2.3.56 on 2021-06-27 at 20:07:01 UTC


;
;

;
;
; 

; external perimeters extrusion width = 0.40mm
; perimeters extrusion width = 0.40mm
; infill extrusion width = 0.40mm
; solid infill extrusion width = 0.40mm
; top infill extrusion width = 0.40mm
; first layer extrusion width = 0.48mm


;TYPE:Custom
START_PRINT T_BED=110 T_EXTRUDER=235
M107
G21 ; set units to millimeters
G90 ; use absolute coordinates
M83 ; use relative distances for extrusion
M104 S235 ; set temperature
M109 S235 ; set temperature and wait for it to be reached
M190 S110 ; set bed temperature and wait for it to be reached
M107
;LAYER_CHANGE
;Z:0.24
;HEIGHT:0.24
G1 Z0.240000 F9000.000
TIMELAPSE_TAKE_FRAME
G1 E-0.80000 F3000.000
G1 X121.912 Y128.806 F9000.000
G1 E0.80000 F1500.000
;TYPE:Skirt
;WIDTH:0.48
G1 F600.000
G1 X123.361 Y127.785 E0.07581
G1 X124.413 Y127.309 E0.04937
G1 X125.697 Y126.969 E0.05678
G1 X126.992 Y126.857 E0.05556
G1 X157.004 Y126.857 E1.28319
G1 X158.292 Y126.967 E0.05527
G1 X201.189 Y134.113 E1.85936
G1 X202.244 Y134.456 E0.04743
G1 X203.146 Y135.100 E0.04739
G1 X203.624 Y135.776 E0.03540
G1 X203.890 Y136.611 E0.03749
G1 X206.625 Y159.340 E0.97878
G1 X206.623 Y174.163 E0.63376
G1 X206.544 Y174.763 E0.02587
G1 X206.324 Y175.439 E0.03038
G1 X205.912 Y176.152 E0.03520
G1 X205.472 Y176.647 E0.02833
G1 X204.707 Y177.196 E0.04028
G1 X203.742 Y177.549 E0.04391
G1 X172.445 Y184.112 E1.36722
G1 X149.529 Y184.140 E0.97979
G1 X148.896 Y184.064 E0.02724
G1 X148.212 Y183.846 E0.03073
G1 X147.484 Y183.429 E0.03589
G1 X146.985 Y182.986 E0.02850
G1 X121.069 Y149.317 E1.81659
G1 X120.356 Y148.276 E0.05396
G1 X119.750 Y146.899 E0.06434
G1 X119.471 Y145.811 E0.04801
G1 X119.362 Y144.653 E0.04974
G1 X119.357 Y134.476 E0.43512
G1 X119.474 Y133.172 E0.05595
G1 X119.818 Y131.886 E0.05695
G1 X120.363 Y130.710 E0.05539
G1 X121.115 Y129.624 E0.05648
G1 X121.870 Y128.849 E0.04625
G1 X122.176 Y129.148 F9000.000
G1 F600.000
G1 X122.214 Y129.109 E0.00234
G1 X123.553 Y128.168 E0.06996
G1 X124.553 Y127.714 E0.04697
G1 X125.779 Y127.390 E0.05421
G1 X126.991 Y127.286 E0.05202
G1 X157.004 Y127.286 E1.28320
G1 X158.223 Y127.390 E0.05233
G1 X201.109 Y134.534 E1.85886
G1 X202.041 Y134.833 E0.04188
G1 X202.831 Y135.390 E0.04133
G1 X203.238 Y135.963 E0.03005
G1 X203.466 Y136.677 E0.03205
G1 X206.196 Y159.359 E0.97677
G1 X206.196 Y174.119 E0.63104
G1 X206.130 Y174.651 E0.02292
G1 X205.939 Y175.250 E0.02691
G1 X205.566 Y175.899 E0.03200
G1 X205.181 Y176.331 E0.02472
G1 X204.508 Y176.817 E0.03550
G1 X203.643 Y177.132 E0.03934
G1 X172.401 Y183.686 E1.36487
G1 X149.557 Y183.712 E0.97668
G1 X148.999 Y183.648 E0.02402
G1 X148.395 Y183.459 E0.02708
G1 X147.879 Y183.182 E0.02503
G1 X147.301 Y182.695 E0.03231
G1 X121.409 Y149.056 E1.81496
G1 X120.733 Y148.073 E0.05100
G1 X120.163 Y146.784 E0.06028
G1 X119.894 Y145.747 E0.04582
G1 X119.789 Y144.627 E0.04810
G1 X119.786 Y134.478 E0.43391
G1 X119.894 Y133.255 E0.05249
G1 X120.219 Y132.037 E0.05390
G1 X120.737 Y130.920 E0.05265
G1 X121.450 Y129.892 E0.05349
G1 X122.134 Y129.191 E0.04186
G1 E-0.80000 F3000.000
G1 X180.511 Y163.076 F9000.000
G1 E0.80000 F1500.000
;TYPE:Internal perimeter
G1 F600.000
G1 X180.986 Y163.118 E0.02037
G1 X181.443 Y163.078 E0.01961
G1 X181.886 Y162.959 E0.01961
G1 X182.302 Y162.765 E0.01961
G1 X182.677 Y162.502 E0.01961
G1 X183.002 Y162.178 E0.01961
G1 X183.265 Y161.802 E0.01961
G1 X183.459 Y161.386 E0.01961
G1 X183.577 Y160.943 E0.01961
G1 X183.617 Y160.486 E0.01961
G1 X183.576 Y160.012 E0.02037
G1 X199.396 Y160.012 E0.67641
G1 X199.355 Y160.486 E0.02037
G1 X199.395 Y160.943 E0.01961
G1 X199.513 Y161.386 E0.01961
G1 X199.707 Y161.802 E0.01961
G1 X199.970 Y162.178 E0.01961
G1 X200.295 Y162.502 E0.01961
G1 X200.670 Y162.765 E0.01961
G1 X201.086 Y162.959 E0.01961
G1 X201.529 Y163.078 E0.01961
G1 X201.986 Y163.118 E0.01961
G1 X202.460 Y163.076 E0.02037
G1 X202.460 Y170.397 E0.31299
G1 X201.986 Y170.355 E0.02037
G1 X201.529 Y170.395 E0.01961
G1 X201.086 Y170.514 E0.01961
G1 X200.670 Y170.708 E0.01961
G1 X200.295 Y170.971 E0.01961
G1 X199.970 Y171.295 E0.01961
G1 X199.707 Y171.671 E0.01961
G1 X199.513 Y172.086 E0.01961
G1 X199.395 Y172.529 E0.01961
G1 X199.355 Y172.986 E0.01961
G1 X199.396 Y173.461 E0.02037
G1 X183.576 Y173.461 E0.67641
G1 X183.617 Y172.986 E0.02037
G1 X183.577 Y172.529 E0.01961
G1 X183.459 Y172.086 E0.01961
G1 X183.265 Y171.671 E0.01961
G1 X183.002 Y171.295 E0.01961
G1 X182.677 Y170.971 E0.01961
G1 X182.302 Y170.708 E0.01961
G1 X181.886 Y170.514 E0.01961
G1 X181.443 Y170.395 E0.01961
G1 X180.986 Y170.355 E0.01961
G1 X180.511 Y170.397 E0.02037
G1 X180.511 Y163.136 E0.31042
G1 X180.083 Y162.515 F9000.000
G1 F600.000
G1 X180.604 Y162.654 E0.02305
G1 X180.986 Y162.688 E0.01640
G1 X181.368 Y162.654 E0.01640
G1 X181.739 Y162.555 E0.01640
G1 X182.086 Y162.393 E0.01640
G1 X182.401 Y162.173 E0.01640
G1 X182.672 Y161.901 E0.01641
G1 X182.892 Y161.587 E0.01640
G1 X183.054 Y161.239 E0.01640
G1 X183.154 Y160.869 E0.01641
G1 X183.187 Y160.486 E0.01640
G1 X183.154 Y160.104 E0.01640
G1 X183.014 Y159.583 E0.02305
G1 X199.958 Y159.583 E0.72443
G1 X199.818 Y160.104 E0.02305
G1 X199.785 Y160.486 E0.01641
G1 X199.818 Y160.869 E0.01640
G1 X199.917 Y161.239 E0.01640
G1 X200.080 Y161.587 E0.01640
G1 X200.300 Y161.901 E0.01640
G1 X200.571 Y162.173 E0.01641
G1 X200.885 Y162.393 E0.01640
G1 X201.233 Y162.555 E0.01640
G1 X201.604 Y162.654 E0.01640
G1 X201.986 Y162.688 E0.01640
G1 X202.368 Y162.654 E0.01640
G1 X202.889 Y162.515 E0.02305
G1 X202.889 Y170.958 E0.36101
G1 X202.368 Y170.819 E0.02305
G1 X201.986 Y170.785 E0.01640
G1 X201.604 Y170.819 E0.01640
G1 X201.233 Y170.918 E0.01641
G1 X200.885 Y171.080 E0.01641
G1 X200.571 Y171.300 E0.01640
G1 X200.300 Y171.571 E0.01640
G1 X200.080 Y171.886 E0.01640
G1 X199.917 Y172.234 E0.01640
G1 X199.818 Y172.604 E0.01640
G1 X199.785 Y172.986 E0.01641
G1 X199.818 Y173.369 E0.01640
G1 X199.958 Y173.889 E0.02305
G1 X183.014 Y173.889 E0.72443
G1 X183.154 Y173.369 E0.02305
G1 X183.187 Y172.986 E0.01640
G1 X183.154 Y172.604 E0.01640
G1 X183.054 Y172.234 E0.01640
G1 X182.892 Y171.886 E0.01641
G1 X182.672 Y171.571 E0.01641
G1 X182.401 Y171.300 E0.01640
G1 X182.086 Y171.080 E0.01640
G1 X181.739 Y170.918 E0.01641
G1 X181.368 Y170.819 E0.01641
G1 X180.986 Y170.785 E0.01640
G1 X180.604 Y170.819 E0.01640
G1 X180.083 Y170.958 E0.02305
G1 X180.083 Y162.575 E0.35844
G1 X179.654 Y161.708 F9000.000
G1 F600.000
G1 X180.100 Y162.020 E0.02328
G1 X180.380 Y162.151 E0.01320
G1 X180.678 Y162.231 E0.01320
G1 X180.986 Y162.257 E0.01320
G1 X181.293 Y162.231 E0.01320
G1 X181.592 Y162.151 E0.01320
G1 X181.871 Y162.020 E0.01320
G1 X182.124 Y161.843 E0.01320
G1 X182.343 Y161.625 E0.01320
G1 X182.520 Y161.372 E0.01320
G1 X182.650 Y161.092 E0.01320
G1 X182.730 Y160.794 E0.01320
G1 X182.757 Y160.486 E0.01320
G1 X182.730 Y160.179 E0.01320
G1 X182.650 Y159.881 E0.01320
G1 X182.520 Y159.601 E0.01320
G1 X182.207 Y159.155 E0.02328
G1 X200.764 Y159.155 E0.79341
G1 X200.452 Y159.601 E0.02328
G1 X200.322 Y159.881 E0.01320
G1 X200.242 Y160.179 E0.01320
G1 X200.215 Y160.486 E0.01320
G1 X200.242 Y160.794 E0.01320
G1 X200.322 Y161.092 E0.01320
G1 X200.452 Y161.372 E0.01320
G1 X200.629 Y161.625 E0.01320
G1 X200.847 Y161.843 E0.01320
G1 X201.100 Y162.020 E0.01320
G1 X201.380 Y162.151 E0.01320
G1 X201.678 Y162.231 E0.01320
G1 X201.986 Y162.257 E0.01320
G1 X202.293 Y162.231 E0.01320
G1 X202.592 Y162.151 E0.01320
G1 X202.871 Y162.020 E0.01320
G1 X203.317 Y161.708 E0.02328
G1 X203.317 Y171.765 E0.42999
G1 X202.871 Y171.453 E0.02328
G1 X202.592 Y171.322 E0.01320
G1 X202.293 Y171.242 E0.01320
G1 X201.986 Y171.215 E0.01320
G1 X201.678 Y171.242 E0.01320
G1 X201.380 Y171.322 E0.01320
G1 X201.100 Y171.453 E0.01320
G1 X200.847 Y171.630 E0.01320
G1 X200.629 Y171.848 E0.01320
G1 X200.452 Y172.101 E0.01320
G1 X200.322 Y172.381 E0.01320
G1 X200.242 Y172.679 E0.01320
G1 X200.215 Y172.986 E0.01320
G1 X200.242 Y173.294 E0.01320
G1 X200.322 Y173.592 E0.01320
G1 X200.452 Y173.872 E0.01320
G1 X200.764 Y174.318 E0.02328
G1 X182.207 Y174.318 E0.79341
G1 X182.520 Y173.872 E0.02328
G1 X182.650 Y173.592 E0.01320
G1 X182.730 Y173.294 E0.01320
G1 X182.757 Y172.986 E0.01320
G1 X182.730 Y172.679 E0.01320
G1 X182.650 Y172.381 E0.01320
G1 X182.520 Y172.101 E0.01320
G1 X182.343 Y171.848 E0.01320
G1 X182.124 Y171.630 E0.01320
G1 X181.871 Y171.453 E0.01320
G1 X181.592 Y171.322 E0.01320
G1 X181.293 Y171.242 E0.01320
G1 X180.986 Y171.215 E0.01320
G1 X180.678 Y171.242 E0.01320
G1 X180.380 Y171.322 E0.01320
G1 X180.100 Y171.453 E0.01320
G1 X179.654 Y171.765 E0.02328
G1 X179.654 Y161.768 E0.42743
G1 E-0.80000 F3000.000
G1 X200.825 Y172.316 F9000.000
G1 E0.80000 F1500.000
;TYPE:External perimeter
G1 F600.000
G1 X200.726 Y172.528 E0.00999
G1 X200.665 Y172.754 E0.00999
G1 X200.645 Y172.986 E0.00999
G1 X200.665 Y173.219 E0.00999
G1 X200.726 Y173.445 E0.00999
G1 X200.825 Y173.657 E0.00999
G1 X200.959 Y173.848 E0.00999
G1 X201.124 Y174.014 E0.00999
G1 X201.315 Y174.148 E0.00999
G1 X201.527 Y174.246 E0.00999
G1 X201.753 Y174.307 E0.00999
G1 X201.986 Y174.327 E0.00999
G1 X202.219 Y174.307 E0.00999
G1 X202.445 Y174.246 E0.00999
G1 X202.656 Y174.148 E0.00999
G1 X202.848 Y174.014 E0.00999
G1 X203.013 Y173.848 E0.00999
G1 X203.147 Y173.657 E0.00999
G1 X203.246 Y173.445 E0.00999
G1 X203.306 Y173.219 E0.00999
G1 X203.327 Y172.986 E0.00999
G1 X203.306 Y172.754 E0.00999
G1 X203.246 Y172.528 E0.00999
G1 X203.147 Y172.316 E0.00999
G1 X203.013 Y172.124 E0.00999
G1 X202.848 Y171.959 E0.00999
G1 X202.656 Y171.825 E0.00999
G1 X202.445 Y171.726 E0.00999
G1 X202.219 Y171.666 E0.00999
G1 X201.986 Y171.645 E0.00999
G1 X201.753 Y171.666 E0.00999
G1 X201.527 Y171.726 E0.00999
G1 X201.315 Y171.825 E0.00999
G1 X201.124 Y171.959 E0.00999
G1 X200.959 Y172.124 E0.00999
G1 X200.859 Y172.267 E0.00743
G1 X200.591 Y172.323 F9000.000
G1 E-0.80000 F3000.000
G1 X201.774 Y161.809 F9000.000
G1 E0.80000 F1500.000
G1 F600.000
G1 X201.986 Y161.827 E0.00909
G1 X202.219 Y161.807 E0.00999
G1 X202.445 Y161.746 E0.00999
G1 X202.656 Y161.648 E0.00999
G1 X202.848 Y161.514 E0.00999
G1 X203.013 Y161.348 E0.00999
G1 X203.147 Y161.157 E0.00999
G1 X203.246 Y160.945 E0.00999
G1 X203.306 Y160.719 E0.00999
G1 X203.327 Y160.486 E0.00999
G1 X203.306 Y160.254 E0.00999
G1 X203.246 Y160.028 E0.00999
G1 X203.147 Y159.816 E0.00999
G1 X203.013 Y159.624 E0.00999
G1 X202.848 Y159.459 E0.00999
G1 X202.656 Y159.325 E0.00999
G1 X202.445 Y159.226 E0.00999
G1 X202.219 Y159.166 E0.00999
G1 X201.986 Y159.145 E0.00999
G1 X201.753 Y159.166 E0.00999
G1 X201.527 Y159.226 E0.00999
G1 X201.315 Y159.325 E0.00999
G1 X201.124 Y159.459 E0.00999
G1 X200.959 Y159.624 E0.00999
G1 X200.825 Y159.816 E0.00999
G1 X200.726 Y160.028 E0.00999
G1 X200.665 Y160.254 E0.00999
G1 X200.645 Y160.486 E0.00999
G1 X200.665 Y160.719 E0.00999
G1 X200.726 Y160.945 E0.00999
G1 X200.825 Y161.157 E0.00999
G1 X200.959 Y161.348 E0.00999
G1 X201.124 Y161.514 E0.00999
G1 X201.315 Y161.648 E0.00999
G1 X201.527 Y161.746 E0.00999
G1 X201.715 Y161.797 E0.00833
G1 X201.854 Y162.006 F9000.000
G1 E-0.80000 F3000.000
G1 X182.327 Y160.486 F9000.000
G1 E0.80000 F1500.000
G1 F600.000
G1 X182.306 Y160.254 E0.00999
G1 X182.246 Y160.028 E0.00999
G1 X182.147 Y159.816 E0.00999
G1 X182.013 Y159.624 E0.00999
G1 X181.848 Y159.459 E0.00999
G1 X181.656 Y159.325 E0.00999
G1 X181.445 Y159.226 E0.00999
G1 X181.219 Y159.166 E0.00999
G1 X180.986 Y159.145 E0.00999
G1 X180.753 Y159.166 E0.00999
G1 X180.527 Y159.226 E0.00999
G1 X180.315 Y159.325 E0.00999
G1 X180.124 Y159.459 E0.00999
G1 X179.959 Y159.624 E0.00999
G1 X179.825 Y159.816 E0.00999
G1 X179.726 Y160.028 E0.00999
G1 X179.665 Y160.254 E0.00999
G1 X179.645 Y160.486 E0.00999
G1 X179.665 Y160.719 E0.00999
G1 X179.726 Y160.945 E0.00999
G1 X179.825 Y161.157 E0.00999
G1 X179.959 Y161.348 E0.00999
G1 X180.124 Y161.514 E0.00999
G1 X180.315 Y161.648 E0.00999
G1 X180.527 Y161.746 E0.00999
G1 X180.753 Y161.807 E0.00999
G1 X180.986 Y161.827 E0.00999
G1 X181.219 Y161.807 E0.00999
G1 X181.445 Y161.746 E0.00999
G1 X181.656 Y161.648 E0.00999
G1 X181.848 Y161.514 E0.00999
G1 X182.013 Y161.348 E0.00999
G1 X182.147 Y161.157 E0.00999
G1 X182.246 Y160.945 E0.00999
G1 X182.306 Y160.719 E0.00999
G1 X182.322 Y160.546 E0.00743
G1 X182.526 Y160.364 F9000.000
G1 E-0.80000 F3000.000
G1 X181.219 Y171.666 F9000.000
G1 E0.80000 F1500.000
G1 F600.000
G1 X180.986 Y171.645 E0.00999
G1 X180.753 Y171.666 E0.00999
G1 X180.527 Y171.726 E0.00999
G1 X180.315 Y171.825 E0.00999
G1 X180.124 Y171.959 E0.00999
G1 X179.959 Y172.124 E0.00999
G1 X179.825 Y172.316 E0.00999
G1 X179.726 Y172.528 E0.00999
G1 X179.665 Y172.754 E0.00999
G1 X179.645 Y172.986 E0.00999
G1 X179.665 Y173.219 E0.00999
G1 X179.726 Y173.445 E0.00999
G1 X179.825 Y173.657 E0.00999
G1 X179.959 Y173.848 E0.00999
G1 X180.124 Y174.014 E0.00999
G1 X180.315 Y174.148 E0.00999
G1 X180.527 Y174.246 E0.00999
G1 X180.753 Y174.307 E0.00999
G1 X180.986 Y174.327 E0.00999
G1 X181.219 Y174.307 E0.00999
G1 X181.445 Y174.246 E0.00999
G1 X181.656 Y174.148 E0.00999
G1 X181.848 Y174.014 E0.00999
G1 X182.013 Y173.848 E0.00999
G1 X182.147 Y173.657 E0.00999
G1 X182.246 Y173.445 E0.00999
G1 X182.306 Y173.219 E0.00999
G1 X182.327 Y172.986 E0.00999
G1 X182.306 Y172.754 E0.00999
G1 X182.246 Y172.528 E0.00999
G1 X182.147 Y172.316 E0.00999
G1 X182.013 Y172.124 E0.00999
G1 X181.848 Y171.959 E0.00999
G1 X181.656 Y171.825 E0.00999
G1 X181.445 Y171.726 E0.00999
G1 X181.277 Y171.681 E0.00743
G1 X181.132 Y171.449 F9000.000
G1 E-0.80000 F3000.000
G1 X179.273 Y174.246 F9000.000
G1 E0.80000 F1500.000
G1 F600.000
G1 X179.238 Y174.118 E0.00566
G1 X179.226 Y173.976 E0.00611
G1 X179.226 Y159.497 E0.61906
G1 X179.238 Y159.355 E0.00611
G1 X179.273 Y159.227 E0.00566
G1 X179.328 Y159.107 E0.00566
G1 X179.404 Y158.998 E0.00566
G1 X179.498 Y158.905 E0.00566
G1 X179.606 Y158.829 E0.00566
G1 X179.726 Y158.773 E0.00566
G1 X179.854 Y158.739 E0.00566
G1 X179.996 Y158.726 E0.00611
G1 X202.975 Y158.726 E0.98248
G1 X203.118 Y158.739 E0.00611
G1 X203.246 Y158.773 E0.00566
G1 X203.365 Y158.829 E0.00566
G1 X203.474 Y158.905 E0.00566
G1 X203.567 Y158.998 E0.00566
G1 X203.643 Y159.107 E0.00566
G1 X203.699 Y159.227 E0.00566
G1 X203.733 Y159.355 E0.00566
G1 X203.746 Y159.497 E0.00611
G1 X203.746 Y173.976 E0.61906
G1 X203.733 Y174.118 E0.00611
G1 X203.699 Y174.246 E0.00566
G1 X203.643 Y174.366 E0.00566
G1 X203.567 Y174.474 E0.00566
G1 X203.474 Y174.568 E0.00566
G1 X203.365 Y174.644 E0.00566
G1 X203.246 Y174.700 E0.00566
G1 X203.118 Y174.734 E0.00566
G1 X202.975 Y174.746 E0.00611
G1 X179.996 Y174.746 E0.98248
G1 X179.854 Y174.734 E0.00611
G1 X179.726 Y174.700 E0.00566
G1 X179.606 Y174.644 E0.00566
G1 X179.498 Y174.568 E0.00566
G1 X179.404 Y174.474 E0.00566
G1 X179.328 Y174.366 E0.00566
G1 X179.298 Y174.300 E0.00309
G1 X179.361 Y174.147 F9000.000
G1 X179.656 Y174.115
;TYPE:Gap fill
;WIDTH:0.437837
G1 F600.000
G1 X179.624 Y174.050 E0.00279
G1 X179.607 Y174.005 E0.00185
;WIDTH:0.388124
G1 X179.591 Y173.960 E0.00161
G1 X179.570 Y173.894 E0.00232
;WIDTH:0.293564
G1 X179.550 Y173.828 E0.00167
G1 X179.547 Y173.818 E0.00027
G1 X179.544 Y173.807 E0.00027
G1 X179.529 Y173.740 E0.00166
;WIDTH:0.253928
G1 X179.514 Y173.673 E0.00139
;WIDTH:0.214291
G1 X179.499 Y173.606 E0.00112
;WIDTH:0.170918
G1 X179.484 Y173.539 E0.00082
G1 X179.476 Y173.477 E0.00075
;WIDTH:0.143863
G1 X179.469 Y173.425 E0.00048
G1 X179.463 Y173.380 E0.00042
G1 X179.656 Y174.115 F9000.000
;WIDTH:0.466148
G1 F600.000
G1 X179.687 Y174.159 E0.00222
G1 X179.706 Y174.182 E0.00124
;WIDTH:0.492363
G1 X179.725 Y174.205 E0.00132
G1 X179.767 Y174.247 E0.00261
G1 X179.813 Y174.286 E0.00264
G1 X179.832 Y174.299 E0.00100
;WIDTH:0.466148
G1 X179.864 Y174.321 E0.00163
G1 X179.902 Y174.339 E0.00173
;WIDTH:0.437841
G1 X179.922 Y174.348 E0.00086
G1 X179.967 Y174.365 E0.00185
;WIDTH:0.388126
G1 X180.012 Y174.381 E0.00161
G1 X180.078 Y174.402 E0.00232
;WIDTH:0.305158
G1 X180.144 Y174.423 E0.00175
G1 X180.155 Y174.426 E0.00028
G1 X180.165 Y174.428 E0.00028
G1 X180.233 Y174.443 E0.00174
;WIDTH:0.253925
G1 X180.300 Y174.458 E0.00139
;WIDTH:0.21429
G1 X180.367 Y174.473 E0.00112
;WIDTH:0.174654
