; generated by SuperSlicer 2.3.56 on 2021-06-28 at 01:59:02 UTC


;
;

;
;
; 

; external perimeters extrusion width = 0.40mm
; perimeters extrusion width = 0.40mm
; infill extrusion width = 0.40mm
; solid infill extrusion width = 0.40mm
; top infill extrusion width = 0.40mm
; first layer extrusion width = 0.48mm


;TYPE:Custom
START_PRINT T_BED=110 T_EXTRUDER=235
M107
G21 ; set units to millimeters
G90 ; use absolute coordinates
M83 ; use relative distances for extrusion
M104 S235 ; set temperature
M109 S235 ; set temperature and wait for it to be reached
M190 S110 ; set bed temperature and wait for it to be reached
M107
;LAYER_CHANGE
;Z:0.24
;HEIGHT:0.24
G1 Z0.240000 F9000.000
TIMELAPSE_TAKE_FRAME
G1 E-0.80000 F3000.000
G1 X148.610 Y139.427 F9000.000
G1 E0.80000 F1500.000
;TYPE:Skirt
;WIDTH:0.48
G1 F600.000
G1 X149.366 Y138.719 E0.04424
G1 X149.869 Y138.441 E0.02459
G1 X150.450 Y138.235 E0.02636
G1 X167.098 Y134.102 E0.73339
G1 X167.860 Y134.033 E0.03271
G1 X177.004 Y134.033 E0.39097
G1 X178.498 Y134.196 E0.06426
G1 X179.150 Y134.424 E0.02954
G1 X179.722 Y134.753 E0.02820
G1 X180.182 Y135.151 E0.02602
G1 X180.534 Y135.623 E0.02519
G1 X180.790 Y136.191 E0.02662
G1 X180.908 Y136.785 E0.02587
G1 X180.916 Y174.036 E1.59270
G1 X180.778 Y174.844 E0.03506
G1 X180.390 Y175.598 E0.03626
G1 X179.943 Y176.075 E0.02792
G1 X179.315 Y176.494 E0.03229
G1 X178.596 Y176.776 E0.03302
G1 X177.991 Y176.901 E0.02641
G1 X177.006 Y176.967 E0.04222
G1 X167.306 Y176.929 E0.41474
G1 X150.512 Y172.782 E0.73960
G1 X149.839 Y172.546 E0.03049
G1 X149.246 Y172.198 E0.02939
G1 X148.772 Y171.774 E0.02722
G1 X148.417 Y171.264 E0.02655
G1 X148.174 Y170.661 E0.02780
G1 X148.084 Y170.026 E0.02741
G1 X148.084 Y140.981 E1.24184
G1 X148.223 Y140.177 E0.03489
G1 X148.583 Y139.480 E0.03352
G1 X148.960 Y139.677 F9000.000
G1 F600.000
G1 X148.965 Y139.668 E0.00042
G1 X149.616 Y139.068 E0.03784
G1 X150.577 Y138.645 E0.04492
G1 X167.188 Y134.521 E0.73174
G1 X167.866 Y134.461 E0.02913
G1 X177.004 Y134.461 E0.39067
G1 X178.367 Y134.605 E0.05863
G1 X178.955 Y134.806 E0.02656
G1 X179.447 Y135.084 E0.02415
G1 X179.854 Y135.428 E0.02279
G1 X180.160 Y135.831 E0.02164
G1 X180.382 Y136.322 E0.02304
G1 X180.482 Y136.837 E0.02242
G1 X180.488 Y174.026 E1.59001
G1 X180.371 Y174.711 E0.02974
G1 X180.035 Y175.357 E0.03111
G1 X179.654 Y175.758 E0.02367
G1 X179.092 Y176.127 E0.02873
G1 X178.455 Y176.371 E0.02918
G1 X177.923 Y176.477 E0.02316
G1 X177.006 Y176.539 E0.03933
G1 X167.339 Y176.502 E0.41331
G1 X150.621 Y172.368 E0.73629
G1 X150.018 Y172.157 E0.02732
G1 X149.490 Y171.846 E0.02619
G1 X149.091 Y171.488 E0.02295
G1 X148.794 Y171.060 E0.02227
G1 X148.588 Y170.550 E0.02350
G1 X148.512 Y170.013 E0.02320
G1 X148.512 Y140.992 E1.24080
G1 X148.631 Y140.310 E0.02959
G1 X148.933 Y139.730 E0.02797
G1 E-0.80000 F3000.000
G1 X152.680 Y142.655 F9000.000
G1 E0.80000 F1500.000
;TYPE:Internal perimeter
G1 F600.000
G1 X162.273 Y142.655 E0.41016
G1 X162.844 Y142.610 E0.02445
G1 X163.475 Y142.458 E0.02775
G1 X164.074 Y142.210 E0.02775
G1 X164.634 Y141.867 E0.02808
G1 X164.776 Y141.743 E0.00806
G1 X165.062 Y141.499 E0.01607
G1 X167.932 Y138.630 E0.17351
G1 X168.655 Y138.630 E0.03094
G1 X167.980 Y139.305 E0.04084
G1 X167.716 Y139.681 E0.01965
G1 X167.522 Y140.098 E0.01965
G1 X167.403 Y140.542 E0.01965
G1 X167.370 Y140.915 E0.01601
G1 X167.371 Y141.718 E0.03434
G1 X167.371 Y148.053 E0.27085
G1 X167.379 Y148.202 E0.00637
G1 X167.401 Y148.458 E0.01100
G1 X167.520 Y148.903 E0.01967
G1 X167.715 Y149.319 E0.01967
G1 X167.979 Y149.696 E0.01967
G1 X168.653 Y150.370 E0.04077
G1 X167.932 Y150.370 E0.03081
G1 X165.062 Y147.501 E0.17352
G1 X164.627 Y147.129 E0.02445
G1 X164.074 Y146.790 E0.02775
G1 X163.475 Y146.542 E0.02775
G1 X162.844 Y146.390 E0.02775
G1 X162.273 Y146.345 E0.02445
G1 X152.680 Y146.345 E0.41016
G1 X152.680 Y142.715 E0.15524
G1 X152.252 Y142.226 F9000.000
G1 F600.000
G1 X162.257 Y142.226 E0.42776
G1 X162.776 Y142.185 E0.02229
G1 X163.342 Y142.049 E0.02486
G1 X163.879 Y141.827 E0.02486
G1 X164.380 Y141.520 E0.02512
G1 X164.497 Y141.418 E0.00661
G1 X164.771 Y141.184 E0.01542
G1 X167.624 Y138.331 E0.17253
G1 X167.704 Y138.263 E0.00447
G1 X167.745 Y138.238 E0.00205
G1 X167.788 Y138.220 E0.00197
G1 X167.832 Y138.209 E0.00197
G1 X167.938 Y138.201 E0.00454
G1 X176.748 Y138.201 E0.37667
G1 X176.748 Y138.799 E0.02556
G1 X169.933 Y138.799 E0.29137
G1 X169.617 Y138.827 E0.01359
G1 X169.245 Y138.926 E0.01645
G1 X168.897 Y139.089 E0.01645
G1 X168.581 Y139.309 E0.01645
G1 X168.309 Y139.581 E0.01645
G1 X168.089 Y139.897 E0.01645
G1 X167.926 Y140.245 E0.01645
G1 X167.827 Y140.617 E0.01645
G1 X167.799 Y140.934 E0.01360
G1 X167.799 Y141.718 E0.03354
G1 X167.799 Y148.041 E0.27036
G1 X167.806 Y148.172 E0.00557
G1 X167.825 Y148.384 E0.00910
G1 X167.924 Y148.755 E0.01646
G1 X168.087 Y149.104 E0.01646
G1 X168.308 Y149.420 E0.01646
G1 X168.580 Y149.692 E0.01646
G1 X168.896 Y149.913 E0.01646
G1 X169.245 Y150.076 E0.01646
G1 X169.631 Y150.179 E0.01711
G1 X169.871 Y150.195 E0.01026
G1 X169.933 Y150.201 E0.00270
G1 X176.282 Y150.201 E0.27143
G1 X176.748 Y150.201 E0.01994
G1 X176.748 Y150.799 E0.02557
G1 X167.938 Y150.799 E0.37667
G1 X167.832 Y150.791 E0.00454
G1 X167.788 Y150.780 E0.00197
G1 X167.745 Y150.762 E0.00197
G1 X167.705 Y150.738 E0.00197
G1 X167.625 Y150.669 E0.00454
G1 X164.771 Y147.816 E0.17253
G1 X164.375 Y147.477 E0.02229
G1 X163.879 Y147.173 E0.02486
G1 X163.342 Y146.951 E0.02486
G1 X162.776 Y146.815 E0.02486
G1 X162.257 Y146.774 E0.02229
G1 X152.252 Y146.774 E0.42776
G1 X152.252 Y142.286 E0.19188
G1 X151.823 Y141.808 F9000.000
G1 F600.000
G1 X152.029 Y141.798 E0.00880
G1 X162.240 Y141.798 E0.43657
G1 X162.709 Y141.761 E0.02013
G1 X163.209 Y141.641 E0.02198
G1 X163.684 Y141.444 E0.02198
G1 X164.126 Y141.173 E0.02217
G1 X164.217 Y141.094 E0.00517
G1 X164.480 Y140.869 E0.01477
G1 X167.333 Y138.016 E0.17253
G1 X167.451 Y137.915 E0.00663
G1 X167.550 Y137.855 E0.00493
G1 X167.655 Y137.811 E0.00486
G1 X167.765 Y137.785 E0.00486
G1 X167.922 Y137.773 E0.00671
G1 X176.971 Y137.773 E0.38693
G1 X177.177 Y137.783 E0.00880
G1 X177.177 Y139.217 E0.06128
G1 X176.971 Y139.227 E0.00880
G1 X169.952 Y139.227 E0.30011
G1 X169.691 Y139.250 E0.01119
G1 X169.392 Y139.330 E0.01324
G1 X169.112 Y139.461 E0.01324
G1 X168.858 Y139.639 E0.01324
G1 X168.639 Y139.858 E0.01324
G1 X168.461 Y140.112 E0.01324
G1 X168.330 Y140.392 E0.01324
G1 X168.250 Y140.691 E0.01324
G1 X168.227 Y140.952 E0.01120
G1 X168.228 Y141.718 E0.03274
G1 X168.228 Y148.030 E0.26986
G1 X168.234 Y148.141 E0.00477
G1 X168.248 Y148.309 E0.00719
G1 X168.329 Y148.608 E0.01326
G1 X168.460 Y148.889 E0.01326
G1 X168.638 Y149.143 E0.01326
G1 X168.857 Y149.362 E0.01326
G1 X169.111 Y149.540 E0.01326
G1 X169.392 Y149.671 E0.01326
G1 X169.702 Y149.754 E0.01372
G1 X169.904 Y149.768 E0.00866
G1 X169.952 Y149.772 E0.00208
G1 X176.282 Y149.772 E0.27063
G1 X176.971 Y149.773 E0.02947
G1 X177.177 Y149.783 E0.00881
G1 X177.177 Y151.217 E0.06128
G1 X176.971 Y151.227 E0.00880
G1 X167.922 Y151.227 E0.38693
G1 X167.765 Y151.215 E0.00671
G1 X167.655 Y151.189 E0.00486
G1 X167.550 Y151.145 E0.00486
G1 X167.453 Y151.086 E0.00486
G1 X167.334 Y150.984 E0.00671
G1 X164.480 Y148.130 E0.17253
G1 X164.122 Y147.825 E0.02013
G1 X163.684 Y147.556 E0.02198
G1 X163.209 Y147.359 E0.02198
G1 X162.709 Y147.239 E0.02198
G1 X162.240 Y147.202 E0.02013
G1 X152.029 Y147.202 E0.43657
G1 X151.823 Y147.192 E0.00880
G1 X151.823 Y141.868 E0.22760
G1 X151.395 Y141.415 F9000.000
G1 F600.000
G1 X151.985 Y141.371 E0.02530
G1 X152.018 Y141.369 E0.00140
G1 X162.223 Y141.369 E0.43633
G1 X162.642 Y141.336 E0.01797
G1 X163.076 Y141.232 E0.01910
G1 X163.489 Y141.061 E0.01910
G1 X163.872 Y140.826 E0.01921
G1 X163.938 Y140.769 E0.00373
G1 X164.189 Y140.554 E0.01413
G1 X167.042 Y137.701 E0.17253
G1 X167.199 Y137.567 E0.00879
G1 X167.355 Y137.472 E0.00782
G1 X167.522 Y137.403 E0.00774
G1 X167.698 Y137.360 E0.00774
G1 X167.905 Y137.344 E0.00887
G1 X176.982 Y137.344 E0.38813
G1 X177.015 Y137.346 E0.00140
G1 X177.605 Y137.390 E0.02530
G1 X177.605 Y139.610 E0.09492
G1 X177.015 Y139.654 E0.02530
G1 X176.982 Y139.656 E0.00140
G1 X169.971 Y139.656 E0.29979
G1 X169.766 Y139.674 E0.00878
G1 X169.539 Y139.735 E0.01004
G1 X169.327 Y139.834 E0.01004
G1 X169.134 Y139.968 E0.01004
G1 X168.968 Y140.134 E0.01004
G1 X168.834 Y140.327 E0.01004
G1 X168.735 Y140.539 E0.01004
G1 X168.674 Y140.766 E0.01004
G1 X168.656 Y140.971 E0.00879
G1 X168.656 Y141.718 E0.03194
G1 X168.656 Y148.018 E0.26937
G1 X168.661 Y148.111 E0.00397
G1 X168.672 Y148.234 E0.00529
G1 X168.733 Y148.461 E0.01005
G1 X168.832 Y148.674 E0.01005
G1 X168.967 Y148.867 E0.01005
G1 X169.133 Y149.033 E0.01005
G1 X169.326 Y149.168 E0.01005
G1 X169.539 Y149.267 E0.01005
G1 X169.772 Y149.330 E0.01033
G1 X169.937 Y149.341 E0.00705
G1 X169.971 Y149.344 E0.00146
G1 X176.282 Y149.344 E0.26984
G1 X176.982 Y149.344 E0.02995
G1 X177.015 Y149.346 E0.00141
G1 X177.605 Y149.390 E0.02530
G1 X177.605 Y151.610 E0.09492
G1 X177.015 Y151.654 E0.02530
G1 X176.982 Y151.656 E0.00140
G1 X167.905 Y151.656 E0.38813
G1 X167.698 Y151.640 E0.00887
G1 X167.522 Y151.597 E0.00774
G1 X167.355 Y151.528 E0.00774
G1 X167.200 Y151.433 E0.00774
G1 X167.042 Y151.299 E0.00887
G1 X164.189 Y148.445 E0.17253
G1 X163.869 Y148.172 E0.01797
G1 X163.489 Y147.939 E0.01910
G1 X163.076 Y147.768 E0.01910
G1 X162.642 Y147.664 E0.01910
G1 X162.223 Y147.631 E0.01797
G1 X152.018 Y147.631 E0.43633
G1 X151.985 Y147.629 E0.00140
G1 X151.395 Y147.585 E0.02530
G1 X151.395 Y141.475 E0.26124
G1 X150.966 Y141.120 F9000.000
;TYPE:External perimeter
G1 F600.000
G1 X151.045 Y141.074 E0.00390
G1 X151.245 Y141.006 E0.00902
G1 X151.312 Y140.991 E0.00295
G1 X151.958 Y140.943 E0.02767
G1 X152.006 Y140.941 E0.00209
G1 X162.206 Y140.941 E0.43609
G1 X162.575 Y140.912 E0.01581
G1 X162.943 Y140.823 E0.01621
G1 X163.294 Y140.678 E0.01621
G1 X163.618 Y140.479 E0.01625
G1 X163.658 Y140.444 E0.00229
G1 X163.898 Y140.240 E0.01348
G1 X166.751 Y137.386 E0.17253
G1 X166.938 Y137.226 E0.01052
G1 X166.947 Y137.219 E0.00047
G1 X167.159 Y137.089 E0.01067
G1 X167.389 Y136.994 E0.01063
G1 X167.631 Y136.936 E0.01063
G1 X167.888 Y136.916 E0.01103
G1 X176.994 Y136.916 E0.38933
G1 X177.042 Y136.918 E0.00209
G1 X177.688 Y136.966 E0.02767
G1 X177.755 Y136.981 E0.00295
G1 X177.955 Y137.049 E0.00902
G1 X178.034 Y137.095 E0.00390
G1 X178.034 Y139.905 E0.12017
G1 X177.955 Y139.951 E0.00390
G1 X177.755 Y140.019 E0.00902
G1 X177.688 Y140.034 E0.00295
G1 X177.042 Y140.082 E0.02767
G1 X176.994 Y140.084 E0.00209
G1 X169.990 Y140.084 E0.29947
G1 X169.841 Y140.097 E0.00638
G1 X169.687 Y140.139 E0.00683
G1 X169.542 Y140.206 E0.00683
G1 X169.411 Y140.298 E0.00683
G1 X169.298 Y140.411 E0.00683
G1 X169.206 Y140.542 E0.00683
G1 X169.139 Y140.687 E0.00683
G1 X169.097 Y140.841 E0.00683
G1 X169.084 Y140.990 E0.00638
G1 X169.085 Y141.718 E0.03114
G1 X169.085 Y148.007 E0.26887
G1 X169.089 Y148.081 E0.00317
G1 X169.096 Y148.159 E0.00338
G1 X169.137 Y148.314 E0.00684
G1 X169.205 Y148.459 E0.00684
G1 X169.297 Y148.590 E0.00684
G1 X169.410 Y148.703 E0.00684
G1 X169.541 Y148.795 E0.00684
G1 X169.686 Y148.863 E0.00684
G1 X169.843 Y148.905 E0.00695
G1 X169.970 Y148.914 E0.00545
G1 X169.990 Y148.915 E0.00084
G1 X176.282 Y148.915 E0.26904
G1 X176.994 Y148.916 E0.03043
G1 X177.042 Y148.918 E0.00209
G1 X177.688 Y148.966 E0.02767
G1 X177.755 Y148.981 E0.00295
G1 X177.955 Y149.049 E0.00902
G1 X178.034 Y149.095 E0.00390
G1 X178.034 Y151.905 E0.12017
G1 X177.955 Y151.951 E0.00390
G1 X177.755 Y152.019 E0.00902
G1 X177.688 Y152.034 E0.00295
G1 X177.042 Y152.082 E0.02767
G1 X176.994 Y152.084 E0.00209
G1 X167.888 Y152.084 E0.38933
G1 X167.631 Y152.064 E0.01103
G1 X167.389 Y152.006 E0.01063
G1 X167.159 Y151.911 E0.01063
G1 X166.948 Y151.781 E0.01063
G1 X166.751 Y151.614 E0.01103
G1 X163.898 Y148.760 E0.17253
G1 X163.617 Y148.520 E0.01581
G1 X163.294 Y148.322 E0.01621
G1 X162.943 Y148.177 E0.01621
G1 X162.575 Y148.088 E0.01621
G1 X162.206 Y148.059 E0.01581
G1 X152.006 Y148.059 E0.43609
G1 X151.958 Y148.057 E0.00209
G1 X151.312 Y148.009 E0.02767
G1 X151.245 Y147.994 E0.00295
G1 X151.045 Y147.926 E0.00902
G1 X150.966 Y147.880 E0.00390
G1 X150.966 Y141.180 E0.28649
G1 X151.056 Y141.135 F9000.000
G1 E-0.80000 F3000.000
G1 X166.938 Y139.836 F9000.000
G1 E0.80000 F1500.000
;TYPE:Solid infill
;WIDTH:0.49341
G1 F1800.000
G1 X167.106 Y140.004 E0.01047
G1 X167.057 Y140.562 E0.02458
G1 X166.771 Y140.275 E0.01780
G1 X166.468 Y140.578 E0.01883
G1 X167.028 Y141.138 E0.03481
G1 X167.029 Y141.745 E0.02666
G1 X166.165 Y140.881 E0.05368
G1 X165.862 Y141.184 E0.01883
G1 X167.029 Y142.352 E0.07256
G1 X167.030 Y142.958 E0.02666
G1 X165.559 Y141.487 E0.09143
G1 X165.295 Y141.751 E0.01638
G1 X165.253 Y141.787 E0.00246
G1 X167.031 Y143.565 E0.11050
G1 X167.031 Y144.172 E0.02666
G1 X164.927 Y142.067 E0.13080
G1 X164.837 Y142.145 E0.00523
G1 X164.565 Y142.311 E0.01400
G1 X167.032 Y144.778 E0.15334
G1 X167.033 Y145.385 E0.02666
G1 X164.183 Y142.536 E0.17710
G1 X163.755 Y142.713 E0.02038
G1 X167.033 Y145.992 E0.20378
G1 X167.034 Y146.598 E0.02666
G1 X163.291 Y142.855 E0.23267
G1 X162.897 Y142.949 E0.01778
G1 X162.788 Y142.958 E0.00483
G1 X167.035 Y147.205 E0.26397
G1 X167.036 Y147.812 E0.02666
G1 X162.221 Y142.997 E0.29923
G1 X161.615 Y142.997 E0.02663
G1 X167.267 Y148.650 E0.35131
G1 X167.326 Y149.314 F9000.000
G1 F1800.000
G1 X161.009 Y142.997 E0.39258
G1 X160.403 Y142.997 E0.02663
G1 X163.649 Y146.243 E0.20173
G1 X163.581 Y146.215 E0.00324
G1 X162.897 Y146.051 E0.03089
G1 X162.847 Y146.047 E0.00223
G1 X159.797 Y142.997 E0.18953
G1 X159.191 Y142.997 E0.02663
G1 X162.197 Y146.003 E0.18679
G1 X161.591 Y146.003 E0.02663
G1 X158.585 Y142.997 E0.18679
G1 X157.979 Y142.997 E0.02663
G1 X160.985 Y146.003 E0.18679
G1 X160.379 Y146.003 E0.02663
G1 X157.373 Y142.997 E0.18679
G1 X156.767 Y142.997 E0.02663
G1 X159.773 Y146.003 E0.18679
G1 X159.167 Y146.003 E0.02663
G1 X156.161 Y142.997 E0.18679
G1 X155.555 Y142.997 E0.02663
G1 X158.561 Y146.003 E0.18679
G1 X157.955 Y146.003 E0.02663
G1 X154.949 Y142.997 E0.18679
G1 X154.343 Y142.997 E0.02663
G1 X157.349 Y146.003 E0.18679
G1 X156.743 Y146.003 E0.02663
G1 X153.737 Y142.997 E0.18679
G1 X153.131 Y142.997 E0.02663
G1 X156.137 Y146.003 E0.18679
G1 X155.531 Y146.003 E0.02663
G1 X153.023 Y143.495 E0.15587
G1 X153.023 Y144.101 E0.02663
G1 X154.925 Y146.003 E0.11820
G1 X154.319 Y146.003 E0.02663
G1 X153.023 Y144.707 E0.08054
G1 X153.023 Y145.313 E0.02663
G1 X153.713 Y146.003 E0.04288
G1 X153.107 Y146.003 E0.02663
G1 X152.830 Y145.726 E0.01720
G1 E-0.80000 F3000.000
G1 X168.660 Y150.040 F9000.000
G1 E0.80000 F1500.000
;TYPE:Gap fill
;WIDTH:0.162242
G1 F600.000
G1 X168.730 Y150.099 E0.00100
G1 X168.766 Y150.128 E0.00050
G1 X168.773 Y150.134 E0.00010
G1 X168.861 Y150.195 E0.00115
;WIDTH:0.211552
G1 X168.948 Y150.256 E0.00170
;WIDTH:0.260863
G1 X169.035 Y150.317 E0.00222
;WIDTH:0.320387
G1 X169.122 Y150.379 E0.00286
G1 X169.186 Y150.416 E0.00198
;WIDTH:0.372467
G1 X169.229 Y150.441 E0.00161
G1 X169.399 Y150.464 E0.00548
;WIDTH:0.283096
G1 X169.569 Y150.486 E0.00396
G1 X169.580 Y150.487 E0.00026
;WIDTH:0.255604
G1 X169.591 Y150.488 E0.00023
G1 X169.847 Y150.497 E0.00522
G1 X169.916 Y150.500 E0.00140
G1 X169.925 Y150.500 E0.00018
G1 X173.187 Y150.500 E0.06644
G1 X176.551 Y150.500 E0.06851
G1 E-0.80000 F3000.000
G1 X176.551 Y138.500 F9000.000
G1 E0.80000 F1500.000
;WIDTH:0.255432
G1 F600.000
G1 X176.449 Y138.500 E0.00207
G1 X169.925 Y138.500 E0.13276
G1 X169.916 Y138.500 E0.00018
G1 X169.744 Y138.508 E0.00350
;WIDTH:0.28583
G1 X169.572 Y138.515 E0.00402
G1 X169.552 Y138.517 E0.00048
G1 X169.392 Y138.538 E0.00377
;WIDTH:0.37357
G1 X169.232 Y138.559 E0.00518
G1 X169.187 Y138.585 E0.00166
;WIDTH:0.320181
G1 X169.143 Y138.611 E0.00138
G1 X169.123 Y138.623 E0.00063
G1 X169.036 Y138.684 E0.00285
;WIDTH:0.260706
G1 X168.949 Y138.745 E0.00222
;WIDTH:0.211436
G1 X168.861 Y138.806 E0.00170
;WIDTH:0.162167
G1 X168.774 Y138.867 E0.00117
G1 X168.767 Y138.873 E0.00011
G1 X168.696 Y138.932 E0.00101
G1 X168.679 Y138.947 E0.00025
G1 E-0.80000 F3000.000
G1 X168.655 Y160.630 F9000.000
G1 E0.80000 F1500.000
