; generated by SuperSlicer 2.3.56 on 2021-06-23 at 03:00:04 UTC


;
;

;
;
; 

; external perimeters extrusion width = 0.40mm
; perimeters extrusion width = 0.40mm
; infill extrusion width = 0.40mm
; solid infill extrusion width = 0.40mm
; top infill extrusion width = 0.40mm
; first layer extrusion width = 0.48mm


;TYPE:Custom
START_PRINT T_BED=60 T_EXTRUDER=200
M107
G21 ; set units to millimeters
G90 ; use absolute coordinates
M83 ; use relative distances for extrusion
; Filament gcode
M104 S200 ; set temperature
M109 S200 ; set temperature and wait for it to be reached
M190 S60 ; set bed temperature and wait for it to be reached
;LAYER_CHANGE
;Z:0.24
;HEIGHT:0.24
G1 Z0.240000 F9000.000
TIMELAPSE_TAKE_FRAME
G1 E-0.80000 F3000.000
G1 X138.510 Y101.020 F9000.000
G1 E0.80000 F1800.000
;TYPE:Skirt
;WIDTH:0.48
G1 F600.000
G1 X138.835 Y100.628 E0.02177
G1 X139.232 Y100.303 E0.02194
G1 X158.438 Y88.357 E0.96706
G1 X159.351 Y88.005 E0.04182
G1 X160.367 Y87.861 E0.04388
G1 X168.504 Y87.857 E0.34790
G1 X169.683 Y88.014 E0.05085
G1 X170.785 Y88.474 E0.05104
G1 X189.715 Y100.268 E0.95359
G1 X190.148 Y100.611 E0.02365
G1 X190.501 Y101.037 E0.02365
G1 X190.757 Y101.528 E0.02365
G1 X190.906 Y102.060 E0.02365
G1 X190.943 Y220.500 E5.06394
G1 X190.886 Y221.042 E0.02331
G1 X190.569 Y221.854 E0.03726
G1 X190.006 Y222.519 E0.03726
G1 X189.256 Y222.964 E0.03726
G1 X188.407 Y223.141 E0.03709
G1 X140.696 Y223.143 E2.03990
G1 X140.158 Y223.086 E0.02314
G1 X139.332 Y222.761 E0.03794
G1 X138.661 Y222.181 E0.03794
G1 X138.219 Y221.411 E0.03794
G1 X138.058 Y220.543 E0.03777
G1 X138.057 Y102.500 E5.04697
G1 X138.114 Y101.958 E0.02331
G1 X138.266 Y101.472 E0.02177
G1 X138.482 Y101.073 E0.01938
G1 X138.870 Y101.254 F9000.000
G1 F600.000
G1 X139.478 Y100.653 E0.03655
G1 X158.625 Y88.743 E0.96410
G1 X159.457 Y88.420 E0.03816
G1 X160.398 Y88.288 E0.04061
G1 X168.504 Y88.286 E0.34658
G1 X169.569 Y88.427 E0.04595
G1 X170.574 Y88.847 E0.04654
G1 X189.480 Y100.627 E0.95244
G1 X189.849 Y100.918 E0.02008
G1 X190.146 Y101.277 E0.01992
G1 X190.361 Y101.690 E0.01992
G1 X190.485 Y102.140 E0.01992
G1 X190.467 Y220.956 E5.08006
G1 X190.200 Y221.638 E0.03129
G1 X189.725 Y222.195 E0.03129
G1 X189.095 Y222.567 E0.03129
G1 X188.378 Y222.713 E0.03129
G1 X140.244 Y222.667 E2.05799
G1 X139.553 Y222.394 E0.03176
G1 X138.991 Y221.908 E0.03176
G1 X138.620 Y221.260 E0.03191
G1 X138.486 Y220.530 E0.03176
G1 X138.533 Y102.044 E5.06593
G1 X138.846 Y101.309 E0.03414
G1 E-0.80000 F3000.000
G1 X143.975 Y108.975 F9000.000
G1 E0.80000 F1800.000
;TYPE:Internal perimeter
G1 F600.000
G1 X143.975 Y218.975 E4.70310
G1 X142.225 Y218.975 E0.07478
G1 X142.225 Y104.025 E4.91470
G1 X156.725 Y104.025 E0.61992
G1 X156.846 Y104.005 E0.00527
G1 X157.520 Y103.917 E0.02907
G1 X158.231 Y103.622 E0.03291
G1 X158.429 Y103.520 E0.00950
G1 X158.994 Y103.086 E0.03045
G1 X159.156 Y102.933 E0.00956
G1 X159.569 Y102.396 E0.02895
G1 X159.690 Y102.210 E0.00947
G1 X159.938 Y101.610 E0.02777
G1 X159.998 Y101.458 E0.00700
G1 X160.040 Y101.259 E0.00867
G1 X160.117 Y100.668 E0.02548
G1 X160.125 Y100.553 E0.00497
G1 X160.125 Y92.500 E0.34429
G1 X160.151 Y92.306 E0.00835
G1 X160.187 Y92.219 E0.00403
G1 X160.244 Y92.144 E0.00403
G1 X160.319 Y92.087 E0.00403
G1 X160.406 Y92.051 E0.00403
G1 X160.600 Y92.025 E0.00834
G1 X168.400 Y92.025 E0.33349
G1 X168.594 Y92.051 E0.00834
G1 X168.681 Y92.087 E0.00403
G1 X168.756 Y92.144 E0.00403
G1 X168.813 Y92.219 E0.00403
G1 X168.849 Y92.306 E0.00403
G1 X168.875 Y92.500 E0.00835
G1 X168.875 Y100.552 E0.34429
G1 X168.883 Y100.668 E0.00497
G1 X168.960 Y101.259 E0.02548
G1 X169.002 Y101.458 E0.00867
G1 X169.062 Y101.610 E0.00700
G1 X169.310 Y102.210 E0.02777
G1 X169.431 Y102.396 E0.00947
G1 X169.844 Y102.933 E0.02895
G1 X170.006 Y103.086 E0.00956
G1 X170.571 Y103.520 E0.03045
G1 X170.769 Y103.622 E0.00950
G1 X171.480 Y103.917 E0.03291
G1 X172.154 Y104.005 E0.02907
G1 X172.275 Y104.025 E0.00527
G1 X186.775 Y104.025 E0.61992
G1 X186.775 Y218.975 E4.91470
G1 X185.025 Y218.975 E0.07478
G1 X185.025 Y108.975 E4.70310
G1 X179.975 Y108.975 E0.21596
G1 X179.975 Y218.975 E4.70310
G1 X173.025 Y218.975 E0.29711
G1 X173.025 Y108.975 E4.70310
G1 X167.975 Y108.975 E0.21596
G1 X167.975 Y218.975 E4.70310
G1 X161.025 Y218.975 E0.29711
G1 X161.025 Y108.975 E4.70310
G1 X155.975 Y108.975 E0.21596
G1 X155.975 Y218.975 E4.70310
G1 X149.025 Y218.975 E0.29711
G1 X149.025 Y108.975 E4.70310
G1 X144.035 Y108.975 E0.21339
G1 X144.403 Y109.403 F9000.000
G1 F600.000
G1 X144.403 Y219.403 E4.70310
G1 X141.797 Y219.403 E0.11142
G1 X141.797 Y103.597 E4.95134
G1 X156.690 Y103.597 E0.63674
G1 X156.784 Y103.582 E0.00407
G1 X157.408 Y103.499 E0.02695
G1 X158.050 Y103.233 E0.02971
G1 X158.198 Y103.157 E0.00710
G1 X158.716 Y102.760 E0.02790
G1 X158.837 Y102.645 E0.00716
G1 X159.219 Y102.148 E0.02678
G1 X159.309 Y102.009 E0.00707
G1 X159.541 Y101.450 E0.02590
G1 X159.586 Y101.335 E0.00529
G1 X159.617 Y101.187 E0.00643
G1 X159.691 Y100.626 E0.02422
G1 X159.697 Y100.538 E0.00377
G1 X159.697 Y92.472 E0.34486
G1 X159.733 Y92.195 E0.01196
G1 X159.813 Y92.003 E0.00886
G1 X159.939 Y91.839 E0.00886
G1 X160.103 Y91.713 E0.00886
G1 X160.295 Y91.633 E0.00886
G1 X160.572 Y91.597 E0.01196
G1 X168.428 Y91.597 E0.33590
G1 X168.705 Y91.633 E0.01196
G1 X168.897 Y91.713 E0.00886
G1 X169.061 Y91.839 E0.00886
G1 X169.187 Y92.003 E0.00886
G1 X169.267 Y92.195 E0.00886
G1 X169.303 Y92.472 E0.01196
G1 X169.303 Y100.538 E0.34486
G1 X169.309 Y100.626 E0.00377
G1 X169.383 Y101.187 E0.02422
G1 X169.414 Y101.335 E0.00643
G1 X169.459 Y101.450 E0.00529
G1 X169.691 Y102.009 E0.02590
G1 X169.781 Y102.148 E0.00707
G1 X170.163 Y102.645 E0.02678
G1 X170.284 Y102.760 E0.00716
G1 X170.802 Y103.157 E0.02791
G1 X170.950 Y103.233 E0.00710
G1 X171.592 Y103.499 E0.02971
G1 X172.216 Y103.582 E0.02695
G1 X172.310 Y103.597 E0.00407
G1 X187.203 Y103.597 E0.63674
G1 X187.203 Y219.403 E4.95134
G1 X184.597 Y219.403 E0.11142
G1 X184.597 Y109.403 E4.70310
G1 X180.403 Y109.403 E0.17932
G1 X180.403 Y219.403 E4.70310
G1 X172.597 Y219.403 E0.33375
G1 X172.597 Y109.403 E4.70310
G1 X168.403 Y109.403 E0.17932
G1 X168.403 Y219.403 E4.70310
G1 X160.597 Y219.403 E0.33375
G1 X160.597 Y109.403 E4.70310
G1 X156.403 Y109.403 E0.17932
G1 X156.403 Y219.403 E4.70310
G1 X148.597 Y219.403 E0.33375
G1 X148.597 Y109.403 E4.70310
G1 X144.463 Y109.403 E0.17675
G1 X144.832 Y109.832 F9000.000
G1 F600.000
G1 X144.832 Y219.832 E4.70310
G1 X141.368 Y219.832 E0.14806
G1 X141.368 Y103.168 E4.98798
G1 X156.655 Y103.168 E0.65356
G1 X156.721 Y103.158 E0.00287
G1 X157.297 Y103.082 E0.02483
G1 X157.869 Y102.845 E0.02651
G1 X157.967 Y102.794 E0.00470
G1 X158.437 Y102.433 E0.02536
G1 X158.518 Y102.357 E0.00475
G1 X158.869 Y101.900 E0.02462
G1 X158.928 Y101.809 E0.00466
G1 X159.144 Y101.289 E0.02403
G1 X159.174 Y101.211 E0.00358
G1 X159.194 Y101.115 E0.00419
G1 X159.264 Y100.583 E0.02296
G1 X159.268 Y100.523 E0.00257
G1 X159.268 Y92.444 E0.34543
G1 X159.316 Y92.083 E0.01557
G1 X159.438 Y91.787 E0.01368
G1 X159.633 Y91.533 E0.01368
G1 X159.887 Y91.338 E0.01368
G1 X160.183 Y91.216 E0.01368
G1 X160.544 Y91.168 E0.01557
G1 X168.456 Y91.168 E0.33830
G1 X168.817 Y91.216 E0.01557
G1 X169.113 Y91.338 E0.01368
G1 X169.367 Y91.533 E0.01368
G1 X169.562 Y91.787 E0.01368
G1 X169.684 Y92.083 E0.01368
G1 X169.732 Y92.444 E0.01557
G1 X169.732 Y100.523 E0.34543
G1 X169.736 Y100.583 E0.00257
G1 X169.806 Y101.115 E0.02296
G1 X169.826 Y101.211 E0.00419
G1 X169.856 Y101.289 E0.00358
G1 X170.072 Y101.809 E0.02403
G1 X170.131 Y101.900 E0.00466
G1 X170.482 Y102.357 E0.02461
G1 X170.563 Y102.433 E0.00475
G1 X171.033 Y102.794 E0.02536
G1 X171.131 Y102.845 E0.00470
G1 X171.703 Y103.082 E0.02651
G1 X172.279 Y103.158 E0.02483
G1 X172.345 Y103.168 E0.00287
G1 X187.632 Y103.168 E0.65356
G1 X187.632 Y219.832 E4.98798
G1 X184.168 Y219.832 E0.14806
G1 X184.168 Y109.832 E4.70310
G1 X180.832 Y109.832 E0.14267
G1 X180.832 Y219.832 E4.70310
G1 X172.168 Y219.832 E0.37039
G1 X172.168 Y109.832 E4.70310
G1 X168.832 Y109.832 E0.14267
G1 X168.832 Y219.832 E4.70310
G1 X160.168 Y219.832 E0.37039
G1 X160.168 Y109.832 E4.70310
G1 X156.832 Y109.832 E0.14267
G1 X156.832 Y219.832 E4.70310
G1 X148.168 Y219.832 E0.37039
G1 X148.168 Y109.832 E4.70310
G1 X144.892 Y109.832 E0.14011
G1 X145.260 Y110.260 F9000.000
;TYPE:External perimeter
G1 F600.000
G1 X145.260 Y220.260 E4.70310
G1 X140.940 Y220.260 E0.18470
G1 X140.940 Y102.740 E5.02462
G1 X156.620 Y102.740 E0.67039
G1 X156.658 Y102.734 E0.00166
G1 X157.185 Y102.664 E0.02271
G1 X157.689 Y102.456 E0.02332
G1 X157.736 Y102.431 E0.00229
G1 X158.159 Y102.106 E0.02281
G1 X158.199 Y102.069 E0.00235
G1 X158.519 Y101.652 E0.02245
G1 X158.548 Y101.608 E0.00226
G1 X158.746 Y101.129 E0.02216
G1 X158.762 Y101.088 E0.00187
G1 X158.772 Y101.043 E0.00195
G1 X158.838 Y100.540 E0.02170
G1 X158.840 Y100.508 E0.00137
G1 X158.840 Y92.416 E0.34600
G1 X158.899 Y91.971 E0.01918
G1 X159.064 Y91.571 E0.01850
G1 X159.328 Y91.228 E0.01850
G1 X159.671 Y90.964 E0.01850
G1 X160.071 Y90.799 E0.01850
G1 X160.516 Y90.740 E0.01918
G1 X168.484 Y90.740 E0.34070
G1 X168.929 Y90.799 E0.01918
G1 X169.329 Y90.964 E0.01850
G1 X169.672 Y91.228 E0.01850
G1 X169.936 Y91.571 E0.01850
G1 X170.101 Y91.971 E0.01850
G1 X170.160 Y92.416 E0.01918
G1 X170.160 Y100.508 E0.34600
G1 X170.162 Y100.540 E0.00137
G1 X170.228 Y101.043 E0.02170
G1 X170.238 Y101.088 E0.00195
G1 X170.254 Y101.129 E0.00187
G1 X170.452 Y101.608 E0.02216
G1 X170.481 Y101.652 E0.00226
G1 X170.801 Y102.069 E0.02245
G1 X170.841 Y102.106 E0.00235
G1 X171.264 Y102.431 E0.02281
G1 X171.311 Y102.456 E0.00229
G1 X171.815 Y102.664 E0.02332
G1 X172.342 Y102.734 E0.02271
G1 X172.380 Y102.740 E0.00166
G1 X188.060 Y102.740 E0.67039
G1 X188.060 Y220.260 E5.02462
G1 X183.740 Y220.260 E0.18470
G1 X183.740 Y110.260 E4.70310
G1 X181.260 Y110.260 E0.10603
G1 X181.260 Y220.260 E4.70310
G1 X171.740 Y220.260 E0.40703
G1 X171.740 Y110.260 E4.70310
G1 X169.260 Y110.260 E0.10603
G1 X169.260 Y220.260 E4.70310
G1 X159.740 Y220.260 E0.40703
G1 X159.740 Y110.260 E4.70310
G1 X157.260 Y110.260 E0.10603
G1 X157.260 Y220.260 E4.70310
G1 X147.740 Y220.260 E0.40703
G1 X147.740 Y110.260 E4.70310
G1 X145.320 Y110.260 E0.10347
G1 X144.860 Y110.260 F9000.000
G1 E-0.80000 F3000.000
G1 X186.625 Y105.042 F9000.000
G1 E0.80000 F1800.000
;TYPE:Solid infill
;WIDTH:0.48456
G1 X185.951 Y104.368 E0.04110
G1 X185.345 Y104.368 E0.02616
G1 X186.432 Y105.455 E0.06632
G1 X186.432 Y106.061 E0.02616
G1 X184.739 Y104.368 E0.10331
G1 X184.133 Y104.368 E0.02616
G1 X186.432 Y106.667 E0.14030
G1 X186.432 Y107.273 E0.02616
G1 X183.527 Y104.368 E0.17729
G1 X182.921 Y104.368 E0.02616
G1 X186.432 Y107.879 E0.21428
G1 X186.432 Y108.485 E0.02616
G1 X182.315 Y104.368 E0.25127
G1 X181.709 Y104.368 E0.02616
G1 X186.432 Y109.091 E0.28826
G1 X186.432 Y109.697 E0.02616
G1 X181.103 Y104.368 E0.32525
G1 X180.497 Y104.368 E0.02616
G1 X184.761 Y108.632 E0.26024
G1 X184.155 Y108.632 E0.02616
G1 X179.891 Y104.368 E0.26024
G1 X179.285 Y104.368 E0.02616
G1 X183.549 Y108.632 E0.26024
G1 X182.943 Y108.632 E0.02616
G1 X178.679 Y104.368 E0.26024
G1 X178.073 Y104.368 E0.02616
G1 X182.337 Y108.632 E0.26024
G1 X181.731 Y108.632 E0.02616
G1 X177.467 Y104.368 E0.26024
G1 X176.861 Y104.368 E0.02616
G1 X181.125 Y108.632 E0.26024
G1 X180.519 Y108.632 E0.02616
G1 X176.255 Y104.368 E0.26024
G1 X175.649 Y104.368 E0.02616
G1 X179.913 Y108.632 E0.26024
G1 X179.632 Y108.632 E0.01214
G1 X179.632 Y108.957 E0.01402
G1 X175.043 Y104.368 E0.28007
G1 X174.437 Y104.368 E0.02616
G1 X179.632 Y109.563 E0.31705
G1 X179.632 Y110.168 E0.02616
G1 X173.832 Y104.368 E0.35404
G1 X173.226 Y104.368 E0.02616
G1 X179.632 Y110.774 E0.39103
G1 X179.632 Y111.380 E0.02616
G1 X172.620 Y104.368 E0.42802
G1 X172.252 Y104.368 E0.01586
G1 X171.976 Y104.331 E0.01204
G1 X179.632 Y111.986 E0.46732
G1 X179.632 Y112.592 E0.02616
G1 X170.863 Y103.824 E0.53525
G1 E-0.80000 F3000.000
G1 X168.725 Y92.595 F9000.000
G1 E0.80000 F1800.000
G1 X168.497 Y92.368 E0.01387
G1 X167.891 Y92.368 E0.02616
G1 X168.532 Y93.009 E0.03909
G1 X168.532 Y93.615 E0.02616
G1 X167.285 Y92.368 E0.07608
G1 X166.679 Y92.368 E0.02616
G1 X168.532 Y94.221 E0.11307
G1 X168.532 Y94.827 E0.02616
G1 X166.073 Y92.368 E0.15006
G1 X165.467 Y92.368 E0.02616
G1 X168.532 Y95.433 E0.18705
G1 X168.532 Y96.039 E0.02616
G1 X164.861 Y92.368 E0.22403
G1 X164.255 Y92.368 E0.02616
G1 X168.532 Y96.645 E0.26102
G1 X168.532 Y97.251 E0.02616
G1 X163.649 Y92.368 E0.29801
G1 X163.043 Y92.368 E0.02616
G1 X168.532 Y97.857 E0.33500
G1 X168.532 Y98.463 E0.02616
G1 X162.437 Y92.368 E0.37199
G1 X161.832 Y92.368 E0.02616
G1 X168.532 Y99.068 E0.40898
G1 X168.532 Y99.674 E0.02616
G1 X161.226 Y92.368 E0.44597
G1 X160.620 Y92.368 E0.02616
G1 X168.532 Y100.280 E0.48296
G1 X168.532 Y100.573 E0.01264
G1 X168.575 Y100.930 E0.01550
G1 X160.468 Y92.823 E0.49483
G1 X160.468 Y93.429 E0.02616
G1 X169.078 Y102.039 E0.52553
G1 E-0.80000 F3000.000
G1 X160.275 Y93.842 F9000.000
G1 E0.80000 F1800.000
G1 X179.632 Y113.198 E1.18150
G1 X179.632 Y113.804 E0.02616
G1 X160.468 Y94.641 E1.16973
G1 X160.468 Y95.247 E0.02616
G1 X179.632 Y114.410 E1.16973
G1 X179.632 Y115.016 E0.02616
G1 X160.468 Y95.853 E1.16973
G1 X160.468 Y96.459 E0.02616
G1 X172.641 Y108.632 E0.74303
G1 X172.035 Y108.632 E0.02616
G1 X160.468 Y97.065 E0.70604
G1 X160.468 Y97.671 E0.02616
G1 X171.429 Y108.632 E0.66905
G1 X170.823 Y108.632 E0.02616
G1 X160.468 Y98.277 E0.63206
G1 X160.468 Y98.883 E0.02616
G1 X170.217 Y108.632 E0.59507
G1 X169.611 Y108.632 E0.02616
G1 X160.468 Y99.489 E0.55808
G1 X160.468 Y100.095 E0.02616
G1 X169.005 Y108.632 E0.52109
G1 X168.399 Y108.632 E0.02616
G1 X160.454 Y100.687 E0.48495
G1 X160.389 Y101.227 E0.02350
G1 X167.793 Y108.632 E0.45196
G1 X167.632 Y108.632 E0.00697
G1 X167.632 Y109.076 E0.01918
G1 X160.265 Y101.710 E0.44964
G1 X160.089 Y102.140 E0.02005
G1 X167.632 Y109.682 E0.46040
G1 X167.632 Y110.288 E0.02616
G1 X159.884 Y102.540 E0.47294
G1 X159.848 Y102.594 E0.00278
G1 X159.624 Y102.886 E0.01591
G1 X167.632 Y110.894 E0.48879
G1 X167.632 Y111.500 E0.02616
G1 X159.352 Y103.220 E0.50542
G1 X159.216 Y103.348 E0.00803
G1 X159.022 Y103.497 E0.01055
G1 X167.632 Y112.106 E0.52553
G1 X167.632 Y112.712 E0.02616
G1 X158.679 Y103.760 E0.54646
G1 X158.613 Y103.810 E0.00359
G1 X158.376 Y103.933 E0.01153
G1 X158.285 Y103.971 E0.00427
G1 X167.632 Y113.318 E0.57054
G1 X167.632 Y113.924 E0.02616
G1 X157.856 Y104.149 E0.59669
G1 X157.611 Y104.250 E0.01148
G1 X157.383 Y104.281 E0.00991
G1 X167.632 Y114.530 E0.62557
G1 X167.632 Y115.136 E0.02616
G1 X156.850 Y104.354 E0.65811
G1 X156.748 Y104.368 E0.00445
G1 X156.258 Y104.368 E0.02115
G1 X160.521 Y108.632 E0.26024
G1 X159.915 Y108.632 E0.02616
G1 X155.652 Y104.368 E0.26024
G1 X155.046 Y104.368 E0.02616
G1 X159.309 Y108.632 E0.26024
G1 X158.703 Y108.632 E0.02616
G1 X154.440 Y104.368 E0.26024
G1 X153.834 Y104.368 E0.02616
G1 X158.098 Y108.632 E0.26024
G1 X157.492 Y108.632 E0.02616
G1 X153.228 Y104.368 E0.26024
G1 X152.622 Y104.368 E0.02616
G1 X156.886 Y108.632 E0.26024
G1 X156.280 Y108.632 E0.02616
G1 X152.016 Y104.368 E0.26024
G1 X151.410 Y104.368 E0.02616
G1 X155.674 Y108.632 E0.26024
G1 X155.632 Y108.632 E0.00181
G1 X155.632 Y109.196 E0.02435
G1 X150.804 Y104.368 E0.29467
G1 X150.198 Y104.368 E0.02616
G1 X155.632 Y109.802 E0.33166
G1 X155.632 Y110.408 E0.02616
G1 X149.592 Y104.368 E0.36865
G1 X148.986 Y104.368 E0.02616
G1 X155.632 Y111.014 E0.40564
G1 X155.632 Y111.620 E0.02616
G1 X148.380 Y104.368 E0.44263
G1 X147.774 Y104.368 E0.02616
G1 X155.632 Y112.226 E0.47962
G1 X155.632 Y112.832 E0.02616
G1 X147.168 Y104.368 E0.51661
G1 X146.562 Y104.368 E0.02616
G1 X155.632 Y113.438 E0.55360
G1 X155.632 Y114.044 E0.02616
G1 X145.956 Y104.368 E0.59059
G1 X145.350 Y104.368 E0.02616
G1 X155.632 Y114.650 E0.62758
G1 X155.632 Y115.256 E0.02616
G1 X144.744 Y104.368 E0.66457
G1 X144.138 Y104.368 E0.02616
G1 X148.402 Y108.632 E0.26024
G1 X147.796 Y108.632 E0.02616
G1 X143.532 Y104.368 E0.26024
G1 X142.926 Y104.368 E0.02616
G1 X147.190 Y108.632 E0.26024
G1 X146.584 Y108.632 E0.02616
G1 X142.568 Y104.616 E0.24511
G1 X142.568 Y105.222 E0.02616
G1 X145.978 Y108.632 E0.20812
