; generated by SuperSlicer 2.3.56 on 2021-06-24 at 23:52:07 UTC


;
;

;
;
; 

; external perimeters extrusion width = 0.40mm
; perimeters extrusion width = 0.40mm
; infill extrusion width = 0.40mm
; solid infill extrusion width = 0.40mm
; top infill extrusion width = 0.40mm
; first layer extrusion width = 0.48mm


;TYPE:Custom
START_PRINT T_BED=110 T_EXTRUDER=245
M107
G21 ; set units to millimeters
G90 ; use absolute coordinates
M83 ; use relative distances for extrusion
M104 S245 ; set temperature
M109 S245 ; set temperature and wait for it to be reached
M190 S110 ; set bed temperature and wait for it to be reached
;LAYER_CHANGE
;Z:0.24
;HEIGHT:0.24
G1 Z0.240000 F9000.000
TIMELAPSE_TAKE_FRAME
G1 E-1.00000 F3000.000
G1 X143.307 Y127.114 F9000.000
G1 E1.00000 F1800.000
;TYPE:Skirt
;WIDTH:0.48
G1 F600.000
G1 X143.803 Y126.740 E0.02655
G1 X144.376 Y126.490 E0.02672
G1 X144.988 Y126.382 E0.02655
G1 X164.142 Y126.378 E0.81894
G1 X164.668 Y126.432 E0.02263
G1 X165.173 Y126.589 E0.02263
G1 X192.133 Y138.312 E1.25695
G1 X193.046 Y138.951 E0.04760
G1 X193.658 Y139.581 E0.03756
G1 X193.993 Y140.103 E0.02655
G1 X194.266 Y140.882 E0.03527
G1 X194.364 Y141.639 E0.03263
G1 X194.362 Y180.920 E1.67950
G1 X194.214 Y181.763 E0.03657
G1 X193.804 Y182.681 E0.04300
G1 X192.967 Y183.580 E0.05253
G1 X192.183 Y184.123 E0.04075
G1 X191.503 Y184.386 E0.03118
G1 X190.791 Y184.499 E0.03083
G1 X187.321 Y184.504 E0.14836
G1 X145.981 Y181.925 E1.77097
G1 X145.251 Y181.819 E0.03151
G1 X144.222 Y181.508 E0.04599
G1 X143.558 Y181.197 E0.03133
G1 X142.931 Y180.803 E0.03168
G1 X142.150 Y180.141 E0.04376
G1 X135.878 Y173.386 E0.39411
G1 X135.421 Y172.792 E0.03206
G1 X134.914 Y171.891 E0.04420
G1 X134.495 Y170.633 E0.05668
G1 X134.359 Y169.427 E0.05190
G1 X134.400 Y156.691 E0.54451
G1 X142.601 Y128.279 E1.26439
G1 X142.913 Y127.594 E0.03217
G1 X143.269 Y127.160 E0.02399
G1 X143.598 Y127.431 F9000.000
G1 F600.000
G1 X143.607 Y127.420 E0.00062
G1 X144.027 Y127.105 E0.02242
G1 X144.508 Y126.898 E0.02242
G1 X145.029 Y126.809 E0.02258
G1 X164.141 Y126.806 E0.81716
G1 X165.007 Y126.984 E0.03778
G1 X191.948 Y138.699 E1.25607
G1 X192.744 Y139.255 E0.04149
G1 X193.316 Y139.840 E0.03499
G1 X193.606 Y140.286 E0.02274
G1 X193.849 Y140.981 E0.03149
G1 X193.936 Y141.646 E0.02866
G1 X193.934 Y180.893 E1.67802
G1 X193.808 Y181.624 E0.03174
G1 X193.451 Y182.439 E0.03804
G1 X192.687 Y183.256 E0.04784
G1 X192.002 Y183.735 E0.03571
G1 X191.391 Y183.972 E0.02803
G1 X190.747 Y184.073 E0.02787
G1 X187.339 Y184.076 E0.14569
G1 X146.008 Y181.497 E1.77060
G1 X145.343 Y181.401 E0.02871
G1 X144.369 Y181.105 E0.04350
G1 X143.760 Y180.820 E0.02876
G1 X143.185 Y180.458 E0.02907
G1 X142.443 Y179.827 E0.04162
G1 X136.201 Y173.104 E0.39221
G1 X135.780 Y172.559 E0.02946
G1 X135.301 Y171.708 E0.04173
G1 X134.912 Y170.535 E0.05284
G1 X134.787 Y169.413 E0.04831
G1 X134.821 Y156.768 E0.54063
G1 X143.013 Y128.398 E1.26250
G1 X143.274 Y127.825 E0.02694
G1 X143.560 Y127.478 E0.01924
G1 E-1.00000 F3000.000
G1 X176.322 Y158.337 F9000.000
G1 E1.00000 F1800.000
;TYPE:Internal perimeter
G1 F600.000
G1 X175.838 Y158.937 E0.03293
G1 X175.462 Y159.609 E0.03293
G1 X175.205 Y160.335 E0.03293
G1 X175.075 Y161.094 E0.03293
G1 X175.075 Y161.865 E0.03293
G1 X175.205 Y162.624 E0.03293
G1 X175.462 Y163.350 E0.03293
G1 X175.838 Y164.022 E0.03293
G1 X176.322 Y164.622 E0.03293
G1 X176.900 Y165.130 E0.03293
G1 X177.556 Y165.534 E0.03293
G1 X178.270 Y165.821 E0.03293
G1 X179.023 Y165.984 E0.03293
G1 X179.793 Y166.016 E0.03293
G1 X180.557 Y165.919 E0.03293
G1 X181.293 Y165.693 E0.03293
G1 X181.981 Y165.346 E0.03293
G1 X182.600 Y164.888 E0.03293
G1 X183.133 Y164.332 E0.03293
G1 X183.564 Y163.694 E0.03293
G1 X183.882 Y162.992 E0.03293
G1 X184.076 Y162.247 E0.03293
G1 X184.141 Y161.479 E0.03293
G1 X184.076 Y160.712 E0.03293
G1 X183.882 Y159.967 E0.03293
G1 X183.564 Y159.265 E0.03293
G1 X183.133 Y158.627 E0.03293
G1 X182.600 Y158.071 E0.03293
G1 X181.981 Y157.613 E0.03293
G1 X181.293 Y157.266 E0.03293
G1 X180.557 Y157.040 E0.03293
G1 X179.793 Y156.942 E0.03293
G1 X179.023 Y156.975 E0.03293
G1 X178.270 Y157.137 E0.03293
G1 X177.556 Y157.425 E0.03293
G1 X176.900 Y157.828 E0.03293
G1 X176.367 Y158.298 E0.03037
G1 X176.650 Y158.619 F9000.000
G1 F600.000
G1 X176.632 Y158.635 E0.00101
G1 X176.194 Y159.177 E0.02981
G1 X175.854 Y159.786 E0.02981
G1 X175.622 Y160.444 E0.02981
G1 X175.504 Y161.131 E0.02981
G1 X175.504 Y161.828 E0.02981
G1 X175.622 Y162.515 E0.02981
G1 X175.854 Y163.173 E0.02981
G1 X176.194 Y163.782 E0.02981
G1 X176.632 Y164.324 E0.02981
G1 X177.155 Y164.785 E0.02981
G1 X177.749 Y165.150 E0.02981
G1 X178.396 Y165.410 E0.02981
G1 X179.078 Y165.557 E0.02981
G1 X179.775 Y165.587 E0.02981
G1 X180.466 Y165.498 E0.02981
G1 X181.133 Y165.294 E0.02981
G1 X181.755 Y164.980 E0.02981
G1 X182.316 Y164.565 E0.02981
G1 X182.799 Y164.062 E0.02981
G1 X183.189 Y163.484 E0.02981
G1 X183.476 Y162.849 E0.02981
G1 X183.652 Y162.174 E0.02981
G1 X183.711 Y161.479 E0.02981
G1 X183.652 Y160.785 E0.02981
G1 X183.476 Y160.110 E0.02981
G1 X183.189 Y159.475 E0.02981
G1 X182.799 Y158.897 E0.02981
G1 X182.316 Y158.393 E0.02981
G1 X181.755 Y157.979 E0.02981
G1 X181.133 Y157.665 E0.02981
G1 X180.466 Y157.461 E0.02981
G1 X179.775 Y157.372 E0.02981
G1 X179.078 Y157.402 E0.02981
G1 X178.396 Y157.549 E0.02981
G1 X177.749 Y157.809 E0.02981
G1 X177.155 Y158.174 E0.02981
G1 X176.695 Y158.580 E0.02624
G1 X176.978 Y158.901 F9000.000
G1 F600.000
G1 X176.942 Y158.932 E0.00201
G1 X176.550 Y159.418 E0.02669
G1 X176.246 Y159.963 E0.02669
G1 X176.038 Y160.552 E0.02669
G1 X175.932 Y161.167 E0.02669
G1 X175.932 Y161.792 E0.02669
G1 X176.038 Y162.407 E0.02669
G1 X176.246 Y162.996 E0.02669
G1 X176.550 Y163.541 E0.02669
G1 X176.942 Y164.026 E0.02669
G1 X177.411 Y164.439 E0.02669
G1 X177.943 Y164.766 E0.02669
G1 X178.522 Y164.999 E0.02669
G1 X179.132 Y165.131 E0.02669
G1 X179.756 Y165.157 E0.02669
G1 X180.376 Y165.078 E0.02669
G1 X180.972 Y164.895 E0.02669
G1 X181.530 Y164.614 E0.02669
G1 X182.032 Y164.243 E0.02669
G1 X182.464 Y163.792 E0.02669
G1 X182.814 Y163.275 E0.02669
G1 X183.071 Y162.706 E0.02669
G1 X183.228 Y162.102 E0.02669
G1 X183.281 Y161.479 E0.02669
G1 X183.228 Y160.857 E0.02669
G1 X183.071 Y160.253 E0.02669
G1 X182.814 Y159.684 E0.02669
G1 X182.464 Y159.167 E0.02669
G1 X182.032 Y158.716 E0.02669
G1 X181.530 Y158.345 E0.02669
G1 X180.972 Y158.064 E0.02669
G1 X180.376 Y157.881 E0.02669
G1 X179.756 Y157.802 E0.02669
G1 X179.132 Y157.828 E0.02669
G1 X178.522 Y157.960 E0.02669
G1 X177.943 Y158.193 E0.02669
G1 X177.411 Y158.520 E0.02669
G1 X177.023 Y158.862 E0.02212
G1 X177.306 Y159.183 F9000.000
G1 F600.000
G1 X177.253 Y159.230 E0.00302
G1 X176.907 Y159.659 E0.02357
G1 X176.638 Y160.140 E0.02358
G1 X176.454 Y160.660 E0.02358
G1 X176.361 Y161.204 E0.02358
G1 X176.361 Y161.755 E0.02358
G1 X176.454 Y162.299 E0.02358
G1 X176.638 Y162.819 E0.02357
G1 X176.907 Y163.300 E0.02358
G1 X177.253 Y163.729 E0.02357
G1 X177.667 Y164.093 E0.02358
G1 X178.136 Y164.382 E0.02358
G1 X178.648 Y164.588 E0.02358
G1 X179.187 Y164.704 E0.02358
G1 X179.738 Y164.727 E0.02358
G1 X180.285 Y164.657 E0.02358
G1 X180.812 Y164.496 E0.02357
G1 X181.304 Y164.248 E0.02358
G1 X181.748 Y163.920 E0.02358
G1 X182.129 Y163.522 E0.02358
G1 X182.438 Y163.065 E0.02358
G1 X182.665 Y162.562 E0.02358
G1 X182.804 Y162.029 E0.02358
G1 X182.851 Y161.479 E0.02357
G1 X182.804 Y160.930 E0.02358
G1 X182.665 Y160.396 E0.02358
G1 X182.438 Y159.894 E0.02358
G1 X182.129 Y159.437 E0.02358
G1 X181.748 Y159.039 E0.02358
G1 X181.304 Y158.711 E0.02358
G1 X180.812 Y158.463 E0.02358
G1 X180.285 Y158.301 E0.02357
G1 X179.738 Y158.231 E0.02358
G1 X179.187 Y158.255 E0.02358
G1 X178.648 Y158.371 E0.02358
G1 X178.136 Y158.577 E0.02358
G1 X177.667 Y158.866 E0.02358
G1 X177.351 Y159.144 E0.01799
G1 X177.634 Y159.465 F9000.000
G1 F600.000
G1 X177.563 Y159.528 E0.00402
G1 X177.263 Y159.900 E0.02046
G1 X177.030 Y160.318 E0.02046
G1 X176.870 Y160.769 E0.02046
G1 X176.789 Y161.240 E0.02046
G1 X176.789 Y161.719 E0.02046
G1 X176.870 Y162.190 E0.02046
G1 X177.030 Y162.641 E0.02046
G1 X177.263 Y163.059 E0.02046
G1 X177.563 Y163.431 E0.02046
G1 X177.923 Y163.747 E0.02046
G1 X178.330 Y163.998 E0.02046
G1 X178.774 Y164.177 E0.02046
G1 X179.242 Y164.278 E0.02046
G1 X179.720 Y164.298 E0.02046
G1 X180.194 Y164.237 E0.02046
G1 X180.652 Y164.097 E0.02046
G1 X181.079 Y163.882 E0.02046
G1 X181.464 Y163.597 E0.02046
G1 X181.795 Y163.252 E0.02046
G1 X182.063 Y162.855 E0.02046
G1 X182.260 Y162.419 E0.02046
G1 X182.380 Y161.956 E0.02046
G1 X182.421 Y161.479 E0.02046
G1 X182.380 Y161.003 E0.02046
G1 X182.260 Y160.540 E0.02046
G1 X182.063 Y160.104 E0.02046
G1 X181.795 Y159.707 E0.02046
G1 X181.464 Y159.362 E0.02046
G1 X181.079 Y159.077 E0.02046
G1 X180.652 Y158.862 E0.02046
G1 X180.194 Y158.722 E0.02046
G1 X179.720 Y158.661 E0.02046
G1 X179.242 Y158.681 E0.02046
G1 X178.774 Y158.782 E0.02046
G1 X178.330 Y158.961 E0.02046
G1 X177.923 Y159.211 E0.02046
G1 X177.679 Y159.426 E0.01387
G1 X177.962 Y159.747 F9000.000
;TYPE:External perimeter
G1 F600.000
G1 X177.874 Y159.825 E0.00503
G1 X177.619 Y160.141 E0.01734
G1 X177.421 Y160.495 E0.01734
G1 X177.286 Y160.877 E0.01734
G1 X177.218 Y161.277 E0.01734
G1 X177.218 Y161.682 E0.01734
G1 X177.286 Y162.082 E0.01734
G1 X177.421 Y162.464 E0.01734
G1 X177.619 Y162.818 E0.01734
G1 X177.874 Y163.134 E0.01734
G1 X178.178 Y163.402 E0.01734
G1 X178.524 Y163.614 E0.01734
G1 X178.900 Y163.766 E0.01734
G1 X179.296 Y163.851 E0.01734
G1 X179.701 Y163.868 E0.01734
G1 X180.104 Y163.817 E0.01734
G1 X180.491 Y163.698 E0.01734
G1 X180.854 Y163.515 E0.01734
G1 X181.180 Y163.274 E0.01734
G1 X181.460 Y162.981 E0.01734
G1 X181.687 Y162.645 E0.01734
G1 X181.854 Y162.276 E0.01734
G1 X181.956 Y161.884 E0.01734
G1 X181.991 Y161.479 E0.01734
G1 X181.956 Y161.075 E0.01734
G1 X181.854 Y160.683 E0.01734
G1 X181.687 Y160.313 E0.01734
G1 X181.460 Y159.977 E0.01734
G1 X181.180 Y159.685 E0.01734
G1 X180.854 Y159.444 E0.01734
G1 X180.491 Y159.261 E0.01734
G1 X180.104 Y159.142 E0.01734
G1 X179.701 Y159.091 E0.01734
G1 X179.296 Y159.108 E0.01734
G1 X178.900 Y159.193 E0.01734
G1 X178.524 Y159.345 E0.01734
G1 X178.178 Y159.557 E0.01734
G1 X178.007 Y159.708 E0.00974
G1 X177.851 Y159.710 F9000.000
G1 E-1.00000 F3000.000
G1 X174.076 Y160.712 F9000.000
G1 E1.00000 F1800.000
;TYPE:Internal perimeter
G1 F600.000
G1 X173.882 Y159.967 E0.03293
G1 X173.564 Y159.265 E0.03293
G1 X173.133 Y158.627 E0.03293
G1 X172.600 Y158.071 E0.03293
G1 X171.981 Y157.613 E0.03293
G1 X171.293 Y157.266 E0.03293
G1 X170.557 Y157.040 E0.03293
G1 X169.793 Y156.942 E0.03293
G1 X169.023 Y156.975 E0.03293
G1 X168.270 Y157.137 E0.03293
G1 X167.556 Y157.425 E0.03293
G1 X166.900 Y157.828 E0.03293
G1 X166.322 Y158.337 E0.03293
G1 X165.838 Y158.937 E0.03293
G1 X165.462 Y159.609 E0.03293
G1 X165.205 Y160.335 E0.03293
G1 X165.075 Y161.094 E0.03293
G1 X165.075 Y161.865 E0.03293
G1 X165.205 Y162.624 E0.03293
G1 X165.462 Y163.350 E0.03293
G1 X165.838 Y164.022 E0.03293
G1 X166.322 Y164.622 E0.03293
G1 X166.900 Y165.130 E0.03293
G1 X167.556 Y165.534 E0.03293
G1 X168.270 Y165.821 E0.03293
G1 X169.023 Y165.984 E0.03293
G1 X169.793 Y166.016 E0.03293
G1 X170.557 Y165.919 E0.03293
G1 X171.293 Y165.693 E0.03293
G1 X171.981 Y165.346 E0.03293
G1 X172.600 Y164.888 E0.03293
G1 X173.133 Y164.332 E0.03293
G1 X173.564 Y163.694 E0.03293
G1 X173.882 Y162.992 E0.03293
G1 X174.076 Y162.247 E0.03293
G1 X174.141 Y161.479 E0.03293
G1 X174.081 Y160.772 E0.03037
G1 X173.654 Y160.808 F9000.000
G1 F600.000
G1 X173.652 Y160.785 E0.00101
G1 X173.476 Y160.110 E0.02981
G1 X173.189 Y159.475 E0.02981
G1 X172.799 Y158.897 E0.02981
G1 X172.316 Y158.393 E0.02981
G1 X171.755 Y157.979 E0.02981
G1 X171.133 Y157.665 E0.02981
G1 X170.466 Y157.461 E0.02981
G1 X169.775 Y157.372 E0.02981
G1 X169.078 Y157.402 E0.02981
G1 X168.396 Y157.549 E0.02981
G1 X167.749 Y157.809 E0.02981
G1 X167.155 Y158.174 E0.02981
G1 X166.632 Y158.635 E0.02981
G1 X166.194 Y159.177 E0.02981
G1 X165.854 Y159.786 E0.02981
G1 X165.622 Y160.444 E0.02981
G1 X165.504 Y161.131 E0.02981
G1 X165.504 Y161.828 E0.02981
G1 X165.622 Y162.515 E0.02981
G1 X165.854 Y163.173 E0.02981
G1 X166.194 Y163.782 E0.02981
G1 X166.632 Y164.324 E0.02981
G1 X167.155 Y164.785 E0.02981
G1 X167.749 Y165.150 E0.02981
G1 X168.396 Y165.410 E0.02981
G1 X169.078 Y165.557 E0.02981
G1 X169.775 Y165.587 E0.02981
G1 X170.466 Y165.498 E0.02981
G1 X171.133 Y165.294 E0.02981
G1 X171.755 Y164.980 E0.02981
G1 X172.316 Y164.565 E0.02981
G1 X172.799 Y164.062 E0.02981
G1 X173.189 Y163.484 E0.02981
G1 X173.476 Y162.849 E0.02981
G1 X173.652 Y162.174 E0.02981
G1 X173.711 Y161.479 E0.02981
G1 X173.659 Y160.868 E0.02624
G1 X173.232 Y160.904 F9000.000
G1 F600.000
G1 X173.228 Y160.857 E0.00201
G1 X173.071 Y160.253 E0.02669
G1 X172.814 Y159.684 E0.02669
G1 X172.464 Y159.167 E0.02669
G1 X172.032 Y158.716 E0.02669
G1 X171.530 Y158.345 E0.02669
G1 X170.972 Y158.064 E0.02669
G1 X170.376 Y157.881 E0.02669
G1 X169.756 Y157.802 E0.02669
G1 X169.132 Y157.828 E0.02669
G1 X168.522 Y157.960 E0.02669
G1 X167.943 Y158.193 E0.02669
G1 X167.411 Y158.520 E0.02669
G1 X166.942 Y158.932 E0.02670
G1 X166.550 Y159.418 E0.02669
G1 X166.246 Y159.963 E0.02669
G1 X166.038 Y160.552 E0.02669
G1 X165.932 Y161.167 E0.02669
G1 X165.932 Y161.792 E0.02669
G1 X166.038 Y162.407 E0.02669
G1 X166.246 Y162.996 E0.02669
G1 X166.550 Y163.541 E0.02669
G1 X166.942 Y164.026 E0.02669
G1 X167.411 Y164.439 E0.02669
G1 X167.943 Y164.766 E0.02669
G1 X168.522 Y164.999 E0.02669
G1 X169.132 Y165.131 E0.02669
G1 X169.756 Y165.157 E0.02669
G1 X170.376 Y165.078 E0.02669
G1 X170.972 Y164.895 E0.02669
G1 X171.530 Y164.614 E0.02669
G1 X172.032 Y164.243 E0.02669
G1 X172.464 Y163.792 E0.02669
G1 X172.814 Y163.275 E0.02669
G1 X173.071 Y162.706 E0.02669
G1 X173.228 Y162.102 E0.02669
G1 X173.281 Y161.479 E0.02669
G1 X173.237 Y160.964 E0.02212
G1 X172.810 Y161.000 F9000.000
G1 F600.000
G1 X172.804 Y160.930 E0.00302
G1 X172.665 Y160.396 E0.02358
G1 X172.438 Y159.894 E0.02358
G1 X172.129 Y159.437 E0.02358
G1 X171.748 Y159.039 E0.02358
G1 X171.304 Y158.711 E0.02358
G1 X170.812 Y158.463 E0.02358
G1 X170.285 Y158.301 E0.02357
G1 X169.738 Y158.231 E0.02358
G1 X169.187 Y158.255 E0.02358
G1 X168.648 Y158.371 E0.02358
G1 X168.136 Y158.577 E0.02358
G1 X167.667 Y158.866 E0.02358
G1 X167.253 Y159.230 E0.02358
G1 X166.907 Y159.659 E0.02357
G1 X166.638 Y160.140 E0.02357
G1 X166.454 Y160.660 E0.02358
G1 X166.361 Y161.204 E0.02358
G1 X166.361 Y161.755 E0.02358
G1 X166.454 Y162.299 E0.02358
G1 X166.638 Y162.819 E0.02358
G1 X166.907 Y163.300 E0.02357
G1 X167.253 Y163.729 E0.02358
G1 X167.667 Y164.093 E0.02358
G1 X168.136 Y164.382 E0.02358
G1 X168.648 Y164.588 E0.02357
G1 X169.187 Y164.704 E0.02358
G1 X169.738 Y164.727 E0.02358
G1 X170.285 Y164.657 E0.02358
G1 X170.812 Y164.496 E0.02357
G1 X171.304 Y164.248 E0.02358
G1 X171.748 Y163.920 E0.02358
G1 X172.129 Y163.522 E0.02358
G1 X172.438 Y163.065 E0.02358
G1 X172.665 Y162.562 E0.02358
G1 X172.804 Y162.029 E0.02358
G1 X172.851 Y161.479 E0.02357
G1 X172.815 Y161.060 E0.01799
G1 X172.388 Y161.097 F9000.000
G1 F600.000
G1 X172.380 Y161.003 E0.00402
G1 X172.260 Y160.540 E0.02046
G1 X172.063 Y160.104 E0.02046
G1 X171.795 Y159.707 E0.02046
G1 X171.464 Y159.362 E0.02046
G1 X171.079 Y159.077 E0.02046
G1 X170.652 Y158.862 E0.02046
G1 X170.194 Y158.722 E0.02046
G1 X169.720 Y158.661 E0.02046
G1 X169.242 Y158.681 E0.02046
G1 X168.774 Y158.782 E0.02046
G1 X168.330 Y158.961 E0.02046
G1 X167.923 Y159.211 E0.02046
G1 X167.563 Y159.528 E0.02046
G1 X167.263 Y159.900 E0.02046
G1 X167.030 Y160.318 E0.02046
G1 X166.870 Y160.769 E0.02046
G1 X166.789 Y161.240 E0.02046
G1 X166.789 Y161.719 E0.02046
G1 X166.870 Y162.190 E0.02046
G1 X167.030 Y162.641 E0.02046
G1 X167.263 Y163.059 E0.02046
G1 X167.563 Y163.431 E0.02046
G1 X167.923 Y163.747 E0.02046
G1 X168.330 Y163.998 E0.02046
G1 X168.774 Y164.177 E0.02046
G1 X169.242 Y164.278 E0.02046
G1 X169.720 Y164.298 E0.02046
G1 X170.194 Y164.237 E0.02046
G1 X170.652 Y164.097 E0.02046
G1 X171.079 Y163.882 E0.02046
G1 X171.464 Y163.597 E0.02046
G1 X171.795 Y163.252 E0.02046
G1 X172.063 Y162.855 E0.02046
