; generated by SuperSlicer 2.3.56 on 2021-06-25 at 22:57:05 UTC


;
;

;
;
; 

; external perimeters extrusion width = 0.40mm
; perimeters extrusion width = 0.40mm
; infill extrusion width = 0.40mm
; solid infill extrusion width = 0.40mm
; top infill extrusion width = 0.40mm
; first layer extrusion width = 0.48mm


;TYPE:Custom
START_PRINT T_BED=110 T_EXTRUDER=235
M107
G21 ; set units to millimeters
G90 ; use absolute coordinates
M83 ; use relative distances for extrusion
M104 S235 ; set temperature
M109 S235 ; set temperature and wait for it to be reached
M190 S110 ; set bed temperature and wait for it to be reached
M107
;LAYER_CHANGE
;Z:0.24
;HEIGHT:0.24
G1 Z0.240000 F9000.000
TIMELAPSE_TAKE_FRAME
G1 E-1.00000 F3000.000
G1 X141.200 Y146.639 F9000.000
G1 E1.00000 F1800.000
;TYPE:Skirt
;WIDTH:0.48
G1 F600.000
G1 X154.394 Y133.935 E0.78310
G1 X155.276 Y133.327 E0.04582
G1 X155.989 Y133.075 E0.03233
G1 X156.725 Y132.987 E0.03166
G1 X189.444 Y132.987 E1.39892
G1 X190.063 Y133.055 E0.02663
G1 X190.619 Y133.235 E0.02499
G1 X191.116 Y133.521 E0.02451
G1 X191.539 Y133.908 E0.02451
G1 X193.840 Y137.107 E0.16852
G1 X194.122 Y137.737 E0.02950
G1 X194.231 Y138.417 E0.02945
G1 X194.222 Y173.243 E1.48901
G1 X194.005 Y174.079 E0.03692
G1 X193.470 Y174.939 E0.04330
G1 X191.439 Y177.202 E0.13000
G1 X190.722 Y177.717 E0.03777
G1 X190.116 Y177.933 E0.02750
G1 X189.450 Y178.013 E0.02864
G1 X156.734 Y178.013 E1.39880
G1 X155.675 Y177.836 E0.04590
G1 X155.013 Y177.531 E0.03116
G1 X154.439 Y177.108 E0.03050
G1 X136.146 Y160.430 E1.05839
G1 X135.753 Y160.005 E0.02474
G1 X135.401 Y159.443 E0.02837
G1 X135.152 Y158.771 E0.03063
G1 X135.053 Y158.110 E0.02860
G1 X135.050 Y153.821 E0.18337
G1 X135.245 Y152.811 E0.04397
G1 X135.758 Y151.879 E0.04548
G1 X141.157 Y146.681 E0.32043
G1 X141.450 Y146.985 F9000.000
G1 F600.000
G1 X154.690 Y134.245 E0.78560
G1 X155.480 Y133.704 E0.04094
G1 X156.094 Y133.490 E0.02777
G1 X156.731 Y133.416 E0.02744
G1 X189.443 Y133.416 E1.39863
G1 X189.974 Y133.474 E0.02283
G1 X190.451 Y133.629 E0.02141
G1 X190.869 Y133.872 E0.02071
G1 X191.228 Y134.203 E0.02086
G1 X193.463 Y137.312 E0.16372
G1 X193.710 Y137.855 E0.02549
G1 X193.803 Y138.441 E0.02539
G1 X193.796 Y173.194 E1.48589
G1 X193.608 Y173.917 E0.03191
G1 X193.126 Y174.684 E0.03875
G1 X191.140 Y176.894 E0.12705
G1 X190.519 Y177.339 E0.03269
G1 X190.008 Y177.518 E0.02313
G1 X189.444 Y177.584 E0.02429
G1 X156.739 Y177.584 E1.39831
G1 X155.809 Y177.429 E0.04032
G1 X155.230 Y177.162 E0.02727
G1 X154.727 Y176.790 E0.02671
G1 X136.439 Y160.118 E1.05811
G1 X136.091 Y159.742 E0.02188
G1 X135.778 Y159.240 E0.02530
G1 X135.563 Y158.651 E0.02680
G1 X135.479 Y158.066 E0.02524
G1 X135.478 Y153.842 E0.18061
G1 X135.649 Y152.955 E0.03864
G1 X136.109 Y152.125 E0.04055
G1 X141.407 Y147.027 E0.31436
G1 E-1.00000 F3000.000
G1 X169.734 Y155.179 F9000.000
G1 E1.00000 F1800.000
;TYPE:Internal perimeter
G1 F600.000
G1 X180.871 Y155.179 E0.47616
G1 X181.294 Y155.166 E0.01812
G1 X181.747 Y155.123 E0.01943
G1 X182.196 Y155.052 E0.01943
G1 X182.639 Y154.953 E0.01943
G1 X183.076 Y154.826 E0.01943
G1 X183.503 Y154.672 E0.01943
G1 X183.920 Y154.492 E0.01943
G1 X184.325 Y154.285 E0.01943
G1 X184.717 Y154.054 E0.01943
G1 X185.093 Y153.798 E0.01943
G1 X185.452 Y153.520 E0.01943
G1 X185.793 Y153.219 E0.01943
G1 X186.114 Y152.898 E0.01943
G1 X186.415 Y152.557 E0.01943
G1 X186.693 Y152.198 E0.01943
G1 X186.949 Y151.822 E0.01943
G1 X187.180 Y151.431 E0.01943
G1 X187.294 Y151.208 E0.01071
G1 X187.606 Y151.282 E0.01372
G1 X187.606 Y158.141 E0.29324
G1 X186.984 Y157.520 E0.03757
G1 X186.781 Y157.361 E0.01103
G1 X186.652 Y157.264 E0.00688
G1 X186.432 Y157.131 E0.01103
G1 X186.290 Y157.054 E0.00688
G1 X186.055 Y156.948 E0.01103
G1 X185.905 Y156.891 E0.00688
G1 X185.658 Y156.815 E0.01103
G1 X185.501 Y156.781 E0.00688
G1 X185.247 Y156.734 E0.01103
G1 X185.087 Y156.723 E0.00688
G1 X184.899 Y156.711 E0.00804
G1 X169.734 Y156.711 E0.64839
G1 X169.734 Y155.239 E0.06294
G1 X169.305 Y154.751 F9000.000
G1 F600.000
G1 X180.864 Y154.751 E0.49419
G1 X181.267 Y154.738 E0.01726
G1 X181.693 Y154.698 E0.01828
G1 X182.115 Y154.631 E0.01828
G1 X182.533 Y154.538 E0.01828
G1 X182.943 Y154.418 E0.01828
G1 X183.346 Y154.273 E0.01828
G1 X183.738 Y154.104 E0.01828
G1 X184.119 Y153.910 E0.01828
G1 X184.487 Y153.692 E0.01828
G1 X184.841 Y153.452 E0.01828
G1 X185.178 Y153.189 E0.01828
G1 X185.499 Y152.907 E0.01828
G1 X185.802 Y152.604 E0.01828
G1 X186.084 Y152.284 E0.01828
G1 X186.346 Y151.946 E0.01828
G1 X186.587 Y151.592 E0.01828
G1 X186.804 Y151.224 E0.01828
G1 X186.998 Y150.843 E0.01828
G1 X187.168 Y150.451 E0.01828
G1 X187.313 Y150.048 E0.01828
G1 X187.432 Y149.638 E0.01828
G1 X187.526 Y149.221 E0.01828
G1 X187.593 Y148.798 E0.01828
G1 X187.646 Y148.229 E0.02444
G1 X188.034 Y148.247 E0.01660
G1 X188.034 Y159.806 E0.49418
G1 X187.642 Y159.820 E0.01679
G1 X187.625 Y159.592 E0.00976
G1 X187.584 Y159.368 E0.00972
G1 X187.556 Y159.236 E0.00577
G1 X187.488 Y159.019 E0.00972
G1 X187.441 Y158.893 E0.00577
G1 X187.348 Y158.686 E0.00972
G1 X187.283 Y158.567 E0.00577
G1 X187.165 Y158.373 E0.00972
G1 X187.084 Y158.264 E0.00577
G1 X186.944 Y158.085 E0.00972
G1 X186.700 Y157.841 E0.01478
G1 X186.521 Y157.701 E0.00972
G1 X186.413 Y157.620 E0.00577
G1 X186.218 Y157.502 E0.00972
G1 X186.100 Y157.438 E0.00577
G1 X185.892 Y157.344 E0.00972
G1 X185.766 Y157.297 E0.00577
G1 X185.549 Y157.229 E0.00972
G1 X185.417 Y157.201 E0.00577
G1 X185.193 Y157.160 E0.00972
G1 X185.059 Y157.150 E0.00577
G1 X184.886 Y157.140 E0.00739
G1 X169.305 Y157.140 E0.66616
G1 X169.305 Y154.811 E0.09958
G1 E-1.00000 F3000.000
G1 X188.365 Y140.786 F9000.000
G1 E1.00000 F1800.000
G1 F600.000
G1 X188.365 Y139.714 E0.04583
G1 X190.064 Y139.713 E0.07263
G1 X190.064 Y140.787 E0.04590
G1 X188.425 Y140.786 E0.07007
G1 E-1.00000 F3000.000
G1 X188.439 Y170.714 F9000.000
G1 E1.00000 F1800.000
G1 F600.000
G1 X190.064 Y170.713 E0.06951
G1 X190.064 Y171.787 E0.04590
G1 X188.365 Y171.786 E0.07263
G1 X188.365 Y170.714 E0.04583
G1 X188.379 Y170.714 E0.00056
G1 X188.463 Y170.285 F9000.000
G1 F600.000
G1 X190.180 Y170.285 E0.07343
G1 X190.493 Y170.285 E0.01337
G1 X190.493 Y172.215 E0.08248
G1 X190.180 Y172.215 E0.01337
G1 X188.463 Y172.215 E0.07343
G1 X188.463 Y174.273 E0.08801
G1 X187.937 Y174.273 E0.02248
G1 X187.937 Y168.099 E0.26395
G1 X187.217 Y168.095 E0.03078
G1 X187.217 Y159.912 E0.34988
G1 X187.207 Y159.755 E0.00673
G1 X187.200 Y159.646 E0.00467
G1 X187.164 Y159.452 E0.00841
G1 X187.141 Y159.346 E0.00467
G1 X187.083 Y159.158 E0.00841
G1 X187.044 Y159.056 E0.00466
G1 X186.964 Y158.876 E0.00841
G1 X186.911 Y158.781 E0.00467
G1 X186.810 Y158.612 E0.00841
G1 X186.744 Y158.525 E0.00466
G1 X186.623 Y158.370 E0.00841
G1 X186.415 Y158.162 E0.01256
G1 X186.260 Y158.041 E0.00841
G1 X186.173 Y157.976 E0.00466
G1 X186.004 Y157.874 E0.00841
G1 X185.909 Y157.822 E0.00467
G1 X185.729 Y157.741 E0.00841
G1 X185.627 Y157.703 E0.00466
G1 X185.439 Y157.644 E0.00841
G1 X185.333 Y157.621 E0.00467
G1 X185.139 Y157.585 E0.00841
G1 X185.030 Y157.578 E0.00467
G1 X184.873 Y157.568 E0.00673
G1 X168.877 Y157.568 E0.68392
G1 X168.877 Y154.322 E0.13878
G1 X180.857 Y154.322 E0.51222
G1 X181.240 Y154.310 E0.01639
G1 X181.639 Y154.272 E0.01713
G1 X182.035 Y154.210 E0.01713
G1 X182.426 Y154.122 E0.01713
G1 X182.811 Y154.011 E0.01713
G1 X183.188 Y153.875 E0.01713
G1 X183.555 Y153.716 E0.01713
G1 X183.912 Y153.534 E0.01713
G1 X184.257 Y153.330 E0.01713
G1 X184.589 Y153.105 E0.01713
G1 X184.905 Y152.859 E0.01713
G1 X185.206 Y152.594 E0.01713
G1 X185.489 Y152.311 E0.01713
G1 X185.754 Y152.010 E0.01713
G1 X186.000 Y151.694 E0.01713
G1 X186.225 Y151.362 E0.01713
G1 X186.429 Y151.018 E0.01713
G1 X186.611 Y150.661 E0.01713
G1 X186.770 Y150.293 E0.01713
G1 X186.905 Y149.916 E0.01713
G1 X187.017 Y149.531 E0.01713
G1 X187.105 Y149.140 E0.01713
G1 X187.167 Y148.744 E0.01713
G1 X187.205 Y148.346 E0.01713
G1 X187.217 Y147.962 E0.01639
G1 X187.217 Y143.405 E0.19487
G1 X187.937 Y143.401 E0.03078
G1 X187.937 Y136.727 E0.28533
G1 X188.463 Y136.727 E0.02248
G1 X188.463 Y139.285 E0.10939
G1 X190.180 Y139.285 E0.07343
G1 X190.493 Y139.285 E0.01337
G1 X190.493 Y141.215 E0.08248
G1 X190.180 Y141.215 E0.01337
G1 X188.463 Y141.215 E0.07343
G1 X188.463 Y170.225 E1.24038
G1 X188.891 Y169.857 F9000.000
G1 F600.000
G1 X190.181 Y169.856 E0.05512
G1 X190.921 Y169.858 E0.03167
G1 X190.921 Y172.642 E0.11905
G1 X190.181 Y172.644 E0.03167
G1 X188.891 Y172.643 E0.05512
G1 X188.891 Y174.702 E0.08800
G1 X186.788 Y174.702 E0.08990
G1 X186.788 Y173.979 E0.03091
G1 X187.508 Y173.974 E0.03078
G1 X187.508 Y168.526 E0.23297
G1 X186.788 Y168.521 E0.03078
G1 X186.788 Y159.925 E0.36755
G1 X186.780 Y159.783 E0.00608
G1 X186.774 Y159.700 E0.00356
G1 X186.744 Y159.537 E0.00710
G1 X186.726 Y159.455 E0.00356
G1 X186.677 Y159.297 E0.00710
G1 X186.648 Y159.219 E0.00356
G1 X186.580 Y159.067 E0.00710
G1 X186.540 Y158.994 E0.00356
G1 X186.454 Y158.852 E0.00710
G1 X186.404 Y158.786 E0.00356
G1 X186.302 Y158.655 E0.00710
G1 X186.130 Y158.484 E0.01035
G1 X186.000 Y158.381 E0.00710
G1 X185.933 Y158.331 E0.00356
G1 X185.791 Y158.245 E0.00710
G1 X185.718 Y158.205 E0.00356
G1 X185.566 Y158.137 E0.00710
G1 X185.488 Y158.108 E0.00356
G1 X185.330 Y158.059 E0.00710
G1 X185.249 Y158.041 E0.00356
G1 X185.085 Y158.011 E0.00710
G1 X185.002 Y158.005 E0.00356
G1 X184.860 Y157.997 E0.00608
G1 X168.448 Y157.997 E0.70169
G1 X168.448 Y153.894 E0.17543
G1 X180.850 Y153.894 E0.53025
G1 X181.214 Y153.882 E0.01553
G1 X181.586 Y153.847 E0.01598
G1 X181.955 Y153.789 E0.01598
G1 X182.319 Y153.707 E0.01598
G1 X182.678 Y153.603 E0.01598
G1 X183.030 Y153.476 E0.01598
G1 X183.373 Y153.328 E0.01598
G1 X183.706 Y153.158 E0.01598
G1 X184.028 Y152.968 E0.01598
G1 X184.337 Y152.758 E0.01598
G1 X184.632 Y152.529 E0.01598
G1 X184.912 Y152.282 E0.01598
G1 X185.177 Y152.017 E0.01598
G1 X185.424 Y151.737 E0.01598
G1 X185.653 Y151.442 E0.01598
G1 X185.863 Y151.133 E0.01598
G1 X186.053 Y150.811 E0.01598
G1 X186.223 Y150.478 E0.01598
G1 X186.371 Y150.135 E0.01598
G1 X186.498 Y149.783 E0.01598
G1 X186.602 Y149.425 E0.01598
G1 X186.683 Y149.060 E0.01598
G1 X186.742 Y148.691 E0.01598
G1 X186.777 Y148.319 E0.01598
G1 X186.788 Y147.956 E0.01553
G1 X186.788 Y142.979 E0.21280
G1 X187.508 Y142.974 E0.03078
G1 X187.508 Y137.526 E0.23297
G1 X186.788 Y137.521 E0.03078
G1 X186.788 Y136.298 E0.05229
G1 X188.891 Y136.298 E0.08990
G1 X188.891 Y138.857 E0.10938
G1 X190.181 Y138.856 E0.05512
G1 X190.921 Y138.858 E0.03167
G1 X190.921 Y141.642 E0.11905
G1 X190.181 Y141.644 E0.03167
G1 X188.891 Y141.643 E0.05512
G1 X188.891 Y169.797 E1.20372
G1 X189.320 Y169.428 F9000.000
;TYPE:External perimeter
G1 F600.000
G1 X190.181 Y169.428 E0.03682
G1 X191.262 Y169.430 E0.04622
G1 X191.350 Y169.560 E0.00672
G1 X191.350 Y172.940 E0.14448
G1 X191.262 Y173.070 E0.00672
G1 X190.181 Y173.072 E0.04622
G1 X189.320 Y173.072 E0.03682
G1 X189.320 Y175.130 E0.08800
G1 X186.847 Y175.130 E0.10573
G1 X186.782 Y175.126 E0.00279
G1 X186.737 Y175.118 E0.00196
G1 X186.675 Y175.100 E0.00275
G1 X186.631 Y175.082 E0.00203
G1 X186.621 Y175.077 E0.00049
G1 X186.569 Y175.049 E0.00254
G1 X186.524 Y175.019 E0.00231
G1 X186.465 Y174.971 E0.00322
G1 X186.420 Y174.927 E0.00271
G1 X186.409 Y174.916 E0.00064
G1 X186.378 Y174.881 E0.00203
G1 X186.360 Y174.858 E0.00123
G1 X186.360 Y173.552 E0.05584
G1 X186.390 Y173.552 E0.00126
G1 X187.080 Y173.548 E0.02952
G1 X187.080 Y168.952 E0.19654
G1 X186.390 Y168.948 E0.02952
G1 X186.360 Y168.948 E0.00126
G1 X186.360 Y159.938 E0.38522
G1 X186.352 Y159.811 E0.00543
G1 X186.348 Y159.754 E0.00245
G1 X186.324 Y159.621 E0.00579
G1 X186.312 Y159.565 E0.00245
G1 X186.271 Y159.435 E0.00579
G1 X186.251 Y159.382 E0.00245
G1 X186.196 Y159.258 E0.00579
G1 X186.168 Y159.208 E0.00245
G1 X186.098 Y159.092 E0.00579
G1 X186.064 Y159.046 E0.00245
G1 X185.980 Y158.939 E0.00579
G1 X185.846 Y158.805 E0.00813
G1 X185.739 Y158.721 E0.00579
G1 X185.693 Y158.687 E0.00245
G1 X185.577 Y158.617 E0.00579
G1 X185.527 Y158.589 E0.00245
G1 X185.403 Y158.534 E0.00579
G1 X185.350 Y158.514 E0.00245
G1 X185.220 Y158.474 E0.00579
G1 X185.164 Y158.461 E0.00245
G1 X185.031 Y158.437 E0.00579
G1 X184.974 Y158.433 E0.00245
G1 X184.847 Y158.425 E0.00543
G1 X168.509 Y158.425 E0.69857
G1 X168.476 Y158.423 E0.00138
G1 X168.420 Y158.418 E0.00240
G1 X168.399 Y158.413 E0.00093
G1 X168.345 Y158.399 E0.00240
G1 X168.325 Y158.391 E0.00093
G1 X168.255 Y158.357 E0.00333
G1 X168.209 Y158.325 E0.00240
G1 X168.191 Y158.312 E0.00093
G1 X168.133 Y158.254 E0.00349
G1 X168.088 Y158.191 E0.00333
G1 X168.078 Y158.171 E0.00093
G1 X168.054 Y158.121 E0.00240
G1 X168.046 Y158.100 E0.00093
G1 X168.032 Y158.046 E0.00240
G1 X168.027 Y158.025 E0.00093
G1 X168.022 Y157.969 E0.00240
G1 X168.020 Y157.937 E0.00138
G1 X168.020 Y153.954 E0.17029
G1 X168.022 Y153.922 E0.00138
G1 X168.027 Y153.866 E0.00240
G1 X168.032 Y153.844 E0.00093
G1 X168.046 Y153.790 E0.00240
G1 X168.054 Y153.770 E0.00093
G1 X168.088 Y153.700 E0.00333
G1 X168.120 Y153.654 E0.00240
G1 X168.133 Y153.636 E0.00093
G1 X168.191 Y153.579 E0.00349
G1 X168.209 Y153.565 E0.00093
G1 X168.255 Y153.533 E0.00240
G1 X168.274 Y153.523 E0.00093
G1 X168.325 Y153.499 E0.00240
G1 X168.345 Y153.492 E0.00093
G1 X168.420 Y153.472 E0.00333
G1 X168.476 Y153.467 E0.00240
G1 X168.509 Y153.465 E0.00138
G1 X180.844 Y153.465 E0.52740
G1 X181.187 Y153.454 E0.01467
G1 X181.532 Y153.422 E0.01483
G1 X181.874 Y153.368 E0.01483
G1 X182.213 Y153.292 E0.01483
G1 X182.546 Y153.195 E0.01483
G1 X182.872 Y153.078 E0.01483
G1 X183.190 Y152.940 E0.01483
G1 X183.499 Y152.782 E0.01483
G1 X183.798 Y152.606 E0.01483
G1 X184.085 Y152.411 E0.01483
G1 X184.359 Y152.199 E0.01483
G1 X184.619 Y151.969 E0.01483
G1 X184.864 Y151.724 E0.01483
G1 X185.093 Y151.464 E0.01483
G1 X185.306 Y151.190 E0.01483
G1 X185.501 Y150.903 E0.01483
G1 X185.677 Y150.605 E0.01483
G1 X185.835 Y150.296 E0.01483
G1 X185.972 Y149.977 E0.01483
G1 X186.090 Y149.651 E0.01483
G1 X186.187 Y149.318 E0.01483
G1 X186.262 Y148.980 E0.01483
G1 X186.317 Y148.637 E0.01483
G1 X186.349 Y148.292 E0.01483
G1 X186.360 Y147.949 E0.01467
G1 X186.360 Y142.552 E0.23074
G1 X186.390 Y142.552 E0.00126
G1 X187.080 Y142.548 E0.02952
G1 X187.080 Y137.952 E0.19654
G1 X186.390 Y137.948 E0.02952
G1 X186.360 Y137.948 E0.00126
G1 X186.360 Y136.142 E0.07722
G1 X186.378 Y136.119 E0.00123
G1 X186.409 Y136.084 E0.00203
G1 X186.420 Y136.073 E0.00064
G1 X186.465 Y136.029 E0.00271
G1 X186.524 Y135.981 E0.00322
G1 X186.569 Y135.951 E0.00231
G1 X186.631 Y135.918 E0.00302
G1 X186.675 Y135.900 E0.00203
G1 X186.737 Y135.882 E0.00275
G1 X186.792 Y135.873 E0.00241
G1 X186.847 Y135.870 E0.00234
G1 X189.320 Y135.870 E0.10573
G1 X189.320 Y138.428 E0.10937
G1 X190.181 Y138.428 E0.03682
G1 X191.262 Y138.430 E0.04622
G1 X191.350 Y138.560 E0.00672
G1 X191.350 Y141.940 E0.14448
G1 X191.262 Y142.070 E0.00672
G1 X190.181 Y142.072 E0.04622
G1 X189.320 Y142.072 E0.03682
G1 X189.320 Y169.368 E1.16706
G1 X189.320 Y169.828 F9000.000
G1 E-1.00000 F3000.000
G1 X188.200 Y170.517 F9000.000
G1 E1.00000 F1800.000
;TYPE:Gap fill
;WIDTH:0.183336
G1 F600.000
G1 X188.200 Y170.451 E0.00087
G1 X188.200 Y167.904 E0.03351
G1 X188.184 Y167.871 E0.00048
;WIDTH:0.226788
G1 X188.167 Y167.838 E0.00064
;WIDTH:0.270241
G1 X188.151 Y167.805 E0.00080
;WIDTH:0.313693
G1 X188.135 Y167.772 E0.00096
G1 X188.112 Y167.750 E0.00084
;WIDTH:0.411965
G1 X188.067 Y167.704 E0.00216
;WIDTH:0.510237
G1 X188.021 Y167.658 E0.00279
;WIDTH:0.60851
G1 X187.976 Y167.613 E0.00342
;WIDTH:0.706782
G1 X187.931 Y167.567 E0.00405
;WIDTH:0.805054
G1 X187.885 Y167.522 E0.00468
;WIDTH:0.888274
G1 X187.840 Y167.476 E0.00537
G1 X187.840 Y160.436 E0.58770
G1 X187.840 Y160.010 E0.03558
G1 E-1.00000 F3000.000
G1 X186.687 Y152.451 F9000.000
G1 E1.00000 F1800.000
;TYPE:Solid infill
;WIDTH:0.508846
G1 X187.263 Y153.027 E0.03695
G1 X187.263 Y153.633 E0.02747
G1 X186.551 Y152.921 E0.04566
G1 X186.364 Y153.133 E0.01279
G1 X186.260 Y153.237 E0.00666
G1 X187.263 Y154.239 E0.06428
G1 X187.263 Y154.845 E0.02747
G1 X185.953 Y153.535 E0.08399
G1 X185.670 Y153.784 E0.01706
G1 X185.628 Y153.817 E0.00241
